; LightBurn 0.9.24
; GRBL device profile, absolute coords
; Bounds: X1 Y1 to X34 Y32.01
G00 G17 G40 G21 G54
G90
M4
; Cut @ 6000 mm/min, 20% power
M8
G0X9.59Y6.87
; Layer C00
G1X9.66Y7.01S20F6000
G1X9.78Y7.15
G1X9.97Y7.32
G1X10.19Y7.49
G1X10.37Y7.59
G1X10.52Y7.63
G1X10.7Y7.66
G1X10.94Y7.73
G1X11.13Y7.85
G1X11.26Y8.04
G1X11.33Y8.27
G1X11.36Y8.41
G1X11.38Y8.48
G1Y8.52
G1X11.39Y8.59
G1Y8.68
G1Y8.79
G1X11.37Y8.89
G1X11.36Y8.97
G1X11.34Y9.02
G1X11.32Y9.05
G1X11.29
G1X11.26Y9.02
G1X11.23Y8.97
G1X11.2Y8.89
G1X11.12Y8.74
G1X11.02Y8.58
G1X10.91Y8.45
G1X10.83Y8.38
G1X10.77Y8.4
G1X10.68Y8.49
G1X10.59Y8.66
G1X10.48Y8.87
G1X10.39Y9.09
G1X10.3Y9.25
G1X10.23Y9.36
G1X10.18Y9.39
G1X10.16
G1X10.14
G1X10.13Y9.14
G1X10.11Y8.9
G1X10.06Y8.67
G1X9.99Y8.42
G1X9.89Y8.15
G1X9.76Y7.83
G1X9.68Y7.6
G1X9.64Y7.44
G1X9.61Y7.22
G1X9.58Y7.13
G1X9.56Y7.06
G1Y6.97
G1X9.59Y6.87
G0X11.79Y7.93
; Layer C00
G1X11.86Y7.88
G1X11.9
G1X11.92Y7.93
G1Y8.04
G1X11.94Y8.33
G1X12.04Y8.63
G1X12.23Y8.95
G1X12.41Y9.2
G1X12.47Y9.3
G1X12.45Y9.36
G1X12.38Y9.32
G1X12.23Y9.22
G1X12.05Y9.08
G1X11.9Y8.93
G1X11.78Y8.77
G1X11.69Y9.05
G1X11.65Y9.15
G1X11.61Y9.24
G1X11.58Y9.29
G1X11.55Y9.31
G1X11.5Y9.26
G1X11.47Y9.14
G1Y8.96
G1X11.51Y8.73
G1X11.57Y8.45
G1X11.64Y8.22
G1X11.71Y8.04
G1X11.79Y7.93
G0X10.79Y8.93
; Layer C00
G1X10.81Y8.94
G1X10.86Y8.98
G1X10.9Y9.05
G1X10.95Y9.17
G1X11.01Y9.32
G1X11.08Y9.51
G1X11.18Y9.85
G1X11.25Y10.21
G1X11.29Y10.56
G1X11.31Y10.91
G1X11.25Y11.3
G1X11.13Y11.7
G1X11.08Y11.81
G1X11.02Y11.99
G1X10.97Y12.15
G1X10.92Y12.24
G1X10.87Y12.29
G1X10.82Y12.39
G1X10.76Y12.54
G1X10.68Y12.77
G1X10.6Y12.98
G1X10.55Y13.15
G1X10.51Y13.31
G1X10.48Y13.45
G1X10.46Y13.71
G1X10.48Y14.01
G1X10.53Y14.36
G1X10.62Y14.67
G1X10.73Y14.96
G1X10.88Y15.22
G1X10.94Y15.32
G1X10.99Y15.41
G1X11.03Y15.47
G1Y15.49
G1X10.99Y15.48
G1X10.89Y15.43
G1X10.79Y15.34
G1X10.68Y15.19
G1X10.56Y14.99
G1X10.44Y14.74
G1X10.22Y14.15
G1X10.05Y13.52
G1X10Y13.2
G1X10.03Y12.86
G1X10.08Y12.55
G1X10.16Y12.27
G1X10.22Y12.12
G1X10.29Y11.96
G1X10.38Y11.77
G1X10.5Y11.56
G1X10.71Y11.13
G1X10.86Y10.75
G1X10.95Y10.4
G1X10.99Y10.06
G1Y9.8
G1X10.96Y9.54
G1X10.9Y9.31
G1X10.84Y9.15
G1X10.8Y9.07
G1X10.78Y8.99
G1Y8.95
G1X10.79Y8.93
G0X9.65Y9.34
; Layer C00
G1X9.75Y9.44
G1X9.78Y9.52
G1X9.74Y9.58
G1X9.68Y9.61
G1X9.59Y9.65
G1X9.48Y9.71
G1X9.32Y9.77
G1X9.05Y9.89
G1X8.81Y10
G1X8.59Y10.11
G1X8.41Y10.22
G1X8.25Y10.33
G1X8.12Y10.45
G1X8.01Y10.56
G1X7.93Y10.67
G1X7.86Y10.79
G1X7.83Y10.89
G1X7.81Y11.01
G1Y11.18
G1Y11.31
G1X7.83Y11.4
G1X7.84Y11.47
G1X7.86Y11.5
G1X7.89Y11.52
G1Y11.56
G1X7.93Y11.6
G1X7.99Y11.61
G1X8.07Y11.59
G1X8.12Y11.55
G1X8.14Y11.52
G1X8.16Y11.51
G1X8.18
G1X8.2Y11.54
G1X8.22Y11.56
G1X8.25
G1X8.29Y11.54
G1X8.43Y11.39
G1X8.51Y11.33
G1X8.55Y11.31
G1X8.57Y11.33
G1Y11.37
G1X8.58Y11.43
G1Y11.63
G1X8.57Y11.78
G1X8.53Y11.96
G1X8.47Y12.15
G1X8.39Y12.36
G1X8.2Y12.75
G1X7.96Y13.1
G1X7.89Y13.18
G1X7.84Y13.26
G1X7.8Y13.31
G1X7.76Y13.38
G1X7.71Y13.46
G1X7.62Y13.56
G1X7.51Y13.68
G1X7.28Y13.92
G1X7.07Y14.1
G1X6.78Y14.33
G1X6.55Y14.48
G1X6.32Y14.61
G1X6.05Y14.73
G1X5.64Y14.89
G1X5.27Y14.99
G1X5.12Y15.03
G1X5.01Y15.04
G1X4.93
G1X4.9Y15.01
G1X4.91Y14.99
G1X4.94Y14.97
G1X5Y14.94
G1X5.08Y14.9
G1X5.19Y14.85
G1X5.34Y14.78
G1X5.75Y14.6
G1X5.89Y14.52
G1X6.04Y14.43
G1X6.2Y14.3
G1X6.41Y14.1
G1X6.57Y13.95
G1X6.69Y13.82
G1X6.77Y13.73
G1X6.79Y13.69
G1Y13.64
G1X6.87Y13.53
G1X6.89Y13.46
G1Y13.39
G1X6.96Y13.29
G1X7Y13.19
G1X7.04Y13.03
G1X7.09Y12.81
G1X7.1Y12.75
G1X7.11Y12.65
G1X7.13Y12.36
G1Y12.06
G1X7.1Y11.76
G1X7.03Y11.46
G1X6.92Y11.18
G1X6.77Y10.89
G1X6.59Y10.61
G1X6.36Y10.32
G1X6.1Y10.04
G1X5.94Y9.89
G1X5.79Y9.77
G1X5.68Y9.66
G1X5.63Y9.55
G1Y9.49
G1Y9.44
G1X5.68Y9.38
G1X5.75Y9.3
G1X5.9Y9.17
G1X6.07Y9.05
G1X6.27Y8.95
G1X6.49Y8.85
G1X6.98Y8.71
G1X7.54Y8.62
G1X7.67
G1X7.83Y8.64
G1X8.03Y8.68
G1X8.23Y8.73
G1X8.44Y8.78
G1X8.64Y8.85
G1X8.81Y8.91
G1X9.03Y9.02
G1X9.11Y9.04
G1X9.25Y9.09
G1X9.45Y9.2
G1X9.65Y9.34
G0X14.56Y9.38
; Layer C00
G1X14.58Y9.2
G1X14.61Y8.96
G1X14.66Y8.67
G1X14.72Y8.3
G1X14.78Y7.98
G1X14.86Y7.7
G1X14.92Y7.56
G1X14.99Y7.4
G1X15.07Y7.21
G1X15.18Y7
G1X15.23Y6.88
G1X15.26Y6.81
G1X15.3Y6.74
G1X15.41Y6.59
G1X15.54Y6.42
G1X15.66Y6.27
G1X15.96Y5.92
G1X16.13Y5.71
G1X16.34Y5.43
G1X16.41Y5.36
G1X16.46Y5.29
G1X16.52Y5.2
G1X16.56Y5.1
G1X16.61Y5.03
G1X16.75Y4.71
G1X16.85Y4.38
G1Y4.34
G1X16.88Y4.33
G1X16.91Y4.3
G1X16.94Y4.19
G1X16.96Y4.01
G1X17.01Y3.49
G1X17.03Y3.31
G1X17.05Y3.2
G1X17.08Y3.17
G1X17.1Y3.18
G1X17.12Y3.22
G1Y3.28
G1X17.14Y3.37
G1Y3.48
G1Y3.61
G1Y3.77
G1Y3.95
G1X17.12Y4.34
G1X17.08Y4.65
G1X17.01Y4.95
G1X16.9Y5.3
G1X16.78Y5.65
G1X16.63Y6
G1X16.54Y6.21
G1X16.41Y6.45
G1X16.26Y6.75
G1X15.9Y7.47
G1X15.73Y7.8
G1X15.66Y7.95
G1X15.55Y8.18
G1X15.52Y8.25
G1X15.4Y8.54
G1X15.27Y8.86
G1X15.16Y9.17
G1X15.08Y9.49
G1X15.02Y9.82
G1X14.99Y10.18
G1Y10.37
G1X14.97Y10.51
G1X14.96Y10.62
G1X14.94Y10.68
G1X14.92Y10.72
G1X14.89
G1X14.85Y10.69
G1X14.81Y10.64
G1X14.74Y10.51
G1X14.68Y10.35
G1X14.63Y10.15
G1X14.58Y9.92
G1X14.55Y9.67
G1Y9.38
G0X13.6Y11.38
; Layer C00
G1X13.57Y11.4
G1X13.55Y11.47
G1X13.51Y11.58
G1X13.47Y11.73
G1X13.39Y12.07
G1X13.34Y12.37
G1X13.3Y12.63
G1Y12.85
G1Y13.02
G1X13.33Y13.1
G1X13.4Y13.11
G1X13.54Y13.08
G1X13.64Y13.06
G1X13.81Y13.03
G1X14.03Y12.99
G1X14.3Y12.95
G1X14.41Y12.93
G1X14.43Y12.91
G1X14.4Y12.89
G1X14.35Y12.83
G1X14.29Y12.76
G1X14.22Y12.68
G1X14.09Y12.49
G1X13.99Y12.33
G1X13.96Y12.26
G1X13.91Y12.13
G1X13.84Y11.96
G1X13.72Y11.61
G1X13.67Y11.48
G1X13.63Y11.41
G1X13.6Y11.38
G0X11.19Y12.75
; Layer C00
G1X11.16Y12.73
G1X11.13
G1X11.11Y12.77
G1X11.1Y12.83
G1Y12.93
G1Y13.05
G1Y13.2
G1X11.13Y13.52
G1X11.18Y13.79
G1X11.27Y14.04
G1X11.4Y14.27
G1X11.49Y14.42
G1X11.53Y14.5
G1X11.55Y14.53
G1X11.61Y14.59
G1X11.69Y14.67
G1X11.79Y14.77
G1X12.04Y14.96
G1X12.34Y15.16
G1X12.48Y15.24
G1X12.61Y15.31
G1X12.72Y15.35
G1X12.79Y15.37
G1X12.92Y15.38
G1X13.12Y15.42
G1X13.28Y15.45
G1X13.49Y15.46
G1X13.62
G1X13.79
G1X13.98
G1X15.31Y15.43
G1X15.6
G1X15.95Y15.4
G1X16.33Y15.38
G1X16.67Y15.4
G1X17.15Y15.45
G1X17.82Y15.53
G1X18.55Y15.62
G1X19.04Y15.67
G1X20Y15.78
G1X20.18Y15.8
G1X20.22
G1X20.24Y15.81
G1X20.33Y15.82
G1X20.51
G1X20.76
G1X21.04
G1X21.33Y15.8
G1X21.6Y15.79
G1X21.81Y15.77
G1X21.94Y15.76
G1X22.07Y15.72
G1X22.19Y15.64
G1X22.29Y15.53
G1X22.41Y15.35
G1X22.46Y15.26
G1X22.48Y15.19
G1Y15.09
G1X22.45Y14.94
G1X22.4Y14.7
G1X22.33Y14.51
G1X22.25Y14.38
G1X22.15Y14.25
G1X22.05Y14.15
G1X21.98Y14.11
G1X21.94Y14.15
G1X21.89Y14.22
G1X21.83Y14.31
G1X21.76Y14.37
G1X21.72Y14.39
G1X21.7Y14.41
G1Y14.44
G1X21.72Y14.48
G1X21.75Y14.57
G1Y14.71
G1X21.71Y14.89
G1X21.65Y15.12
G1X21.6Y15.24
G1X21.56Y15.34
G1X21.52Y15.42
G1X21.47Y15.47
G1X21.39Y15.5
G1X21.3Y15.52
G1X21.17Y15.54
G1X21.01Y15.55
G1X20.7Y15.54
G1X20.38Y15.47
G1X20.32Y15.44
G1X20.27Y15.4
G1X20.23Y15.32
G1X20.18Y15.18
G1X20.08Y14.9
G1X19.96Y14.65
G1X19.85Y14.44
G1X19.74Y14.3
G1X19.67Y14.24
G1X19.61Y14.21
G1X19.54Y14.19
G1X19.43
G1X19.3
G1X19.25Y14.2
G1X19.27Y14.25
G1X19.33Y14.35
G1X19.39Y14.49
G1X19.43Y14.65
G1Y14.79
G1X19.39Y14.88
G1X19.28Y14.94
G1X19.09Y14.96
G1X18.91
G1X18.73Y14.95
G1X18.62Y14.93
G1X18.48Y14.9
G1X18.32Y14.86
G1X18.12Y14.81
G1X17.86Y14.75
G1X17.54Y14.71
G1X17.17Y14.67
G1X16.78Y14.65
G1X16.38Y14.64
G1X15.99
G1X15.62Y14.65
G1X15.3Y14.68
G1X14.96Y14.71
G1X14.64Y14.74
G1X14.38Y14.76
G1X14.2Y14.79
G1X14.1Y14.82
G1X14
G1X13.91Y14.85
G1X13.78Y14.88
G1X13.63Y14.89
G1X13.47
G1X13.33Y14.87
G1X13.2Y14.8
G1X13.04Y14.67
G1X12.9Y14.53
G1X12.83Y14.42
G1X12.77Y14.35
G1X12.65Y14.28
G1X12.49Y14.18
G1X12.33Y14.05
G1X12.19Y13.95
G1X12.13Y13.9
G1X12Y13.76
G1X11.89Y13.57
G1X11.87Y13.51
G1X11.82Y13.42
G1X11.76Y13.31
G1X11.78Y13.42
G1X11.81Y13.51
G1X11.84Y13.58
G1X11.87Y13.68
G1X11.86Y13.76
G1X11.83Y13.8
G1X11.75Y13.74
G1X11.72
G1X11.69
G1X11.66Y13.69
G1X11.63Y13.62
G1X11.57Y13.54
G1X11.51Y13.46
G1X11.45Y13.34
G1X11.4Y13.2
G1X11.35Y13.02
G1X11.3Y12.9
G1X11.23Y12.79
G1X11.19Y12.75
G0X12.94Y13.91
; Layer C00
G1X12.89Y13.94
G1X12.86Y13.98
G1X12.85Y14.05
G1Y14.17
G1X12.91Y14.25
G1X12.95Y14.31
G1X12.97Y14.35
G1Y14.38
G1X13.01Y14.44
G1X13.07Y14.5
G1X13.14Y14.58
G1X13.33Y14.77
G1X13.64Y14.75
G1X13.81Y14.73
G1X13.98Y14.7
G1X14.18Y14.65
G1X14.41Y14.58
G1X14.72Y14.49
G1X15.09Y14.41
G1X15.49Y14.34
G1X15.93Y14.28
G1X16.88Y14.18
G1X17.86Y14.14
G1X18.26Y14.13
G1X18.65Y14.12
G1X19Y14.11
G1X19.27Y14.09
G1X19.62
G1X19.93Y14.1
G1X20.09Y14.13
G1X20.29Y14.16
G1X20.53Y14.21
G1X21.05Y14.32
G1X21.24Y14.36
G1X21.39Y14.39
G1X21.46Y14.4
G1X21.54Y14.36
G1X21.67Y14.24
G1X21.81Y14.1
G1X21.91Y13.97
G1X22.22Y13.49
G1X22.69Y12.8
G1X22.79Y12.64
G1X22.88Y12.51
G1X22.94Y12.4
G1X23.03Y12.22
G1X23.1Y12.03
G1X23.15Y11.82
G1X23.18Y11.62
G1Y11.53
G1Y11.46
G1X23.16Y11.41
G1X23.15Y11.4
G1X23.11Y11.37
G1X23.09Y11.32
G1X23.03Y11.25
G1X22.91Y11.16
G1X22.76Y11.08
G1X22.59Y11.01
G1X22.44Y10.98
G1X22.31Y11.01
G1X22.19Y11.06
G1X22.11Y11.15
G1X22.04Y11.28
G1X21.97Y11.5
G1X21.86Y11.8
G1X21.74Y12.09
G1X21.6Y12.34
G1X21.47Y12.53
G1X21.38Y12.64
G1X21.34Y12.71
G1X21.32Y12.74
G1X21.26Y12.81
G1X21.17Y12.9
G1X21.06Y13
G1X20.78Y13.27
G1X20.02
G1X19.04Y13.26
G1X17.99Y13.2
G1X17.78
G1X17.49Y13.19
G1X17.16
G1X16.8
G1X16.46
G1X16.14
G1X15.9Y13.21
G1X15.75
G1X15.47Y13.26
G1X14.91Y13.36
G1X14.68Y13.4
G1X14.48Y13.43
G1X14.28Y13.48
G1X13.88Y13.6
G1X13.46Y13.73
G1X13.31Y13.78
G1X13.17Y13.83
G1X12.94Y13.91
G0X12.97Y15.51
; Layer C00
G1X12.91
G1X12.89Y15.58
G1Y15.7
G1X12.96Y15.99
G1X13.1Y16.26
G1X13.3Y16.51
G1X13.52Y16.69
G1X13.59Y16.73
G1X13.67Y16.75
G1X13.78
G1X13.93
G1X14.22Y16.73
G1Y16.71
G1X14.19Y16.65
G1X14.11Y16.47
G1X14.01Y16.2
G1X13.94Y15.91
G1X13.87Y15.61
G1X13.51Y15.6
G1X13.37
G1X13.24Y15.58
G1X13.13Y15.57
G1X13.08Y15.55
G1X12.97Y15.51
G0X14.55Y16.63
; Layer C00
G1X14.59
G1X14.65
G1X14.78Y16.67
G1X14.81
G1X14.83Y16.63
G1Y16.55
G1X14.85Y16.46
G1X14.89Y16.43
G1X14.93Y16.48
G1X15.07Y16.76
G1X15.27Y17.12
G1X15.3Y17.21
G1X15.26Y17.25
G1X15.2
G1X15.11Y17.19
G1X15.01Y17.08
G1X14.85Y16.93
G1X14.56Y16.72
G1X14.53Y16.65
G1X14.55Y16.63
G0X16.03Y17.09
; Layer C00
G1X16.08
G1X16.13
G1X16.22Y17.11
G1X16.34Y17.15
G1X16.47Y17.19
G1X16.75Y17.27
G1X17.07Y17.34
G1X17.13Y17.37
G1X17.2Y17.4
G1X17.32
G1X17.42
G1X17.46
G1X17.48Y17.37
G1X17.47Y17.32
G1X17.43Y17.25
G1X17.35Y17.12
G1X17.34Y17.07
G1Y17.05
G1X17.37
G1X17.48Y17.09
G1X17.65Y17.19
G1X17.8Y17.33
G1X17.9Y17.44
G1X17.96Y17.52
G1X18.01Y17.56
G1X18.04Y17.62
G1Y17.72
G1X18.03Y17.84
G1X17.96Y17.93
G1X17.87Y17.99
G1X17.74Y18.01
G1X17.6
G1X17.65Y18.14
G1X17.72Y18.26
G1X17.81Y18.38
G1X17.9Y18.48
G1X18.06Y18.59
G1Y18.66
G1X18.02Y18.73
G1X17.91Y18.77
G1X17.83Y18.8
G1X17.77Y18.84
G1X17.76Y18.88
G1Y18.92
G1X17.8Y18.97
G1X17.87Y19.04
G1X18.02Y19.22
G1X18.11Y19.37
G1X18.14Y19.43
G1Y19.47
G1X18.13Y19.5
G1X18.09Y19.52
G1X18.04Y19.49
G1X17.97Y19.43
G1X17.82Y19.32
G1X17.58Y19.18
G1X17.31Y19.07
G1X16.96Y18.95
G1X16.91Y18.9
G1Y18.88
G1X16.95Y18.86
G1X17.01
G1X17.22Y18.85
G1X17.31Y18.83
G1X17.36Y18.8
G1X17.37Y18.75
G1X17.36Y18.7
G1X17.31Y18.65
G1X17.24Y18.61
G1X17.08Y18.57
G1X17.05Y18.55
G1X17.03Y18.52
G1Y18.44
G1X17Y18.42
G1X16.93Y18.4
G1X16.71Y18.37
G1X16.64Y18.36
G1X16.6Y18.34
G1X16.59Y18.31
G1X16.6Y18.29
G1X16.65Y18.27
G1X16.74
G1X17.06
G1X17.14Y18.25
G1X17.18Y18.23
G1Y18.18
G1X17.19Y18.1
G1X17.21Y18.02
G1Y17.96
G1X17.17Y17.94
G1X16.66Y17.75
G1X16.16Y17.51
G1X16.15Y17.47
G1X16.17Y17.44
G1X16.22Y17.42
G1X16.27Y17.44
G1X16.35Y17.47
G1X16.48Y17.5
G1X16.64Y17.52
G1X16.48Y17.41
G1X16.32Y17.31
G1X16.17Y17.22
G1X16.08Y17.17
G1X16.03Y17.13
G1Y17.09
G0X16.94Y16.6
; Layer C00
G1X16.93Y16.54
G1Y16.51
G1X16.94Y16.49
G1X16.97
G1X17.01
G1X17.15Y16.52
G1X17.37Y16.54
G1X17.65Y16.56
G1X17.79Y16.78
G1X17.92Y16.95
G1X18.06Y17.07
G1X18.15Y17.13
G1X18.19Y17.17
G1Y17.19
G1X18.15
G1X18.09
G1X18Y17.15
G1X17.88Y17.11
G1X17.75Y17.05
G1X17.46Y16.91
G1X17.29Y16.82
G1X17.18Y16.75
G1X17.11Y16.7
G1X17.03Y16.64
G1X16.97Y16.62
G1X16.94Y16.6
G0X15.71Y18.15
; Layer C00
G1X15.76Y18.19
G1X15.82Y18.29
G1X15.86Y18.46
G1X15.95Y18.78
G1X16.13Y19.08
G1X16.37Y19.33
G1X16.65Y19.51
G1X17.09Y19.63
G1X17.57Y19.69
G1X17.65Y19.71
G1X17.69Y19.74
G1X17.7Y19.8
G1X17.67Y19.86
G1X17.62Y19.89
G1X17.54Y19.9
G1X17.42
G1X17.26Y19.86
G1X17.13Y19.82
G1X16.95Y19.77
G1X16.81Y19.73
G1X16.64Y19.67
G1X16.46Y19.57
G1X16.28Y19.45
G1X16.13Y19.32
G1X16Y19.16
G1X15.89Y18.98
G1X15.81Y18.77
G1X15.75Y18.52
G1X15.71Y18.29
G1X15.69Y18.22
G1Y18.17
G1X15.71Y18.15
G0X18.84Y19.78
; Layer C00
G1X18.88
G1X18.97Y19.79
G1X19.1Y19.74
G1X19.25Y19.64
G1X19.42Y19.5
G1X19.65Y19.31
G1X19.93Y19.12
G1X20.06Y19.05
G1X20.17Y19
G1X20.26Y18.97
G1X20.3
G1X20.32Y19.03
G1X20.28Y19.11
G1X20.21Y19.22
G1X20.1Y19.32
G1X19.54Y19.65
G1X18.94Y19.92
G1X18.85
G1X18.81Y19.89
G1Y19.84
G1Y19.8
G1X18.84Y19.78
G0X20.67Y18.38
; Layer C00
G1X20.63Y18.32
G1X20.62Y18.22
G1X20.65Y18.13
G1X20.72Y18
G1X20.8Y17.83
G1X20.9Y17.66
G1X20.99Y17.53
G1X21.06Y17.44
G1X21.08Y17.39
G1X21.29Y17.1
G1X21.52Y16.83
G1Y16.87
G1X21.49Y16.97
G1X21.42Y17.11
G1X21.16Y17.53
G1X21.01Y17.81
G1X20.95Y17.93
G1X20.89Y18.03
G1X20.85Y18.1
G1X20.83Y18.14
G1X20.79Y18.18
G1X20.74Y18.35
G1X20.7Y18.39
G1X20.67Y18.38
G0X20.28Y18.26
; Layer C00
G1X20.15Y18.43
G1X20Y18.6
G1X19.83Y18.75
G1X19.63Y18.88
G1X19.45Y18.97
G1X19.33Y19.01
G1X19.27Y18.99
G1X19.25Y18.96
G1X19.27Y18.92
G1X19.38Y18.84
G1X19.42Y18.75
G1X19.55Y18.61
G1X19.58Y18.56
G1Y18.53
G1X19.54Y18.51
G1X19.5Y18.53
G1X19.4Y18.57
G1X19.26Y18.62
G1X19.1Y18.69
G1X18.92Y18.77
G1X18.77Y18.82
G1X18.65Y18.86
G1X18.56Y18.87
G1X18.46
G1X18.43Y18.83
G1X18.47Y18.79
G1X18.68Y18.69
G1X18.75Y18.63
G1X18.79Y18.56
G1Y18.46
G1X18.78Y18.39
G1X18.73Y18.34
G1X18.64Y18.31
G1X18.53
G1X18.43
G1X18.4Y18.26
G1Y18.23
G1X18.45Y18.19
G1X18.52Y18.14
G1X18.61Y18.09
G1X18.83Y17.98
G1X19.06Y17.89
G1X19.28Y17.82
G1X19.41Y17.74
G1X19.47Y17.68
G1X19.45Y17.62
G1X19.39Y17.6
G1X19.27
G1X19.09Y17.58
G1X18.66Y17.56
G1X18.49
G1X18.38Y17.54
G1X18.31Y17.52
G1X18.29Y17.49
G1X18.31Y17.45
G1X18.37Y17.4
G1X18.46Y17.33
G1X18.55Y17.27
G1X18.65Y17.22
G1X18.8Y17.16
G1X19.01Y17.08
G1X19.06Y17.06
G1X19.07Y17.04
G1X19.04Y17
G1X18.98Y16.93
G1X18.84Y16.81
G1X18.68Y16.72
G1X18.52Y16.66
G1X18.36Y16.64
G1X18.26Y16.63
G1X18.19Y16.61
G1X18.15Y16.59
G1X18.14Y16.55
G1X18.15Y16.51
G1X18.2Y16.46
G1X18.28Y16.4
G1X18.38Y16.33
G1X18.55Y16.23
G1X18.42Y16.21
G1X18.3
G1X18.17Y16.23
G1X18.04Y16.28
G1X17.93Y16.35
G1X17.89Y16.38
G1X17.86
G1X17.82
G1X17.75Y16.33
G1X17.62Y16.22
G1X17.51Y16.1
G1X17.44Y15.97
G1X17.41Y15.87
G1Y15.81
G1X17.43Y15.78
G1X17.48Y15.77
G1X17.56
G1X17.68Y15.75
G1X17.79Y15.72
G1X17.83Y15.69
G1X17.82Y15.67
G1X17.73Y15.66
G1X17.35Y15.62
G1X17.11Y15.6
G1X16.83Y15.56
G1X16.38Y15.5
G1X16.5Y15.61
G1X16.73Y15.81
G1X16.93Y15.97
G1X17.07Y16.08
G1X17.18Y16.14
G1X17.26Y16.18
G1X17.32Y16.23
G1Y16.27
G1X17.31Y16.3
G1X17.28Y16.32
G1X17.22
G1X17.15Y16.29
G1X16.87Y16.18
G1X16.67Y16.12
G1X16.5Y16.07
G1X16.4Y16.05
G1X16.38Y16.08
G1Y16.17
G1X16.36Y16.27
G1X16.33Y16.35
G1X16.31Y16.38
G1Y16.43
G1X16.36Y16.49
G1X16.45Y16.58
G1X16.56Y16.7
G1X16.61Y16.79
G1X16.62Y16.85
G1X16.58Y16.87
G1X16.48Y16.85
G1X16.32Y16.8
G1X16.07Y16.73
G1X15.67Y16.63
G1X15.57Y16.6
G1X15.5Y16.58
G1X15.47Y16.55
G1X15.49Y16.51
G1X15.56Y16.48
G1X15.65Y16.45
G1X15.85Y16.43
G1X15.87Y16.41
G1X15.84Y16.37
G1X15.76Y16.3
G1X15.67Y16.22
G1X15.66Y16.13
G1X15.72Y16.05
G1X15.87Y15.95
G1X15.85Y15.9
G1X15.78Y15.79
G1X15.72Y15.66
G1X15.68Y15.55
G1X15.65Y15.54
G1X15.57
G1X15.46
G1X15.33
G1X15.24Y15.56
G1X15.18Y15.57
G1X15.14Y15.6
G1X15.13Y15.64
G1Y15.69
G1Y15.78
G1X15.15Y15.88
G1X15.19Y16.11
G1X15.22Y16.25
G1Y16.32
G1X15.19Y16.33
G1X15.13Y16.3
G1X15.08Y16.22
G1X15.02Y16.11
G1X14.96Y16.03
G1X14.76Y15.77
G1X14.67Y15.67
G1X14.6Y15.61
G1X14.51Y15.58
G1X14.37
G1X14.19Y15.57
G1X14.09
G1X14.05Y15.63
G1Y15.76
G1Y15.93
G1X14.1Y16.11
G1X14.19Y16.35
G1X14.33Y16.64
G1X14.52Y16.96
G1X14.74Y17.32
G1X14.9Y17.56
G1X15Y17.73
G1X15.06Y17.85
G1X15.1Y17.95
G1Y17.99
G1Y18.01
G1X15.06
G1X15.01Y17.95
G1X14.98
G1X14.97
G1Y18
G1X15Y18.08
G1X15.04Y18.18
G1X15.17Y18.45
G1X15.34Y18.78
G1X15.51Y19.09
G1X15.69Y19.34
G1X15.87Y19.54
G1X16.06Y19.68
G1X16.22Y19.79
G1X16.37Y19.92
G1X16.49Y20.01
G1X16.56Y20.05
G1X16.62Y20.07
G1X16.74Y20.17
G1X16.86Y20.24
G1X16.95Y20.27
G1X17.03Y20.29
G1X17.13
G1X17.51Y20.26
G1X17.71
G1X17.88Y20.3
G1X18.27Y20.44
G1X18.44Y20.47
G1X18.6
G1X18.79Y20.41
G1X19Y20.34
G1X19.15Y20.28
G1X19.27Y20.22
G1X19.42Y20.13
G1X19.52Y20.07
G1X19.65Y20.01
G1X19.78Y19.94
G1X20.07Y19.78
G1X20.28Y19.62
G1X20.46Y19.4
G1X20.63Y19.11
G1X20.79Y18.77
G1X21.02Y18.07
G1X21.17Y17.72
G1X21.35Y17.37
G1X21.55Y17.03
G1X21.7Y16.69
G1X21.79Y16.37
G1X21.74
G1X21.69Y16.4
G1X21.61Y16.44
G1X21.45Y16.55
G1X21.28Y16.7
G1X21.07Y16.92
G1X20.88Y17.17
G1X20.7Y17.45
G1X20.55Y17.75
G1X20.41Y18.04
G1X20.28Y18.26
G0X25.39Y17.34
; Layer C00
G1X25.4Y17.28
G1X25.44Y17.22
G1X25.5Y17.13
G1X25.59Y17.04
G1X25.82Y16.83
G1X26.14Y16.58
G1X26.36Y16.42
G1X26.67Y16.17
G1X27Y15.89
G1X27.15Y15.75
G1X27.28Y15.62
G1X27.39Y15.51
G1X27.47Y15.42
G1X27.52Y15.38
G1X27.58
G1X27.61Y15.4
G1Y15.43
G1X27.59Y15.49
G1X27.53Y15.59
G1X27.39Y15.78
G1X27.23Y15.98
G1X27.09Y16.15
G1X27.02Y16.28
G1X27Y16.33
G1Y16.36
G1X27.03
G1X27.08Y16.35
G1X27.17Y16.32
G1X27.29Y16.27
G1X27.43Y16.21
G1X27.58Y16.13
G1X27.91Y15.96
G1X28.24Y15.78
G1X28.53Y15.6
G1X28.63Y15.55
G1X28.7Y15.51
G1X28.78Y15.49
G1X28.8Y15.53
G1X28.78Y15.57
G1X28.71Y15.65
G1X28.62Y15.74
G1X28.51Y15.85
G1X28.26Y16.07
G1X28.05Y16.24
G1X27.92Y16.32
G1X27.86Y16.37
G1X27.84Y16.39
G1X27.78Y16.44
G1X27.6Y16.57
G1X27.32Y16.75
G1X27Y16.91
G1X26.64Y17.05
G1X26.21Y17.19
G1X26.01Y17.25
G1X25.84Y17.29
G1X25.7Y17.33
G1X25.59Y17.35
G1X25.5Y17.36
G1X25.44
G1X25.4
G1Y17.34
G0X24.97Y16.48
; Layer C00
G1X24.94
G1X24.92Y16.46
G1Y16.44
G1X24.94Y16.41
G1X24.98Y16.35
G1X25.05Y16.28
G1X25.11Y16.21
G1X25.18Y16.11
G1X25.26Y15.99
G1X25.42Y15.74
G1X25.54Y15.52
G1X25.68Y15.2
G1X25.75Y14.81
G1X25.77Y14.54
G1Y14.19
G1Y13.74
G1Y13.17
G1Y12.57
G1X25.83Y11.99
G1X25.93Y11.4
G1X26.08Y10.77
G1X26.19Y10.4
G1X26.29Y10.06
G1X26.39Y9.75
G1X26.49Y9.48
G1X26.57Y9.27
G1X26.65Y9.1
G1X26.71Y9
G1X26.76Y8.96
G1X26.8
G1Y9
G1X26.78Y9.08
G1X26.72Y9.23
G1X26.62Y9.49
G1X26.51Y9.82
G1X26.44Y10.05
G1X26.41Y10.25
G1X26.4Y10.37
G1Y10.52
G1X26.39Y10.95
G1Y11.26
G1Y11.55
G1Y11.78
G1X26.41Y11.93
G1X26.45Y12.26
G1X26.48Y12.53
G1X26.51Y12.75
G1X26.52Y12.94
G1X26.53Y13.23
G1X26.51Y13.49
G1X26.46Y13.88
G1X26.39Y14.23
G1X26.31Y14.54
G1X26.2Y14.82
G1X26.06Y15.1
G1X25.89Y15.39
G1X25.68Y15.69
G1X25.42Y16.02
G1X25.25Y16.22
G1X25.12Y16.36
G1X25.03Y16.45
G1X24.97Y16.48
G0X28.36Y16.67
; Layer C00
G1X28.41Y16.58
G1X28.51Y16.46
G1X28.66Y16.31
G1X28.86Y16.15
G1X29.1Y16
G1X29.36Y15.87
G1X29.64Y15.76
G1X29.93Y15.68
G1X30.22Y15.62
G1X30.5Y15.59
G1X30.76
G1X31.16Y15.65
G1X31.5Y15.72
G1X31.82Y15.82
G1X32.15Y15.97
G1X32.34Y16.07
G1X32.5Y16.17
G1X32.67Y16.32
G1X32.89Y16.52
G1X33.11Y16.73
G1X33.18Y16.81
G1X33.23Y16.86
G1X33.26Y16.93
G1X33.24Y16.97
G1X33.18Y17
G1X33.13Y16.98
G1X33.06Y16.94
G1X32.85Y16.89
G1X32.65Y16.82
G1X32.44Y16.75
G1X32.23Y16.72
G1X32.01Y16.71
G1X31.78Y16.73
G1X31.6Y16.77
G1X31.41Y16.84
G1X31.26Y16.91
G1X31.2Y16.97
G1X31.18Y17.02
G1X31.11Y17.1
G1X31Y17.23
G1X30.91Y17.39
G1X30.84Y17.57
G1X30.8Y17.75
G1X30.78Y18.22
G1X30.83Y18.64
G1X30.86Y18.77
G1X30.88Y18.88
G1X30.9Y18.97
G1X30.93Y19.02
G1X30.96Y19.07
G1X30.97Y19.13
G1X31Y19.22
G1X31.06Y19.36
G1X31.13Y19.48
G1X31.16Y19.56
G1X31.18Y19.64
G1X31.29Y19.86
G1X31.33Y20.01
G1X31.39Y20.13
G1X31.7Y20.68
G1X31.9Y21
G1X32.11Y21.3
G1X32.21Y21.43
G1X32.31Y21.54
G1X32.39Y21.61
G1X32.46Y21.66
G1X32.52Y21.7
G1X32.54Y21.75
G1X32.53Y21.79
G1X32.47Y21.8
G1X32.41Y21.79
G1X32.29Y21.74
G1X32.13Y21.66
G1X31.94Y21.58
G1X31.53Y21.37
G1X31.2Y21.21
G1X30.92Y21.06
G1X30.7Y20.95
G1X30.54Y20.86
G1X30.41Y20.78
G1X30.32Y20.72
G1X30.26Y20.66
G1X30.2Y20.61
G1X30.11Y20.53
G1X29.76Y20.25
G1X29.4Y19.91
G1X29.07Y19.52
G1X28.81Y19.1
G1X28.61Y18.67
G1X28.55Y18.51
G1X28.52Y18.4
G1Y18.33
G1X28.54Y18.27
G1X28.56Y18.22
G1X28.58Y18.2
G1X28.59
G1X28.61Y18.25
G1X28.8Y18.47
G1X29.08Y18.7
G1X29.18Y18.75
G1X29.27Y18.76
G1X29.35Y18.74
G1X29.42Y18.68
G1X29.53Y18.55
G1X29.59Y18.37
G1X29.61Y18.26
G1X29.62Y18.13
G1Y17.98
G1Y17.79
G1X29.61Y17.5
G1X29.56Y17.27
G1X29.46Y17.07
G1X29.31Y16.87
G1X29.17Y16.73
G1X29.06Y16.65
G1X28.94Y16.6
G1X28.82Y16.58
G1X28.74
G1X28.68Y16.61
G1X28.62Y16.65
G1X28.46Y16.79
G1X28.4Y16.83
G1X28.36Y16.82
G1X28.35Y16.76
G1X28.36Y16.67
G0X30.51Y15
; Layer C00
G1X30.23Y14.82
G1X29.93Y14.58
G1X29.6Y14.29
G1X29.4Y14.1
G1X29.24Y13.93
G1X29.1Y13.74
G1X28.94Y13.5
G1X28.83Y13.32
G1X28.73Y13.16
G1X28.67Y13.05
G1X28.65Y13.01
G1X28.62Y12.92
G1X28.41Y12.47
G1X28.31Y12.23
G1X28.25Y12.01
G1X28.21Y11.83
G1X28.19Y11.63
G1X28.37Y11.79
G1X28.52Y11.91
G1X28.66Y11.99
G1X28.79Y12.03
G1X28.9
G1X28.98Y11.96
G1X29.04Y11.84
G1X29.08Y11.69
G1Y11.56
G1X29.02Y11.41
G1X28.89Y11.22
G1X28.72Y11.02
G1X28.51Y10.8
G1X28.27Y10.59
G1X28.02Y10.39
G1X27.77Y10.22
G1X27.52Y10.08
G1X27.38Y10
G1X27.26Y9.94
G1X27.18Y9.89
G1X27.15Y9.86
G1X27.17Y9.82
G1X27.22Y9.76
G1X27.28Y9.71
G1X27.39Y9.65
G1X27.53Y9.59
G1X27.68Y9.53
G1X27.84Y9.47
G1X27.99Y9.43
G1X28.12Y9.4
G1X28.22Y9.39
G1X28.33Y9.37
G1X28.5Y9.34
G1X28.71Y9.3
G1X28.98Y9.27
G1X29.27Y9.26
G1X29.59
G1X29.91Y9.28
G1X30.21Y9.3
G1X30.47Y9.35
G1X30.69Y9.4
G1X30.88Y9.48
G1X31.05Y9.58
G1X31.18Y9.7
G1X31.23Y9.79
G1X31.2Y9.87
G1X31.11Y9.99
G1X30.99Y10.12
G1X30.87Y10.22
G1X30.67Y10.36
G1X30.52Y10.49
G1X30.4Y10.61
G1X30.33Y10.73
G1X30.25Y10.87
G1X30.16Y10.99
G1X30.08Y11.11
G1X30.01Y11.27
G1X29.95Y11.44
G1X29.9Y11.63
G1X29.83Y12.06
G1Y12.51
G1X29.87Y12.9
G1X30Y13.35
G1X30.1Y13.63
G1X30.19Y13.87
G1X30.29Y14.09
G1X30.4Y14.29
G1X30.64Y14.61
G1X30.93Y14.89
G1X31.02Y14.97
G1X31.09Y15.05
G1X31.14Y15.11
G1X31.16Y15.15
G1X31.17Y15.2
G1X31.2Y15.24
G1X31.14Y15.25
G1X30.98Y15.22
G1X30.76Y15.14
G1X30.51Y15
G0X26.75Y18.86
; Layer C00
G1X26.77Y18.88
G1Y18.96
G1Y19.1
G1Y19.28
G1X26.75Y19.53
G1X26.73Y19.83
G1X26.69Y20.17
G1X26.66Y20.51
G1X26.62Y20.84
G1X26.58Y21.13
G1X26.52Y21.57
G1X26.49Y21.78
G1X26.47Y21.98
G1X26.76
G1X26.91
G1X27.1Y22
G1X27.3Y22.03
G1X27.52Y22.06
G1X28.02Y22.15
G1X28.55Y22.27
G1X29.1Y22.41
G1X29.64Y22.56
G1X30.13Y22.71
G1X30.55Y22.87
G1X30.7Y22.93
G1X30.79Y22.98
G1X30.84Y23.02
G1X30.86Y23.06
G1X30.85Y23.1
G1X30.82Y23.12
G1X30.75
G1X30.55Y23.07
G1X30.43Y23.04
G1X30.12Y22.98
G1X29.76Y22.91
G1X29.4Y22.85
G1X29.22Y22.83
G1X29Y22.81
G1X28.68
G1X28.22Y22.79
G1X27.81Y22.78
G1X27.65
G1X27.51
G1X27.26Y22.79
G1X27.03Y22.82
G1X26.63Y22.89
G1X26.22Y22.97
G1X25.84Y23.05
G1X25.56Y23.13
G1X25.39Y23.18
G1X25.3Y23.2
G1X25.25Y23.21
G1X25.2Y23.25
G1X25.17Y23.29
G1X25.13Y23.3
G1X25.1
G1X25.06Y23.27
G1Y23.24
G1Y23.2
G1X25.09Y23.14
G1X25.14Y23.05
G1X25.39Y22.66
G1X25.62Y22.29
G1X25.79Y21.95
G1X25.92Y21.66
G1X26.19Y20.95
G1X26.4Y20.28
G1X26.49Y19.96
G1X26.56Y19.67
G1X26.61Y19.4
G1X26.65Y19.16
G1X26.68Y19
G1X26.73Y18.89
G1X26.75Y18.86
G0X27.85Y23.5
; Layer C00
G1X28.08Y23.48
G1X28.24Y23.46
G1X28.35
G1X28.52
G1X28.73Y23.47
G1X28.96Y23.49
G1X29.19Y23.52
G1X29.41Y23.55
G1X29.6Y23.58
G1X29.75Y23.62
G1X30.03Y23.7
G1X30.27Y23.78
G1X30.48Y23.84
G1X30.66Y23.91
G1X30.97Y24.03
G1X31.25Y24.16
G1X31.49Y24.27
G1X31.69Y24.38
G1X31.86Y24.48
G1X32.02Y24.59
G1X32.32Y24.82
G1X32.66Y25.13
G1X33.13Y25.58
G1X33.18Y25.4
G1X33.21Y25.24
G1X33.23Y25.11
G1X33.32Y24.59
G1X33.37Y24.11
G1Y23.62
G1X33.34Y23.16
G1X33.27Y22.78
G1X33.21Y22.57
G1X33.18Y22.42
G1X33.17Y22.33
G1X33.18Y22.29
G1X33.21
G1X33.25Y22.32
G1X33.29Y22.38
G1X33.34Y22.46
G1X33.44Y22.7
G1X33.56Y23.03
G1X33.6Y23.17
G1X33.64Y23.36
G1X33.69Y23.58
G1X33.73Y23.83
G1X33.8Y24.36
G1X33.86Y24.85
G1X33.9Y25.32
G1X33.98Y25.92
G1X34Y26.14
G1Y26.39
G1Y26.7
G1X33.97Y27.24
G1X33.93Y27.72
G1X33.87Y28.15
G1X33.8Y28.54
G1X33.71Y28.88
G1X33.6Y29.18
G1X33.48Y29.45
G1X33.33Y29.69
G1X32.92Y30.28
G1X32.86Y30.37
G1X32.8Y30.44
G1X32.75Y30.5
G1X32.67Y30.55
G1X32.59Y30.57
G1X32.52Y30.55
G1Y30.51
G1X32.67Y29.97
G1X32.79Y29.4
G1Y29.26
G1X32.81Y29.04
G1Y28.76
G1Y28.46
G1Y28.06
G1Y27.92
G1Y27.79
G1X32.78Y27.59
G1X32.74Y27.38
G1X32.65Y27.03
G1X32.55Y26.72
G1X32.43Y26.45
G1X32.3Y26.2
G1X32.15Y25.97
G1X31.98Y25.75
G1X31.77Y25.54
G1X31.53Y25.32
G1X31.15Y25.01
G1X30.79Y24.74
G1X30.43Y24.5
G1X30.08Y24.29
G1X29.74Y24.12
G1X29.41Y23.98
G1X29.08Y23.87
G1X28.75Y23.79
G1X28.4Y23.74
G1X27.99Y23.7
G1X27.8
G1X27.62
G1X27.47
G1X27.36
G1X27.3
G1X27.28Y23.66
G1X27.32Y23.61
G1X27.43Y23.57
G1X27.61Y23.53
G1X27.85Y23.5
G0X20.38Y13.03
; Layer C00
G1X20.56Y12.96
G1X20.7Y12.88
G1X20.78Y12.78
G1X20.82Y12.71
G1X20.87Y12.6
G1X20.92Y12.46
G1X20.98Y12.32
G1X21.09Y11.97
G1X20.97Y11.85
G1X20.82Y11.69
G1X20.69Y11.5
G1X20.57Y11.29
G1X20.48Y11.08
G1X20.4Y10.88
G1X20.33Y10.72
G1X20.28Y10.62
G1X20.24Y10.51
G1X20.18Y10.38
G1X20.1Y10.19
G1X19.99Y9.98
G1X19.94Y9.87
G1X19.91Y9.76
G1X19.87Y9.66
G1X19.82Y9.53
G1X19.75Y9.38
G1X19.61Y9.02
G1X19.51Y8.7
G1X19.35Y8.18
G1X19.18Y7.7
G1X18.99Y7.29
G1X18.78Y6.95
G1X18.63Y6.74
G1X18.5Y6.59
G1X18.41Y6.52
G1X18.34Y6.51
G1X18.3Y6.54
G1X18.26Y6.61
G1X18.21Y6.71
G1X18.15Y6.83
G1X18.05Y7.13
G1X17.96Y7.45
G1X17.91Y7.69
G1X17.88Y7.95
G1X17.87Y8.12
G1X17.86Y8.32
G1X17.85Y8.91
G1X17.83Y9.59
G1X17.8Y10.21
G1X17.79Y10.49
G1X17.77Y10.73
G1X17.75Y10.92
G1X17.73Y11.07
G1X17.7Y11.28
G1X17.68Y11.42
G1X17.66Y11.51
G1X17.64Y11.56
G1X17.56Y11.82
G1X17.55Y12.14
G1X17.63Y12.4
G1X17.78Y12.66
G1X17.96Y12.89
G1X18.14Y13.03
G1X18.27Y13.07
G1X18.48Y13.1
G1X18.75Y13.12
G1X19.06Y13.13
G1X19.38
G1X19.68
G1X19.94Y13.12
G1X20.14Y13.09
G1X20.38Y13.03
G0X21.35Y10.98
; Layer C00
G1X21.39
G1X21.44Y10.94
G1X21.5Y10.84
G1X21.59Y10.71
G1X21.76Y10.38
G1X21.87Y10
G1X21.91Y9.76
G1X21.93Y9.46
G1X21.95Y9.1
G1X21.99Y8.04
G1X22.02Y7.39
G1X22.05Y6.81
G1X22.07Y6.59
G1Y6.44
G1X22.12Y6.21
G1X22.18Y5.96
G1X22.23Y5.74
G1X22.26Y5.6
G1X22.3Y5.48
G1X22.36Y5.31
G1X22.41Y5.09
G1X22.45Y4.82
G1Y4.69
G1Y4.58
G1Y4.5
G1X22.44Y4.46
G1X22.4Y4.38
G1X22.34Y4.21
G1X22.19Y3.82
G1X21.97Y3.46
G1X21.7Y3.15
G1X21.37Y2.9
G1X21.3Y2.87
G1X21.27
G1X21.29Y2.91
G1X21.34Y2.99
G1X21.55Y3.34
G1X21.71Y3.72
G1X21.76Y4.02
G1Y4.37
G1X21.69Y4.71
G1X21.59Y5
G1X21.55Y5.06
G1X21.48Y5.15
G1X21.39Y5.27
G1X21.3Y5.39
G1X21.1Y5.66
G1X20.96Y5.89
G1X20.88Y6.1
G1X20.8Y6.45
G1X20.75Y6.52
G1X20.73Y6.51
G1X20.71Y6.43
G1Y6.36
G1Y6.14
G1X20.73Y5.77
G1X20.74Y5.57
G1X20.75Y5.41
G1X20.76Y5.32
G1Y5.26
G1Y5.24
G1Y5.27
G1X20.73Y5.35
G1X20.66Y5.59
G1X20.61Y5.9
G1X20.57Y6.23
G1X20.56Y6.54
G1X20.57Y6.79
G1X20.6Y7.05
G1X20.66Y7.29
G1X20.73Y7.5
G1X20.93Y8.2
G1X21.12Y8.96
G1X21.17Y9.25
G1X21.21Y9.54
G1X21.22Y9.71
G1X21.26Y10.12
G1X21.29Y10.62
G1X21.31Y10.8
G1X21.33Y10.92
G1X21.35Y10.98
G0X20.56Y9.6
; Layer C00
G1X20.62Y9.54
G1X20.68Y9.42
G1X20.75Y9.18
G1X20.8Y8.89
G1X20.82Y8.59
G1Y8.3
G1X20.8Y8.19
G1X20.76Y8.06
G1X20.7Y7.9
G1X20.63Y7.73
G1X20.45Y7.38
G1X20.26Y7.06
G1X20.05Y6.78
G1X19.89Y6.57
G1X19.74Y6.4
G1X19.32Y5.95
G1X19.08Y5.69
G1X18.99Y5.57
G1X18.91Y5.47
G1X18.85Y5.4
G1X18.84Y5.37
G1X18.82Y5.34
G1X18.79Y5.29
G1X18.74Y5.22
G1X18.67Y5.13
G1X18.51Y4.92
G1X18.31Y4.7
G1X18.07Y4.41
G1X18.04Y4.54
G1X18.03Y4.61
G1Y4.69
G1X18.07Y4.78
G1X18.36Y5.43
G1X18.59Y5.96
G1X18.67Y6.13
G1X18.78Y6.3
G1X19Y6.59
G1X19.18Y6.86
G1X19.34Y7.11
G1X19.48Y7.33
G1X19.7Y7.78
G1X19.88Y8.24
G1X19.94Y8.42
G1X20Y8.58
G1X20.05Y8.71
G1X20.09Y8.8
G1X20.21Y9.07
G1X20.33Y9.28
G1X20.42Y9.42
G1X20.48Y9.49
G1X20.53Y9.54
G1Y9.58
G1Y9.6
G1X20.56
G0X24.07Y9.29
; Layer C00
G1Y9.24
G1X24.11Y9.16
G1X24.26Y8.8
G1X24.36Y8.37
G1X24.4Y8.2
G1X24.44Y8.08
G1X24.57Y7.93
G1X24.67Y7.86
G1X24.7
G1X24.73Y7.91
G1X24.78Y7.97
G1X24.83Y8.05
G1X24.97Y8.25
G1X25.11Y8.49
G1X25.26Y8.73
G1X25.38Y8.95
G1X25.47Y9.12
G1X25.5Y9.21
G1X25.52Y9.28
G1X25.56Y9.37
G1X25.6Y9.45
G1Y9.49
G1X25.55Y9.45
G1X25.44Y9.35
G1X25.32Y9.25
G1X25.28Y9.19
G1X25.05Y8.94
G1X24.79Y8.71
G1X24.73Y8.76
G1X24.64Y8.87
G1X24.49Y9.04
G1X24.34Y9.19
G1X24.23Y9.29
G1X24.15Y9.32
G1X24.09
G1X24.07Y9.29
G0X25.65Y9.45
; Layer C00
G1X25.71Y9.02
G1X25.8Y8.58
G1X25.86Y8.44
G1X25.95Y8.31
G1X26.05Y8.21
G1X26.14Y8.15
G1X26.26Y8.1
G1X26.41Y8.01
G1X26.54Y7.93
G1X26.62Y7.89
G1X26.69Y7.85
G1X26.82Y7.73
G1X26.97Y7.59
G1X27.1Y7.43
G1X27.23Y7.31
G1X27.37Y7.26
G1X27.48Y7.24
G1X27.57Y7.23
G1X27.6
G1X27.61Y7.26
G1Y7.35
G1Y7.51
G1X27.59Y7.79
G1X27.55Y8.02
G1X27.48Y8.25
G1X27.39Y8.5
G1X27.26Y8.8
G1X27.16Y9.06
G1X27.1Y9.24
G1X27.08Y9.34
G1X27.02Y9.44
G1X26.92Y9.5
G1X26.91Y9.48
G1X26.9Y9.42
G1Y9.34
G1X26.89Y9.23
G1X26.88Y9.02
G1X26.85Y8.87
G1X26.79Y8.77
G1X26.71Y8.67
G1X26.62Y8.6
G1X26.55Y8.57
G1X26.48Y8.6
G1X26.38Y8.66
G1X26.27Y8.76
G1X26.16Y8.88
G1X26.06Y9.01
G1X25.97Y9.14
G1X25.9Y9.26
G1X25.86Y9.37
G1X25.84Y9.45
G1X25.82Y9.5
G1X25.78Y9.52
G1X25.73
G1X25.67Y9.5
G1X25.65Y9.45
G0X19.67Y5.74
; Layer C00
G1X19.75Y5.66
G1X19.83Y5.51
G1X19.9Y5.31
G1X19.95Y5.11
G1X19.99Y4.57
G1X19.96Y4.06
G1X19.91Y3.86
G1X19.83Y3.66
G1X19.75Y3.49
G1X19.67Y3.39
G1X19.59Y3.36
G1X19.5
G1X19.39
G1X19.27Y3.4
G1X19.01Y3.53
G1X18.76Y3.72
G1X18.68Y3.81
G1X18.63Y3.89
G1X18.59Y3.99
G1X18.55Y4.11
G1X18.5Y4.38
G1Y4.57
G1X18.52Y4.72
G1X18.59Y4.85
G1X18.84Y5.18
G1X19.14Y5.54
G1X19.28Y5.67
G1X19.41Y5.74
G1X19.55Y5.77
G1X19.67Y5.74
G0X17.78Y4.42
; Layer C00
G1X17.77Y4.4
G1X17.76Y4.35
G1Y4.26
G1X17.75Y4.16
G1Y3.96
G1X17.72Y3.78
G1Y3.67
G1X17.71Y3.4
G1Y3.2
G1X17.72Y3.05
G1X17.75Y2.93
G1X17.8Y2.78
G1X17.93Y2.53
G1X18.08Y2.29
G1X18.15Y2.19
G1X18.23Y2.11
G1X18.29Y2.06
G1X18.34Y2.03
G1X18.41Y2.05
G1X18.42Y2.11
G1X18.38Y2.24
G1X18.3Y2.43
G1X18.12Y2.83
G1X17.99Y3.24
G1X17.89Y3.67
G1X17.84Y4.11
G1X17.83Y4.23
G1X17.81Y4.33
G1X17.8Y4.4
G1X17.78Y4.42
G0X17.92Y4.5
; Layer C00
G1X17.99Y4.14
G1X18.01Y3.7
G1Y3.51
G1X18.02Y3.36
G1X18.04Y3.26
G1X18.05Y3.22
G1X18.11Y3.14
G1X18.19Y3
G1X18.28Y2.8
G1X18.37Y2.61
G1X18.43Y2.47
G1X18.46Y2.39
G1X18.49Y2.31
G1X18.56Y2.16
G1X18.64Y1.99
G1X18.7Y1.79
G1X18.74Y1.61
G1Y1.52
G1X18.67Y1.46
G1X18.54Y1.41
G1X18.4Y1.36
G1X18.28Y1.35
G1X18.07Y1.39
G1X17.79Y1.49
G1X17.51Y1.61
G1X17.32Y1.73
G1X17.09Y1.94
G1X17.01Y2.03
G1X16.94Y2.14
G1X16.88Y2.27
G1X16.83Y2.43
G1X16.76Y2.8
G1X16.74Y3.24
G1X16.73Y3.57
G1X16.69Y3.93
G1X16.67Y4.1
G1X16.64Y4.26
G1X16.62Y4.38
G1X16.59Y4.46
G1X16.47Y4.73
G1X16.31Y5.04
G1X16.15Y5.31
G1X16.02Y5.5
G1X15.93Y5.6
G1X15.68Y5.93
G1X15.41Y6.27
G1X15.12Y6.65
G1X15.05Y6.75
G1X15.02Y6.8
G1X15Y6.84
G1X14.97Y6.91
G1X14.91Y7.02
G1X14.78Y7.29
G1X14.68Y7.5
G1X14.65Y7.57
G1X14.61Y7.67
G1Y7.74
G1X14.59Y7.79
G1X14.56Y7.87
G1X14.52Y7.98
G1X14.47Y8.11
G1X14.36Y8.42
G1X14.24Y8.8
G1X14.15Y9.2
G1X14.08Y9.58
G1X14.05Y9.8
G1X14.01Y9.96
G1X13.97Y10.05
G1X13.94
G1X13.9Y9.99
G1X13.85Y9.86
G1X13.81Y9.68
G1X13.77Y9.49
G1X13.75Y9.21
G1Y8.92
G1X13.77Y8.61
G1X13.82Y8.3
G1X13.99Y7.65
G1X14.25Y7.01
G1X14.5Y6.5
G1X14.6Y6.26
G1X14.7Y6.01
G1X14.78Y5.82
G1X14.83Y5.69
G1X14.91Y5.41
G1X14.94Y5.07
G1X14.92Y4.86
G1X14.83Y4.65
G1X14.72Y4.49
G1X14.61Y4.34
G1X14.51Y4.24
G1X14.43Y4.21
G1X14.39Y4.19
G1X14.35Y4.16
G1X14.26Y4.1
G1X14.1Y4.04
G1X13.88Y4
G1X13.66Y3.99
G1X13.4Y4.01
G1X13.17Y4.08
G1X12.95Y4.21
G1X12.7Y4.41
G1X12.56Y4.55
G1X12.47Y4.65
G1X12.41Y4.75
G1X12.37Y4.87
G1X12.32Y5.12
G1X12.3Y5.41
G1Y5.7
G1X12.31Y5.92
G1X12.38Y6.18
G1X12.48Y6.53
G1X12.55Y6.75
G1X12.62Y7.06
G1X12.71Y7.42
G1X12.78Y7.78
G1X12.9Y8.34
G1X12.94Y8.53
G1X12.98Y8.69
G1X13.05Y8.92
G1X13.13Y9.14
G1X13.2Y9.35
G1X13.35Y10.01
G1X13.49Y10.42
G1X13.52Y10.51
G1X13.53Y10.63
G1X13.56Y10.72
G1X13.6Y10.84
G1X13.7Y11.11
G1X13.75Y11.24
G1X13.79Y11.36
G1X13.81Y11.43
G1X13.86Y11.64
G1X13.96Y11.92
G1X14.01Y12.05
G1X14.05Y12.17
G1X14.09Y12.25
G1X14.12Y12.28
G1X14.14Y12.31
G1X14.15Y12.35
G1X14.19Y12.44
G1X14.3Y12.57
G1X14.44Y12.72
G1X14.6Y12.84
G1X14.78Y12.97
G1X15.26
G1X15.68Y12.99
G1X16.01Y13
G1X16.36Y13.04
G1X16.47Y13.01
G1X16.61Y12.93
G1X16.76Y12.82
G1X16.9Y12.68
G1X17.04Y12.5
G1X17.17Y12.29
G1X17.29Y12.05
G1X17.42Y11.74
G1X17.48Y11.59
G1X17.53Y11.45
G1X17.56Y11.33
G1X17.58Y11.25
G1X17.61Y11.04
G1X17.62Y10.94
G1X17.63Y10.8
G1X17.65Y10.63
G1X17.68Y10.03
G1X17.71Y9.63
G1X17.73Y9.29
G1Y8.89
G1Y8.67
G1X17.71Y8.42
G1X17.69Y8.15
G1X17.67Y7.85
G1X17.65Y7.55
G1Y7.22
G1Y7.04
G1Y6.84
G1X17.66Y6.61
G1X17.69Y5.97
G1X17.7Y5.54
G1Y5.39
G1Y5.36
G1X17.68
G1X17.66Y5.38
G1X17.64Y5.43
G1X17.62Y5.51
G1X17.59Y5.62
G1X17.56Y5.76
G1X17.53Y5.94
G1X17.36Y6.9
G1X17.22Y7.6
G1X17.2Y7.75
G1X17.18Y7.93
G1X17.17Y8.16
G1X17.15Y8.4
G1X17.14Y8.92
G1Y9.38
G1X17.16Y9.91
G1Y10.37
G1Y10.56
G1X17.15Y10.72
G1X17.14Y10.85
G1X17.12Y10.93
G1X17Y11.32
G1X16.91Y11.6
G1X16.83Y11.79
G1X16.74Y11.91
G1X16.64Y11.97
G1X16.53Y11.99
G1X16.43Y11.97
G1X16.31Y11.88
G1X16.19Y11.74
G1X16.07Y11.56
G1X15.97Y11.36
G1X15.92Y11.18
G1X15.86Y10.94
G1X15.84Y10.82
G1X15.82Y10.72
G1Y10.65
G1Y10.61
G1Y10.56
G1X15.84Y10.45
G1X15.86Y10.29
G1X15.88Y10.11
G1X15.93Y9.65
G1X15.99Y9.23
G1X16.02Y9.06
G1X16.04Y8.92
G1X16.06Y8.8
G1Y8.73
G1X16.08Y8.62
G1X16.13Y8.45
G1X16.21Y8.22
G1X16.31Y7.95
G1X16.56Y7.33
G1X16.85Y6.69
G1X17.08Y6.2
G1X17.24Y5.85
G1X17.36Y5.61
G1X17.48Y5.39
G1X17.53Y5.3
G1X17.58Y5.23
G1X17.61Y5.19
G1X17.64Y5.17
G1X17.66Y5.2
G1X17.68Y5.27
G1X17.69Y5.26
G1X17.71Y5.21
G1X17.73Y5.14
G1X17.81Y4.89
G1X17.92Y4.5
G0X16.61Y3.61
; Layer C00
G1X16.63Y3.13
G1X16.64Y2.93
G1X16.66Y2.73
G1X16.68Y2.57
G1X16.7Y2.46
G1X16.75Y2.27
G1X16.81Y2.12
G1X16.88Y1.97
G1X16.75Y1.83
G1X16.64Y1.67
G1X16.5Y1.35
G1X16.4Y1.23
G1X16.27Y1.15
G1X16.1Y1.09
G1X16.01Y1.08
G1X15.92
G1X15.8Y1.13
G1X15.62Y1.22
G1X15.49Y1.29
G1X15.36Y1.36
G1X15.26Y1.43
G1X15.2Y1.48
G1X15.15Y1.54
G1X15.12Y1.62
G1Y1.74
G1Y1.94
G1Y2.14
G1X15.14Y2.28
G1X15.18Y2.42
G1X15.3Y2.7
G1X15.34Y2.81
G1X15.37Y2.89
G1Y2.94
G1X15.4Y3
G1X15.52Y3.03
G1X15.99Y3.23
G1X16.47Y3.5
G1X16.61Y3.61
G0X15.23Y2.99
; Layer C00
G1Y2.97
G1X15.21Y2.92
G1X15.18Y2.83
G1X15.1Y2.57
G1X15.03Y2.28
G1X14.98Y2.07
G1Y1.91
G1X15Y1.72
G1X15.05Y1.52
G1X15.13Y1.34
G1X15.17Y1.27
G1X15.23Y1.22
G1X15.3Y1.18
G1X15.42Y1.15
G1X15.6Y1.09
G1X15.75Y1.02
G1X15.89Y0.97
G1X16.03Y0.95
G1X16.19Y0.99
G1X16.36Y1.07
G1X16.49Y1.15
G1X16.58Y1.25
G1X16.67Y1.38
G1X16.77Y1.58
G1X16.82Y1.68
G1X16.89Y1.78
G1X16.96Y1.86
G1X17.04Y1.79
G1X17.29Y1.59
G1X17.62Y1.41
G1X17.98Y1.27
G1X18.29Y1.21
G1X18.42
G1X18.51Y1.22
G1X18.59Y1.26
G1X18.7Y1.33
G1X18.88Y1.46
G1X18.85Y1.64
G1X18.83Y1.75
G1X18.78Y1.9
G1X18.71Y2.08
G1X18.64Y2.26
G1X18.42Y2.76
G1X18.31Y3.03
G1X18.51Y2.92
G1X18.83Y2.78
G1X19.23Y2.66
G1X19.67Y2.55
G1X20.11Y2.49
G1X20.38Y2.48
G1X20.66Y2.51
G1X20.93Y2.57
G1X21.19Y2.67
G1X21.44Y2.8
G1X21.67Y2.96
G1X21.88Y3.15
G1X22.06Y3.37
G1X22.14Y3.47
G1X22.21Y3.56
G1X22.26Y3.61
G1X22.29Y3.63
G1X22.31Y3.64
G1Y3.67
G1X22.3Y3.69
G1X22.35Y3.74
G1X22.37Y3.79
G1X22.41Y3.86
G1X22.44Y3.96
G1X22.5Y4.18
G1X22.55Y4.42
G1X22.57Y4.68
G1Y4.93
G1X22.54Y5.08
G1X22.51Y5.24
G1X22.47Y5.42
G1X22.36Y5.84
G1X22.31Y6.03
G1X22.28Y6.2
G1X22.26Y6.3
G1X22.24Y6.53
G1X22.19Y6.82
G1X22.15Y7.14
G1X22.14Y7.47
G1Y7.76
G1X22.18Y8.14
G1X22.2Y8.37
G1Y8.66
G1Y8.98
G1Y9.76
G1X22.31Y9.69
G1X22.63Y9.54
G1X23.05Y9.4
G1X23.22Y9.37
G1X23.41
G1X23.62Y9.38
G1X23.84Y9.43
G1X24.12Y9.51
G1X24.34Y9.6
G1X24.54Y9.71
G1X24.77Y9.87
G1X24.86Y9.93
G1X24.92Y9.97
G1X24.94Y10
G1Y10.02
G1X24.85
G1X24.68Y9.97
G1X24.42Y9.91
G1X24.12Y9.89
G1X23.81
G1X23.54Y9.95
G1X23.41Y9.99
G1X23.3Y10.06
G1X23.15Y10.18
G1X22.93Y10.37
G1X22.78Y10.51
G1X22.67Y10.62
G1X22.58Y10.7
G1X22.53Y10.77
G1X22.49Y10.85
G1X22.53Y10.88
G1X22.76Y10.97
G1X22.98Y11.08
G1X23.16Y11.21
G1X23.25Y11.32
G1X23.28Y11.44
G1X23.29Y11.61
G1X23.28Y11.77
G1X23.24Y11.94
G1X23.18Y12.13
G1X23.09Y12.34
G1X22.98Y12.56
G1X22.84Y12.79
G1X22.67Y13.05
G1X22.37Y13.47
G1X22.33Y13.53
G1X22.31Y13.58
G1X22.28Y13.63
G1X22.24Y13.7
G1X22.05Y14.01
G1X22.2Y14.17
G1X22.34Y14.33
G1X22.45Y14.51
G1X22.53Y14.7
G1X22.57Y14.88
G1X22.59Y15.06
G1X22.68Y14.88
G1X22.76Y14.7
G1X22.83Y14.51
G1X22.88Y14.35
G1X22.92Y14.23
G1X22.94Y14.18
G1X22.95Y14.09
G1X22.97Y13.98
G1X22.99Y13.85
G1X23.02Y13.56
G1X23.05Y13.15
G1Y13.05
G1X23.08Y12.98
G1X23.1Y12.94
G1X23.14Y12.91
G1X23.16
G1X23.17Y12.95
G1Y13.07
G1X23.19Y13.24
G1X23.2Y13.66
G1X23.22Y13.87
G1X23.23Y14.06
G1X23.25Y14.19
G1X23.34Y14.6
G1X23.47Y15.08
G1X23.54Y15.3
G1X23.6Y15.49
G1X23.66Y15.63
G1X23.7Y15.7
G1X23.72Y15.74
G1X23.76Y15.81
G1X23.81Y15.91
G1X23.86Y16.02
G1X23.97Y16.24
G1X24.14Y16.5
G1X24.25Y16.65
G1X24.38Y16.82
G1X24.54Y17.01
G1X24.72Y17.23
G1X24.97Y17.55
G1X25.12Y17.85
G1X25.17Y18.01
G1X25.2Y18.19
G1X25.22Y18.39
G1X25.23Y18.62
G1Y18.9
G1Y18.99
G1Y19.05
G1X25.21Y19.11
G1X25.17Y19.13
G1X25.11
G1X25.09Y19.08
G1X25.08Y18.98
G1X25.04Y18.84
G1X24.98Y18.67
G1X24.9Y18.49
G1X24.74Y18.14
G1X24.58Y17.88
G1X24.47Y17.77
G1X24.34Y17.66
G1X24.22Y17.59
G1X24.15Y17.57
G1X24.1
G1X23.91Y17.48
G1X23.78Y17.46
G1X23.64
G1X23.5Y17.5
G1X23.37Y17.55
G1X23.25Y17.63
G1X23.14Y17.73
G1X23.06Y17.84
G1X23Y18.03
G1X22.99Y18.26
G1X23.02Y18.5
G1X23.09Y18.7
G1X23.29Y19.02
G1X23.5Y19.28
G1X23.55Y19.34
G1X23.6Y19.41
G1X23.67Y19.5
G1X23.76Y19.61
G1X23.99Y19.93
G1X24.32Y20.4
G1X24.59Y20.83
G1X24.77Y21.24
G1X24.83Y21.45
G1X24.88Y21.68
G1X24.91Y21.94
G1X24.93Y22.22
G1Y22.44
G1Y22.58
G1Y22.65
G1X24.89Y22.69
G1X24.86Y22.71
G1X24.84
G1X24.83
G1X24.82Y22.67
G1X24.8Y22.57
G1Y22.41
G1X24.74Y21.97
G1X24.64Y21.59
G1X24.46Y21.25
G1X24.19Y20.93
G1X24.02Y20.76
G1X23.8Y20.58
G1X23.55Y20.39
G1X22.98Y19.98
G1X22.76Y19.81
G1X22.57Y19.64
G1X22.4Y19.47
G1X22.26Y19.28
G1X22.12Y19.07
G1X21.97Y18.83
G1X21.82Y18.53
G1X21.73Y18.36
G1X21.65Y18.2
G1X21.59Y18.07
G1X21.55Y17.95
G1X21.49Y17.75
G1X21.46Y17.57
G1X21.45Y17.51
G1X21.42Y17.48
G1X21.4Y17.5
G1X21.36Y17.57
G1X21.31Y17.67
G1X21.25Y17.79
G1X21.14Y18.08
G1X21.04Y18.35
G1X20.97Y18.59
G1X20.91Y18.75
G1X20.82Y18.98
G1X20.64Y19.32
G1X20.43Y19.63
G1X20.19Y19.83
G1X19.9Y20.01
G1X19.75Y20.08
G1X19.32Y20.31
G1X19.08Y20.43
G1X18.88Y20.51
G1X18.7Y20.56
G1X18.53Y20.58
G1X18.38
G1X18.22Y20.54
G1X18.06Y20.47
G1X17.92Y20.41
G1X17.81Y20.38
G1X17.71Y20.37
G1X17.58
G1X17.34Y20.38
G1X17.15
G1X17
G1X16.88Y20.36
G1X16.66Y20.26
G1X16.42Y20.08
G1X16.22Y19.93
G1X16.05Y19.81
G1X15.76Y19.6
G1X15.5Y19.3
G1X15.37Y19.11
G1X15.24Y18.88
G1X15.1Y18.61
G1X14.95Y18.3
G1X14.87Y18.1
G1X14.82Y17.93
G1X14.81Y17.81
G1X14.86Y17.71
G1X14.81Y17.62
G1X14.72Y17.46
G1X14.61Y17.3
G1X14.51Y17.17
G1X14.46Y17.1
G1X14.42Y17.15
G1X14.27Y17.52
G1X14.13Y17.81
G1X14.06Y17.94
G1X14Y18.05
G1X13.95Y18.13
G1X13.93Y18.16
G1X13.9Y18.17
G1X13.87Y18.22
G1X13.81Y18.29
G1X13.76Y18.37
G1X13.58Y18.59
G1X13.32Y18.82
G1X12.99Y19.06
G1X12.62Y19.3
G1X12.47Y19.39
G1X12.35Y19.46
G1X12.27Y19.51
G1X12.24Y19.54
G1X12.26
G1X12.29Y19.53
G1X12.31
G1Y19.54
G1X12.27Y19.57
G1X12.21
G1X12.18Y19.55
G1Y19.57
G1Y19.59
G1X12.14Y19.62
G1X12.08Y19.67
G1X12Y19.72
G1X11.85Y19.82
G1X11.78Y19.89
G1X11.75Y19.93
G1X11.71Y19.94
G1X11.66Y19.96
G1X11.61Y19.99
G1X11.57Y20.02
G1X11.53Y20.03
G1X11.49Y20.06
G1X11.39Y20.13
G1X11.27Y20.24
G1X11.13Y20.36
G1X10.99Y20.49
G1X10.87Y20.61
G1X10.76Y20.72
G1X10.7Y20.79
G1X10.41Y21.21
G1X10.32Y21.36
G1X10.26Y21.47
G1X10.19Y21.63
G1X10.15Y21.8
G1X10.12Y21.92
G1X10.07Y21.96
G1X10.03Y21.94
G1X9.99Y21.84
G1Y21.7
G1X10.03Y21.49
G1X10.1Y21.24
G1X10.2Y20.98
G1X10.28Y20.79
G1X10.31Y20.67
G1X10.36Y20.57
G1X10.47Y20.43
G1X10.63Y20.24
G1X10.82Y20.04
G1X11.03Y19.83
G1X11.24Y19.64
G1X11.45Y19.46
G1X11.63Y19.33
G1X11.99Y19.05
G1X12.3Y18.74
G1X12.44Y18.58
G1X12.55Y18.43
G1X12.63Y18.29
G1X12.68Y18.16
G1X12.7Y18.04
G1X12.71Y17.88
G1Y17.69
G1X12.7Y17.51
G1X12.67Y17.43
G1X12.6Y17.34
G1X12.49Y17.26
G1X12.36Y17.21
G1X12.21
G1X12.04Y17.23
G1X11.86Y17.28
G1X11.69Y17.37
G1X11.52Y17.48
G1X11.36Y17.62
G1X11.26Y17.72
G1X11.2Y17.76
G1X11.15Y17.81
G1X11.02Y18.04
G1X10.96Y18.11
G1X10.94
G1Y18.05
G1X10.91Y17.95
G1X10.87Y17.8
G1Y17.62
G1Y17.42
G1X10.92Y17.22
G1X10.97Y17.08
G1X11.04Y16.92
G1X11.1Y16.81
G1X11.17Y16.67
G1X11.38Y16.28
G1X11.55Y15.95
G1X11.7Y15.65
G1X11.82Y15.42
G1X11.91Y15.24
G1X11.98Y15.1
G1X11.72Y14.85
G1X11.55Y14.67
G1X11.4Y14.48
G1X11.28Y14.26
G1X11.17Y14.03
G1X11.08Y13.79
G1X11.02Y13.54
G1X10.98Y13.28
G1Y13.02
G1Y12.82
G1X11Y12.68
G1X11.03Y12.6
G1X11.08Y12.58
G1X11.18Y12.61
G1X11.29Y12.71
G1X11.38Y12.85
G1X11.45Y13.02
G1X11.52Y13.2
G1X11.58Y13.34
G1X11.63Y13.44
G1X11.67Y13.46
G1Y13.4
G1X11.64Y13.26
G1X11.61Y13.11
G1X11.63Y13.04
G1X11.68Y13.01
G1X11.72Y13.03
G1X11.78Y13.11
G1X11.85Y13.24
G1X11.95Y13.43
G1X12.09Y13.63
G1X12.15Y13.72
G1X12.21Y13.8
G1X12.26Y13.85
G1X12.28Y13.86
G1X12.32Y13.82
G1X12.36Y13.71
G1X12.41Y13.53
G1X12.49Y13.31
G1X12.56Y13.08
G1X12.66Y12.68
G1X12.71Y12.52
G1X12.79Y12.19
G1X12.81Y11.92
G1Y11.88
G1X12.85Y11.82
G1X12.89Y11.77
G1X12.93Y11.81
G1X12.95Y11.87
G1Y11.95
G1X12.97Y12.07
G1Y12.2
G1X13.01Y12.57
G1X13.04Y12.88
G1X13.06Y12.99
G1X13.08Y13.08
G1X13.1Y13.14
G1X13.12
G1X13.14Y13.12
G1X13.15Y13.05
G1X13.16Y12.96
G1X13.17Y12.84
G1X13.19Y12.68
G1X13.22Y12.46
G1X13.26Y12.2
G1X13.31Y11.93
G1X13.37Y11.65
G1X13.41Y11.42
G1X13.44Y11.24
G1X13.46Y11.09
G1Y10.9
G1X13.44Y10.76
G1X13.39Y10.59
G1X13.26Y10.11
G1X13.14Y9.66
G1X13.08Y9.45
G1X13.03Y9.24
G1X12.96Y9.04
G1X12.89Y8.79
G1X12.81Y8.46
G1X12.67Y7.8
G1X12.54Y7.21
G1X12.51Y7.03
G1X12.46Y6.83
G1X12.39Y6.62
G1X12.3Y6.37
G1X12.16Y5.91
G1X12.11Y5.78
G1X12.08Y5.69
G1X12.05Y5.63
G1X12.03Y5.56
G1X12.01Y5.46
G1X12Y5.33
G1Y5.18
G1Y4.86
G1X12.06Y4.53
G1X12.1Y4.32
G1X12.16Y4.15
G1X12.23Y4
G1X12.32Y3.87
G1X12.43Y3.75
G1X12.58Y3.64
G1X12.77Y3.52
G1X12.99Y3.39
G1X13.45Y3.18
G1X13.92Y3.03
G1X14.38Y2.94
G1X14.81Y2.93
G1X15.04Y2.95
G1X15.18Y2.98
G1X15.23
G0X7.77Y14.76
; Layer C00
G1X7.83Y14.79
G1X7.93Y14.85
G1X8.07Y14.93
G1X8.52Y15.22
G1X8.59Y15.26
G1X8.69Y15.32
G1X8.95Y15.45
G1X9.28Y15.62
G1X9.63Y15.79
G1X9.96Y15.96
G1X10.26Y16.09
G1X10.38Y16.15
G1X10.48Y16.19
G1X10.54Y16.22
G1X10.58
G1X10.68Y16.3
G1X10.75Y16.41
G1X10.72Y16.43
G1X10.64Y16.45
G1X10.53Y16.47
G1X10.39
G1X10.1Y16.49
G1X9.87
G1X9.02Y16.3
G1X8.09Y16.08
G1X7.93Y16.03
G1X7.66Y15.96
G1X7.58Y15.95
G1X7.49Y15.93
G1X7.38Y15.88
G1X7.29Y15.84
G1X7.15Y15.8
G1X6.99Y15.74
G1X6.7Y15.64
G1X6.49Y15.56
G1X6.37Y15.48
G1X6.34Y15.42
G1X6.39Y15.4
G1X6.5
G1X6.65Y15.42
G1X6.81Y15.46
G1X7Y15.51
G1X7.23Y15.56
G1X7.88Y15.7
G1X8.09Y15.74
G1X8.26Y15.75
G1X8.42
G1X8.66
G1X8.47Y15.6
G1X8.25Y15.41
G1X8Y15.17
G1X7.89Y15.05
G1X7.8Y14.94
G1X7.73Y14.86
G1X7.71Y14.81
G1Y14.78
G1X7.73Y14.76
G1X7.77
G0X6Y15.85
; Layer C00
G1X6.19Y15.97
G1X6.39Y16.09
G1X6.48Y16.15
G1X6.54Y16.2
G1X6.57Y16.24
G1Y16.28
G1X6.55Y16.33
G1X6.48Y16.34
G1X6.18Y16.32
G1X6.09
G1X6.01
G1X5.92Y16.34
G1X5.85Y16.4
G1X5.74Y16.53
G1X5.63Y16.71
G1X5.57Y16.84
G1X5.54Y16.95
G1X5.52Y17.1
G1Y17.33
G1X5.54Y17.66
G1X5.58Y17.93
G1X5.66Y18.15
G1X5.77Y18.32
G1X5.88Y18.42
G1X6Y18.49
G1X6.11Y18.53
G1X6.2
G1X6.25
G1X6.29Y18.55
G1X6.34Y18.56
G1X6.42Y18.5
G1X6.49Y18.43
G1X6.54Y18.41
G1X6.58Y18.37
G1X6.72Y18.2
G1X6.77Y18.17
G1X6.8Y18.2
G1Y18.31
G1Y18.4
G1X6.75Y18.49
G1X6.68Y18.61
G1X6.54Y18.77
G1X6.29Y19.05
G1X5.99Y19.34
G1X5.68Y19.59
G1X5.4Y19.79
G1X4.87Y20.11
G1X4.65Y20.25
G1X4.58Y20.29
G1X4.48Y20.33
G1X4.37Y20.4
G1X4.21Y20.48
G1X3.98Y20.57
G1X3.7Y20.66
G1X3.41Y20.73
G1X3.13Y20.8
G1X2.89Y20.84
G1X2.79
G1X2.71Y20.85
G1X2.66
G1X2.63Y20.83
G1Y20.8
G1X2.64Y20.77
G1X2.69Y20.74
G1X2.76Y20.71
G1X3.17Y20.52
G1X3.55Y20.27
G1X3.69Y20.16
G1X3.89Y20
G1X4.22Y19.72
G1X4.47Y19.46
G1X4.67Y19.18
G1X4.81Y18.88
G1X4.87Y18.73
G1X4.89Y18.6
G1Y18.51
G1Y18.4
G1Y18.27
G1X4.87Y17.9
G1Y17.74
G1X4.85Y17.61
G1X4.82Y17.49
G1X4.76Y17.28
G1X4.64Y17.05
G1X4.54Y16.89
G1X4.39Y16.71
G1X4.25Y16.55
G1X4.14Y16.47
G1X4.04Y16.42
G1X3.9Y16.35
G1X3.71Y16.27
G1X3.49Y16.21
G1X3.26Y16.18
G1X3.07
G1X2.88Y16.21
G1X2.47Y16.31
G1X2.34Y16.33
G1X2.27Y16.32
G1X2.26Y16.28
G1Y16.24
G1X2.24Y16.22
G1Y16.18
G1X2.3Y16.11
G1X2.4Y16.01
G1X2.52Y15.9
G1X2.79Y15.67
G1X3.02Y15.51
G1X3.33Y15.38
G1X3.68Y15.29
G1X4.07Y15.26
G1X4.46Y15.27
G1X4.59Y15.3
G1X4.78Y15.35
G1X4.99Y15.42
G1X5.22Y15.5
G1X5.45Y15.59
G1X5.66Y15.68
G1X5.85Y15.77
G1X6Y15.85
G0X8.06Y18.22
; Layer C00
G1X8.1Y18.21
G1X8.13Y18.25
G1X8.15Y18.34
G1X8.2Y18.68
G1X8.29Y19.07
G1X8.34Y19.27
G1X8.4Y19.51
G1X8.47Y19.76
G1X8.56Y20.05
G1X8.67Y20.35
G1X8.79Y20.67
G1X8.92Y20.98
G1X9.05Y21.26
G1X9.18Y21.52
G1X9.3Y21.73
G1X9.59Y22.21
G1X9.65Y22.31
G1X9.69Y22.39
G1X9.72Y22.44
G1Y22.47
G1X9.68Y22.46
G1X9.58Y22.42
G1X9.44Y22.35
G1X9.26Y22.27
G1X9.09Y22.18
G1X8.94Y22.1
G1X8.84Y22.05
G1X8.76Y21.98
G1X8.53Y21.89
G1X8.29Y21.76
G1X8.12Y21.69
G1X7.76Y21.56
G1X7.44Y21.46
G1X7.16Y21.38
G1X6.89Y21.32
G1X6.39Y21.24
G1X5.86Y21.21
G1X5.55Y21.2
G1X5.33
G1X5.13Y21.24
G1X4.7Y21.33
G1X4.57Y21.35
G1X4.48
G1X4.44
G1Y21.32
G1Y21.3
G1X4.48Y21.28
G1X4.55Y21.25
G1X4.67Y21.2
G1X4.83Y21.16
G1X5.03Y21.11
G1X5.25Y21.05
G1X5.7Y20.96
G1X6.1Y20.89
G1X6.32Y20.87
G1X6.58Y20.86
G1X6.87Y20.84
G1X7.16
G1X7.45
G1X7.7
G1X7.89Y20.86
G1X8.01Y20.87
G1X8.1Y20.9
G1X8.14
G1Y20.87
G1X8.12Y20.66
G1X8.06Y20.15
G1X8.02Y19.78
G1X8Y19.65
G1Y19.46
G1Y19.23
G1Y18.99
G1Y18.76
G1Y18.55
G1X8.02Y18.39
G1X8.03Y18.29
G1X8.06Y18.22
G0X7.17Y22.39
; Layer C00
G1X7.37Y22.41
G1X7.54Y22.44
G1X7.68Y22.46
G1X7.78Y22.49
G1X7.89Y22.52
G1X8.3Y22.62
G1X8.47Y22.67
G1X8.58Y22.72
G1X8.61Y22.78
G1X8.59Y22.82
G1X8.54
G1X8.43Y22.8
G1X8.28Y22.75
G1X8.19Y22.72
G1X8.08Y22.7
G1X7.91Y22.67
G1X7.66Y22.64
G1X7.32Y22.62
G1X6.98
G1X6.65Y22.66
G1X6.33Y22.73
G1X6.13Y22.78
G1X5.86Y22.85
G1X5.76Y22.88
G1X5.59Y22.94
G1X5.37Y23.02
G1X4.83Y23.24
G1X4.37Y23.49
G1X3.96Y23.78
G1X3.57Y24.11
G1X3.33Y24.34
G1X3.14Y24.54
G1X2.99Y24.71
G1X2.86Y24.87
G1X2.75Y25.03
G1X2.64Y25.21
G1X2.54Y25.42
G1X2.41Y25.68
G1X2.24Y26.13
G1X2.13Y26.62
G1X2.1Y26.89
G1X2.08Y27.18
G1X2.07Y27.49
G1Y27.82
G1X2.09Y28.08
G1X2.1Y28.3
G1X2.12Y28.44
G1X2.14Y28.49
G1X2.16Y28.55
G1X2.18Y28.9
G1X2.22Y29.17
G1X2.26Y29.41
G1X2.28Y29.59
G1Y29.7
G1X2.24Y29.74
G1X2.22Y29.72
G1X2.17Y29.66
G1X2.11Y29.56
G1X2.05Y29.45
G1X1.91Y29.17
G1X1.78Y28.92
G1X1.65Y28.62
G1X1.59Y28.49
G1X1.53Y28.31
G1X1.46Y28.1
G1X1.39Y27.86
G1X1.24Y27.33
G1X1.12Y26.79
G1X1.06Y26.49
G1X1.03Y26.22
G1X1.02Y26.08
G1X1.01Y25.92
G1Y25.73
G1Y25.51
G1Y24.85
G1X1.04Y24.27
G1X1.1Y23.68
G1X1.22Y23.04
G1X1.33Y22.58
G1X1.48Y22.11
G1X1.53Y21.99
G1X1.61Y21.84
G1X1.7Y21.66
G1X1.79Y21.49
G1X1.88Y21.32
G1X1.96Y21.18
G1X2.02Y21.09
G1X2.06Y21.05
G1X2.08Y21.07
G1X2.09Y21.11
G1X2.07Y21.2
G1X2.04Y21.33
G1X1.98Y21.53
G1X1.93Y21.8
G1X1.89Y22.1
G1X1.85Y22.41
G1X1.82Y22.69
G1X1.81Y22.94
G1Y23.12
G1X1.83Y23.21
G1X1.84Y23.25
G1X1.86Y23.32
G1X1.87Y23.42
G1Y23.54
G1X1.91Y23.79
G1X1.94Y24.01
G1X1.99Y24.19
G1X2.2Y23.98
G1X2.55Y23.67
G1X2.98Y23.35
G1X3.45Y23.06
G1X3.9Y22.83
G1X4.46Y22.62
G1X5.08Y22.47
G1X5.73Y22.37
G1X6.38Y22.33
G1X6.75Y22.35
G1X7.17Y22.39
M9
G1S0
M5
G90
; return to user-defined finish pos
G0 X0 Y0
M2
