; LightBurn 0.9.24
; GRBL device profile, absolute coords
; Bounds: X0.46 Y0.62 to X34.72 Y32.82
G00 G17 G40 G21 G54
G90
M4
; Cut @ 6000 mm/min, 20% power
M8
G0X9.38Y6.74
; Layer C00
G1X9.45Y6.88S20F6000
G1X9.58Y7.03
G1X9.78Y7.21
G1X10Y7.38
G1X10.18Y7.49
G1X10.34Y7.53
G1X10.53Y7.56
G1X10.78Y7.63
G1X10.98Y7.76
G1X11.11Y7.95
G1X11.19Y8.2
G1X11.21Y8.33
G1X11.24Y8.41
G1Y8.45
G1Y8.52
G1Y8.62
G1Y8.73
G1X11.23Y8.84
G1X11.21Y8.92
G1X11.2Y8.97
G1X11.17Y9
G1X11.15
G1X11.12Y8.97
G1X11.08Y8.92
G1X11.05Y8.84
G1X10.97Y8.68
G1X10.86Y8.51
G1X10.75Y8.37
G1X10.67Y8.3
G1X10.6Y8.32
G1X10.51Y8.43
G1X10.41Y8.59
G1X10.31Y8.82
G1X10.21Y9.04
G1X10.12Y9.21
G1X10.04Y9.32
G1X9.99Y9.36
G1X9.97
G1X9.95Y9.35
G1X9.94Y9.1
G1X9.91Y8.85
G1X9.87Y8.6
G1X9.79Y8.35
G1X9.69Y8.06
G1X9.61Y7.89
G1X9.56Y7.74
G1X9.51Y7.61
G1X9.47Y7.5
G1X9.43Y7.33
G1X9.4Y7.1
G1X9.37Y7.01
G1X9.35Y6.93
G1Y6.84
G1X9.38Y6.74
G0X11.66Y7.84
; Layer C00
G1X11.73Y7.79
G1X11.78
G1X11.8Y7.84
G1Y7.95
G1X11.82Y8.25
G1X11.92Y8.56
G1X12.11Y8.9
G1X12.3Y9.15
G1X12.36Y9.26
G1Y9.32
G1X12.33Y9.31
G1X12.28Y9.28
G1X12.12Y9.18
G1X11.93Y9.03
G1X11.78Y8.88
G1X11.65Y8.71
G1X11.55Y9
G1X11.51Y9.11
G1X11.47Y9.2
G1X11.44Y9.25
G1X11.42Y9.27
G1X11.36Y9.22
G1X11.33Y9.09
G1Y8.91
G1X11.37Y8.67
G1X11.43Y8.38
G1X11.5Y8.14
G1X11.58Y7.95
G1X11.66Y7.84
G0X10.63Y8.88
; Layer C00
G1X10.65Y8.89
G1X10.69Y8.93
G1X10.73Y9
G1X10.79Y9.12
G1X10.86Y9.29
G1X10.92Y9.47
G1X11.02Y9.84
G1X11.1Y10.2
G1X11.15Y10.57
G1X11.16Y10.93
G1X11.1Y11.34
G1X10.97Y11.75
G1X10.93Y11.87
G1X10.87Y12.05
G1X10.81Y12.22
G1X10.76Y12.31
G1X10.71Y12.37
G1X10.66Y12.47
G1X10.59Y12.63
G1X10.51Y12.87
G1X10.43Y13.08
G1X10.37Y13.26
G1X10.33Y13.42
G1X10.3Y13.57
G1X10.28Y13.84
G1X10.3Y14.15
G1X10.36Y14.51
G1X10.44Y14.84
G1X10.56Y15.13
G1X10.71Y15.41
G1X10.78Y15.51
G1X10.84Y15.6
G1X10.87Y15.67
G1Y15.69
G1X10.83Y15.68
G1X10.73Y15.63
G1X10.62Y15.54
G1X10.51Y15.38
G1X10.38Y15.16
G1X10.26Y14.91
G1X10.03Y14.3
G1X9.85Y13.64
G1X9.82Y13.46
G1X9.81Y13.31
G1Y13.16
G1X9.83Y12.96
G1X9.89Y12.63
G1X9.97Y12.34
G1X10.03Y12.19
G1X10.11Y12.02
G1X10.2Y11.83
G1X10.32Y11.6
G1X10.54Y11.16
G1X10.69Y10.77
G1X10.79Y10.41
G1X10.83Y10.05
G1Y9.78
G1X10.8Y9.51
G1X10.74Y9.27
G1X10.67Y9.11
G1X10.63Y9.03
G1X10.62Y8.94
G1Y8.9
G1Y8.88
G0X9.44Y9.3
; Layer C00
G1X9.55Y9.41
G1X9.57Y9.49
G1X9.53Y9.55
G1X9.47Y9.59
G1X9.38Y9.63
G1X9.26Y9.68
G1X9.1Y9.75
G1X8.82Y9.87
G1X8.56Y9.99
G1X8.34Y10.1
G1X8.15Y10.22
G1X7.99Y10.34
G1X7.85Y10.45
G1X7.74Y10.57
G1X7.66Y10.68
G1X7.58Y10.81
G1X7.55Y10.91
G1X7.53Y11.04
G1Y11.21
G1Y11.34
G1X7.55Y11.45
G1X7.56Y11.51
G1X7.58Y11.54
G1X7.61Y11.57
G1X7.62Y11.61
G1X7.65Y11.65
G1X7.72Y11.66
G1X7.8Y11.64
G1X7.85Y11.6
G1X7.88Y11.56
G1X7.89
G1X7.91
G1X7.93Y11.59
G1X7.96Y11.61
G1X7.99
G1X8.02Y11.59
G1X8.17Y11.44
G1X8.25Y11.37
G1X8.3Y11.34
G1X8.32Y11.37
G1Y11.41
G1Y11.47
G1X8.33Y11.68
G1X8.32Y11.84
G1X8.28Y12.03
G1X8.22Y12.23
G1X8.14Y12.43
G1X7.93Y12.85
G1X7.69Y13.21
G1X7.62Y13.29
G1X7.56Y13.37
G1X7.52Y13.43
G1X7.48Y13.5
G1X7.42Y13.58
G1X7.33Y13.69
G1X7.22Y13.81
G1X6.98Y14.06
G1X6.76Y14.25
G1X6.46Y14.48
G1X6.22Y14.64
G1X5.98Y14.77
G1X5.7Y14.9
G1X5.28Y15.06
G1X4.9Y15.17
G1X4.74Y15.21
G1X4.62Y15.22
G1X4.54
G1X4.51Y15.19
G1X4.52Y15.17
G1X4.55Y15.15
G1X4.61Y15.12
G1X4.69Y15.08
G1X4.81Y15.02
G1X4.96Y14.95
G1X5.39Y14.76
G1X5.54Y14.69
G1X5.69Y14.59
G1X5.86Y14.45
G1X6.08Y14.25
G1X6.24Y14.09
G1X6.37Y13.96
G1X6.45Y13.86
G1X6.48Y13.81
G1Y13.77
G1X6.55Y13.65
G1X6.57Y13.58
G1X6.58Y13.51
G1X6.65Y13.4
G1X6.68Y13.3
G1X6.73Y13.13
G1X6.79Y12.9
G1Y12.85
G1X6.81Y12.74
G1Y12.6
G1X6.83Y12.44
G1Y12.12
G1X6.79Y11.81
G1X6.72Y11.51
G1X6.61Y11.21
G1X6.45Y10.91
G1X6.26Y10.62
G1X6.03Y10.32
G1X5.76Y10.03
G1X5.59Y9.88
G1X5.43Y9.75
G1X5.32Y9.64
G1X5.27Y9.52
G1Y9.46
G1Y9.41
G1X5.32Y9.34
G1X5.39Y9.26
G1X5.55Y9.13
G1X5.73Y9.01
G1X5.93Y8.9
G1X6.16Y8.8
G1X6.67Y8.65
G1X7.25Y8.56
G1X7.38
G1X7.55Y8.58
G1X7.75Y8.62
G1X7.97Y8.67
G1X8.19Y8.73
G1X8.39Y8.79
G1X8.57Y8.85
G1X8.8Y8.97
G1X8.94Y9
G1X9.02Y9.04
G1X9.12Y9.09
G1X9.23Y9.16
G1X9.44Y9.3
G0X14.53Y9.35
; Layer C00
G1X14.56Y9.16
G1X14.59Y8.91
G1X14.64Y8.61
G1X14.7Y8.23
G1X14.77Y7.9
G1X14.85Y7.6
G1X14.91Y7.45
G1X14.98Y7.28
G1X15.07Y7.09
G1X15.18Y6.87
G1X15.24Y6.75
G1X15.26Y6.68
G1X15.28Y6.65
G1X15.31Y6.6
G1X15.42Y6.45
G1X15.55Y6.27
G1X15.68Y6.12
G1X15.99Y5.75
G1X16.17Y5.54
G1X16.39Y5.25
G1X16.46Y5.17
G1X16.52Y5.1
G1X16.57Y5
G1X16.62Y4.9
G1X16.67Y4.82
G1X16.82Y4.5
G1X16.92Y4.15
G1Y4.11
G1X16.95Y4.1
G1X16.98Y4.07
G1X17.01Y3.96
G1X17.03Y3.77
G1X17.08Y3.23
G1X17.1Y3.04
G1X17.13Y2.93
G1X17.15Y2.9
G1X17.17
G1X17.19Y2.95
G1X17.21Y3.01
G1Y3.1
G1X17.22Y3.22
G1Y3.36
G1Y3.52
G1Y3.71
G1X17.19Y4.12
G1X17.15Y4.44
G1X17.08Y4.74
G1X16.97Y5.11
G1X16.84Y5.47
G1X16.69Y5.84
G1X16.59Y6.05
G1X16.46Y6.3
G1X16.31Y6.61
G1X15.92Y7.36
G1X15.75Y7.71
G1X15.68Y7.86
G1X15.57Y8.1
G1X15.54Y8.17
G1X15.42Y8.47
G1X15.28Y8.81
G1X15.16Y9.13
G1X15.08Y9.45
G1X15.02Y9.8
G1X14.99Y10.18
G1X14.98Y10.37
G1X14.96Y10.52
G1X14.95Y10.63
G1X14.93Y10.7
G1X14.91Y10.73
G1X14.88
G1X14.84Y10.7
G1X14.8Y10.65
G1X14.73Y10.52
G1X14.67Y10.35
G1X14.61Y10.15
G1X14.56Y9.91
G1X14.53Y9.64
G1Y9.35
G0X13.54Y11.42
; Layer C00
G1X13.52Y11.44
G1X13.49Y11.51
G1X13.45Y11.62
G1X13.41Y11.78
G1X13.33Y12.14
G1X13.27Y12.45
G1X13.23Y12.72
G1Y12.95
G1Y13.12
G1X13.26Y13.21
G1X13.34Y13.22
G1X13.48Y13.19
G1X13.59Y13.16
G1X13.76Y13.13
G1X13.99Y13.09
G1X14.27Y13.05
G1X14.38Y13.03
G1X14.4Y13.01
G1X14.37Y12.98
G1X14.32Y12.93
G1X14.26Y12.86
G1X14.19Y12.77
G1X14.05Y12.57
G1X13.95Y12.41
G1X13.91Y12.33
G1X13.86Y12.2
G1X13.79Y12.03
G1X13.66Y11.66
G1X13.62Y11.53
G1X13.58Y11.45
G1X13.54Y11.42
G0X11.04Y12.84
; Layer C00
G1X11Y12.82
G1X10.98Y12.83
G1X10.96Y12.87
G1X10.94Y12.93
G1Y13.03
G1Y13.15
G1Y13.31
G1X10.97Y13.64
G1X11.03Y13.93
G1X11.13Y14.18
G1X11.26Y14.42
G1X11.35Y14.58
G1X11.39Y14.66
G1X11.42Y14.69
G1X11.47Y14.75
G1X11.56Y14.84
G1X11.66Y14.94
G1X11.92Y15.14
G1X12.23Y15.34
G1X12.38Y15.43
G1X12.51Y15.5
G1X12.63Y15.54
G1X12.7Y15.56
G1X12.84Y15.58
G1X13.04Y15.62
G1X13.21Y15.64
G1X13.42Y15.66
G1X13.57
G1X13.74
G1X13.94
G1X15.32Y15.63
G1X15.62Y15.62
G1X15.99Y15.59
G1X16.38Y15.58
G1X16.73Y15.59
G1X17.23Y15.65
G1X17.93Y15.73
G1X18.68Y15.82
G1X19.19Y15.88
G1X20.19Y15.99
G1X20.37Y16.01
G1X20.41
G1X20.44Y16.03
G1X20.47
G1X20.52
G1X20.71
G1X20.97
G1X21.27
G1X21.57Y16.01
G1X21.85Y16
G1X22.07Y15.98
G1X22.2Y15.97
G1X22.34Y15.92
G1X22.46Y15.85
G1X22.57Y15.73
G1X22.69Y15.55
G1X22.74Y15.45
G1X22.76Y15.38
G1Y15.27
G1X22.74Y15.11
G1X22.68Y14.87
G1X22.6Y14.67
G1X22.52Y14.53
G1X22.41Y14.4
G1X22.31Y14.3
G1X22.24Y14.26
G1X22.2Y14.29
G1X22.15Y14.37
G1X22.08Y14.46
G1X22.01Y14.52
G1X21.97Y14.54
G1X21.96Y14.57
G1Y14.6
G1X21.98Y14.64
G1X22Y14.73
G1Y14.87
G1X21.96Y15.06
G1X21.9Y15.3
G1X21.85Y15.43
G1X21.81Y15.54
G1X21.77Y15.61
G1X21.71Y15.66
G1X21.63Y15.7
G1X21.53Y15.72
G1X21.4Y15.74
G1X21.23Y15.75
G1X20.92Y15.74
G1X20.59Y15.67
G1X20.52Y15.64
G1X20.47Y15.59
G1X20.43Y15.51
G1X20.38Y15.36
G1X20.27Y15.07
G1X20.15Y14.81
G1X20.03Y14.6
G1X19.92Y14.46
G1X19.85Y14.39
G1X19.78Y14.36
G1X19.7Y14.34
G1X19.6
G1X19.46
G1X19.41Y14.35
G1X19.43Y14.4
G1X19.49Y14.51
G1X19.56Y14.65
G1X19.6Y14.82
G1Y14.96
G1X19.55Y15.06
G1X19.44Y15.11
G1X19.24Y15.14
G1X19.06
G1X18.87Y15.13
G1X18.75Y15.11
G1X18.61Y15.08
G1X18.44Y15.03
G1X18.24Y14.98
G1X17.97Y14.92
G1X17.63Y14.88
G1X17.25Y14.84
G1X16.85Y14.82
G1X16.43Y14.8
G1X16.02
G1X15.64Y14.82
G1X15.3Y14.85
G1X14.96Y14.88
G1X14.62Y14.91
G1X14.35Y14.93
G1X14.16Y14.97
G1X14.07Y14.99
G1X13.96
G1X13.86Y15.02
G1X13.73Y15.05
G1X13.57Y15.07
G1X13.41
G1X13.26Y15.04
G1X13.13Y14.97
G1X12.96Y14.84
G1X12.81Y14.69
G1X12.74Y14.58
G1X12.68Y14.5
G1X12.56Y14.43
G1X12.39Y14.33
G1X12.22Y14.2
G1X12.08Y14.09
G1X12.01Y14.04
G1X11.88Y13.89
G1X11.77Y13.7
G1X11.74Y13.63
G1X11.69Y13.54
G1X11.63Y13.42
G1X11.65Y13.54
G1X11.68Y13.63
G1X11.71Y13.71
G1X11.74Y13.81
G1Y13.89
G1X11.7Y13.93
G1X11.62Y13.87
G1X11.59
G1X11.56
G1X11.53Y13.82
G1X11.49Y13.75
G1X11.43Y13.67
G1X11.37Y13.58
G1X11.31Y13.46
G1X11.26Y13.31
G1X11.2Y13.13
G1X11.15Y13
G1X11.08Y12.89
G1X11.04Y12.84
G0X12.85Y14.05
; Layer C00
G1X12.8Y14.08
G1X12.77Y14.13
G1Y14.2
G1Y14.32
G1X12.82Y14.4
G1X12.87Y14.46
G1X12.88Y14.51
G1X12.89Y14.54
G1X12.93Y14.59
G1X12.99Y14.66
G1X13.07Y14.74
G1X13.27Y14.94
G1X13.58Y14.92
G1X13.76Y14.9
G1X13.94Y14.87
G1X14.15Y14.82
G1X14.39Y14.74
G1X14.71Y14.65
G1X15.09Y14.57
G1X15.51Y14.49
G1X15.96Y14.43
G1X16.95Y14.33
G1X17.97Y14.28
G1X18.38
G1X18.79Y14.26
G1X19.15Y14.25
G1X19.42Y14.24
G1X19.79Y14.23
G1X20.11Y14.25
G1X20.28Y14.27
G1X20.49Y14.31
G1X20.73Y14.36
G1X21.27Y14.48
G1X21.48Y14.52
G1X21.63Y14.55
G1X21.7
G1X21.79Y14.51
G1X21.92Y14.39
G1X22.07Y14.25
G1X22.17Y14.11
G1X22.5Y13.61
G1X22.98Y12.89
G1X23.09Y12.73
G1X23.17Y12.6
G1X23.24Y12.48
G1X23.34Y12.29
G1X23.41Y12.09
G1X23.46Y11.88
G1X23.49Y11.67
G1Y11.58
G1Y11.5
G1X23.47Y11.46
G1X23.45Y11.44
G1X23.42Y11.42
G1X23.39Y11.36
G1X23.33Y11.28
G1X23.21Y11.2
G1X23.05Y11.11
G1X22.88Y11.04
G1X22.72Y11
G1X22.58Y11.03
G1X22.46Y11.09
G1X22.38Y11.18
G1X22.31Y11.32
G1X22.23Y11.55
G1X22.12Y11.86
G1X21.99Y12.16
G1X21.85Y12.41
G1X21.71Y12.61
G1X21.62Y12.73
G1X21.58Y12.8
G1X21.56Y12.83
G1X21.5Y12.9
G1X21.4Y13
G1X21.29Y13.11
G1X21Y13.38
G1X20.21
G1X19.19
G1X18.1Y13.31
G1X17.88
G1X17.58Y13.3
G1X17.24
G1X16.87
G1X16.51
G1X16.18
G1X15.93Y13.32
G1X15.77
G1X15.49Y13.37
G1X14.9Y13.48
G1X14.66Y13.52
G1X14.45Y13.55
G1X14.25Y13.6
G1X13.83Y13.73
G1X13.4Y13.86
G1X13.24Y13.91
G1X13.1Y13.96
G1X12.85Y14.05
G0X12.89Y15.71
; Layer C00
G1X12.83
G1X12.8Y15.78
G1Y15.91
G1X12.88Y16.2
G1X13.03Y16.49
G1X13.23Y16.75
G1X13.46Y16.93
G1X13.54Y16.97
G1X13.62Y16.99
G1X13.73Y17
G1X13.88
G1X14.18Y16.97
G1Y16.95
G1X14.15Y16.89
G1X14.07Y16.71
G1X13.97Y16.43
G1X13.89Y16.13
G1X13.82Y15.81
G1X13.45Y15.8
G1X13.3
G1X13.16Y15.78
G1X13.06Y15.77
G1X13Y15.75
G1X12.89Y15.71
G0X14.52Y16.87
; Layer C00
G1X14.57
G1X14.63
G1X14.77Y16.91
G1X14.8
G1X14.82Y16.87
G1Y16.79
G1X14.84Y16.69
G1X14.88Y16.67
G1X14.92Y16.71
G1X15.06Y17.01
G1X15.18Y17.21
G1X15.24Y17.3
G1X15.28Y17.38
G1X15.3Y17.44
G1Y17.47
G1X15.27Y17.52
G1X15.2Y17.51
G1X15.11Y17.45
G1X15.01Y17.34
G1X14.84Y17.18
G1X14.67Y17.06
G1X14.59Y17.01
G1X14.54Y16.96
G1X14.51Y16.92
G1Y16.89
G1X14.52Y16.87
G0X16.07Y17.35
; Layer C00
G1X16.12
G1X16.17
G1X16.26Y17.37
G1X16.38Y17.41
G1X16.52Y17.45
G1X16.81Y17.53
G1X17.15Y17.61
G1X17.21Y17.64
G1X17.28Y17.67
G1X17.41
G1X17.5
G1X17.55
G1X17.57Y17.64
G1X17.56Y17.59
G1X17.52Y17.51
G1X17.44Y17.38
G1X17.42Y17.33
G1X17.43Y17.31
G1X17.46
G1X17.57Y17.35
G1X17.74Y17.46
G1X17.91Y17.6
G1X18.01Y17.71
G1X18.07Y17.79
G1X18.12Y17.84
G1X18.15Y17.9
G1X18.16Y18.01
G1X18.14Y18.13
G1X18.07Y18.23
G1X17.97Y18.29
G1X17.84Y18.31
G1X17.69
G1X17.75Y18.44
G1X17.82Y18.57
G1X17.91Y18.69
G1X18.01Y18.8
G1X18.17Y18.9
G1X18.18Y18.98
G1X18.13Y19.05
G1X18.02Y19.09
G1X17.93Y19.12
G1X17.87Y19.17
G1X17.86Y19.21
G1Y19.25
G1X17.9Y19.3
G1X17.97Y19.37
G1X18.13Y19.56
G1X18.23Y19.71
G1X18.25Y19.78
G1Y19.83
G1Y19.86
G1X18.2
G1X18.16Y19.84
G1X18.08Y19.77
G1X17.92Y19.66
G1X17.67Y19.52
G1X17.4Y19.4
G1X17.03Y19.28
G1X16.97Y19.23
G1X16.99Y19.21
G1X17.02Y19.19
G1X17.08
G1X17.3Y19.17
G1X17.39Y19.16
G1X17.44Y19.12
G1X17.46Y19.07
G1X17.44Y19.02
G1X17.39Y18.97
G1X17.32Y18.93
G1X17.16Y18.89
G1X17.12Y18.87
G1X17.1Y18.84
G1Y18.76
G1X17.07Y18.73
G1X17Y18.71
G1X16.77Y18.68
G1X16.7Y18.66
G1X16.66Y18.64
G1X16.64Y18.62
G1X16.66Y18.59
G1X16.71Y18.58
G1X16.81Y18.57
G1X17.13
G1X17.22Y18.56
G1X17.26Y18.53
G1Y18.48
G1X17.27Y18.4
G1X17.29Y18.32
G1Y18.25
G1X17.25Y18.23
G1X16.72Y18.03
G1X16.2Y17.79
G1X16.19Y17.75
G1X16.21Y17.71
G1X16.26Y17.7
G1X16.31Y17.71
G1X16.39Y17.74
G1X16.53Y17.77
G1X16.7Y17.8
G1X16.53Y17.68
G1X16.36Y17.57
G1X16.21Y17.49
G1X16.12Y17.43
G1X16.07Y17.39
G1Y17.35
G0X17.01Y16.84
; Layer C00
G1X16.99Y16.78
G1Y16.75
G1X17.01Y16.73
G1X17.04
G1X17.08
G1X17.23Y16.76
G1X17.46Y16.78
G1X17.75Y16.8
G1X17.89Y17.02
G1X18.03Y17.21
G1X18.17Y17.33
G1X18.26Y17.39
G1X18.3Y17.43
G1Y17.45
G1X18.27
G1X18.2
G1X18.11Y17.42
G1X17.99Y17.37
G1X17.85Y17.31
G1X17.69Y17.23
G1X17.45Y17.11
G1X17.37Y17.07
G1X17.26Y17
G1X17.19Y16.94
G1X17.11Y16.88
G1X17.05Y16.86
G1X17.01Y16.84
G0X15.73Y18.45
; Layer C00
G1X15.78Y18.49
G1X15.84Y18.6
G1X15.88Y18.78
G1X15.98Y19.1
G1X16.16Y19.42
G1X16.41Y19.68
G1X16.71Y19.87
G1X17.17Y19.99
G1X17.66Y20.05
G1X17.74Y20.07
G1X17.79Y20.11
G1X17.8Y20.16
G1X17.77Y20.22
G1X17.72Y20.26
G1X17.63
G1X17.51
G1X17.34Y20.22
G1X17.2Y20.19
G1X17.02Y20.13
G1X16.88Y20.09
G1X16.7Y20.03
G1X16.51Y19.93
G1X16.32Y19.8
G1X16.17Y19.67
G1X16.03Y19.5
G1X15.92Y19.31
G1X15.84Y19.09
G1X15.77Y18.83
G1X15.73Y18.6
G1X15.72Y18.52
G1Y18.48
G1X15.73Y18.45
G0X18.98Y20.14
; Layer C00
G1X19.02
G1X19.11Y20.15
G1X19.25Y20.1
G1X19.41Y20
G1X19.58Y19.85
G1X19.82Y19.65
G1X20.11Y19.46
G1X20.25Y19.38
G1X20.37Y19.33
G1X20.45Y19.3
G1X20.5
G1X20.51Y19.36
G1X20.48Y19.45
G1X20.4Y19.56
G1X20.29Y19.67
G1X19.71Y20.01
G1X19.08Y20.29
G1X19
G1X18.95Y20.26
G1Y20.21
G1Y20.17
G1X18.98Y20.14
G0X20.88Y18.69
; Layer C00
G1X20.84Y18.62
G1X20.83Y18.52
G1X20.86Y18.43
G1X20.93Y18.3
G1X21.02Y18.12
G1X21.12Y17.95
G1X21.21Y17.81
G1X21.28Y17.72
G1X21.31Y17.66
G1X21.52Y17.36
G1X21.76Y17.08
G1X21.77Y17.12
G1X21.74Y17.23
G1X21.66Y17.37
G1X21.56Y17.54
G1X21.39Y17.81
G1X21.23Y18.1
G1X21.17Y18.22
G1X21.11Y18.33
G1X21.07Y18.4
G1X21.04Y18.44
G1X21.01Y18.48
G1X20.95Y18.66
G1X20.92Y18.7
G1X20.88Y18.69
G0X20.48Y18.56
; Layer C00
G1X20.34Y18.74
G1X20.19Y18.91
G1X20.01Y19.07
G1X19.8Y19.21
G1X19.62Y19.31
G1X19.49Y19.34
G1X19.43Y19.32
G1X19.41Y19.29
G1X19.43Y19.25
G1X19.54Y19.16
G1X19.59Y19.07
G1X19.72Y18.93
G1X19.75Y18.88
G1Y18.84
G1X19.71Y18.83
G1X19.66Y18.84
G1X19.56Y18.88
G1X19.42Y18.94
G1X19.25Y19.01
G1X19.07Y19.09
G1X18.91Y19.15
G1X18.78Y19.19
G1X18.69
G1X18.59
G1X18.56Y19.16
G1X18.6Y19.12
G1X18.81Y19.01
G1X18.89Y18.95
G1X18.93Y18.87
G1Y18.78
G1X18.92Y18.7
G1X18.86Y18.65
G1X18.78Y18.62
G1X18.66
G1X18.56Y18.61
G1X18.52Y18.56
G1X18.53Y18.53
G1X18.58Y18.49
G1X18.65Y18.44
G1X18.74Y18.39
G1X18.97Y18.28
G1X19.21Y18.19
G1X19.44Y18.1
G1X19.58Y18.03
G1X19.63Y17.96
G1X19.61Y17.9
G1X19.56Y17.88
G1X19.43Y17.87
G1X19.24Y17.86
G1X18.79Y17.84
G1X18.62
G1X18.51Y17.82
G1X18.44Y17.79
G1X18.42Y17.76
G1X18.44Y17.72
G1X18.49Y17.67
G1X18.59Y17.6
G1X18.68Y17.54
G1X18.79Y17.49
G1X18.94Y17.42
G1X19.16Y17.34
G1X19.21Y17.32
G1X19.22Y17.3
G1X19.19Y17.25
G1X19.12Y17.18
G1X18.98Y17.06
G1X18.82Y16.97
G1X18.65Y16.91
G1X18.49Y16.88
G1X18.38
G1X18.31Y16.85
G1X18.26Y16.83
G1Y16.79
G1Y16.75
G1X18.32Y16.69
G1X18.4Y16.63
G1X18.51Y16.56
G1X18.68Y16.46
G1X18.54Y16.43
G1X18.42
G1X18.28Y16.46
G1X18.15Y16.51
G1X18.04Y16.59
G1X18Y16.61
G1X17.96Y16.62
G1X17.92Y16.6
G1X17.85Y16.56
G1X17.72Y16.45
G1X17.6Y16.32
G1X17.53Y16.19
G1X17.5Y16.08
G1Y16.02
G1X17.52Y15.99
G1X17.57Y15.98
G1X17.65
G1X17.78Y15.96
G1X17.89Y15.93
G1X17.93Y15.9
G1Y15.88
G1X17.83Y15.86
G1X17.43Y15.83
G1X17.18Y15.8
G1X16.9Y15.76
G1X16.43Y15.7
G1X16.55Y15.81
G1X16.79Y16.02
G1X16.99Y16.18
G1X17.15Y16.3
G1X17.25Y16.36
G1X17.35Y16.41
G1X17.4Y16.45
G1X17.41Y16.49
G1X17.39Y16.53
G1X17.36Y16.55
G1X17.3
G1X17.23Y16.52
G1X16.94Y16.41
G1X16.73Y16.34
G1X16.55Y16.29
G1X16.44Y16.27
G1X16.42Y16.3
G1Y16.39
G1X16.41Y16.5
G1X16.37Y16.58
G1X16.35Y16.62
G1X16.36Y16.66
G1X16.41Y16.72
G1X16.5Y16.82
G1X16.61Y16.94
G1X16.67Y17.04
G1Y17.1
G1X16.63Y17.12
G1X16.53Y17.1
G1X16.36Y17.05
G1X16.11Y16.97
G1X15.7Y16.87
G1X15.59Y16.84
G1X15.52Y16.82
G1X15.49Y16.79
G1X15.5Y16.75
G1X15.57Y16.71
G1X15.68Y16.69
G1X15.87Y16.67
G1X15.9Y16.64
G1X15.87Y16.6
G1X15.79Y16.53
G1X15.69Y16.44
G1X15.68Y16.36
G1X15.74Y16.27
G1X15.9Y16.17
G1X15.88Y16.12
G1X15.81Y16
G1X15.74Y15.87
G1X15.7Y15.75
G1X15.67Y15.74
G1X15.59
G1X15.47
G1X15.34
G1X15.25Y15.76
G1X15.18Y15.77
G1X15.15Y15.8
G1X15.13Y15.84
G1Y15.9
G1Y15.98
G1X15.15Y16.1
G1X15.19Y16.33
G1X15.22Y16.48
G1Y16.55
G1X15.19Y16.56
G1X15.13Y16.53
G1X15.07Y16.44
G1X15.02Y16.33
G1X14.96Y16.25
G1X14.74Y15.98
G1X14.65Y15.87
G1X14.58Y15.81
G1X14.49Y15.79
G1X14.34Y15.78
G1X14.15Y15.77
G1X14.05
G1X14.01Y15.84
G1Y15.97
G1Y16.14
G1X14.06Y16.33
G1X14.16Y16.58
G1X14.3Y16.88
G1X14.49Y17.22
G1X14.72Y17.58
G1X14.89Y17.84
G1X15Y18.01
G1X15.06Y18.14
G1X15.1Y18.24
G1Y18.29
G1Y18.31
G1X15.06
G1X15Y18.24
G1X14.97
G1Y18.25
G1Y18.3
G1X15Y18.38
G1X15.04Y18.48
G1X15.17Y18.76
G1X15.34Y19.11
G1X15.52Y19.42
G1X15.71Y19.68
G1X15.9Y19.89
G1X16.09Y20.04
G1X16.26Y20.15
G1X16.41Y20.28
G1X16.54Y20.38
G1X16.62Y20.42
G1X16.67Y20.44
G1X16.81Y20.55
G1X16.93Y20.62
G1X17.02Y20.66
G1X17.11Y20.68
G1X17.21
G1X17.61Y20.64
G1X17.81
G1X17.99Y20.68
G1X18.39Y20.83
G1X18.57Y20.86
G1X18.73
G1X18.93Y20.8
G1X19.14Y20.73
G1X19.31Y20.66
G1X19.43Y20.6
G1X19.59Y20.5
G1X19.69Y20.45
G1X19.82Y20.38
G1X19.96Y20.31
G1X20.26Y20.15
G1X20.48Y19.98
G1X20.66Y19.75
G1X20.84Y19.45
G1X21Y19.09
G1X21.25Y18.37
G1X21.4Y18.01
G1X21.59Y17.64
G1X21.8Y17.29
G1X21.96Y16.93
G1X22.05Y16.61
G1X22.04Y16.59
G1X22Y16.6
G1X21.94Y16.63
G1X21.86Y16.67
G1X21.69Y16.79
G1X21.51Y16.94
G1X21.3Y17.17
G1X21.1Y17.43
G1X20.92Y17.72
G1X20.76Y18.03
G1X20.61Y18.33
G1X20.48Y18.56
G0X25.78Y17.61
; Layer C00
G1X25.8Y17.55
G1X25.84Y17.48
G1X25.9Y17.4
G1X25.99Y17.3
G1X26.23Y17.08
G1X26.56Y16.82
G1X26.79Y16.65
G1X27.12Y16.39
G1X27.45Y16.1
G1X27.61Y15.95
G1X27.75Y15.82
G1X27.86Y15.7
G1X27.94Y15.61
G1X27.99Y15.57
G1X28.05
G1X28.08Y15.59
G1Y15.62
G1X28.06Y15.69
G1X28Y15.79
G1X27.86Y15.99
G1X27.69Y16.19
G1X27.55Y16.37
G1X27.47Y16.51
G1X27.46Y16.56
G1Y16.59
G1X27.49
G1X27.54
G1X27.63Y16.55
G1X27.75Y16.5
G1X27.9Y16.43
G1X28.06Y16.36
G1X28.4Y16.18
G1X28.74Y15.99
G1X29.04Y15.81
G1X29.15Y15.75
G1X29.22Y15.71
G1X29.3Y15.69
G1X29.32Y15.73
G1X29.3Y15.77
G1X29.23Y15.85
G1X29.14Y15.95
G1X29.02Y16.06
G1X28.76Y16.29
G1X28.54Y16.46
G1X28.41Y16.55
G1X28.35Y16.6
G1X28.32Y16.62
G1X28.26Y16.67
G1X28.08Y16.81
G1X27.78Y16.99
G1X27.45Y17.16
G1X27.08Y17.31
G1X26.64Y17.45
G1X26.43Y17.51
G1X26.25Y17.56
G1X26.11Y17.6
G1X25.99Y17.62
G1X25.9Y17.63
G1X25.83
G1X25.8
G1X25.78Y17.61
G0X25.35Y16.71
; Layer C00
G1X25.31
G1X25.3Y16.7
G1Y16.68
G1X25.32Y16.64
G1X25.36Y16.58
G1X25.43Y16.51
G1X25.49Y16.43
G1X25.56Y16.33
G1X25.65Y16.21
G1X25.81Y15.95
G1X25.94Y15.72
G1X26.08Y15.39
G1X26.16Y14.99
G1X26.18Y14.71
G1Y14.34
G1Y13.87
G1Y13.28
G1Y12.65
G1X26.24Y12.05
G1X26.35Y11.44
G1X26.5Y10.78
G1X26.61Y10.4
G1X26.72Y10.05
G1X26.82Y9.73
G1X26.92Y9.45
G1X27.01Y9.23
G1X27.09Y9.06
G1X27.16Y8.95
G1X27.21Y8.91
G1X27.25
G1Y8.95
G1X27.23Y9.03
G1X27.17Y9.18
G1X27.06Y9.46
G1X26.95Y9.8
G1X26.88Y10.04
G1X26.84Y10.25
G1X26.83Y10.37
G1Y10.52
G1X26.82Y10.97
G1Y11.29
G1Y11.59
G1X26.83Y11.84
G1X26.84Y11.99
G1X26.89Y12.33
G1X26.92Y12.61
G1X26.94Y12.85
G1X26.96Y13.04
G1Y13.34
G1X26.95Y13.61
G1X26.89Y14.02
G1X26.82Y14.38
G1X26.74Y14.7
G1X26.63Y15
G1X26.48Y15.29
G1X26.3Y15.58
G1X26.08Y15.89
G1X25.81Y16.24
G1X25.64Y16.45
G1X25.5Y16.59
G1X25.41Y16.68
G1X25.35Y16.71
G0X28.87Y16.92
; Layer C00
G1X28.92Y16.82
G1X29.02Y16.7
G1X29.18Y16.54
G1X29.39Y16.37
G1X29.64Y16.22
G1X29.91Y16.08
G1X30.2Y15.97
G1X30.5Y15.88
G1X30.79Y15.82
G1X31.08Y15.79
G1X31.36Y15.8
G1X31.77Y15.85
G1X32.13Y15.93
G1X32.46Y16.03
G1X32.8Y16.18
G1X33Y16.29
G1X33.17Y16.4
G1X33.35Y16.55
G1X33.57Y16.76
G1X33.8Y16.98
G1X33.87Y17.05
G1X33.92Y17.11
G1X33.96Y17.18
G1X33.94Y17.22
G1X33.88Y17.26
G1X33.82Y17.23
G1X33.75Y17.2
G1X33.53Y17.14
G1X33.32Y17.07
G1X33.1Y17
G1X32.88Y16.96
G1X32.66
G1X32.42Y16.98
G1X32.23Y17.02
G1X32.03Y17.09
G1X31.94Y17.13
G1X31.87Y17.17
G1X31.83Y17.2
G1X31.79Y17.27
G1X31.72Y17.36
G1X31.6Y17.5
G1X31.51Y17.66
G1X31.44Y17.84
G1X31.4Y18.03
G1X31.38Y18.27
G1Y18.53
G1X31.39Y18.77
G1X31.43Y18.96
G1X31.46Y19.09
G1X31.48Y19.21
G1X31.5Y19.3
G1X31.53Y19.36
G1X31.56Y19.41
G1X31.58Y19.47
G1X31.61Y19.57
G1X31.67Y19.7
G1X31.74Y19.84
G1X31.77Y19.92
G1X31.79Y19.99
G1X31.9Y20.23
G1X31.93Y20.3
G1X31.95Y20.38
G1X32.02Y20.5
G1X32.34Y21.08
G1X32.54Y21.41
G1X32.76Y21.72
G1X32.87Y21.86
G1X32.97Y21.97
G1X33.05Y22.05
G1X33.12Y22.09
G1X33.18Y22.14
G1X33.21Y22.19
G1X33.19Y22.23
G1X33.14Y22.24
G1X33.07Y22.23
G1X32.95Y22.17
G1X32.78Y22.1
G1X32.58Y22.01
G1X32.16Y21.8
G1X31.81Y21.62
G1X31.53Y21.48
G1X31.3Y21.36
G1X31.13Y21.26
G1X30.99Y21.18
G1X30.9Y21.11
G1X30.83Y21.06
G1X30.77Y21
G1X30.68Y20.93
G1X30.32Y20.63
G1X29.94Y20.28
G1X29.61Y19.88
G1X29.33Y19.44
G1X29.12Y18.99
G1X29.06Y18.82
G1X29.03Y18.71
G1Y18.64
G1X29.05Y18.57
G1X29.08Y18.52
G1X29.1Y18.5
G1X29.11Y18.51
G1X29.13Y18.55
G1X29.32Y18.78
G1X29.61Y19.02
G1X29.72Y19.07
G1X29.81Y19.08
G1X29.9Y19.06
G1X29.97Y19
G1X30.08Y18.86
G1X30.14Y18.68
G1X30.16Y18.57
G1X30.18Y18.43
G1Y18.27
G1Y18.08
G1X30.16Y17.78
G1X30.11Y17.54
G1X30.01Y17.33
G1X29.85Y17.12
G1X29.71Y16.98
G1X29.59Y16.89
G1X29.47Y16.84
G1X29.35Y16.82
G1X29.27
G1X29.2Y16.85
G1X29.14Y16.89
G1X28.97Y17.04
G1X28.91Y17.08
G1X28.87Y17.07
G1X28.86Y17.01
G1X28.87Y16.92
G0X31.1Y15.18
; Layer C00
G1X30.81Y14.99
G1X30.5Y14.75
G1X30.15Y14.45
G1X29.95Y14.25
G1X29.78Y14.07
G1X29.63Y13.87
G1X29.47Y13.62
G1X29.35Y13.43
G1X29.26Y13.27
G1X29.19Y13.16
G1X29.17Y13.11
G1X29.13Y13.02
G1X28.92Y12.56
G1X28.82Y12.3
G1X28.75Y12.08
G1X28.71Y11.89
G1X28.69Y11.68
G1X28.88Y11.85
G1X29.03Y11.97
G1X29.18Y12.05
G1X29.32Y12.09
G1X29.43
G1X29.51Y12.02
G1X29.57Y11.9
G1X29.61Y11.75
G1Y11.61
G1X29.55Y11.45
G1X29.42Y11.26
G1X29.24Y11.04
G1X29.02Y10.82
G1X28.78Y10.6
G1X28.52Y10.39
G1X28.25Y10.21
G1X28Y10.07
G1X27.85Y9.99
G1X27.72Y9.92
G1X27.64Y9.87
G1X27.61Y9.84
G1X27.63Y9.8
G1X27.68Y9.74
G1X27.75Y9.69
G1X27.86Y9.63
G1X28Y9.56
G1X28.16Y9.5
G1X28.33Y9.44
G1X28.49Y9.39
G1X28.62Y9.36
G1X28.72
G1X28.84Y9.34
G1X29.01Y9.3
G1X29.23Y9.26
G1X29.51Y9.23
G1X29.82Y9.22
G1X30.14
G1X30.47Y9.24
G1X30.78Y9.27
G1X31.06Y9.31
G1X31.29Y9.36
G1X31.48Y9.45
G1X31.66Y9.56
G1X31.8Y9.67
G1X31.85Y9.77
G1X31.81Y9.86
G1X31.72Y9.98
G1X31.6Y10.11
G1X31.47Y10.22
G1X31.27Y10.36
G1X31.11Y10.5
G1X30.99Y10.63
G1X30.91Y10.75
G1X30.83Y10.89
G1X30.74Y11.02
G1X30.65Y11.15
G1X30.58Y11.3
G1X30.51Y11.48
G1X30.46Y11.68
G1X30.39Y12.13
G1Y12.59
G1X30.4Y12.81
G1X30.43Y13
G1X30.49Y13.21
G1X30.57Y13.47
G1X30.67Y13.76
G1X30.77Y14.01
G1X30.88Y14.24
G1X30.99Y14.44
G1X31.23Y14.78
G1X31.53Y15.07
G1X31.63Y15.15
G1X31.7Y15.23
G1X31.75Y15.29
G1X31.77Y15.34
G1X31.79Y15.39
G1X31.82Y15.42
G1Y15.44
G1X31.75
G1X31.59Y15.41
G1X31.36Y15.32
G1X31.1Y15.18
G0X27.2Y19.19
; Layer C00
G1X27.21Y19.21
G1X27.22Y19.29
G1Y19.44
G1Y19.62
G1X27.2Y19.88
G1X27.17Y20.2
G1X27.14Y20.55
G1X27.1Y20.9
G1X27.06Y21.24
G1X27.02Y21.54
G1X26.96Y22
G1X26.93Y22.22
G1X26.9Y22.43
G1X27.21
G1X27.37
G1X27.55Y22.45
G1X27.77Y22.48
G1X28Y22.51
G1X28.51Y22.61
G1X29.07Y22.73
G1X29.64Y22.87
G1X30.19Y23.03
G1X30.7Y23.19
G1X31.14Y23.35
G1X31.29Y23.41
G1X31.39Y23.47
G1X31.44Y23.51
G1X31.46Y23.55
G1Y23.59
G1X31.42Y23.61
G1X31.34
G1X31.14Y23.56
G1X31.02Y23.53
G1X30.69Y23.47
G1X30.32Y23.4
G1X29.94Y23.33
G1X29.76Y23.31
G1X29.53Y23.29
G1X29.2Y23.28
G1X28.49Y23.26
G1X28.3
G1X28.13
G1X27.98
G1X27.73Y23.27
G1X27.48Y23.3
G1X27.07Y23.37
G1X26.64Y23.45
G1X26.25Y23.54
G1X25.96Y23.62
G1X25.79Y23.67
G1X25.68Y23.69
G1X25.64Y23.71
G1X25.59Y23.75
G1X25.55Y23.79
G1X25.52Y23.8
G1X25.48
G1X25.45Y23.76
G1X25.43Y23.74
G1X25.44Y23.69
G1X25.47Y23.63
G1X25.53Y23.54
G1X25.79Y23.13
G1X26.02Y22.74
G1X26.2Y22.39
G1X26.34Y22.1
G1X26.61Y21.36
G1X26.83Y20.66
G1X26.92Y20.33
G1X27Y20.03
G1X27.05Y19.75
G1X27.09Y19.5
G1X27.12Y19.33
G1X27.17Y19.22
G1X27.2Y19.19
G0X28.33Y24.01
; Layer C00
G1X28.58Y23.99
G1X28.74Y23.97
G1X28.86Y23.96
G1X29.04
G1X29.25Y23.97
G1X29.49Y23.99
G1X29.73Y24.02
G1X29.96Y24.05
G1X30.16Y24.09
G1X30.31Y24.13
G1X30.6Y24.21
G1X30.85Y24.29
G1X31.07Y24.36
G1X31.26Y24.43
G1X31.58Y24.55
G1X31.87Y24.69
G1X32.11Y24.81
G1X32.32Y24.92
G1X32.5Y25.03
G1X32.67Y25.13
G1X32.98Y25.38
G1X33.33Y25.7
G1X33.82Y26.17
G1X33.87Y25.98
G1X33.9Y25.81
G1X33.93Y25.68
G1X34.01Y25.14
G1X34.07Y24.64
G1Y24.13
G1X34.04Y23.65
G1X33.97Y23.26
G1X33.91Y23.04
G1X33.87Y22.89
G1X33.86Y22.79
G1X33.87Y22.75
G1X33.9
G1X33.94Y22.78
G1X33.98Y22.84
G1X34.03Y22.93
G1X34.15Y23.18
G1X34.27Y23.52
G1X34.31Y23.66
G1X34.35Y23.86
G1X34.4Y24.09
G1X34.44Y24.35
G1X34.52Y24.9
G1X34.57Y25.41
G1X34.62Y25.89
G1X34.7Y26.52
G1X34.72Y26.74
G1Y27
G1Y27.33
G1X34.69Y27.89
G1X34.65Y28.39
G1X34.59Y28.83
G1X34.51Y29.23
G1X34.42Y29.59
G1X34.31Y29.91
G1X34.18Y30.19
G1X34.03Y30.43
G1X33.61Y31.04
G1X33.53Y31.14
G1X33.48Y31.22
G1X33.43Y31.27
G1X33.34Y31.33
G1X33.26Y31.34
G1X33.19Y31.33
G1Y31.28
G1X33.34Y30.73
G1X33.47Y30.14
G1Y29.99
G1X33.49Y29.75
G1Y29.46
G1Y29.15
G1Y28.93
G1Y28.74
G1Y28.59
G1Y28.46
G1X33.46Y28.25
G1X33.41Y28.04
G1X33.32Y27.67
G1X33.21Y27.35
G1X33.1Y27.07
G1X32.96Y26.81
G1X32.81Y26.57
G1X32.62Y26.35
G1X32.41Y26.12
G1X32.15Y25.9
G1X31.77Y25.58
G1X31.39Y25.29
G1X31.02Y25.04
G1X30.66Y24.83
G1X30.3Y24.65
G1X29.95Y24.5
G1X29.61Y24.39
G1X29.27Y24.31
G1X28.9Y24.25
G1X28.49Y24.22
G1X28.28Y24.21
G1X28.1
G1X27.94
G1X27.82
G1X27.77
G1X27.75Y24.18
G1X27.79Y24.12
G1X27.9Y24.07
G1X28.09Y24.04
G1X28.33Y24.01
G0X20.58Y13.13
; Layer C00
G1X20.77Y13.06
G1X20.91Y12.98
G1X21Y12.88
G1X21.04Y12.8
G1X21.09Y12.69
G1X21.15Y12.55
G1X21.2Y12.4
G1X21.32Y12.04
G1X21.19Y11.91
G1X21.04Y11.75
G1X20.9Y11.54
G1X20.78Y11.33
G1X20.69Y11.11
G1X20.6Y10.9
G1X20.53Y10.73
G1X20.48Y10.63
G1X20.43Y10.51
G1X20.37Y10.38
G1X20.29Y10.19
G1X20.18Y9.97
G1X20.13Y9.85
G1X20.09Y9.74
G1X20.05Y9.64
G1X20Y9.5
G1X19.93Y9.34
G1X19.78Y8.97
G1X19.67Y8.64
G1X19.52Y8.1
G1X19.34Y7.6
G1X19.14Y7.17
G1X18.92Y6.82
G1X18.76Y6.6
G1X18.63Y6.45
G1X18.53Y6.37
G1X18.46
G1X18.42Y6.39
G1X18.38Y6.47
G1X18.32Y6.57
G1X18.27Y6.7
G1X18.16Y7.01
G1X18.06Y7.34
G1X18.01Y7.59
G1X17.98Y7.86
G1Y8.03
G1X17.96Y8.25
G1Y8.86
G1X17.93Y9.56
G1X17.9Y10.21
G1X17.89Y10.49
G1X17.87Y10.74
G1X17.85Y10.95
G1X17.83Y11.1
G1X17.8Y11.32
G1X17.78Y11.47
G1X17.75Y11.56
G1X17.73Y11.6
G1X17.65Y11.88
G1X17.64Y12.21
G1X17.73Y12.48
G1X17.88Y12.75
G1X18.06Y12.99
G1X18.25Y13.14
G1X18.39Y13.18
G1X18.61Y13.21
G1X18.89Y13.23
G1X19.21Y13.24
G1X19.54
G1X19.85
G1X20.13Y13.23
G1X20.34Y13.2
G1X20.58Y13.13
G0X21.59Y11.01
; Layer C00
G1X21.63
G1X21.68Y10.96
G1X21.75Y10.86
G1X21.84Y10.72
G1X22.02Y10.38
G1X22.13Y9.99
G1X22.16Y9.74
G1X22.19Y9.43
G1X22.21Y9.05
G1X22.25Y7.96
G1X22.28Y7.28
G1X22.32Y6.67
G1X22.33Y6.45
G1X22.35Y6.29
G1X22.39Y6.06
G1X22.45Y5.79
G1X22.5Y5.57
G1X22.54Y5.42
G1X22.57Y5.29
G1X22.63Y5.12
G1X22.69Y4.89
G1X22.73Y4.61
G1Y4.47
G1X22.74Y4.36
G1Y4.28
G1X22.72Y4.24
G1X22.68Y4.15
G1X22.62Y3.98
G1X22.46Y3.57
G1X22.23Y3.2
G1X21.95Y2.88
G1X21.61Y2.62
G1X21.54Y2.58
G1X21.51
G1X21.52Y2.62
G1X21.58Y2.71
G1X21.79Y3.08
G1X21.96Y3.47
G1X22.01Y3.78
G1Y4.14
G1X21.95Y4.5
G1X21.83Y4.79
G1X21.79Y4.86
G1X21.72Y4.96
G1X21.63Y5.08
G1X21.53Y5.21
G1X21.33Y5.48
G1X21.19Y5.72
G1X21.1Y5.93
G1X21.01Y6.31
G1X20.97Y6.38
G1X20.94Y6.37
G1X20.93Y6.28
G1Y6.21
G1Y6.11
G1Y5.99
G1X20.94Y5.59
G1X20.96Y5.38
G1Y5.22
G1X20.98Y5.12
G1Y5.06
G1Y5.05
G1X20.97Y5.08
G1X20.94Y5.16
G1X20.87Y5.41
G1X20.82Y5.73
G1X20.78Y6.08
G1X20.77Y6.4
G1Y6.66
G1X20.81Y6.92
G1X20.87Y7.17
G1X20.94Y7.39
G1X21.16Y8.12
G1X21.35Y8.91
G1X21.4Y9.21
G1X21.44Y9.52
G1X21.46Y9.69
G1X21.49Y10.11
G1X21.53Y10.63
G1X21.55Y10.82
G1X21.57Y10.94
G1X21.59Y11.01
G0X20.77Y9.57
; Layer C00
G1X20.83Y9.51
G1X20.89Y9.38
G1X20.96Y9.14
G1X21.01Y8.84
G1X21.04Y8.52
G1Y8.23
G1X21.02Y8.11
G1X20.97Y7.97
G1X20.91Y7.81
G1X20.84Y7.63
G1X20.65Y7.26
G1X20.45Y6.94
G1X20.24Y6.64
G1X20.08Y6.43
G1X19.92Y6.25
G1X19.48Y5.79
G1X19.24Y5.51
G1X19.13Y5.39
G1X19.05Y5.29
G1X19Y5.21
G1X18.98Y5.18
G1X18.97Y5.15
G1X18.93Y5.1
G1X18.88Y5.02
G1X18.81Y4.93
G1X18.64Y4.72
G1X18.44Y4.48
G1X18.18Y4.19
G1X18.15Y4.32
G1X18.14Y4.4
G1Y4.47
G1X18.18Y4.57
G1X18.49Y5.24
G1X18.72Y5.79
G1X18.81Y5.97
G1X18.92Y6.15
G1X19.14Y6.45
G1X19.34Y6.73
G1X19.5Y6.98
G1X19.64Y7.22
G1X19.88Y7.68
G1X20.06Y8.16
G1X20.13Y8.34
G1X20.19Y8.51
G1X20.24Y8.65
G1X20.28Y8.75
G1X20.41Y9.02
G1X20.52Y9.24
G1X20.62Y9.39
G1X20.69Y9.46
G1X20.74Y9.51
G1Y9.55
G1Y9.57
G1X20.77
G0X24.41Y9.25
; Layer C00
G1Y9.2
G1X24.46Y9.12
G1X24.61Y8.75
G1X24.72Y8.3
G1X24.75Y8.12
G1X24.8Y7.99
G1X24.93Y7.83
G1X25.04Y7.76
G1X25.06Y7.78
G1X25.1Y7.82
G1X25.15Y7.88
G1X25.21Y7.96
G1X25.34Y8.18
G1X25.5Y8.42
G1X25.65Y8.67
G1X25.78Y8.9
G1X25.83Y9
G1X25.87Y9.08
G1X25.89Y9.14
G1X25.92Y9.24
G1X25.96Y9.34
G1X26Y9.41
G1Y9.45
G1X25.95Y9.42
G1X25.83Y9.32
G1X25.71Y9.21
G1X25.67Y9.14
G1X25.43Y8.88
G1X25.16Y8.65
G1X25.1Y8.7
G1X25Y8.81
G1X24.85Y8.99
G1X24.7Y9.14
G1X24.58Y9.25
G1X24.5Y9.28
G1X24.44
G1X24.41Y9.25
G0X26.06Y9.41
; Layer C00
G1X26.11Y8.97
G1X26.2Y8.52
G1X26.27Y8.37
G1X26.36Y8.23
G1X26.46Y8.12
G1X26.56Y8.07
G1X26.68Y8.02
G1X26.84Y7.92
G1X26.98Y7.84
G1X27.06Y7.8
G1X27.13Y7.75
G1X27.27Y7.64
G1X27.42Y7.48
G1X27.56Y7.32
G1X27.69Y7.2
G1X27.84Y7.15
G1X27.96Y7.13
G1X28.04Y7.11
G1X28.08
G1X28.09Y7.15
G1Y7.24
G1Y7.4
G1X28.07Y7.69
G1X28.02Y7.94
G1X27.96Y8.17
G1X27.86Y8.43
G1X27.72Y8.75
G1X27.62Y9.01
G1X27.56Y9.2
G1X27.53Y9.3
G1X27.47Y9.41
G1X27.37Y9.47
G1X27.36Y9.45
G1X27.35Y9.39
G1Y9.3
G1X27.34Y9.19
G1X27.33Y8.97
G1X27.3Y8.81
G1X27.24Y8.71
G1X27.15Y8.61
G1X27.06Y8.53
G1X26.99Y8.5
G1X26.91Y8.53
G1X26.81Y8.6
G1X26.7Y8.7
G1X26.59Y8.83
G1X26.48Y8.96
G1X26.38Y9.1
G1X26.31Y9.22
G1X26.27Y9.33
G1X26.25Y9.42
G1X26.23Y9.47
G1X26.19Y9.49
G1X26.13
G1X26.07Y9.47
G1X26.06Y9.41
G0X19.84Y5.57
; Layer C00
G1X19.92Y5.48
G1X20.01Y5.32
G1X20.09Y5.12
G1X20.14Y4.92
G1X20.17Y4.65
G1Y4.35
G1Y4.05
G1X20.14Y3.82
G1X20.09Y3.61
G1X20.01Y3.4
G1X19.92Y3.23
G1X19.84Y3.13
G1X19.77Y3.09
G1X19.67
G1X19.55Y3.1
G1X19.42Y3.14
G1X19.16Y3.27
G1X18.9Y3.47
G1X18.82Y3.56
G1X18.76Y3.64
G1X18.72Y3.74
G1X18.69Y3.88
G1X18.63Y4.15
G1Y4.36
G1X18.65Y4.51
G1X18.72Y4.65
G1X18.98Y4.98
G1X19.29Y5.36
G1X19.43Y5.49
G1X19.58Y5.57
G1X19.72Y5.6
G1X19.84Y5.57
G0X17.89Y4.2
; Layer C00
G1X17.87Y4.18
G1X17.86Y4.12
G1Y4.03
G1X17.85Y3.93
G1Y3.72
G1X17.82Y3.52
G1Y3.42
G1Y3.28
G1X17.81Y3.13
G1Y2.92
G1X17.82Y2.77
G1X17.85Y2.64
G1X17.91Y2.5
G1X18.03Y2.23
G1X18.19Y1.99
G1X18.27Y1.88
G1X18.35Y1.8
G1X18.41Y1.74
G1X18.46Y1.71
G1X18.53Y1.73
G1X18.55Y1.8
G1X18.51Y1.93
G1X18.42Y2.13
G1X18.24Y2.54
G1X18.1Y2.97
G1X18Y3.41
G1X17.94Y3.87
G1Y4
G1X17.92Y4.1
G1X17.9Y4.17
G1X17.89Y4.2
G0X18.03Y4.28
; Layer C00
G1X18.07Y4.08
G1X18.1Y3.9
G1X18.12Y3.7
G1Y3.24
G1X18.13Y3.09
G1X18.15Y2.99
G1X18.17Y2.95
G1X18.22Y2.87
G1X18.31Y2.72
G1X18.4Y2.51
G1X18.5Y2.32
G1X18.56Y2.17
G1X18.59Y2.09
G1X18.62Y2
G1X18.69Y1.85
G1X18.77Y1.67
G1X18.84Y1.46
G1X18.88Y1.28
G1Y1.18
G1X18.8Y1.12
G1X18.67Y1.06
G1X18.53Y1.02
G1X18.4Y1
G1X18.3Y1.01
G1X18.18Y1.04
G1X18.04Y1.09
G1X17.89Y1.15
G1X17.6Y1.28
G1X17.41Y1.4
G1X17.17Y1.62
G1X17.08Y1.71
G1X17.01Y1.82
G1X16.95Y1.96
G1X16.9Y2.12
G1X16.83Y2.51
G1X16.8Y2.97
G1X16.79Y3.31
G1X16.75Y3.69
G1X16.73Y3.87
G1X16.7Y4.02
G1X16.68Y4.15
G1X16.65Y4.24
G1X16.52Y4.52
G1X16.36Y4.83
G1X16.19Y5.12
G1X16.06Y5.31
G1X15.96Y5.42
G1X15.84Y5.58
G1X15.7Y5.76
G1X15.42Y6.12
G1X15.12Y6.51
G1X15.04Y6.61
G1X15.01Y6.67
G1X15Y6.7
G1X14.96Y6.78
G1X14.91Y6.9
G1X14.77Y7.17
G1X14.67Y7.39
G1X14.63Y7.46
G1X14.59Y7.57
G1Y7.64
G1X14.57Y7.69
G1X14.54Y7.78
G1X14.5Y7.89
G1X14.45Y8.02
G1X14.33Y8.34
G1X14.21Y8.74
G1X14.11Y9.16
G1X14.04Y9.56
G1X14Y9.78
G1X13.97Y9.95
G1X13.93Y10.04
G1X13.89Y10.05
G1X13.85Y9.98
G1X13.81Y9.84
G1X13.76Y9.66
G1X13.72Y9.45
G1X13.7Y9.17
G1Y8.87
G1X13.72Y8.55
G1X13.77Y8.22
G1X13.95Y7.55
G1X14.21Y6.89
G1X14.47Y6.35
G1X14.58Y6.1
G1X14.69Y5.85
G1X14.76Y5.64
G1X14.82Y5.51
G1X14.9Y5.22
G1X14.93Y4.87
G1X14.91Y4.65
G1X14.81Y4.43
G1X14.71Y4.26
G1X14.59Y4.12
G1X14.48Y4.01
G1X14.4Y3.97
G1X14.36Y3.96
G1X14.32Y3.92
G1X14.23Y3.86
G1X14.06Y3.8
G1X13.84Y3.76
G1X13.6Y3.75
G1X13.34Y3.77
G1X13.1Y3.84
G1X12.86Y3.97
G1X12.61Y4.18
G1X12.46Y4.32
G1X12.36Y4.43
G1X12.31Y4.53
G1X12.27Y4.66
G1X12.22Y4.92
G1X12.19Y5.22
G1Y5.52
G1X12.2Y5.76
G1X12.23Y5.87
G1X12.27Y6.02
G1X12.32Y6.2
G1X12.38Y6.38
G1X12.45Y6.61
G1X12.53Y6.94
G1X12.62Y7.31
G1X12.7Y7.68
G1X12.82Y8.26
G1X12.86Y8.46
G1X12.9Y8.62
G1X12.97Y8.87
G1X13.05Y9.1
G1X13.12Y9.32
G1X13.28Y10
G1X13.42Y10.42
G1X13.46Y10.51
G1X13.47Y10.64
G1X13.5Y10.73
G1X13.54Y10.86
G1X13.65Y11.14
G1X13.7Y11.28
G1X13.74Y11.4
G1X13.76Y11.47
G1X13.81Y11.69
G1X13.91Y11.98
G1X13.96Y12.12
G1X14.01Y12.24
G1X14.05Y12.33
G1X14.08Y12.36
G1X14.11Y12.39
G1Y12.43
G1X14.16Y12.52
G1X14.27Y12.66
G1X14.41Y12.81
G1X14.58Y12.94
G1X14.77Y13.07
G1X15.27
G1X15.7Y13.09
G1X16.04Y13.11
G1X16.4Y13.14
G1X16.52Y13.11
G1X16.66Y13.04
G1X16.82Y12.91
G1X16.97Y12.77
G1X17.11Y12.59
G1X17.25Y12.36
G1X17.37Y12.12
G1X17.51Y11.8
G1X17.57Y11.64
G1X17.62Y11.49
G1X17.66Y11.37
G1X17.68Y11.29
G1X17.71Y11.07
G1Y10.97
G1X17.73Y10.82
G1X17.74Y10.64
G1X17.78Y10.02
G1X17.81Y9.6
G1X17.83Y9.25
G1Y8.84
G1Y8.6
G1X17.81Y8.35
G1X17.79Y8.06
G1X17.77Y7.75
G1X17.75Y7.44
G1Y7.11
G1Y6.92
G1Y6.7
G1Y6.47
G1X17.79Y5.81
G1Y5.36
G1Y5.2
G1Y5.17
G1X17.78
G1X17.76Y5.19
G1X17.74Y5.24
G1X17.71Y5.32
G1X17.69Y5.44
G1X17.66Y5.59
G1X17.62Y5.77
G1X17.44Y6.77
G1X17.3Y7.5
G1X17.28Y7.65
G1X17.26Y7.84
G1X17.24Y8.08
G1Y8.33
G1X17.22Y8.86
G1Y9.34
G1X17.24Y9.89
G1Y10.37
G1Y10.57
G1X17.23Y10.74
G1X17.21Y10.87
G1X17.2Y10.95
G1X17.07Y11.36
G1X16.98Y11.65
G1X16.89Y11.85
G1X16.8Y11.97
G1X16.7Y12.03
G1X16.58Y12.05
G1X16.48Y12.03
G1X16.36Y11.94
G1X16.23Y11.79
G1X16.11Y11.61
G1X16.01Y11.4
G1X15.95Y11.21
G1X15.89Y10.96
G1X15.87Y10.84
G1X15.85Y10.74
G1Y10.66
G1Y10.62
G1Y10.57
G1X15.87Y10.46
G1X15.89Y10.29
G1X15.91Y10.1
G1X15.96Y9.62
G1X16.02Y9.18
G1X16.05Y9.02
G1X16.08Y8.86
G1X16.09Y8.74
G1Y8.67
G1X16.12Y8.56
G1X16.17Y8.37
G1X16.25Y8.14
G1X16.35Y7.86
G1X16.62Y7.22
G1X16.91Y6.55
G1X17.16Y6.04
G1X17.32Y5.68
G1X17.44Y5.43
G1X17.57Y5.21
G1X17.62Y5.11
G1X17.67Y5.04
G1X17.71Y4.99
G1X17.74Y4.98
G1X17.76Y5
G1X17.78Y5.08
G1Y5.06
G1X17.81Y5.02
G1X17.83Y4.94
G1X17.91Y4.68
G1X18.03Y4.28
G0X16.66Y3.35
; Layer C00
G1X16.69Y2.85
G1Y2.65
G1X16.72Y2.44
G1X16.74Y2.27
G1X16.76Y2.15
G1X16.82Y1.97
G1X16.88Y1.8
G1X16.95Y1.65
G1X16.81Y1.5
G1X16.7Y1.34
G1X16.55Y1.01
G1X16.45Y0.89
G1X16.31Y0.8
G1X16.14Y0.74
G1X16.04Y0.73
G1X15.95
G1X15.83Y0.78
G1X15.64Y0.87
G1X15.5Y0.94
G1X15.37Y1.02
G1X15.27Y1.09
G1X15.2Y1.14
G1X15.15Y1.21
G1X15.12Y1.28
G1Y1.41
G1Y1.62
G1Y1.83
G1X15.14Y1.98
G1X15.18Y2.11
G1X15.31Y2.41
G1X15.35Y2.52
G1X15.38Y2.61
G1Y2.66
G1X15.42Y2.72
G1X15.53Y2.75
G1X16.02Y2.95
G1X16.52Y3.24
G1X16.66Y3.35
G0X15.23Y2.71
; Layer C00
G1Y2.69
G1X15.21Y2.64
G1X15.18Y2.55
G1X15.14Y2.42
G1X15.1Y2.27
G1X15.02Y1.97
G1X14.97Y1.75
G1Y1.59
G1X15Y1.39
G1X15.05Y1.18
G1X15.13Y1
G1X15.18Y0.93
G1X15.23Y0.87
G1X15.31Y0.84
G1X15.43Y0.8
G1X15.62Y0.73
G1X15.77Y0.67
G1X15.92Y0.61
G1X16.07Y0.6
G1X16.23Y0.63
G1X16.41Y0.71
G1X16.54Y0.8
G1X16.64Y0.9
G1X16.73Y1.04
G1X16.83Y1.25
G1X16.89Y1.35
G1X16.95Y1.45
G1X17.03Y1.54
G1X17.11Y1.46
G1X17.37Y1.25
G1X17.72Y1.07
G1X18.09Y0.93
G1X18.41Y0.86
G1X18.55
G1X18.64Y0.87
G1X18.73Y0.91
G1X18.84Y0.99
G1X19.02Y1.12
G1X19Y1.31
G1X18.97Y1.42
G1X18.92Y1.58
G1X18.85Y1.76
G1X18.77Y1.95
G1X18.55Y2.47
G1X18.43Y2.75
G1X18.64Y2.64
G1X18.97Y2.49
G1X19.39Y2.36
G1X19.85Y2.26
G1X20.3Y2.19
G1X20.59Y2.18
G1X20.87Y2.21
G1X21.15Y2.28
G1X21.42Y2.38
G1X21.68Y2.51
G1X21.92Y2.68
G1X22.14Y2.88
G1X22.33Y3.11
G1X22.41Y3.21
G1X22.48Y3.3
G1X22.54Y3.36
G1X22.57Y3.38
G1X22.58
G1Y3.41
G1Y3.44
G1X22.62Y3.48
G1X22.65Y3.54
G1X22.69Y3.62
G1X22.72Y3.72
G1X22.78Y3.95
G1X22.83Y4.2
G1X22.86Y4.46
G1X22.85Y4.73
G1X22.82Y4.88
G1X22.79Y5.04
G1X22.75Y5.23
G1X22.64Y5.67
G1X22.59Y5.87
G1X22.56Y6.04
G1X22.54Y6.15
G1X22.51Y6.38
G1X22.47Y6.68
G1X22.42Y7.02
G1X22.4Y7.36
G1Y7.67
G1X22.44Y7.91
G1Y7.97
G1X22.45Y8.05
G1X22.46Y8.16
G1Y8.29
G1X22.48Y8.59
G1Y8.92
G1Y9.74
G1X22.58Y9.66
G1X22.92Y9.51
G1X23.35Y9.36
G1X23.53Y9.33
G1X23.73
G1X23.94Y9.35
G1X24.17Y9.4
G1X24.46Y9.48
G1X24.69Y9.57
G1X24.9Y9.69
G1X25.14Y9.85
G1X25.23Y9.92
G1X25.29Y9.96
G1X25.31Y9.99
G1Y10.01
G1X25.22
G1X25.04Y9.95
G1X24.78Y9.89
G1X24.46Y9.87
G1X24.14Y9.88
G1X23.86Y9.93
G1X23.73Y9.98
G1X23.61Y10.05
G1X23.54Y10.1
G1X23.45Y10.17
G1X23.35Y10.26
G1X23.08Y10.51
G1X22.96Y10.63
G1X22.87Y10.72
G1X22.81Y10.78
G1X22.77Y10.87
G1X22.82Y10.9
G1X23.05Y10.99
G1X23.28Y11.11
G1X23.46Y11.24
G1X23.56Y11.35
G1X23.59Y11.48
G1X23.61Y11.66
G1X23.59Y11.82
G1X23.55Y12
G1X23.49Y12.2
G1X23.39Y12.41
G1X23.28Y12.64
G1X23.13Y12.89
G1X22.96Y13.15
G1X22.64Y13.6
G1X22.61Y13.65
G1X22.58Y13.7
G1X22.55Y13.76
G1X22.51Y13.83
G1X22.31Y14.15
G1X22.47Y14.31
G1X22.61Y14.48
G1X22.73Y14.67
G1X22.81Y14.87
G1X22.86Y15.05
G1X22.88Y15.24
G1X22.97Y15.06
G1X23.05Y14.87
G1X23.12Y14.67
G1X23.18Y14.5
G1X23.22Y14.38
G1X23.24Y14.32
G1X23.25Y14.23
G1X23.27Y14.12
G1X23.29Y13.99
G1X23.32Y13.69
G1X23.35Y13.26
G1X23.36Y13.16
G1X23.38Y13.08
G1X23.4Y13.04
G1X23.44Y13.01
G1X23.47
G1Y13.05
G1X23.49Y13.17
G1Y13.35
G1X23.51Y13.78
G1X23.53Y14.01
G1X23.54Y14.2
G1X23.56Y14.33
G1X23.66Y14.77
G1X23.79Y15.26
G1X23.86Y15.49
G1X23.93Y15.68
G1X23.99Y15.83
G1X24.03Y15.91
G1X24.05Y15.95
G1X24.09Y16.02
G1X24.14Y16.12
G1X24.19Y16.24
G1X24.31Y16.47
G1X24.48Y16.74
G1X24.6Y16.9
G1X24.74Y17.07
G1X24.9Y17.27
G1X25.09Y17.49
G1X25.23Y17.67
G1X25.34Y17.83
G1X25.43Y17.98
G1X25.5Y18.14
G1X25.55Y18.31
G1X25.59Y18.49
G1X25.61Y18.7
G1Y18.94
G1X25.63Y19.23
G1Y19.32
G1Y19.38
G1X25.6Y19.45
G1X25.55Y19.47
G1X25.49
G1X25.47Y19.42
G1X25.46Y19.31
G1X25.42Y19.17
G1X25.36Y18.99
G1X25.28Y18.81
G1X25.19Y18.62
G1X25.11Y18.44
G1X25.02Y18.28
G1X24.94Y18.17
G1X24.83Y18.05
G1X24.69Y17.94
G1X24.57Y17.86
G1X24.5Y17.85
G1X24.45
G1X24.25Y17.76
G1X24.11Y17.74
G1X23.97
G1X23.82Y17.77
G1X23.69Y17.83
G1X23.56Y17.91
G1X23.45Y18.01
G1X23.37Y18.13
G1X23.31Y18.33
G1X23.29Y18.56
G1X23.32Y18.81
G1X23.4Y19.02
G1X23.6Y19.35
G1X23.82Y19.63
G1X23.87Y19.68
G1X23.93Y19.76
G1X24Y19.85
G1X24.09Y19.97
G1X24.33Y20.3
G1X24.67Y20.78
G1X24.95Y21.23
G1X25.14Y21.66
G1X25.2Y21.88
G1X25.25Y22.12
G1X25.28Y22.38
G1X25.3Y22.67
G1X25.31Y22.9
G1Y23.04
G1X25.3Y23.12
G1X25.27Y23.17
G1X25.24Y23.19
G1X25.21
G1X25.2Y23.18
G1X25.19Y23.15
G1X25.17Y23.04
G1Y22.88
G1X25.11Y22.41
G1X25Y22.02
G1X24.82Y21.67
G1X24.54Y21.34
G1X24.36Y21.16
G1X24.13Y20.98
G1X23.87Y20.78
G1X23.28Y20.35
G1X23.05Y20.17
G1X22.85Y20
G1X22.68Y19.82
G1X22.53Y19.63
G1X22.38Y19.41
G1X22.23Y19.15
G1X22.07Y18.85
G1X21.98Y18.66
G1X21.9Y18.51
G1X21.84Y18.37
G1X21.79Y18.25
G1X21.73Y18.04
G1X21.71Y17.85
G1X21.69Y17.78
G1X21.67Y17.75
G1X21.64Y17.78
G1X21.6Y17.84
G1X21.54Y17.95
G1X21.49Y18.08
G1X21.37Y18.37
G1X21.27Y18.66
G1X21.19Y18.9
G1X21.14Y19.07
G1X21.04Y19.31
G1X20.85Y19.66
G1X20.63Y19.98
G1X20.39Y20.2
G1X20.09Y20.38
G1X19.93Y20.45
G1X19.48Y20.7
G1X19.23Y20.82
G1X19.02Y20.9
G1X18.83Y20.96
G1X18.66Y20.98
G1X18.5Y20.97
G1X18.34Y20.93
G1X18.18Y20.86
G1X18.03Y20.8
G1X17.91Y20.77
G1X17.8Y20.75
G1X17.67
G1X17.43Y20.77
G1X17.23
G1X17.07
G1X16.94Y20.74
G1X16.72Y20.65
G1X16.47Y20.46
G1X16.26Y20.3
G1X16.08Y20.18
G1X15.78Y19.95
G1X15.51Y19.64
G1X15.38Y19.44
G1X15.24Y19.21
G1X15.1Y18.93
G1X14.94Y18.61
G1X14.86Y18.4
G1X14.81Y18.22
G1X14.8Y18.1
G1X14.85Y18
G1X14.8Y17.9
G1X14.7Y17.74
G1X14.59Y17.57
G1X14.49Y17.43
G1X14.43Y17.36
G1X14.42Y17.37
G1X14.39Y17.41
G1X14.36Y17.48
G1X14.33Y17.56
G1X14.24Y17.8
G1X14.09Y18.1
G1X14.02Y18.23
G1X13.96Y18.35
G1X13.91Y18.43
G1X13.88Y18.46
G1X13.86Y18.47
G1X13.82Y18.52
G1X13.76Y18.59
G1X13.7Y18.68
G1X13.52Y18.9
G1X13.25Y19.15
G1X12.91Y19.4
G1X12.52Y19.65
G1X12.37Y19.74
G1X12.25Y19.81
G1X12.16Y19.87
G1X12.13Y19.89
G1X12.15
G1X12.18
G1X12.2Y19.87
G1Y19.9
G1X12.16Y19.92
G1X12.1
G1X12.06Y19.91
G1Y19.92
G1Y19.94
G1X12.02Y19.98
G1X11.96Y20.03
G1X11.88Y20.08
G1X11.73Y20.18
G1X11.65Y20.26
G1X11.62Y20.3
G1X11.58Y20.31
G1X11.53Y20.33
G1X11.48Y20.36
G1X11.43Y20.39
G1X11.4Y20.41
G1X11.35Y20.43
G1X11.25Y20.51
G1X11.12Y20.62
G1X10.98Y20.74
G1X10.84Y20.88
G1X10.7Y21.01
G1X10.6Y21.12
G1X10.53Y21.19
G1X10.23Y21.63
G1X10.14Y21.78
G1X10.07Y21.89
G1X10Y22.07
G1X9.96Y22.24
G1X9.93Y22.36
G1X9.88Y22.41
G1X9.83Y22.39
G1X9.8Y22.28
G1Y22.13
G1X9.83Y21.91
G1X9.91Y21.66
G1X10.01Y21.39
G1X10.09Y21.2
G1X10.13Y21.07
G1X10.18Y20.97
G1X10.29Y20.81
G1X10.45Y20.62
G1X10.65Y20.41
G1X10.87Y20.2
G1X11.09Y19.99
G1X11.3Y19.81
G1X11.49Y19.67
G1X11.87Y19.39
G1X12.2Y19.06
G1X12.33Y18.9
G1X12.45Y18.74
G1X12.53Y18.59
G1X12.59Y18.46
G1X12.61Y18.34
G1Y18.17
G1Y17.97
G1Y17.78
G1X12.57Y17.71
G1X12.5Y17.61
G1X12.39Y17.52
G1X12.25Y17.48
G1X12.1Y17.47
G1X11.92Y17.49
G1X11.74Y17.55
G1X11.56Y17.64
G1X11.38Y17.76
G1X11.22Y17.91
G1X11.11Y18.01
G1X11.05Y18.05
G1X11Y18.1
G1X10.86Y18.34
G1X10.8Y18.4
G1X10.78Y18.41
G1Y18.34
G1X10.75Y18.24
G1X10.71Y18.09
G1X10.7Y17.9
G1X10.71Y17.69
G1X10.76Y17.49
G1X10.81Y17.34
G1X10.88Y17.17
G1X10.94Y17.06
G1X11.02Y16.91
G1X11.24Y16.51
G1X11.42Y16.16
G1X11.57Y15.86
G1X11.69Y15.62
G1X11.78Y15.43
G1X11.86Y15.29
G1X11.59Y15.02
G1X11.41Y14.84
G1X11.26Y14.64
G1X11.13Y14.41
G1X11.02Y14.17
G1X10.93Y13.92
G1X10.86Y13.66
G1X10.82Y13.39
G1Y13.12
G1Y12.91
G1X10.84Y12.77
G1X10.88Y12.69
G1X10.93Y12.66
G1X11.03Y12.7
G1X11.14Y12.8
G1X11.24Y12.95
G1X11.31Y13.13
G1X11.38Y13.31
G1X11.44Y13.46
G1X11.5Y13.56
G1X11.53Y13.58
G1Y13.51
G1X11.5Y13.37
G1X11.48Y13.22
G1X11.5Y13.14
G1X11.55Y13.12
G1X11.59Y13.14
G1X11.65Y13.22
G1X11.72Y13.35
G1X11.83Y13.55
G1X11.97Y13.76
G1X12.04Y13.85
G1X12.1Y13.93
G1X12.15Y13.98
G1X12.18Y14
G1X12.21Y13.95
G1X12.25Y13.84
G1X12.31Y13.65
G1X12.39Y13.42
G1X12.46Y13.18
G1X12.56Y12.77
G1X12.61Y12.6
G1X12.7Y12.26
G1X12.72Y11.98
G1X12.73Y11.94
G1X12.76Y11.88
G1X12.79Y11.84
G1X12.81Y11.82
G1X12.83Y11.83
G1X12.85Y11.87
G1X12.86Y11.93
G1X12.87Y12.02
G1X12.89Y12.13
G1Y12.28
G1X12.93Y12.66
G1X12.96Y12.98
G1X12.99Y13.1
G1X13.01Y13.19
G1X13.03Y13.24
G1X13.05Y13.26
G1X13.06Y13.23
G1X13.08Y13.16
G1Y13.06
G1X13.1Y12.94
G1X13.11Y12.78
G1X13.14Y12.54
G1X13.19Y12.27
G1X13.24Y11.99
G1X13.3Y11.7
G1X13.34Y11.46
G1X13.38Y11.27
G1X13.4Y11.12
G1Y10.92
G1X13.38Y10.78
G1X13.32Y10.6
G1X13.19Y10.1
G1X13.06Y9.64
G1X13.01Y9.41
G1X12.95Y9.2
G1X12.88Y8.99
G1X12.8Y8.73
G1X12.72Y8.39
G1X12.58Y7.7
G1X12.44Y7.09
G1X12.41Y6.9
G1X12.35Y6.69
G1X12.29Y6.48
G1X12.2Y6.21
G1X12.04Y5.74
G1X12Y5.61
G1X11.96Y5.51
G1X11.94Y5.46
G1X11.91Y5.38
G1X11.89Y5.27
G1X11.88Y5.14
G1Y4.99
G1Y4.65
G1X11.94Y4.31
G1X11.99Y4.1
G1X12.04Y3.92
G1X12.12Y3.76
G1X12.21Y3.63
G1X12.33Y3.5
G1X12.48Y3.38
G1X12.68Y3.26
G1X12.91Y3.13
G1X13.39Y2.91
G1X13.87Y2.75
G1X14.35Y2.66
G1X14.8Y2.65
G1X15.04Y2.67
G1X15.18Y2.7
G1X15.23
G0X7.49Y14.93
; Layer C00
G1X7.55Y14.96
G1X7.66Y15.02
G1X7.8Y15.11
G1X8.27Y15.41
G1X8.34Y15.45
G1X8.44Y15.51
G1X8.72Y15.65
G1X9.05Y15.82
G1X9.42Y16
G1X9.77Y16.17
G1X10.07Y16.32
G1X10.2Y16.37
G1X10.3Y16.41
G1X10.37Y16.44
G1X10.41Y16.45
G1X10.51Y16.53
G1X10.58Y16.64
G1X10.55Y16.66
G1X10.47Y16.68
G1X10.35Y16.7
G1X10.21Y16.72
G1X9.91Y16.73
G1X9.66Y16.72
G1X9.53Y16.69
G1X9.33Y16.65
G1X8.79Y16.53
G1X8.22Y16.4
G1X7.99Y16.34
G1X7.49Y16.21
G1X7.37Y16.18
G1X7.29Y16.16
G1X7.2Y16.14
G1X7.09Y16.09
G1X6.99Y16.06
G1X6.85Y16.01
G1X6.68Y15.95
G1X6.38Y15.85
G1X6.16Y15.76
G1X6.03Y15.68
G1X6Y15.62
G1X6.05Y15.59
G1X6.17
G1X6.32Y15.61
G1X6.5Y15.65
G1X6.69Y15.71
G1X6.92Y15.76
G1X7.6Y15.91
G1X7.82Y15.95
G1X8Y15.96
G1X8.16
G1X8.42Y15.95
G1X8.21Y15.8
G1X7.99Y15.61
G1X7.73Y15.35
G1X7.61Y15.23
G1X7.52Y15.12
G1X7.45Y15.03
G1X7.43Y14.98
G1Y14.95
G1X7.45Y14.93
G1X7.49
G0X5.65Y16.07
; Layer C00
G1X5.85Y16.19
G1X6.06Y16.31
G1X6.15Y16.37
G1X6.21Y16.42
G1X6.25Y16.47
G1Y16.51
G1X6.22Y16.56
G1X6.14Y16.57
G1X5.97Y16.56
G1X5.84Y16.55
G1X5.74
G1X5.67
G1X5.57Y16.57
G1X5.49Y16.63
G1X5.38Y16.77
G1X5.27Y16.96
G1X5.2Y17.09
G1X5.17Y17.21
G1X5.16Y17.36
G1Y17.6
G1Y17.94
G1X5.22Y18.22
G1X5.3Y18.45
G1X5.42Y18.62
G1X5.53Y18.73
G1X5.65Y18.8
G1X5.77Y18.85
G1X5.86
G1X5.91
G1X5.95Y18.87
G1X6
G1X6.08Y18.81
G1X6.16Y18.74
G1X6.21Y18.72
G1X6.26Y18.68
G1X6.4Y18.5
G1X6.45Y18.47
G1X6.48Y18.5
G1Y18.61
G1Y18.71
G1X6.43Y18.8
G1X6.35Y18.92
G1X6.21Y19.1
G1X5.95Y19.39
G1X5.64Y19.68
G1X5.32Y19.95
G1X5.03Y20.15
G1X4.48Y20.49
G1X4.25Y20.63
G1X4.17Y20.67
G1X4.08Y20.72
G1X3.95Y20.79
G1X3.79Y20.87
G1X3.55Y20.96
G1X3.26Y21.05
G1X2.96Y21.13
G1X2.67Y21.2
G1X2.42Y21.24
G1X2.32Y21.25
G1X2.24
G1X2.18
G1X2.15Y21.24
G1Y21.2
G1X2.16Y21.17
G1X2.21Y21.14
G1X2.28Y21.11
G1X2.71Y20.91
G1X3.11Y20.66
G1X3.25Y20.53
G1X3.46Y20.37
G1X3.8Y20.08
G1X4.06Y19.81
G1X4.27Y19.52
G1X4.42Y19.21
G1X4.47Y19.06
G1X4.5Y18.91
G1Y18.83
G1Y18.71
G1Y18.57
G1X4.48Y18.19
G1X4.47Y18.02
G1X4.45Y17.89
G1X4.43Y17.77
G1X4.36Y17.55
G1X4.24Y17.31
G1X4.13Y17.14
G1X3.98Y16.95
G1X3.83Y16.79
G1X3.72Y16.71
G1X3.61Y16.66
G1X3.47Y16.58
G1X3.28Y16.5
G1X3.05Y16.43
G1X2.81Y16.4
G1X2.61
G1X2.41Y16.44
G1X1.99Y16.54
G1X1.85Y16.56
G1X1.77Y16.55
G1Y16.51
G1Y16.47
G1X1.74Y16.44
G1Y16.41
G1X1.81Y16.34
G1X1.91Y16.23
G1X2.04Y16.11
G1X2.32Y15.87
G1X2.55Y15.71
G1X2.87Y15.57
G1X3.24Y15.48
G1X3.64Y15.45
G1X4.05Y15.46
G1X4.19Y15.49
G1X4.38Y15.54
G1X4.6Y15.61
G1X4.84Y15.7
G1X5.07Y15.79
G1X5.3Y15.89
G1X5.5Y15.98
G1X5.65Y16.07
G0X7.79Y18.52
; Layer C00
G1X7.83Y18.51
G1X7.87Y18.55
G1X7.88Y18.65
G1X7.94Y19
G1X8.03Y19.4
G1X8.08Y19.61
G1X8.14Y19.86
G1X8.21Y20.12
G1X8.31Y20.42
G1X8.42Y20.74
G1X8.55Y21.06
G1X8.68Y21.38
G1X8.82Y21.68
G1X8.95Y21.95
G1X9.07Y22.17
G1X9.38Y22.67
G1X9.44Y22.77
G1X9.48Y22.85
G1X9.51Y22.91
G1Y22.94
G1X9.47Y22.92
G1X9.37Y22.88
G1X9.22Y22.81
G1X9.04Y22.73
G1X8.86Y22.64
G1X8.71Y22.56
G1X8.6Y22.5
G1X8.51Y22.43
G1X8.28Y22.34
G1X8.03Y22.2
G1X7.85Y22.12
G1X7.48Y22
G1X7.15Y21.89
G1X6.85Y21.81
G1X6.58Y21.74
G1X6.06Y21.66
G1X5.51Y21.62
G1X5.18
G1X4.95
G1X4.75Y21.65
G1X4.3Y21.75
G1X4.16Y21.78
G1X4.08
G1X4.03Y21.77
G1Y21.74
G1Y21.72
G1X4.08Y21.7
G1X4.14Y21.67
G1X4.27Y21.62
G1X4.44Y21.57
G1X4.65Y21.52
G1X4.87Y21.47
G1X5.34Y21.37
G1X5.76Y21.3
G1X5.98Y21.28
G1X6.25Y21.26
G1X6.55Y21.25
G1X6.86
G1X7.15
G1X7.41
G1X7.61
G1X7.74Y21.28
G1X7.83Y21.3
G1X7.88
G1Y21.27
G1X7.85Y21.06
G1X7.79Y20.52
G1X7.74Y20.15
G1Y20
G1X7.72Y19.81
G1Y19.57
G1Y19.32
G1Y19.08
G1X7.73Y18.86
G1X7.75Y18.69
G1X7.76Y18.59
G1X7.79Y18.52
G0X6.86Y22.85
; Layer C00
G1X7.07Y22.87
G1X7.25Y22.9
G1X7.4Y22.93
G1X7.5Y22.95
G1X7.62Y22.99
G1X8.03Y23.09
G1X8.22Y23.14
G1X8.33Y23.2
G1X8.36Y23.25
G1X8.34Y23.29
G1X8.28Y23.3
G1X8.18Y23.28
G1X8.02Y23.22
G1X7.93Y23.19
G1X7.81Y23.17
G1X7.64Y23.15
G1X7.37Y23.11
G1X7.02Y23.09
G1X6.67
G1X6.33Y23.14
G1X5.99Y23.21
G1X5.79Y23.26
G1X5.51Y23.33
G1X5.41Y23.36
G1X5.22Y23.42
G1X5Y23.5
G1X4.44Y23.74
G1X3.96Y24
G1X3.53Y24.29
G1X3.13Y24.64
G1X2.88Y24.88
G1X2.68Y25.08
G1X2.52Y25.26
G1X2.39Y25.42
G1X2.27Y25.59
G1X2.17Y25.78
G1X2.05Y26
G1X1.93Y26.27
G1X1.75Y26.73
G1X1.63Y27.25
G1X1.6Y27.52
G1X1.58Y27.82
G1Y28.15
G1Y28.49
G1X1.59Y28.76
G1X1.61Y28.98
G1X1.62Y29.13
G1X1.64Y29.19
G1X1.66Y29.25
G1X1.69Y29.61
G1X1.73Y29.89
G1X1.77Y30.14
G1X1.79Y30.33
G1Y30.45
G1X1.75Y30.49
G1X1.72Y30.46
G1X1.67Y30.4
G1X1.61Y30.3
G1X1.55Y30.18
G1X1.4Y29.89
G1X1.27Y29.63
G1X1.13Y29.32
G1X1.07Y29.18
G1X1.01Y29
G1X0.93Y28.78
G1X0.86Y28.53
G1X0.71Y27.98
G1X0.59Y27.42
G1X0.53Y27.11
G1X0.49Y26.83
G1X0.48Y26.68
G1X0.47Y26.52
G1Y26.32
G1X0.46Y26.09
G1Y25.41
G1X0.5Y24.8
G1X0.57Y24.19
G1X0.68Y23.53
G1X0.81Y23.05
G1X0.96Y22.56
G1X1.01Y22.44
G1X1.09Y22.28
G1X1.18Y22.1
G1X1.28Y21.91
G1X1.37Y21.74
G1X1.46Y21.6
G1X1.52Y21.5
G1X1.56Y21.46
G1X1.59Y21.48
G1Y21.53
G1X1.58Y21.61
G1X1.54Y21.75
G1X1.48Y21.96
G1X1.43Y22.24
G1X1.38Y22.55
G1X1.34Y22.87
G1X1.31Y23.17
G1X1.3Y23.43
G1Y23.53
G1Y23.61
G1Y23.67
G1X1.33Y23.75
G1X1.35Y23.82
G1X1.36Y23.93
G1X1.37Y24.05
G1X1.4Y24.31
G1X1.44Y24.53
G1X1.49Y24.72
G1X1.71Y24.5
G1X2.07Y24.18
G1X2.52Y23.85
G1X3Y23.55
G1X3.47Y23.31
G1X4.05Y23.09
G1X4.69Y22.93
G1X5.37Y22.83
G1X6.05Y22.79
G1X6.43Y22.81
G1X6.86Y22.85
M9
G1S0
M5
G90
; return to user-defined finish pos
G0 X0 Y0
M2
