; LightBurn 0.9.24
; GRBL device profile, absolute coords
; Bounds: X1 Y1 to X27.72 Y34
G00 G17 G40 G21 G54
G90
M4
; Cut @ 6000 mm/min, 20% power
M8
M5
G0X11.46Y3.9
M3 S30
; Layer C00
G1X11.44Y3.93S20F6000
G1X11.41Y4
G1X11.38Y4.1
G1X11.35Y4.23
G1X11.28Y4.54
G1X11.25Y4.66
G1X11.22Y4.73
G1X11.19
G1X11.15Y4.68
G1Y4.7
G1X11.18Y4.78
G1X11.23Y4.89
G1X11.3Y5.04
G1X11.32Y5.17
G1X11.34Y5.24
G1X11.37
G1X11.4Y5.16
G1X11.42Y5.03
G1Y4.91
G1X11.36Y4.87
G1X11.32Y4.86
G1Y4.8
G1X11.36Y4.62
G1X11.38Y4.42
G1X11.4Y4.36
G1X11.44Y4.34
G1X11.47Y4.37
G1X11.49Y4.43
G1Y4.52
G1X11.51Y4.75
G1Y4.84
G1X11.53Y4.89
G1X11.55
G1X11.57Y4.81
G1Y4.66
G1X11.58Y4.52
G1X11.62Y4.46
G1X11.64Y4.43
G1X11.58Y4.35
G1X11.49Y4.29
G1X11.43Y4.27
G1X11.4
G1X11.38Y4.23
G1X11.4Y4.19
G1X11.44Y4.17
G1X11.49Y4.13
G1X11.5Y4.03
G1Y3.94
G1X11.49Y3.9
G1X11.46
M5
G0X12.01Y3.94
M3 S30
; Layer C00
G1Y3.99
G1X12.02Y4.07
G1X12.06Y4.22
G1X12.11Y4.34
G1X12.16Y4.43
G1X12.2Y4.46
G1Y4.44
G1X12.19Y4.39
G1X12.14Y4.27
G1X12.1Y4.12
G1X12.09Y3.98
G1X12.11Y3.91
G1X12.15Y3.84
G1X12.16Y3.72
G1Y3.59
G1X12.12Y3.52
G1X12.1
G1X12.09Y3.56
G1Y3.62
G1Y3.69
G1Y3.83
G1X12.05Y3.89
G1X12.03
G1X12.01Y3.94
M5
G0X12.3Y3.74
M3 S30
; Layer C00
G1X12.32
G1X12.4Y3.69
G1X12.52
G1X12.63Y3.72
G1X12.69Y3.78
G1X12.71Y3.82
G1X12.72
G1X12.73
G1X12.75Y3.78
G1Y3.71
G1X12.7Y3.66
G1X12.66Y3.59
G1Y3.48
G1X12.69Y3.4
G1Y3.38
G1X12.67Y3.41
G1X12.62Y3.49
G1X12.55Y3.57
G1X12.52
G1X12.53Y3.52
G1X12.55Y3.44
G1X12.58Y3.33
G1X12.61Y3.21
G1X12.69Y2.96
G1X12.8Y2.68
G1Y2.65
G1X12.78
G1X12.74Y2.68
G1X12.67Y2.77
G1X12.62Y2.9
G1X12.58Y3.1
G1X12.51Y3.34
G1X12.44Y3.63
G1X12.38Y3.39
G1X12.36Y3.2
G1Y3.06
G1X12.38Y3.01
G1X12.4Y2.99
G1X12.43
G1X12.49Y3.06
G1X12.51
G1X12.53Y3.03
G1X12.55Y2.96
G1X12.57Y2.83
G1Y2.73
G1X12.54
G1X12.53Y2.8
G1Y2.87
G1X12.51Y2.9
G1X12.49
G1X12.46Y2.86
G1X12.43Y2.82
G1X12.41Y2.81
G1Y2.82
G1Y2.87
G1X12.39Y2.94
G1X12.35Y2.97
G1X12.3Y3.04
G1X12.27Y3.19
G1Y3.36
G1X12.3Y3.47
G1X12.32Y3.56
G1Y3.67
G1X12.3Y3.74
M5
G0X13.32Y4.02
M3 S30
; Layer C00
G1X13.27Y4.09
G1X13.25Y4.23
G1X13.23Y4.27
G1X13.19
G1X13.18
G1Y4.3
G1X13.2Y4.35
G1X13.23Y4.43
G1X13.31Y4.55
G1X13.37Y4.59
G1X13.4Y4.54
G1X13.39Y4.41
G1X13.36Y4.26
G1Y4.12
G1X13.34Y4.03
G1X13.32
M5
G0X12.43Y4.78
M3 S30
; Layer C00
G1X12.4
G1Y4.82
G1X12.36
G1X12.31Y4.8
G1X12.24Y4.76
G1X12.15Y4.71
G1X12.11Y4.69
G1Y4.71
G1X12.15Y4.76
G1X12.24Y4.84
G1X12.35Y4.89
G1X12.42Y4.93
G1Y4.98
G1Y5.04
G1X12.46Y5.12
G1X12.52Y5.18
G1X12.55Y5.19
G1Y5.17
G1X12.56Y5.1
G1X12.54Y4.99
G1X12.48Y4.86
G1X12.43Y4.78
M5
G0X12.24Y5.16
M3 S30
; Layer C00
G1Y5.22
G1X12.31Y5.29
G1X12.4Y5.37
G1X12.44Y5.43
G1X12.45Y5.54
G1X12.49Y5.58
G1X12.55Y5.6
G1X12.62Y5.58
G1X12.64Y5.54
G1X12.62Y5.51
G1X12.52Y5.49
G1X12.5Y5.46
G1X12.48Y5.36
G1X12.4Y5.26
G1X12.31Y5.17
G1X12.24
M5
G0X11.14Y5.5
M3 S30
; Layer C00
G1X11.12
G1X11.06Y5.56
G1X10.97Y5.62
G1X10.91Y5.63
G1X10.88Y5.66
G1X10.86Y5.76
G1Y5.92
G1X10.92Y5.77
G1X10.97Y5.69
G1X11.01
G1Y5.78
G1X10.93Y5.99
G1X10.91Y6.1
G1Y6.15
G1X10.92Y6.17
G1X10.93Y6.15
G1X10.95Y6.1
G1X10.98Y6.04
G1X11.02Y6.03
G1X11.05Y6.02
G1Y5.94
G1X11.03Y5.89
G1Y5.86
G1X11.06Y5.84
G1X11.09
G1X11.15Y5.82
G1X11.19Y5.74
G1Y5.69
G1Y5.67
G1X11.18
G1X11.12Y5.75
G1X11.1
G1Y5.71
G1X11.14Y5.54
G1Y5.5
M5
G0X10.69Y5.5
M3 S30
; Layer C00
G1X10.68Y5.39
G1X10.66Y5.3
G1Y5.22
G1Y5.18
G1X10.65Y5.16
G1X10.61Y5.17
G1X10.57Y5.21
G1Y5.26
G1Y5.3
G1X10.53Y5.34
G1X10.5Y5.35
G1Y5.37
G1X10.52Y5.4
G1X10.56Y5.43
G1X10.62Y5.5
G1Y5.57
G1Y5.66
G1X10.63Y5.75
G1X10.66Y5.81
G1X10.7
G1X10.72Y5.78
G1Y5.71
G1X10.71Y5.61
G1X10.69Y5.5
M5
G0X10.47Y5.68
M3 S30
; Layer C00
G1X10.43Y5.66
G1X10.39Y5.69
G1X10.37Y5.74
G1X10.35Y5.81
G1X10.32Y5.91
G1X10.29Y6.04
G1X10.25Y6.24
G1X10.24Y6.3
G1Y6.34
G1X10.26Y6.37
G1X10.33Y6.35
G1X10.4Y6.33
G1X10.38Y6.3
G1X10.33Y6.26
G1X10.31Y6.18
G1Y6.14
G1Y6.12
G1X10.34Y6.13
G1X10.36Y6.16
G1X10.41Y6.21
G1X10.45Y6.18
G1X10.46Y6.13
G1X10.43Y6.09
G1X10.41Y6.02
G1X10.48Y5.76
G1X10.47Y5.68
M5
G0X11.47Y6.77
M3 S30
; Layer C00
G1X11.53
G1X11.62Y6.8
G1X11.74Y6.87
G1X11.8Y6.92
G1X11.83Y6.96
G1Y7.01
G1Y7.06
G1X11.79Y7.1
G1X11.76Y7.12
G1X11.72Y7.09
G1X11.66Y7.04
G1X11.6Y6.94
G1Y6.86
G1Y6.83
G1X11.54
G1X11.47Y6.84
G1X11.44Y6.81
G1X11.47Y6.77
M5
G0X11.37Y6.78
M3 S30
; Layer C00
G1Y6.8
G1Y6.84
G1X11.45Y6.92
G1X11.61Y7.06
G1X11.8Y7.22
G1X11.96Y7.35
G1X12.07Y7.4
G1X12.12Y7.42
G1X12.14Y7.47
G1X12.16Y7.58
G1X12.19Y7.6
G1X12.2Y7.58
G1Y7.52
G1X12.17Y7.43
G1X12.1Y7.35
G1X12.03Y7.3
G1X11.98
G1X11.94Y7.29
G1X11.92Y7.23
G1X11.94Y7.18
G1X11.98
G1X12.03
G1X12.04Y7.14
G1X12.02Y7.1
G1X11.95Y7.11
G1X11.9Y7.12
G1X11.88
G1Y7.09
G1Y7.05
G1Y6.95
G1X11.8Y6.83
G1X11.69Y6.73
G1X11.59Y6.69
G1X11.52Y6.67
G1X11.47Y6.62
G1X11.46Y6.59
G1Y6.58
G1X11.48
G1X11.52Y6.59
G1X11.59
G1X11.62Y6.57
G1X11.61Y6.53
G1X11.57Y6.52
G1X11.54Y6.5
G1X11.52Y6.44
G1X11.49Y6.36
G1X11.47Y6.26
G1X11.43Y6.07
G1X11.38Y5.97
G1Y5.98
G1X11.37Y6.02
G1Y6.09
G1X11.42Y6.29
G1Y6.38
G1Y6.44
G1Y6.47
G1X11.4Y6.49
G1X11.37Y6.47
G1X11.33Y6.43
G1X11.29Y6.36
G1X11.2Y6.23
G1X11.12Y6.18
G1X11.05Y6.2
G1X10.98Y6.29
G1X10.94Y6.35
G1Y6.38
G1X11Y6.36
G1X11.02
G1Y6.38
G1X11.01Y6.42
G1X11Y6.49
G1X11.03Y6.52
G1X11.07Y6.51
G1X11.09Y6.49
G1Y6.45
G1X11.14Y6.32
G1Y6.3
G1X11.12
G1X11.09Y6.32
G1X11.04Y6.33
G1X11.05Y6.29
G1X11.1Y6.25
G1X11.15Y6.26
G1X11.18Y6.32
G1Y6.48
G1X11.21Y6.57
G1X11.25Y6.62
G1X11.26Y6.59
G1X11.28Y6.54
G1X11.32Y6.52
G1X11.37Y6.54
G1X11.38Y6.6
G1X11.36Y6.66
G1X11.31Y6.69
G1X11.28Y6.7
G1X11.37Y6.78
M5
G0X11.34Y7
M3 S30
; Layer C00
G1X11.24Y7.13
G1X11.15Y7.21
G1X11.07Y7.22
G1X11.04
G1X11.06Y7.26
G1X11.14Y7.39
G1X11.24Y7.52
G1X11.33Y7.62
G1X11.38Y7.66
G1Y7.65
G1X11.37Y7.62
G1X11.36Y7.57
G1X11.39Y7.51
G1X11.42Y7.47
G1Y7.43
G1X11.4Y7.39
G1X11.37Y7.35
G1X11.31Y7.25
G1Y7.13
G1X11.34Y7
M5
G0X12.38Y6.74
M3 S30
; Layer C00
G1X12.44Y6.81
G1X12.51Y6.88
G1X12.57Y6.92
G1X12.62
G1X12.65Y6.91
G1X12.67Y6.89
G1X12.7
G1X12.73Y6.91
G1X12.77Y6.96
G1X12.83Y7.04
G1X12.87Y7.06
G1X12.85Y7
G1X12.76Y6.89
G1X12.64Y6.79
G1X12.54Y6.77
G1X12.49
G1Y6.74
G1X12.5Y6.68
G1X12.46Y6.63
G1X12.39Y6.6
G1X12.33Y6.61
G1X12.32Y6.64
G1X12.34Y6.68
G1X12.38Y6.74
M5
G0X12.43Y7.36
M3 S30
; Layer C00
G1Y7.37
G1X12.52Y7.51
G1X12.62Y7.61
G1X12.72Y7.66
G1X12.79
G1X12.87Y7.64
G1X12.98Y7.69
G1X13.06Y7.75
G1X13.1Y7.77
G1Y7.75
G1X13.08Y7.69
G1X13.03Y7.63
G1X12.94Y7.59
G1X12.85Y7.58
G1X12.78Y7.62
G1X12.75
G1X12.71Y7.61
G1X12.64Y7.56
G1X12.57Y7.48
G1X12.5Y7.41
G1X12.46Y7.37
G1X12.43Y7.36
M5
G0X13.49Y7.53
M3 S30
; Layer C00
G1Y7.56
G1X13.52Y7.61
G1X13.57Y7.68
G1X13.64Y7.8
G1Y7.87
G1Y7.91
G1X13.68Y7.98
G1X13.74Y8.04
G1X13.77Y8.05
G1Y8.02
G1X13.74Y7.93
G1X13.72Y7.86
G1Y7.84
G1X13.75
G1X13.82Y7.89
G1X13.84Y7.9
G1Y7.88
G1X13.79Y7.82
G1X13.72Y7.74
G1X13.64Y7.65
G1X13.58Y7.59
G1X13.53Y7.55
G1X13.5Y7.53
G1X13.49
M5
G0X13.8Y7.48
M3 S30
; Layer C00
G1X13.87Y7.53
G1X13.97Y7.54
G1X14.02
G1X14.06Y7.52
G1X14.07Y7.48
G1Y7.42
G1X14.05Y7.36
G1X14.02Y7.32
G1X13.98Y7.3
G1X13.92
G1X13.83Y7.28
G1X13.82Y7.25
G1Y7.22
G1X13.79
G1X13.72Y7.19
G1X13.57Y7.05
G1X13.54Y7.07
G1X13.57Y7.16
G1X13.66Y7.27
G1X13.77Y7.35
G1X13.88Y7.39
G1X13.98Y7.41
G1X14.02Y7.45
G1X13.98Y7.47
G1X13.89Y7.46
G1X13.84Y7.44
G1X13.81
G1X13.79Y7.46
G1X13.8Y7.48
M5
G0X14.15Y7.56
M3 S30
; Layer C00
G1X14.19Y7.6
G1X14.25Y7.69
G1X14.29Y7.84
G1X14.3Y7.93
G1Y7.98
G1X14.28
G1X14.2Y7.89
G1X14.17Y7.88
G1X14.13
G1X14.09Y7.92
G1X14.05Y7.98
G1X14.08Y8.01
G1X14.21Y8.02
G1X14.26Y8.07
G1Y8.17
G1X14.27Y8.26
G1X14.31
G1X14.35Y8.21
G1X14.34Y8.16
G1X14.33Y8.12
G1X14.35Y8.13
G1X14.39Y8.21
G1X14.4Y8.33
G1X14.45Y8.49
G1X14.56Y8.63
G1X14.67Y8.73
G1X14.74Y8.76
G1X14.77Y8.73
G1X14.72Y8.63
G1X14.66Y8.56
G1X14.6Y8.53
G1X14.55Y8.52
G1X14.51Y8.46
G1Y8.43
G1Y8.41
G1X14.55
G1X14.61
G1X14.66Y8.42
G1Y8.4
G1X14.62Y8.34
G1X14.53Y8.25
G1X14.41Y8.11
G1X14.36Y8.01
G1Y7.97
G1X14.37Y7.95
G1X14.41
G1X14.46Y7.98
G1X14.48Y7.99
G1X14.43Y7.94
G1X14.36Y7.86
G1Y7.81
G1Y7.75
G1X14.32Y7.66
G1X14.25Y7.58
G1X14.18Y7.55
G1X14.15
M5
G0X13.96Y7.15
M3 S30
; Layer C00
G1Y7.13
G1X13.93Y7.09
G1X13.87Y7.04
G1X13.81Y6.98
G1X13.72Y6.9
G1X13.67Y6.84
G1Y6.79
G1X13.7Y6.75
G1X13.78Y6.71
G1X13.88
G1X13.82Y6.67
G1X13.76Y6.6
G1Y6.55
G1X13.79
G1X13.84Y6.57
G1X13.91Y6.61
G1X13.98Y6.67
G1X14.17Y6.83
G1X14.01Y6.66
G1X13.91Y6.49
G1X13.87Y6.33
G1Y6.26
G1X13.86Y6.22
G1X13.83
G1X13.8Y6.24
G1X13.74Y6.3
G1X13.72Y6.35
G1X13.73Y6.38
G1X13.82Y6.36
G1X13.84Y6.39
G1X13.83Y6.45
G1X13.79Y6.48
G1X13.74
G1X13.69Y6.46
G1X13.62Y6.42
G1X13.57Y6.46
G1Y6.5
G1X13.61
G1X13.66Y6.52
G1X13.69Y6.57
G1X13.67Y6.65
G1X13.58Y6.78
G1X13.59Y6.83
G1X13.64Y6.9
G1X13.73Y6.99
G1X13.81Y7.06
G1X13.88Y7.11
G1X13.93Y7.15
G1X13.96
M5
G0X14.57Y6.51
M3 S30
; Layer C00
G1X14.53Y6.46
G1X14.48Y6.43
G1X14.44
G1X14.39
G1X14.34Y6.39
G1X14.33Y6.36
G1X14.39Y6.37
G1X14.41Y6.35
G1Y6.31
G1Y6.25
G1X14.43Y6.13
G1X14.5Y6.07
G1X14.59Y6.1
G1X14.66Y6.18
G1X14.71Y6.29
G1Y6.4
G1X14.67Y6.48
G1X14.62Y6.51
G1X14.57
M5
G0X14.3Y6
M3 S30
; Layer C00
G1X14.26Y5.97
G1X14.23Y5.89
G1X14.18Y5.82
G1X14.11Y5.81
G1X14.04
G1X14.02Y5.78
G1X14.05Y5.73
G1X14.11Y5.69
G1X14.16Y5.67
G1X14.18Y5.65
G1Y5.62
G1X14.11Y5.52
G1Y5.48
G1X14.1Y5.44
G1X14.05Y5.39
G1X14Y5.36
G1X13.97
G1X13.95Y5.38
G1X13.93Y5.44
G1X13.92Y5.54
G1X13.97Y5.61
G1X14Y5.63
G1X14.01Y5.65
G1X13.97
G1X13.9Y5.63
G1X13.86Y5.56
G1X13.87Y5.45
G1X13.93Y5.31
G1X13.98Y5.21
G1X14Y5.16
G1X13.98Y5.15
G1X13.93Y5.16
G1X13.89Y5.17
G1X13.86Y5.16
G1X13.84Y5.12
G1Y5.06
G1Y4.97
G1X13.86Y4.93
G1X13.9Y4.92
G1X13.94Y4.94
G1X13.98Y4.99
G1X14.04Y5.08
G1X14.1Y5.19
G1X14.16Y5.33
G1X14.24Y5.5
G1X14.3Y5.64
G1X14.36Y5.76
G1X14.4Y5.82
G1X14.42Y5.85
G1Y5.87
G1X14.4
G1X14.31Y5.84
G1X14.29
G1Y5.87
G1X14.31Y5.97
G1X14.3Y6
M5
G0X13.15Y6.19
M3 S30
; Layer C00
G1X13.08Y6.07
G1X13Y5.96
G1X12.93Y5.92
G1X12.88Y5.98
G1Y6.04
G1X12.91Y6.09
G1X12.97
G1X13.02
G1X13.04
G1Y6.13
G1X13.02Y6.25
G1Y6.27
G1X13.09Y6.19
G1X13.11Y6.18
G1Y6.23
G1X13.13Y6.27
G1X13.16
G1Y6.19
M5
G0X11.59Y8.1
M3 S30
; Layer C00
G1X11.51Y8.07
G1X11.44
G1X11.42Y8.1
G1X11.44Y8.15
G1X11.49Y8.26
G1X11.56Y8.39
G1X11.6Y8.45
G1X11.62Y8.44
G1X11.59Y8.34
G1Y8.26
G1X11.62Y8.23
G1X11.66Y8.21
G1X11.65Y8.16
G1X11.59Y8.1
M5
G0X12.18Y8.53
M3 S30
; Layer C00
G1X12.35Y8.9
G1X12.59Y9.27
G1X12.65Y9.3
G1X12.68
G1Y9.28
G1X12.66Y9.22
G1X12.62Y9.13
G1X12.55Y9.06
G1X12.46Y8.95
G1X12.34Y8.76
G1X12.29Y8.67
G1X12.24Y8.59
G1X12.2Y8.55
G1X12.18Y8.53
M5
G0X11.26Y8.95
M3 S30
; Layer C00
G1X11.23Y8.93
G1X11.21Y8.92
G1X11.23Y8.96
G1X11.25Y9.03
G1X11.23Y9.1
G1X11.19Y9.12
G1X11.14Y9.08
G1X11.13Y9.07
G1X11.12Y9.09
G1Y9.13
G1Y9.2
G1X11.15Y9.39
G1X11.2Y9.62
G1X11.28Y9.85
G1X11.4Y10.1
G1X11.52Y10.34
G1X11.6Y10.55
G1X11.65Y10.72
G1X11.67Y10.52
G1X11.65Y10.31
G1X11.59Y10.06
G1X11.51Y9.86
G1X11.49Y9.68
G1X11.45Y9.66
G1X11.41Y9.65
G1X11.37Y9.54
G1X11.3Y9.41
G1X11.24Y9.32
G1X11.22Y9.26
G1Y9.2
G1X11.26Y9.13
G1X11.29Y9.07
G1X11.3Y9.03
G1Y8.99
G1X11.26Y8.95
M5
G0X12.21Y10.04
M3 S30
; Layer C00
G1X12.18Y10.06
G1Y10.08
G1Y10.09
G1X12.25Y10.12
G1Y10.14
G1Y10.17
G1X12.22Y10.21
G1X12.18Y10.3
G1Y10.38
G1X12.23Y10.43
G1X12.3Y10.41
G1X12.36Y10.38
G1X12.41
G1X12.45Y10.41
G1X12.46Y10.47
G1X12.44Y10.5
G1X12.37Y10.48
G1X12.39Y10.5
G1X12.43Y10.55
G1X12.49Y10.61
G1X12.62Y10.71
G1X12.69Y10.76
G1X12.7
G1Y10.73
G1X12.67Y10.7
G1X12.62Y10.64
G1X12.55Y10.54
G1X12.52Y10.44
G1X12.51Y10.37
G1X12.42Y10.3
G1X12.35Y10.17
G1X12.28Y10.06
G1X12.21Y10.04
M5
G0X12.52Y10.15
M3 S30
; Layer C00
G1X12.51Y10.21
G1X12.57Y10.31
G1X12.65Y10.4
G1X12.7Y10.42
G1X12.74Y10.38
G1Y10.29
G1X12.73Y10.22
G1X12.69Y10.21
G1X12.65
G1X12.61Y10.17
G1X12.57Y10.14
G1X12.52
M5
G0X13.43Y9.89
M3 S30
; Layer C00
G1X13.45Y9.91
G1X13.48
G1X13.53
G1X13.61Y9.86
G1Y9.8
G1Y9.74
G1X13.65Y9.72
G1X13.75Y9.75
G1X13.85Y9.84
G1X13.93Y9.95
G1X13.96Y10.06
G1X13.98Y10.15
G1X14.02Y10.2
G1X14.06Y10.21
G1X14.08Y10.18
G1X14.11Y10.15
G1X14.2
G1X14.28Y10.21
G1X14.32Y10.3
G1X14.33Y10.37
G1X14.36Y10.38
G1X14.39Y10.32
G1X14.41Y10.24
G1X14.44Y10.17
G1X14.51Y10.13
G1X14.61
G1X14.69Y10.19
G1X14.84Y10.39
G1X14.92Y10.58
G1X14.94Y10.65
G1X14.99Y10.72
G1X15.05Y10.75
G1X15.09Y10.73
G1X15.13Y10.67
G1X15.18Y10.62
G1X15.25
G1X15.32Y10.67
G1X15.38Y10.73
G1X15.39Y10.71
G1X15.36Y10.63
G1X15.29Y10.52
G1X15.22Y10.41
G1X15.2Y10.36
G1Y10.31
G1X15.16Y10.22
G1X15.12Y10.14
G1X15.1
G1X15.08
G1X15.04Y10.13
G1X14.97Y10.09
G1X14.89Y10.04
G1X14.72Y9.93
G1X14.59Y9.89
G1X14.52Y9.87
G1X14.46Y9.82
G1X14.44Y9.8
G1X14.42
G1X14.4
G1X14.34Y9.87
G1X14.31Y9.88
G1X14.28Y9.86
G1X14.23Y9.81
G1X14.18Y9.71
G1Y9.61
G1X14.19Y9.57
G1Y9.55
G1X14.17
G1X14.14Y9.59
G1X14.09Y9.61
G1X14.05
G1X14.01Y9.58
G1X13.95Y9.51
G1X13.83Y9.42
G1X13.7Y9.37
G1X13.64
G1X13.61Y9.39
G1Y9.4
G1X13.66Y9.43
G1X13.71Y9.47
G1X13.68Y9.49
G1X13.61Y9.45
G1X13.46Y9.27
G1X13.39Y9.26
G1X13.34Y9.33
G1Y9.47
G1X13.37Y9.64
G1X13.42Y9.74
G1X13.45Y9.8
G1Y9.86
G1X13.43Y9.89
M5
G0X13.68Y10.36
M3 S30
; Layer C00
G1X13.66Y10.38
G1X13.68Y10.44
G1X13.71Y10.49
G1X13.74Y10.56
G1X13.72Y10.68
G1X13.7Y10.82
G1X13.74Y10.91
G1X13.77Y10.94
G1X13.8
G1X13.82
G1Y10.89
G1X13.87Y10.83
G1X13.93Y10.8
G1X14.01Y10.83
G1X14.13Y10.96
G1X14.18
G1Y10.91
G1X14.14Y10.86
G1X14.08Y10.78
G1X14.07Y10.64
G1Y10.56
G1X14.06Y10.51
G1X14.02Y10.48
G1X13.95
G1X13.83Y10.46
G1X13.74Y10.4
G1X13.68Y10.36
M5
G0X13.19Y10.84
M3 S30
; Layer C00
G1X13.14
G1X13.1Y10.89
G1Y10.95
G1X13.14Y10.99
G1X13.16Y11.01
G1X13.17Y11.05
G1Y11.11
G1X13.14Y11.21
G1X13.11Y11.29
G1X13.09Y11.33
G1X13.07
G1Y11.28
G1X13.05Y11.18
G1X13Y11.12
G1X12.97Y11.07
G1Y11
G1Y10.94
G1X12.92Y10.92
G1X12.84Y10.93
G1X12.8Y10.97
G1Y11.01
G1X12.85Y11.05
G1X12.91Y11.1
G1Y11.19
G1X12.89Y11.24
G1Y11.25
G1X12.9
G1X12.93Y11.2
G1X12.97Y11.17
G1X12.99
G1Y11.2
G1Y11.27
G1X13.03Y11.39
G1X13.11Y11.45
G1X13.18Y11.47
G1X13.22Y11.48
G1Y11.45
G1X13.2Y11.37
G1Y11.32
G1Y11.27
G1X13.24Y11.24
G1X13.31Y11.21
G1X13.37Y11.18
G1X13.39Y11.16
G1X13.34Y11.15
G1X13.3Y11.14
G1X13.27Y11.11
G1X13.25Y11.07
G1Y11.01
G1X13.23Y10.9
G1X13.19Y10.84
M5
G0X13.53Y11.21
M3 S30
; Layer C00
G1X13.51Y11.23
G1X13.47Y11.28
G1X13.46Y11.36
G1X13.49Y11.45
G1X13.56Y11.52
G1X13.65Y11.55
G1X13.7Y11.57
G1X13.73Y11.65
G1X13.76Y11.67
G1X13.82
G1X13.91
G1X14.02Y11.65
G1X14.06Y11.64
G1X14.03Y11.63
G1X13.94Y11.61
G1X13.81Y11.57
G1X13.72Y11.48
G1X13.65Y11.41
G1X13.6
G1X13.56Y11.39
G1X13.54Y11.31
G1Y11.24
G1X13.53Y11.21
M5
G0X13.8Y11.12
M3 S30
; Layer C00
G1X13.85Y11.13
G1X13.9Y11.16
G1X13.92Y11.39
G1X13.96Y11.43
G1X14Y11.41
G1X13.99Y11.37
G1Y11.33
G1X14.07Y11.32
G1X14.16Y11.31
G1X14.19Y11.28
G1X14.17Y11.22
G1X14.11Y11.12
G1X14.07Y11.08
G1X14.04Y11.06
G1X14.02
G1Y11.09
G1Y11.12
G1X14Y11.14
G1X13.98Y11.13
G1X13.95Y11.1
G1X13.88Y11.05
G1X13.83Y11.03
G1X13.79Y11.05
G1X13.78Y11.09
G1X13.8Y11.12
M5
G0X14.25Y11.06
M3 S30
; Layer C00
G1X14.27Y11.23
G1X14.33Y11.36
G1X14.39Y11.42
G1X14.42
G1Y11.39
G1X14.38Y11.32
G1X14.35Y11.26
G1Y11.23
G1Y11.21
G1X14.39
G1X14.42Y11.2
G1X14.43Y11.19
G1X14.42Y11.17
G1X14.38Y11.15
G1X14.33Y11.08
G1Y10.98
G1X14.34Y10.9
G1X14.31Y10.86
G1X14.26Y10.92
G1X14.25Y11.06
M5
G0X14.98Y10.97
M3 S30
; Layer C00
G1X15Y11.01
G1X15.04Y11.03
G1X15.08Y11.09
G1X15.09Y11.22
G1Y11.43
G1Y11.58
G1X15.11Y11.68
G1X15.15Y11.69
G1X15.17Y11.66
G1X15.18Y11.59
G1Y11.5
G1Y11.39
G1X15.15Y11.17
G1X15.12Y11.02
G1X15.08Y10.95
G1X15.04Y10.92
G1X14.99
G1X14.98Y10.97
M5
G0X14.73Y11.55
M3 S30
; Layer C00
G1X14.68Y11.56
G1X14.64Y11.58
G1X14.61Y11.63
G1Y11.7
G1Y11.79
G1Y11.94
G1X14.59Y12
G1X14.52Y11.95
G1X14.4Y11.83
G1X14.27Y11.72
G1X14.18Y11.7
G1Y11.74
G1X14.25Y11.78
G1X14.34Y11.84
G1X14.42Y11.95
G1X14.51Y12.11
G1X14.58Y12.3
G1X14.62Y12.37
G1X14.67Y12.4
G1X14.72Y12.39
G1X14.77Y12.34
G1X14.79Y12.31
G1X14.78Y12.3
G1X14.75
G1X14.66Y12.32
G1X14.63
G1Y12.3
G1X14.64Y12.25
G1Y12.17
G1X14.6Y12.11
G1X14.57Y12.09
G1Y12.07
G1X14.59
G1X14.71Y12.06
G1X14.74Y12.05
G1X14.72Y11.98
G1X14.68Y11.83
G1X14.65Y11.74
G1Y11.67
G1X14.66Y11.62
G1X14.69Y11.59
G1X14.73Y11.55
M5
G0X16Y10.86
M3 S30
; Layer C00
G1X16.05Y10.82
G1X16.12Y10.74
G1X16.15Y10.69
G1X16.18Y10.66
G1X16.21
G1X16.23Y10.69
G1X16.25Y10.71
G1X16.27Y10.72
G1X16.29
G1X16.31Y10.68
G1Y10.62
G1X16.23Y10.59
G1X16.14Y10.62
G1X16.08Y10.69
G1X16.04Y10.76
G1X15.99Y10.77
G1X15.96Y10.72
G1X16Y10.65
G1X16.03Y10.61
G1Y10.58
G1X16.01Y10.56
G1X15.95Y10.54
G1X15.86Y10.49
G1X15.8Y10.41
G1X15.79Y10.32
G1X15.82Y10.25
G1Y10.21
G1X15.75Y10.19
G1X15.67Y10.21
G1X15.63Y10.26
G1X15.65Y10.32
G1X15.69Y10.35
G1X15.74Y10.36
G1X15.86Y10.67
G1X16Y10.86
M5
G0X16.13Y10.5
M3 S30
; Layer C00
G1X16.15Y10.48
G1X16.18Y10.44
G1X16.21Y10.38
G1Y10.33
G1X16.19Y10.29
G1X16.14Y10.25
G1X16.06Y10.16
G1X16Y10
G1X15.87Y9.94
G1X15.85Y9.87
G1Y9.8
G1X15.81Y9.77
G1X15.77Y9.8
G1X15.75Y9.86
G1X15.74Y9.92
G1X15.69
G1X15.66Y9.86
G1X15.7Y9.77
G1X15.74Y9.69
G1Y9.65
G1X15.69
G1X15.58Y9.64
G1X15.51Y9.63
G1X15.48
G1Y9.65
G1X15.54Y9.69
G1X15.6Y9.77
G1Y9.85
G1X15.58Y9.89
G1X15.54
G1X15.48Y9.85
G1X15.31Y9.69
G1X15.25Y9.64
G1X15.21Y9.61
G1X15.19
G1Y9.63
G1X15.22Y9.67
G1X15.27Y9.74
G1X15.34Y9.82
G1X15.45Y9.94
G1X15.53Y10
G1X15.6Y10.02
G1X15.68Y10
G1X15.76Y9.97
G1X15.81Y9.98
G1X15.82Y10.02
G1Y10.09
G1Y10.12
G1X15.85Y10.1
G1X15.92Y10.12
G1X16.02Y10.22
G1X16.1Y10.35
G1X16.13Y10.46
G1Y10.49
M5
G0X16.85Y11.24
M3 S30
; Layer C00
G1X16.79Y11.3
G1Y11.42
G1X16.81Y11.51
G1X16.79
G1X16.76Y11.45
G1X16.72Y11.43
G1X16.68Y11.46
G1Y11.51
G1Y11.56
G1X16.72
G1X16.76Y11.59
G1X16.78Y11.67
G1Y11.75
G1X16.8Y11.74
G1X16.82Y11.7
G1X16.84Y11.64
G1X16.88Y11.45
G1X16.91Y11.33
G1Y11.26
G1X16.89Y11.24
G1X16.85
M5
G0X17.07Y11.27
M3 S30
; Layer C00
G1Y11.45
G1Y11.61
G1X17.09Y11.71
G1X17.13Y11.77
G1X17.28Y11.85
G1X17.32Y11.91
G1X17.34Y12.1
G1Y12.24
G1Y12.33
G1X17.31Y12.38
G1X17.27Y12.42
G1X17.25Y12.48
G1X17.27Y12.51
G1X17.3Y12.47
G1X17.36Y12.42
G1X17.42
G1X17.46Y12.47
G1Y12.52
G1Y12.56
G1X17.49Y12.57
G1X17.51Y12.6
G1X17.53Y12.66
G1X17.55Y12.76
G1Y12.87
G1X17.56Y13.04
G1Y13.08
G1Y13.1
G1X17.58Y13.08
G1X17.61Y12.97
G1X17.64Y12.79
G1Y12.63
G1X17.58Y12.46
G1X17.52Y12.26
G1X17.46Y12.06
G1X17.44Y11.89
G1Y11.72
G1X17.43Y11.61
G1X17.39Y11.56
G1X17.34Y11.55
G1X17.28Y11.52
G1X17.25Y11.45
G1X17.22Y11.34
G1X17.16Y11.23
G1X17.11Y11.18
G1X17.08Y11.19
G1Y11.27
M5
G0X16.69Y11.71
M3 S30
; Layer C00
G1X16.64Y11.69
G1X16.62Y11.74
G1X16.65Y11.81
G1X16.69Y11.88
G1X16.68Y11.95
G1X16.66Y11.98
G1X16.63
G1X16.61Y11.97
G1X16.56Y11.91
G1X16.54
G1Y11.93
G1X16.6Y12.09
G1X16.64Y12.22
G1X16.67Y12.31
G1X16.7Y12.35
G1Y12.3
G1Y12.18
G1X16.68Y12.05
G1X16.71Y11.97
G1X16.74Y11.89
G1Y11.79
G1X16.69Y11.71
M5
G0X16.91Y11.8
M3 S30
; Layer C00
G1X16.87Y11.83
G1X16.84Y11.89
G1X16.93Y12.04
G1X16.95Y12.16
G1Y12.22
G1X16.93Y12.25
G1X16.9Y12.26
G1X16.85
G1X16.79Y12.24
G1X16.77
G1X16.79Y12.26
G1X16.85Y12.3
G1X16.91Y12.37
G1X16.95Y12.42
G1Y12.45
G1X16.89Y12.43
G1X16.85Y12.41
G1X16.83Y12.42
G1Y12.47
G1X16.78Y12.6
G1Y12.61
G1X16.82
G1X16.89Y12.57
G1X16.96Y12.52
G1X16.99Y12.45
G1Y12.36
G1Y12.2
G1X16.96Y11.95
G1X16.95Y11.88
G1X16.94Y11.83
G1X16.91Y11.8
M5
G0X17.03Y13.01
M3 S30
; Layer C00
G1X16.96
G1X16.92Y13.06
G1X16.9Y13.14
G1X16.91Y13.23
G1X16.96Y13.3
G1X17.01Y13.31
G1X17.05Y13.27
G1X17.09Y13.18
G1Y13.07
G1X17.03Y13.01
M5
G0X17Y13.49
M3 S30
; Layer C00
G1X16.97Y13.55
G1X16.95Y13.68
G1X16.96Y13.82
G1X16.99Y13.91
G1X17.03
G1X17.08Y13.88
G1X17.1Y13.82
G1X17.08Y13.78
G1X17.05Y13.72
G1Y13.62
G1X17.04Y13.53
G1X17Y13.49
M5
G0X17.79Y13.69
M3 S30
; Layer C00
G1X17.75Y13.76
G1Y13.82
G1X17.72Y13.9
G1X17.61Y14.03
G1X17.48Y14.15
G1X17.43Y14.24
G1X17.45
G1X17.49Y14.21
G1X17.56Y14.15
G1X17.63Y14.07
G1X17.79Y13.89
G1X17.9Y13.73
G1X17.94Y13.64
G1X17.92Y13.6
G1X17.85Y13.63
G1X17.79Y13.69
M5
G0X17.23Y14.42
M3 S30
; Layer C00
G1X17.18Y14.45
G1X17.14Y14.52
G1X17.17Y14.56
G1X17.2Y14.62
G1Y14.75
G1X17.17Y14.86
G1X17.12Y14.89
G1X17.1Y14.91
G1X17.13Y15
G1X17.16Y15.11
G1X17.13Y15.18
G1X17.1Y15.22
G1Y15.27
G1X17.13
G1X17.17Y15.23
G1X17.21Y15.17
G1X17.26Y15.09
G1X17.35Y14.91
G1X17.39Y14.76
G1X17.4Y14.71
G1X17.48Y14.67
G1X17.49Y14.62
G1X17.48Y14.59
G1X17.38Y14.61
G1X17.3Y14.57
G1X17.24Y14.51
G1X17.23Y14.44
G1Y14.42
M5
G0X16.65Y14.44
M3 S30
; Layer C00
G1Y14.51
G1X16.61Y14.62
G1X16.56Y14.72
G1X16.5Y14.74
G1X16.42Y14.68
G1X16.33Y14.54
G1X16.27Y14.4
G1X16.24Y14.33
G1X16.25Y14.3
G1X16.3Y14.29
G1X16.33Y14.3
G1Y14.33
G1Y14.4
G1X16.39Y14.48
G1X16.46Y14.54
G1X16.53
G1X16.57Y14.51
G1X16.55Y14.42
G1X16.59Y14.4
G1X16.63Y14.41
G1X16.65Y14.44
M5
G0X17Y15.16
M3 S30
; Layer C00
G1X16.99
G1X16.98Y15.2
G1X16.96Y15.28
G1X16.95Y15.38
G1X16.93Y15.52
G1Y15.65
G1Y15.73
G1Y15.75
G1X16.99Y15.64
G1X17.01Y15.65
G1X17.03Y15.71
G1X17.07Y15.69
G1X17.11Y15.61
G1X17.13Y15.5
G1Y15.42
G1X17.11Y15.39
G1X17.1Y15.41
G1X17.07Y15.46
G1X17.05Y15.51
G1X17.03
G1X17.02Y15.46
G1Y15.25
G1X17.01Y15.19
G1X17Y15.16
M5
G0X16.21Y16.31
M3 S30
; Layer C00
G1X16.14
G1X16.08
G1X16.05Y16.29
G1X16.03Y16.25
G1X15.96Y16.23
G1X15.92Y16.25
G1X15.9Y16.3
G1Y16.39
G1X15.93Y16.5
G1X15.95Y16.51
G1X16
G1X16.03
G1Y16.46
G1X16.02Y16.43
G1X16.05Y16.4
G1X16.11
G1X16.19
G1X16.22Y16.38
G1X16.23Y16.34
G1X16.21Y16.31
M5
G0X15.86Y16.35
M3 S30
; Layer C00
G1X15.84Y16.34
G1X15.8Y16.32
G1X15.74Y16.27
G1Y16.22
G1Y16.19
G1X15.7
G1X15.67Y16.25
G1Y16.31
G1X15.71Y16.38
G1X15.73Y16.44
G1X15.78Y16.62
G1X15.84Y16.77
G1X15.92Y16.89
G1X16Y16.95
G1X16.08Y16.99
G1Y17.02
G1X16.1Y17.06
G1X16.16Y17.13
G1X16.24Y17.18
G1X16.28Y17.2
G1Y17.19
G1X16.26Y17.15
G1Y17.11
G1X16.3Y17.09
G1X16.32Y17.07
G1X16.15Y16.96
G1X16.11Y16.91
G1X16.1Y16.88
G1X16.06
G1X16Y16.89
G1X15.95Y16.85
G1X15.91Y16.76
G1Y16.7
G1X15.95Y16.68
G1X16.05
G1X16.13Y16.7
G1X16.16Y16.71
G1X16.14Y16.72
G1X16.07Y16.74
G1X15.98Y16.77
G1X15.97Y16.81
G1X16.01Y16.84
G1X16.06Y16.83
G1X16.12Y16.82
G1X16.17Y16.86
G1X16.26Y16.89
G1X16.4
G1X16.53Y16.84
G1X16.59Y16.77
G1X16.57Y16.71
G1X16.53Y16.69
G1X16.5Y16.71
G1Y16.75
G1Y16.79
G1X16.46Y16.8
G1X16.37Y16.79
G1X16.3Y16.75
G1X16.25Y16.7
G1Y16.65
G1Y16.63
G1X16.21Y16.61
G1X16.15Y16.59
G1X16.07
G1X15.92Y16.56
G1X15.82Y16.51
G1X15.78Y16.45
G1X15.83Y16.39
G1X15.86Y16.37
G1Y16.35
M5
G0X14.67Y16.43
M3 S30
; Layer C00
G1Y16.49
G1X14.62
G1X14.56Y16.46
G1X14.45Y16.42
G1X14.31Y16.41
G1X14.17Y16.38
G1X14.07Y16.3
G1X14.03Y16.25
G1X14.02Y16.23
G1X14.04Y16.25
G1X14.1Y16.29
G1X14.16Y16.33
G1X14.19
G1Y16.28
G1X14.17Y16.17
G1X14.12Y16.02
G1X14.07Y15.92
G1X14.06Y15.86
G1X14.09Y15.78
G1X14.13Y15.74
G1Y15.73
G1X14.1
G1X13.96Y15.8
G1X13.92
G1Y15.75
G1X13.93Y15.65
G1X13.97Y15.5
G1X13.99Y15.39
G1X14.03Y15.33
G1X14.08
G1X14.12Y15.35
G1X14.14Y15.42
G1Y15.46
G1X14.16Y15.47
G1X14.17Y15.45
G1X14.2Y15.39
G1X14.25Y15.3
G1X14.31Y15.26
G1X14.36Y15.31
G1X14.4Y15.42
G1X14.42Y15.55
G1X14.4Y15.67
G1Y15.77
G1X14.44Y15.83
G1X14.49Y15.92
G1X14.51Y16.06
G1X14.52Y16.17
G1X14.55Y16.21
G1X14.6Y16.23
G1X14.64Y16.32
G1X14.67Y16.43
M5
G0X12.56Y16.21
M3 S30
; Layer C00
G1X12.49Y16.29
G1X12.43Y16.37
G1X12.4Y16.45
G1Y16.49
G1X12.38
G1X12.35Y16.46
G1X12.31Y16.4
G1X12.26Y16.32
G1X12.24Y16.3
G1X12.23Y16.32
G1Y16.39
G1X12.22Y16.45
G1X12.2Y16.49
G1X12.16Y16.51
G1X12.12Y16.52
G1X12.07
G1X12.05Y16.53
G1X12.06Y16.55
G1X12.14Y16.6
G1X12.15Y16.62
G1X12.11Y16.63
G1X12.07Y16.65
G1Y16.69
G1X12.08Y16.73
G1X12.05Y16.75
G1X12Y16.73
G1X11.98Y16.69
G1Y16.63
G1X11.95Y16.56
G1Y16.51
G1X11.99Y16.43
G1X12.05Y16.34
G1X12.13Y16.24
G1X12.21Y16.15
G1X12.28Y16.09
G1X12.33Y16.07
G1X12.34Y16.08
G1X12.36Y16.15
G1X12.4Y16.2
G1X12.43Y16.19
G1X12.42Y16.12
G1Y16.07
G1Y16.03
G1X12.44Y16.01
G1X12.49
G1X12.55Y16.04
G1X12.58Y16.11
G1X12.56Y16.21
M5
G0X12.54Y15.73
M3 S30
; Layer C00
G1X12.48Y15.66
G1X12.46Y15.51
G1X12.48Y15.38
G1X12.52Y15.32
G1X12.58Y15.34
G1X12.62Y15.41
G1X12.64Y15.5
G1Y15.62
G1X12.6Y15.71
G1X12.54Y15.73
M5
G0X11.68Y16.21
M3 S30
; Layer C00
G1X11.66Y16.19
G1X11.62Y16.21
G1X11.58Y16.25
G1X11.57Y16.31
G1Y16.41
G1X11.55Y16.46
G1X11.47
G1X11.35Y16.4
G1X11.17Y16.34
G1X11.06
G1Y16.37
G1X11.25Y16.45
G1X11.29Y16.5
G1X11.31Y16.56
G1X11.35Y16.61
G1X11.38Y16.63
G1X11.36Y16.59
G1X11.35Y16.54
G1X11.38Y16.52
G1X11.43Y16.55
G1X11.44Y16.64
G1X11.43Y16.71
G1X11.39
G1X11.35Y16.72
G1X11.36Y16.77
G1Y16.83
G1X11.31Y16.86
G1X11.23
G1X11.17Y16.8
G1X11.15Y16.77
G1X11.13
G1X11.1Y16.78
G1X11.05Y16.84
G1X11.04
G1X11.03Y16.83
G1Y16.78
G1X11.01Y16.72
G1X10.99Y16.73
G1X10.94Y16.78
G1X10.86Y16.81
G1X10.81
G1X10.79
G1X10.8Y16.83
G1X10.84Y16.86
G1X10.92Y16.89
G1X10.98
G1X11.01
G1X11.03Y16.93
G1Y16.96
G1X11.04
G1X11.06
G1X11.12Y16.88
G1X11.14
G1X11.16Y16.9
G1X11.18Y16.96
G1X11.23Y17.05
G1X11.28Y17.09
G1X11.31Y17.06
G1Y17
G1X11.29Y16.95
G1X11.32
G1X11.35Y16.93
G1X11.4Y16.88
G1X11.46Y16.79
G1X11.53Y16.68
G1X11.63Y16.47
G1X11.68Y16.3
G1Y16.25
G1Y16.21
M5
G0X11.04Y17.03
M3 S30
; Layer C00
G1X10.88Y17.01
G1X10.76Y17
G1X10.68Y16.98
G1X10.63Y16.96
G1X10.56
G1X10.48Y16.98
G1X10.45Y17
G1Y17.02
G1X10.5Y17.03
G1X10.58Y17.04
G1X10.73
G1X10.83
G1X10.88Y17.06
G1X10.93Y17.13
G1X10.99Y17.15
G1X11.06Y17.13
G1X11.12Y17.09
G1X11.11Y17.05
G1X11.04Y17.03
M5
G0X10.23Y17.4
M3 S30
; Layer C00
G1X10.16
G1X10.08Y17.45
G1X10.04Y17.5
G1X10.02Y17.54
G1X10.04Y17.58
G1X10.08Y17.63
G1X10.18Y17.7
G1X10.26Y17.72
G1X10.32Y17.67
G1Y17.58
G1X10.28Y17.46
G1X10.23Y17.4
M5
G0X10.55Y17.67
M3 S30
; Layer C00
G1X10.53Y17.7
G1Y17.78
G1X10.55Y17.9
G1X10.59Y18.1
G1Y18.16
G1Y18.19
G1X10.56Y18.23
G1X10.48
G1X10.39Y18.2
G1X10.25Y18.06
G1X10.14Y18.03
G1X10.04
G1X10.01Y18.07
G1X10.05Y18.11
G1X10.16Y18.14
G1X10.28Y18.21
G1X10.37Y18.32
G1X10.43Y18.42
G1X10.5Y18.46
G1X10.62
G1X10.69
G1X10.71Y18.51
G1Y18.58
G1Y18.66
G1X10.75Y18.67
G1X10.77Y18.64
G1X10.79Y18.57
G1Y18.47
G1Y18.33
G1X10.77Y18.04
G1X10.73Y17.84
G1X10.67Y17.72
G1X10.59Y17.67
G1X10.55
M5
G0X9.52Y17.51
M3 S30
; Layer C00
G1Y17.49
G1X9.5
G1X9.31Y17.56
G1X9.18Y17.59
G1X9.06Y17.65
G1X8.85Y17.83
G1X8.7Y17.87
G1X8.63Y17.95
G1X8.57Y18.02
G1X8.44Y18.06
G1X8.33Y18.15
G1X8.25Y18.22
G1X8.18Y18.26
G1X8.11Y18.27
G1X8.03
G1X7.97Y18.25
G1X7.94
G1X7.93Y18.26
G1X7.94Y18.28
G1X8.03Y18.33
G1X8.15Y18.36
G1X8.26Y18.38
G1X8.32Y18.4
G1Y18.39
G1X8.3Y18.35
G1Y18.31
G1X8.36Y18.29
G1X8.42Y18.27
G1X8.48Y18.14
G1X8.54Y18.12
G1X8.62Y18.09
G1X8.68Y18.03
G1X8.73Y17.97
G1X8.77Y17.94
G1X8.85
G1X8.9
G1X8.92Y17.91
G1X8.93Y17.86
G1X8.95Y17.83
G1X9Y17.79
G1X9.07Y17.75
G1X9.17Y17.71
G1X9.36Y17.64
G1X9.48Y17.56
G1X9.52Y17.51
M5
G0X8.49Y17.6
M3 S30
; Layer C00
G1X8.45Y17.57
G1X8.42Y17.63
G1Y17.71
G1X8.44Y17.75
G1Y17.77
G1Y17.76
G1X8.4Y17.72
G1X8.37Y17.69
G1X8.32
G1X8.26Y17.72
G1X8.16Y17.78
G1X8.03Y17.9
G1X7.98Y17.96
G1Y17.97
G1X8.02
G1X8.07Y17.94
G1X8.15Y17.89
G1X8.3Y17.82
G1X8.42
G1X8.46
G1X8.49Y17.81
G1X8.51Y17.76
G1Y17.69
G1X8.49Y17.6
M5
G0X7.91Y18.05
M3 S30
; Layer C00
G1X7.89
G1X7.82Y18.09
G1X7.71Y18.18
G1X7.58Y18.29
G1X7.48Y18.4
G1X7.39Y18.49
G1X7.32Y18.56
G1X7.28Y18.62
G1X7.25Y18.66
G1Y18.68
G1X7.28
G1X7.33Y18.66
G1X7.35
G1X7.33Y18.67
G1X7.3Y18.71
G1X7.24Y18.76
G1X7.13Y18.87
G1X7.08Y18.96
G1Y19.01
G1X7.15Y19.03
G1X7.19Y19.02
G1X7.25Y18.97
G1X7.31Y18.89
G1X7.37Y18.8
G1X7.49Y18.63
G1X7.6Y18.53
G1X7.65Y18.51
G1X7.66Y18.5
G1X7.65Y18.49
G1X7.6Y18.47
G1X7.56Y18.45
G1Y18.42
G1X7.58Y18.38
G1X7.65Y18.33
G1X7.72Y18.28
G1X7.76Y18.26
G1Y18.28
G1X7.74Y18.37
G1Y18.39
G1X7.76
G1X7.79Y18.38
G1X7.83Y18.33
G1Y18.26
G1Y18.19
G1X7.86Y18.15
G1X7.9Y18.1
G1X7.91Y18.05
M5
G0X7.66Y18.72
M3 S30
; Layer C00
G1X7.61
G1X7.57Y18.77
G1X7.56Y18.82
G1Y18.92
G1Y18.98
G1X7.52Y19.02
G1X7.47Y19.03
G1X7.4Y19.08
G1X7.32Y19.18
G1X7.27Y19.29
G1Y19.34
G1X7.28Y19.36
G1X7.34Y19.34
G1X7.38
G1X7.41
G1X7.43Y19.37
G1X7.44Y19.5
G1X7.47Y19.56
G1X7.52Y19.59
G1X7.6Y19.61
G1X7.64
G1Y19.59
G1Y19.56
G1X7.59Y19.52
G1X7.51Y19.41
G1X7.46Y19.3
G1Y19.21
G1X7.5Y19.14
G1X7.58Y19.1
G1X7.63
G1X7.66
G1X7.64Y19.15
G1X7.62Y19.19
G1X7.65Y19.2
G1X7.74Y19.18
G1X7.9Y19.13
G1X8.14Y19.05
G1X8.4Y18.98
G1X8.63Y18.9
G1X8.77Y18.81
G1X8.81Y18.76
G1X8.79Y18.73
G1X8.7
G1X8.52
G1X8.38
G1X8.25Y18.74
G1X8.15Y18.76
G1X7.97Y18.82
G1X7.83Y18.83
G1X7.72Y18.81
G1X7.67Y18.76
G1X7.66Y18.72
M5
G0X7.07Y19.09
M3 S30
; Layer C00
G1X7Y19.13
G1X6.92Y19.23
G1X6.86Y19.35
G1X6.84Y19.46
G1Y19.53
G1Y19.55
G1X6.86Y19.53
G1X6.89Y19.46
G1X6.92Y19.41
G1X6.93
G1X6.95Y19.44
G1X6.97Y19.53
G1Y19.68
G1X6.93Y19.78
G1X6.9Y19.82
G1X6.94Y19.83
G1X6.99Y19.87
G1X7.03Y19.94
G1X7.1Y20.04
G1X7.24Y20.12
G1X7.34Y20.17
G1X7.38Y20.2
G1Y20.23
G1X7.32Y20.27
G1X7.27Y20.31
G1X7.25Y20.34
G1X7.28
G1X7.39Y20.3
G1X7.55Y20.2
G1X7.71Y20.1
G1X7.78Y20.04
G1Y20.02
G1X7.77
G1X7.72
G1X7.66Y20.03
G1X7.46Y20.08
G1X7.34Y20.1
G1X7.28
G1Y20.06
G1X7.3Y20.02
G1X7.27
G1X7.21
G1X7.14Y19.98
G1X7.09Y19.88
G1X7.05Y19.72
G1Y19.57
G1X7.06Y19.47
G1X7.09Y19.37
G1X7.11Y19.25
G1X7.1Y19.14
G1X7.07Y19.09
M5
G0X7.57Y19.69
M3 S30
; Layer C00
G1X7.52Y19.74
G1X7.5Y19.78
G1X7.47Y19.8
G1X7.44
G1X7.36Y19.75
G1X7.34Y19.77
G1Y19.83
G1X7.37Y19.94
G1X7.39
G1X7.43Y19.92
G1X7.54Y19.9
G1X7.71Y19.88
G1X7.81
G1X7.87Y19.86
G1Y19.84
G1X7.84Y19.81
G1X7.78Y19.75
G1X7.77Y19.68
G1Y19.64
G1X7.75Y19.66
G1X7.71Y19.69
G1X7.64
G1X7.57
M5
G0X9.2Y19.21
M3 S30
; Layer C00
G1X9.19Y19.15
G1X9.21Y19.08
G1Y19.05
G1X9.19
G1X9.13
G1X9.09Y18.98
G1Y18.88
G1X9.14Y18.8
G1X9.2Y18.77
G1X9.25Y18.79
G1X9.28Y18.88
G1X9.32Y19.05
G1X9.33Y19.18
G1X9.31Y19.26
G1X9.26
G1X9.2Y19.21
M5
G0X9.39Y19.26
M3 S30
; Layer C00
G1X9.44Y19.22
G1Y19.13
G1X9.4Y19.02
G1X9.37Y18.93
G1Y18.88
G1X9.42
G1X9.5Y18.95
G1X9.54Y19
G1X9.58Y19.03
G1X9.61
G1X9.65Y18.99
G1X9.71Y18.91
G1X9.74Y18.82
G1X9.76Y18.73
G1X9.79Y18.65
G1X9.8Y18.62
G1Y18.6
G1X9.78
G1X9.74Y18.61
G1X9.68
G1X9.65Y18.59
G1X9.67Y18.53
G1X9.73Y18.47
G1X9.83Y18.42
G1X9.95Y18.39
G1X10Y18.37
G1X10.01
G1X9.98
G1X9.89
G1X9.72Y18.38
G1X9.52Y18.45
G1X9.44Y18.44
G1X9.38Y18.39
G1X9.35Y18.32
G1X9.33Y18.27
G1X9.26
G1X9.22Y18.28
G1X9.2
G1Y18.25
G1Y18.21
G1X9.25Y18.16
G1X9.31
G1X9.34
G1X9.33Y18.13
G1X9.3Y18.11
G1X9.23
G1X9.14Y18.13
G1X9.02Y18.17
G1X8.92Y18.21
G1X8.85Y18.24
G1X8.81Y18.27
G1Y18.28
G1X8.85Y18.31
G1X8.87Y18.35
G1X8.83Y18.39
G1X8.75Y18.4
G1X8.67Y18.38
G1X8.61Y18.33
G1X8.6Y18.3
G1X8.58
G1X8.55
G1X8.5Y18.34
G1X8.47Y18.38
G1Y18.42
G1X8.48Y18.45
G1X8.53Y18.47
G1X8.68Y18.5
G1X8.92Y18.48
G1X9.07Y18.47
G1X9.17
G1X9.22Y18.49
G1Y18.54
G1X9.21Y18.61
G1X9.16Y18.67
G1X9.12Y18.68
G1X9.13Y18.64
G1X9.14Y18.6
G1X9.11Y18.58
G1X9.07Y18.61
G1Y18.74
G1X9.05Y18.8
G1X9Y18.88
G1X8.92Y18.96
G1X8.74Y19.1
G1X8.56Y19.2
G1X8.36Y19.26
G1X8.13Y19.29
G1X7.95Y19.33
G1X7.82Y19.41
G1X7.79Y19.45
G1Y19.49
G1X7.8Y19.53
G1X7.86Y19.56
G1X7.94Y19.62
G1X7.97Y19.71
G1Y19.77
G1X8Y19.8
G1X8.06
G1X8.17Y19.77
G1X8.34Y19.72
G1X8.47Y19.69
G1X8.58Y19.65
G1X8.67Y19.6
G1X8.73Y19.57
G1X8.75Y19.59
G1X8.78Y19.6
G1X8.85Y19.58
G1X8.96Y19.53
G1X9.08Y19.47
G1X9.2Y19.4
G1X9.31Y19.33
G1X9.39Y19.26
M5
G0X9.99Y18.76
M3 S30
; Layer C00
G1X10.03
G1X10.1Y18.73
G1X10.16Y18.69
G1X10.2Y18.66
G1Y18.62
G1X10.17Y18.58
G1X10.14Y18.54
G1X10.13Y18.52
G1X10.17Y18.54
G1X10.23
G1X10.25Y18.49
G1X10.23Y18.43
G1X10.18Y18.41
G1X10.13Y18.43
G1X10.09Y18.51
G1X10.05Y18.6
G1X9.99Y18.74
G1Y18.76
M5
G0X11.14Y19.88
M3 S30
; Layer C00
G1X11.12Y19.9
G1X11.06Y20
G1X10.96Y20.16
G1X10.74Y20.59
G1X10.64Y20.76
G1X10.57Y20.86
G1X10.54Y20.88
G1X10.47Y20.85
G1X10.32
G1X10.19Y20.88
G1X10.16Y20.92
G1X10.15Y20.96
G1X10.08Y21
G1X10.03Y21.02
G1X10.02Y21.04
G1Y21.06
G1X10.07Y21.09
G1X10.16Y21.14
G1X10.24
G1X10.29Y21.12
G1X10.32Y21.01
G1X10.37
G1X10.41
G1X10.43Y20.98
G1X10.44Y20.94
G1X10.48Y20.92
G1X10.5Y20.97
G1X10.46Y21.1
G1X10.43Y21.19
G1X10.41Y21.26
G1X10.42Y21.31
G1X10.45Y21.35
G1X10.48Y21.38
G1X10.51Y21.39
G1X10.53
G1X10.54Y21.36
G1X10.59Y21.28
G1X10.68Y21.2
G1X10.75Y21.11
G1X10.79Y21.02
G1X10.81Y20.95
G1X10.86Y20.87
G1X10.9Y20.82
G1X10.86Y20.81
G1X10.8Y20.84
G1X10.75Y20.93
G1X10.69Y21.06
G1X10.6Y21.17
G1X10.56Y21.21
G1X10.52Y21.23
G1X10.5
G1X10.49Y21.2
G1X10.51Y21.11
G1X10.57Y21
G1X10.72Y20.77
G1X10.89Y20.46
G1X10.96Y20.31
G1X11.03Y20.17
G1X11.07Y20.07
G1X11.09Y20.01
G1Y19.97
G1X11.1Y19.96
G1X11.12Y19.97
G1X11.15Y20.02
G1X11.22Y20.08
G1X11.29
G1X11.33Y20.07
G1X11.35Y20.04
G1X11.34Y20.02
G1X11.31Y19.98
G1X11.24Y19.93
G1X11.16
G1X11.14Y19.88
M5
G0X10.82Y20.27
M3 S30
; Layer C00
G1X10.79
G1X10.72Y20.29
G1X10.5Y20.37
G1X10.32Y20.43
G1X10.1Y20.5
G1X9.69Y20.61
G1X9.52Y20.67
G1X9.41Y20.72
G1X9.36Y20.75
G1X9.32Y20.79
G1X9.27Y20.81
G1X9.18Y20.84
G1X9.07Y20.93
G1X8.95Y21.05
G1X8.83Y21.13
G1X8.82Y21.15
G1X8.86
G1X8.96Y21.12
G1X9.09Y21.08
G1X9.23Y21.03
G1X9.35Y20.98
G1X9.42Y20.94
G1X9.44Y20.92
G1X9.47Y20.9
G1X9.58
G1X9.72
G1X9.79Y20.87
G1X9.86Y20.82
G1X9.95Y20.81
G1X10.04Y20.79
G1X10.1Y20.75
G1X10.09Y20.74
G1X10.04
G1X9.96
G1X9.75Y20.8
G1X9.67Y20.82
G1X9.61
G1X9.59
G1X9.6Y20.79
G1X9.64Y20.76
G1X9.71Y20.72
G1X9.81Y20.68
G1X10.06Y20.58
G1X10.54Y20.42
G1X10.66Y20.37
G1X10.76Y20.32
G1X10.81Y20.29
G1Y20.27
M5
G0X11.31Y20.56
M3 S30
; Layer C00
G1X11.21Y20.67
G1X11.12Y20.8
G1X11.07Y20.95
G1X11.02Y20.98
G1X10.99Y21
G1X11Y21.04
G1X11.02Y21.06
G1X11.06Y21.05
G1X11.09Y21.01
G1X11.23Y20.79
G1X11.34Y20.65
G1X11.41Y20.56
G1X11.4Y20.52
G1X11.31Y20.56
M5
G0X10.36Y21.38
M3 S30
; Layer C00
G1X10.32Y21.4
G1X10.28Y21.48
G1X10.26Y21.58
G1X10.25Y21.7
G1Y21.78
G1X10.27Y21.82
G1X10.31Y21.81
G1X10.38Y21.77
G1X10.48Y21.68
G1X10.53Y21.6
G1Y21.57
G1X10.42Y21.69
G1X10.36Y21.72
G1X10.32Y21.69
G1X10.31Y21.6
G1X10.32Y21.53
G1X10.36Y21.51
G1X10.39
G1X10.41Y21.46
G1X10.39Y21.4
G1X10.36Y21.38
M5
G0X7.83Y21.58
M3 S30
; Layer C00
G1X7.77Y21.61
G1X7.67Y21.69
G1X7.41Y21.93
G1X7.16Y22.18
G1X6.95Y22.4
G1X6.76Y22.56
G1X6.61Y22.71
G1X6.48Y22.95
G1X6.43Y23.06
G1X6.38Y23.15
G1X6.34Y23.21
G1X6.31Y23.24
G1X6.25
G1X6.2Y23.28
G1X6.19Y23.31
G1X6.28
G1X6.3Y23.33
G1X6.31Y23.37
G1Y23.44
G1Y23.47
G1X6.33Y23.46
G1X6.37Y23.4
G1X6.42Y23.29
G1X6.53Y23.05
G1X6.61Y22.88
G1X6.67Y22.79
G1X6.8Y22.65
G1X6.96Y22.47
G1X7.16Y22.27
G1X7.57Y21.85
G1X7.71Y21.72
G1X7.79Y21.63
G1X7.83Y21.58
M5
G0X5.87Y22.77
M3 S30
; Layer C00
G1X5.95Y22.82
G1X5.97Y22.89
G1X5.92Y22.97
G1X5.84Y23.02
G1X5.75Y23.03
G1X5.66Y23.01
G1X5.58Y22.95
G1X5.54Y22.87
G1X5.55Y22.81
G1X5.63Y22.76
G1X5.76Y22.75
G1X5.87Y22.77
M5
G0X4.6Y24.26
M3 S30
; Layer C00
G1Y24.33
G1X4.56Y24.46
G1X4.48Y24.58
G1X4.4Y24.63
G1X4.34Y24.61
G1Y24.51
G1X4.37Y24.4
G1X4.45Y24.31
G1X4.54Y24.25
G1X4.6
M5
G0X4.33Y24.27
M3 S30
; Layer C00
G1X4.28Y24.37
G1X4.23Y24.44
G1X4.2Y24.46
G1Y24.42
G1X4.22Y24.34
G1Y24.24
G1X4.19Y24.21
G1X4.16Y24.26
G1X4.14Y24.33
G1X4.12Y24.39
G1X4.07
G1X3.98
G1X3.86Y24.41
G1X3.8Y24.44
G1X3.77Y24.47
G1X3.76Y24.52
G1Y24.59
G1X3.8Y24.71
G1X3.85Y24.59
G1X3.92Y24.51
G1X4.02Y24.48
G1X4.08Y24.49
G1X4.12Y24.52
G1X4.13Y24.58
G1Y24.66
G1X4.1Y24.82
G1X4.04Y24.96
G1X3.96Y25.05
G1X3.89Y25.06
G1X3.86Y25.03
G1Y24.99
G1Y24.94
G1X3.79Y24.87
G1X3.75Y24.82
G1X3.72
G1X3.74Y24.87
G1Y24.96
G1X3.7Y25.04
G1X3.67Y25.07
G1Y25.09
G1X3.69
G1X3.74Y25.08
G1X3.82Y25.07
G1X3.87Y25.09
G1X3.92Y25.12
G1X3.99
G1X4.06
G1X4.08Y25.16
G1X4.09Y25.18
G1X4.11
G1X4.14Y25.14
G1X4.21Y25.04
G1X4.24Y25.01
G1X4.25
G1X4.26Y25.04
G1X4.27Y25.06
G1X4.29
G1X4.32Y25.02
G1X4.43Y24.85
G1X4.47Y24.81
G1Y24.85
G1X4.39Y25.1
G1Y25.2
G1Y25.22
G1X4.4
G1X4.43Y25.2
G1X4.67Y24.81
G1X4.95Y24.41
G1X5.09Y24.22
G1X5.22Y24.05
G1X5.34Y23.91
G1X5.43Y23.81
G1X5.51Y23.73
G1X5.58Y23.64
G1X5.62Y23.57
G1X5.64Y23.52
G1X5.65Y23.46
G1X5.68Y23.44
G1X5.73Y23.4
G1X5.81Y23.32
G1X5.93Y23.19
G1X6.06Y23.03
G1X6.16Y22.9
G1X6.24Y22.8
G1X6.3Y22.71
G1X6.34Y22.64
G1X6.36Y22.6
G1Y22.57
G1X6.33Y22.56
G1X6.29
G1X6.26
G1Y22.52
G1X6.31Y22.49
G1X6.38
G1X6.45
G1X6.51Y22.46
G1X6.52Y22.42
G1X6.47Y22.44
G1Y22.43
G1X6.5Y22.37
G1X6.57Y22.28
G1X6.68Y22.15
G1X7Y21.82
G1X7.41Y21.45
G1X7.62Y21.28
G1X7.8Y21.14
G1X7.96Y21.03
G1X8.07Y20.97
G1X8.16Y20.94
G1X8.2Y20.91
G1Y20.89
G1X8.18
G1X8.04
G1X7.81Y20.95
G1X7.67Y20.99
G1X7.43Y21.05
G1X7.36Y21.06
G1X7.29Y21.09
G1X7.17Y21.13
G1X7.02Y21.19
G1X6.68Y21.32
G1X6.52Y21.38
G1X6.39Y21.43
G1X6.3Y21.46
G1X6.16Y21.52
G1X6.04Y21.58
G1X5.99Y21.62
G1X5.97Y21.64
G1X5.98Y21.66
G1X6.03Y21.68
G1X6.09Y21.69
G1Y21.67
G1Y21.62
G1X6.15Y21.59
G1X6.22
G1X6.27Y21.61
G1X6.3Y21.65
G1X6.26Y21.7
G1X6.2Y21.73
G1X6.1Y21.78
G1X5.76Y21.94
G1X5.39Y22.12
G1X5.26Y22.18
G1X5.16Y22.24
G1X5.03Y22.32
G1X4.96Y22.39
G1X4.88Y22.44
G1X4.77Y22.46
G1X4.7Y22.47
G1X4.65Y22.49
G1X4.63Y22.52
G1Y22.58
G1X4.61Y22.65
G1X4.57Y22.69
G1X4.52
G1X4.49Y22.63
G1X4.45Y22.6
G1X4.37Y22.66
G1X4.28Y22.72
G1X4.18Y22.77
G1X4.11Y22.81
G1X4.01Y22.89
G1X3.89Y22.99
G1X3.6Y23.25
G1X3.26Y23.56
G1X3.12Y23.69
G1X3Y23.78
G1X2.9Y23.83
G1X2.83Y23.85
G1X2.77
G1X2.72Y23.88
G1X2.67Y23.93
G1X2.63Y24.02
G1X2.53Y24.3
G1X2.43Y24.67
G1X2.4Y24.84
G1X2.37Y25
G1X2.36Y25.13
G1Y25.21
G1Y25.28
G1X2.34Y25.29
G1X2.32
G1X2.31Y25.35
G1Y25.45
G1X2.33Y25.58
G1X2.4Y25.91
G1X2.51Y26.29
G1X2.6Y26.55
G1X2.63Y26.62
G1X2.65Y26.67
G1X2.67Y26.68
G1X2.69Y26.64
G1Y26.58
G1Y26.35
G1X2.64Y26.06
G1X2.58Y25.71
G1X2.56Y25.28
G1Y25.11
G1X2.54Y24.96
G1X2.53Y24.87
G1X2.51Y24.84
G1X2.48
G1Y24.78
G1X2.5Y24.65
G1X2.55Y24.45
G1X2.58Y24.34
G1X2.62Y24.26
G1X2.65Y24.2
G1X2.68Y24.19
G1X2.71Y24.21
G1X2.72Y24.25
G1Y24.29
G1X2.73
G1X2.77Y24.26
G1X2.83Y24.2
G1X2.86Y24.16
G1X2.87Y24.13
G1X2.82
G1X2.76Y24.11
G1X2.72Y24.02
G1Y23.93
G1X2.74Y23.9
G1X2.79Y23.92
G1X2.92Y24.04
G1Y23.97
G1X2.96Y23.95
G1X3.01Y23.93
G1X3.09Y23.88
G1X3.18Y23.81
G1X3.28Y23.72
G1X3.38Y23.63
G1X3.46Y23.54
G1X3.52Y23.47
G1X3.54Y23.43
G1X3.59Y23.37
G1X3.69Y23.31
G1X3.8Y23.24
G1X3.84Y23.17
G1X3.86Y23.11
G1X3.91Y23.06
G1X3.95Y23.05
G1X3.94Y23.08
G1X3.92Y23.13
G1X3.95Y23.15
G1X4Y23.13
G1X4.04Y23.07
G1X4.08Y23.03
G1X4.15Y22.97
G1X4.26Y22.91
G1X4.38Y22.84
G1X4.53Y22.77
G1X4.64Y22.73
G1X4.72
G1X4.77Y22.75
G1X4.84Y22.78
G1X4.89Y22.75
G1X4.9Y22.71
G1X4.88Y22.7
G1X4.81
G1X4.77Y22.69
G1Y22.66
G1X4.8Y22.61
G1X4.87Y22.55
G1X4.95Y22.52
G1X5.01Y22.53
G1X5.04Y22.58
G1X5.02Y22.61
G1X4.97
G1X4.93Y22.59
G1X4.94Y22.62
G1X4.98Y22.65
G1X5.04
G1X5.14Y22.62
G1X5.27Y22.57
G1X5.53Y22.47
G1X5.78Y22.38
G1X5.9Y22.34
G1X5.96
G1X5.99
G1Y22.4
G1X5.97Y22.43
G1X5.92Y22.48
G1X5.86Y22.53
G1X5.77Y22.59
G1X5.52Y22.72
G1X5.19Y22.88
G1X5.03Y22.99
G1X4.86Y23.15
G1X4.73Y23.32
G1X4.68Y23.46
G1X4.7Y23.53
G1X4.74Y23.58
G1X4.77Y23.64
G1X4.74Y23.73
G1X4.66Y23.8
G1X4.56Y23.84
G1X4.48Y23.82
G1X4.45Y23.79
G1Y23.74
G1X4.51Y23.68
G1X4.55Y23.62
G1X4.52Y23.61
G1X4.46Y23.64
G1X4.41Y23.72
G1X4.37Y23.8
G1X4.32Y23.84
G1X4.23Y23.88
G1X4.09Y23.99
G1X4.01Y24.07
G1X3.96Y24.13
G1Y24.18
G1X3.99Y24.22
G1X4.03Y24.24
G1X4.06
G1X4.1Y24.21
G1X4.13Y24.15
G1X4.2Y24.05
G1X4.25Y24.01
G1X4.31Y24.05
G1X4.34Y24.14
G1Y24.27
M5
G0X3.53Y23.95
M3 S30
; Layer C00
G1X3.6Y23.86
G1Y23.84
G1X3.59Y23.85
G1X3.55Y23.88
G1X3.43Y24.01
G1X3.21Y24.27
G1X3.03Y24.56
G1X2.91Y24.86
G1X2.85Y25.15
G1X2.82Y25.46
G1X3.02Y24.98
G1X3.19Y24.59
G1X3.31Y24.32
G1X3.41Y24.14
G1X3.53Y23.95
M5
G0X3.34Y23.93
M3 S30
; Layer C00
G1X3.44Y23.84
G1X3.48Y23.76
G1Y23.75
G1X3.44Y23.76
G1X3.39Y23.79
G1X3.33Y23.84
G1X3.21Y23.96
G1X3.11Y24.08
G1X3.09Y24.13
G1Y24.16
G1Y24.17
G1X3.12
G1X3.17Y24.14
G1X3.2Y24.09
G1X3.24Y24.02
G1X3.34Y23.93
M5
G0X3.6Y26.29
M3 S30
; Layer C00
G1X3.56Y26.31
G1X3.57Y26.4
G1X3.54Y26.47
G1X3.51Y26.5
G1X3.49Y26.51
G1Y26.49
G1X3.48Y26.44
G1X3.47Y26.38
G1X3.44Y26.4
G1X3.4Y26.44
G1X3.32Y26.42
G1X3.38Y26.48
G1X3.47Y26.55
G1X3.54Y26.57
G1X3.59Y26.55
G1X3.63Y26.49
G1X3.65Y26.4
G1Y26.34
G1Y26.31
G1X3.6Y26.29
M5
G0X3.39Y27.04
M3 S30
; Layer C00
G1X3.34Y27.09
G1X3.27Y27.24
G1X3.19Y27.43
G1X3.12Y27.62
G1X3.1Y27.74
G1X3.13Y27.78
G1X3.17Y27.75
G1X3.18Y27.68
G1X3.21Y27.57
G1X3.32Y27.36
G1Y27.31
G1Y27.25
G1X3.36Y27.16
G1X3.4Y27.07
G1Y27.04
M5
G0X3.88Y27.28
M3 S30
; Layer C00
G1X3.86Y27.32
G1Y27.39
G1X3.88Y27.47
G1X3.96Y27.69
G1X4.08Y27.94
G1X4.27Y28.27
G1X4.53Y28.72
G1X4.59Y28.82
G1X4.64Y28.88
G1X4.66Y28.9
G1X4.65Y28.85
G1X4.6Y28.71
G1X4.52Y28.51
G1X4.42Y28.28
G1X4.32Y28.04
G1X4.24Y27.84
G1X4.19Y27.7
G1Y27.64
G1Y27.62
G1X4.16Y27.61
G1X4.09Y27.56
G1X3.97Y27.32
G1X3.91Y27.26
G1X3.88Y27.28
M5
G0X3.29Y28.15
M3 S30
; Layer C00
G1X3.17Y28.49
G1X3.12Y28.65
G1X3.09Y28.76
G1Y28.82
G1X3.12Y28.85
G1X3.16Y28.92
G1X3.18Y29.05
G1Y29.16
G1X3.19Y29.21
G1X3.21Y29.18
G1X3.22Y29.1
G1X3.23Y28.99
G1X3.25Y28.84
G1Y28.67
G1X3.29Y28.15
M5
G0X2.37Y27.95
M3 S30
; Layer C00
G1X2.39Y27.86
G1Y27.79
G1X2.37Y27.74
G1X2.32Y27.7
G1X2.25Y27.66
G1X2.14Y27.62
G1X2.08Y27.61
G1X2.06Y27.63
G1X2.02Y27.68
G1X1.97Y27.76
G1X1.9Y27.85
G1X1.81Y27.98
G1X1.78Y28.04
G1X1.81Y28.02
G1X1.89Y27.94
G1X2Y27.81
G1X2.06Y27.71
G1X2.09Y27.67
G1X2.13
G1Y27.7
G1X2.12Y27.75
G1X2.09Y27.83
G1X2.05Y27.91
G1X2Y28
G1X1.97Y28.06
G1X1.95Y28.1
G1Y28.12
G1X1.97Y28.11
G1X2Y28.07
G1X2.05Y28.01
G1X2.11Y27.92
G1X2.21Y27.79
G1X2.29Y27.73
G1X2.33Y27.74
G1Y27.84
G1X2.32Y27.92
G1X2.34Y27.98
G1X2.37Y27.95
M5
G0X4.62Y28.25
M3 S30
; Layer C00
G1Y28.34
G1X4.66Y28.44
G1X4.68Y28.48
G1X4.7Y28.5
G1X4.72Y28.49
G1X4.78Y28.43
G1Y28.48
G1Y28.54
G1X4.77Y28.71
G1X4.8Y28.89
G1X4.83Y28.97
G1X4.86Y29.03
G1X4.89Y29.06
G1X4.92
G1X4.96Y29.02
G1X4.98Y28.95
G1X4.96Y28.89
G1X4.93Y28.87
G1X4.9Y28.84
G1Y28.76
G1Y28.64
G1X4.86Y28.5
G1X4.8Y28.4
G1X4.73Y28.38
G1X4.71Y28.39
G1X4.69
G1Y28.35
G1X4.71Y28.3
G1Y28.21
G1X4.68Y28.18
G1X4.64Y28.2
G1X4.62Y28.25
M5
G0X3.51Y30.35
M3 S30
; Layer C00
G1X3.52Y30.38
G1X3.53Y30.45
G1Y30.56
G1Y30.69
G1Y30.79
G1X3.5Y30.85
G1X3.47Y30.89
G1X3.44Y30.91
G1X3.49
G1X3.57Y30.89
G1X3.63Y30.82
G1Y30.78
G1X3.65Y30.77
G1Y30.79
G1Y30.84
G1X3.61Y30.91
G1X3.53Y30.97
G1X3.46Y30.99
G1X3.42Y30.96
G1X3.4Y30.85
G1X3.37Y30.81
G1X3.32Y30.79
G1X3.28Y30.78
G1Y30.71
G1X3.3Y30.67
G1Y30.65
G1X3.28
G1X3.23Y30.67
G1X3.21
G1Y30.64
G1X3.24Y30.56
G1Y30.54
G1X3.22
G1X3.18Y30.55
G1X3.14Y30.57
G1Y30.53
G1X3.22Y30.49
G1X3.33Y30.47
G1X3.44Y30.44
G1X3.51Y30.35
M5
G0X10.31Y24.26
M3 S30
; Layer C00
G1X10.4Y24.1
G1X10.46Y23.9
G1X10.49Y23.64
G1Y23.49
G1X10.47Y23.42
G1X10.45
G1X10.4Y23.47
G1X10.35Y23.57
G1X10.32Y23.7
G1X10.3Y23.87
G1Y24.09
G1Y24.26
M5
G0X17.18Y24.16
M3 S30
; Layer C00
G1X17.2Y24.43
G1X17.25Y24.63
G1X17.31Y24.75
G1X17.34Y24.81
G1Y24.78
G1Y24.7
G1X17.35Y24.59
G1Y24.45
G1Y24.05
G1X17.38Y23.33
G1Y23.17
G1X17.35Y23.08
G1X17.31Y23.05
G1X17.28
G1X17.26
G1Y23.09
G1Y23.14
G1X17.27Y23.3
G1X17.24Y23.53
G1X17.2Y23.85
G1X17.18Y24.16
M5
G0X17.06Y22.42
M3 S30
; Layer C00
G1X17.13Y22.39
G1X17.25Y22.3
G1X17.19
G1X17.1Y22.28
G1X17Y22.18
G1X16.92Y22.06
G1X16.9Y21.99
G1X16.92Y21.97
G1X17.01Y22.03
G1X17.06Y22.07
G1X17.1Y22.09
G1X17.14
G1X17.16Y22.06
G1X17.18Y22.02
G1X17.14
G1X17.09
G1X17.04Y21.95
G1X16.99Y21.87
G1X16.93Y21.83
G1X16.88Y21.87
G1X16.86Y21.96
G1X16.89Y22.1
G1X16.95Y22.28
G1X17.01Y22.38
G1X17.06Y22.42
M5
G0X17.03Y21.48
M3 S30
; Layer C00
G1X17.07Y21.44
G1X17.1Y21.37
G1Y21.31
G1X17.03Y21.29
G1X16.92
G1X16.85Y21.3
G1X16.81
G1X16.78Y21.27
G1X16.75Y21.17
G1X16.71Y21.12
G1X16.68
G1X16.7Y21.22
G1X16.78Y21.32
G1X16.88Y21.37
G1X16.97Y21.4
G1X17.01Y21.45
G1X17.03Y21.48
M5
G0X16.71Y20.14
M3 S30
; Layer C00
G1X16.76Y20.11
G1X16.77Y20.07
G1X16.75Y20.03
G1X16.7
G1X16.53Y20.02
G1X16.42Y20
G1X16.35Y19.96
G1X16.31Y19.9
G1X16.26Y19.81
G1X16.19Y19.75
G1X16.14
G1Y19.78
G1X16.15Y19.84
G1X16.11Y19.9
G1X16.07Y19.92
G1Y19.94
G1X16.1
G1X16.16
G1X16.27Y19.98
G1X16.35Y20.05
G1X16.39Y20.11
G1X16.41
G1X16.45Y20.09
G1X16.55Y20.12
G1X16.64Y20.14
G1X16.71
M5
G0X16.64Y19.88
M3 S30
; Layer C00
G1X16.65
G1X16.68Y19.84
G1Y19.81
G1Y19.78
G1X16.65Y19.76
G1X16.51Y19.71
G1X16.47Y19.67
G1X16.42Y19.64
G1X16.29Y19.63
G1X16.21
G1X16.17
G1Y19.65
G1X16.18Y19.67
G1X16.27Y19.7
G1X16.36Y19.72
G1X16.43Y19.75
G1X16.45Y19.82
G1Y19.87
G1X16.49Y19.8
G1X16.53Y19.78
G1X16.57Y19.8
G1X16.61Y19.85
G1X16.62Y19.87
G1X16.64Y19.88
M5
G0X17.22Y19.23
M3 S30
; Layer C00
G1X17.29
G1X17.35Y19.19
G1X17.37Y19.15
G1X17.33Y19.12
G1X17.23
G1X17.17
G1X17.13Y19.11
G1X17.11Y19.09
G1Y19.06
G1X17.09Y19
G1X17.01Y18.96
G1X16.95Y18.95
G1X16.92
G1Y18.98
G1X16.96Y19.02
G1X17.05Y19.13
G1X17.14Y19.2
G1X17.22Y19.23
M5
G0X17.46Y19.22
M3 S30
; Layer C00
G1X17.48Y19.24
G1X17.53Y19.29
G1X17.67Y19.4
G1X17.72Y19.45
G1X17.75Y19.49
G1Y19.52
G1Y19.53
G1X17.83Y19.5
G1X17.93Y19.43
G1X17.97Y19.35
G1X17.99Y19.29
G1X18.04Y19.25
G1X18.07Y19.23
G1X18.08Y19.18
G1Y19.11
G1X18.04Y18.99
G1X18Y18.86
G1X17.96Y18.8
G1X17.92
G1X17.85Y18.85
G1X17.77Y18.94
G1X17.73Y19.04
G1Y19.12
G1X17.78Y19.15
G1X17.81Y19.11
G1Y19.03
G1Y18.96
G1X17.84Y18.92
G1X17.89Y18.93
G1X17.95Y18.99
G1X17.94Y19.06
G1X17.86Y19.15
G1X17.8Y19.2
G1X17.77Y19.24
G1X17.78Y19.26
G1X17.82Y19.28
G1X17.88Y19.32
G1X17.91Y19.37
G1X17.87Y19.4
G1X17.79
G1X17.69Y19.35
G1X17.6Y19.28
G1X17.54Y19.23
G1X17.47Y19.21
M5
G0X18.05Y19.33
M3 S30
; Layer C00
G1X18.06Y19.42
G1X18.13Y19.57
G1X18.23Y19.71
G1X18.31Y19.78
G1X18.37Y19.79
G1X18.39Y19.83
G1X18.38Y19.87
G1X18.35Y19.89
G1X18.29Y19.87
G1X18.2Y19.83
G1X18.12Y19.81
G1X18.09Y19.82
G1X18.13Y19.88
G1X18.23Y19.93
G1X18.33Y19.96
G1X18.4Y19.93
G1X18.46Y19.9
G1X18.55Y19.91
G1X18.57
G1X18.55Y19.88
G1X18.5Y19.82
G1X18.41Y19.74
G1X18.23Y19.55
G1X18.13Y19.41
G1X18.09Y19.34
G1X18.05
M5
G0X18.71Y19.67
M3 S30
; Layer C00
G1X18.79Y19.62
G1X18.89Y19.58
G1X19Y19.59
G1X19.08Y19.64
G1X19.11Y19.72
G1X19.1Y19.78
G1X19.06Y19.8
G1X18.97
G1X18.82Y19.79
G1X18.73Y19.76
G1X18.69Y19.72
G1X18.71Y19.67
M5
G0X18.19Y18.51
M3 S30
; Layer C00
G1X18.12Y18.49
G1X18.03Y18.47
G1X17.89Y18.44
G1X17.79Y18.4
G1X17.73Y18.35
G1Y18.31
G1X17.81Y18.29
G1X17.87Y18.26
G1X17.91Y18.11
G1X17.98Y18.08
G1X18.06Y18.09
G1X18.12Y18.17
G1X18.15Y18.28
G1X18.18Y18.39
G1X18.19Y18.48
G1Y18.51
M5
G0X17.53Y17.73
M3 S30
; Layer C00
G1X17.58Y17.67
G1X17.55Y17.6
G1X17.48Y17.53
G1X17.41Y17.49
G1X17.35
G1X17.32Y17.55
G1X17.28Y17.65
G1X17.26Y17.72
G1X17.27Y17.76
G1X17.32Y17.77
G1X17.41
G1X17.53Y17.73
M5
G0X17.76Y17.8
M3 S30
; Layer C00
G1X17.72Y17.95
G1X17.66Y18.03
G1X17.59
G1X17.49Y17.98
G1X17.43Y17.93
G1X17.39
G1X17.35Y17.95
G1X17.3Y18.02
G1X17.22Y18.17
G1X17.16Y18.33
G1X17.12Y18.46
G1X17.07Y18.51
G1X17.03Y18.49
G1X17.01Y18.39
G1Y18.26
G1X16.95Y18.39
G1X16.91Y18.47
G1X16.87Y18.51
G1X16.84
G1X16.8Y18.46
G1X16.78Y18.41
G1X16.79Y18.36
G1X16.8Y18.32
G1X16.82Y18.25
G1Y18.15
G1X16.84Y18.03
G1X16.86Y17.81
G1X16.9Y17.69
G1X16.95Y17.58
G1X17.01Y17.38
G1X17.08Y17.17
G1X17.16Y17.02
G1X17.2Y16.97
G1X17.23Y16.95
G1X17.27Y16.96
G1X17.31Y17
G1X17.35Y17.05
G1Y17.07
G1X17.34
G1X17.29Y17.06
G1X17.24Y17.04
G1X17.22
G1Y17.07
G1Y17.11
G1X17.24Y17.18
G1X17.21Y17.2
G1X17.17Y17.25
G1Y17.36
G1X17.2Y17.45
G1X17.21Y17.48
G1X17.23Y17.46
G1X17.27Y17.39
G1X17.32Y17.3
G1X17.37Y17.28
G1X17.46Y17.32
G1X17.6Y17.43
G1X17.71Y17.53
G1X17.76Y17.6
G1X17.78Y17.69
G1X17.76Y17.8
M5
G0X17.64Y17.14
M3 S30
; Layer C00
G1X17.58
G1X17.49Y17.11
G1X17.4Y17.04
G1X17.33Y16.93
G1Y16.86
G1X17.41
G1X17.53Y16.92
G1X17.63Y17.03
G1X17.67Y17.1
G1X17.64Y17.14
M5
G0X19.55Y17.97
M3 S30
; Layer C00
G1Y17.99
G1Y18.02
G1X19.58Y18.11
G1X19.63Y18.19
G1X19.68Y18.28
G1X19.69Y18.36
G1X19.7Y18.41
G1X19.75
G1X19.82Y18.44
G1X19.87Y18.5
G1X19.89Y18.56
G1X19.91Y18.57
G1X19.92Y18.55
G1X19.93Y18.49
G1X19.91Y18.38
G1X19.81Y18.26
G1X19.71Y18.16
G1X19.68Y18.1
G1Y18.07
G1X19.62Y18.01
G1X19.58Y17.98
G1X19.55
M5
G0X20.53Y20.42
M3 S30
; Layer C00
G1X20.47Y20.46
G1X20.4Y20.51
G1X20.37Y20.56
G1Y20.57
G1X20.42Y20.55
G1X20.47
G1X20.48Y20.63
G1Y20.68
G1X20.5Y20.71
G1X20.53Y20.72
G1X20.57
G1X20.61Y20.7
G1X20.63
G1Y20.73
G1X20.61Y20.82
G1Y20.85
G1X20.62
G1X20.65
G1X20.69Y20.78
G1X20.71Y20.69
G1X20.69Y20.62
G1X20.66Y20.61
G1X20.6
G1X20.55Y20.56
G1X20.52Y20.49
G1Y20.43
G1Y20.42
M5
G0X20.51Y22.12
M3 S30
; Layer C00
G1X20.45Y22.14
G1X20.42Y22.18
G1X20.44Y22.22
G1X20.47Y22.24
G1X20.52Y22.27
G1X20.58Y22.36
G1X20.74Y22.66
G1X20.78Y22.76
G1X20.81Y22.9
G1X20.84Y23.07
G1X20.85Y23.25
G1Y23.39
G1X20.87Y23.5
G1X20.89Y23.58
G1X20.9Y23.61
G1X20.92
G1X20.95Y23.57
G1X20.97Y23.49
G1X20.99Y23.37
G1Y23.12
G1X20.91Y22.82
G1X20.86Y22.68
G1X20.8Y22.56
G1X20.74Y22.47
G1X20.68Y22.42
G1X20.64Y22.39
G1Y22.35
G1Y22.28
G1X20.62Y22.21
G1X20.57Y22.15
G1X20.51Y22.12
M5
G0X22.64Y22.43
M3 S30
; Layer C00
G1Y22.51
G1X22.71Y22.6
G1X22.83Y22.7
G1X22.9Y22.74
G1X22.95Y22.77
G1X22.98
G1X22.95Y22.71
G1X22.97Y22.7
G1X23.03
G1X23.12Y22.75
G1X23.21Y22.82
G1X23.23Y22.87
G1X23.18Y22.91
G1X23.07
G1X22.98Y22.88
G1X22.95
G1X22.99Y22.9
G1X23.09Y22.95
G1X23.2Y22.98
G1X23.27
G1X23.3Y22.93
G1X23.28Y22.84
G1X23.19Y22.75
G1X23.03Y22.65
G1X22.95Y22.61
G1X22.88Y22.58
G1X22.84Y22.57
G1X22.82Y22.58
G1X22.8Y22.61
G1X22.76
G1X22.73Y22.56
G1X22.74Y22.43
G1X22.7Y22.41
G1X22.64Y22.43
M5
G0X24.12Y25.8
M3 S30
; Layer C00
G1X24.29Y25.82
G1X24.41Y25.83
G1X24.51Y25.86
G1X24.58Y25.92
G1Y25.96
G1X24.55Y25.99
G1X24.5
G1X24.43
G1X24.28Y25.96
G1X24.16Y25.89
G1X24.11Y25.83
G1X24.1Y25.81
G1X24.12Y25.8
M5
G0X25.23Y26.16
M3 S30
; Layer C00
G1Y26.2
G1Y26.28
G1X25.24Y26.55
G1X25.26Y26.92
G1X25.27Y27.04
G1Y27.09
G1X25.29Y27.1
G1X25.31Y27.06
G1Y26.97
G1Y26.86
G1Y26.59
G1X25.28Y26.35
G1X25.25Y26.19
G1X25.24Y26.16
M5
G0X25.54Y26.4
M3 S30
; Layer C00
G1X25.52Y26.44
G1Y26.51
G1Y26.59
G1X25.55Y26.66
G1X25.61Y26.71
G1X25.69Y26.77
G1X25.82Y26.86
G1X25.87Y26.94
G1X25.92Y27.04
G1X26.15Y27.27
G1X26.29Y27.44
G1X26.44Y27.64
G1X26.59Y27.85
G1X26.73Y28.06
G1X26.95Y28.37
G1X27Y28.44
G1X27.04Y28.51
G1X27.09Y28.6
G1X27.15Y28.68
G1X27.33Y28.78
G1X27.37Y28.85
G1X27.38Y28.89
G1X27.43
G1X27.47Y28.81
G1X27.49Y28.67
G1X27.46Y28.51
G1X27.41Y28.4
G1X27.34Y28.3
G1X27.29Y28.18
G1X27.23Y28.03
G1X27.13Y27.9
G1X27.04Y27.78
G1X27.01Y27.7
G1X26.96Y27.61
G1X26.71Y27.36
G1X26.63Y27.25
G1X26.58Y27.18
G1X26.5Y27.15
G1X26.39Y27.12
G1X26.23Y27.03
G1X26.08Y26.93
G1X25.98Y26.84
G1X25.87Y26.68
G1X25.77Y26.56
G1X25.69Y26.47
G1X25.62Y26.41
G1X25.57Y26.39
G1X25.54
M5
G0X26.95Y27.2
M3 S30
; Layer C00
G1X26.92Y27.24
G1Y27.27
G1X26.95Y27.32
G1X27.02Y27.4
G1X27.12Y27.51
G1X27.14Y27.58
G1Y27.6
G1X27.18
G1X27.23
G1X27.25Y27.55
G1X27.22Y27.5
G1X27.16Y27.46
G1X27.1Y27.42
G1Y27.37
G1X27.11Y27.3
G1X27.08Y27.24
G1X27.02Y27.2
G1X26.95
M5
G0X27.4Y29.68
M3 S30
; Layer C00
G1X27.33Y29.72
G1X27.3Y29.83
G1Y29.98
G1X27.27Y30.12
G1X27.23Y30.41
G1X27.2Y30.65
G1Y30.84
G1Y30.98
G1X27.21Y31.05
G1X27.24
G1X27.29Y30.97
G1X27.34Y30.79
G1X27.4Y30.48
G1X27.45Y30.11
G1X27.46Y29.89
G1Y29.76
G1X27.44Y29.7
G1X27.4Y29.68
M5
G0X23.28Y31.35
M3 S30
; Layer C00
G1X23.22Y31.33
G1X23.15Y31.37
G1X23.08Y31.43
G1X23.06Y31.52
G1Y31.58
G1X23.07Y31.61
G1X23.09Y31.58
G1X23.15Y31.44
G1X23.18Y31.4
G1X23.2Y31.39
G1X23.21
G1Y31.43
G1X23.22Y31.49
G1Y31.57
G1Y31.68
G1X23.18Y31.98
G1X23.25Y31.68
G1X23.27Y31.56
G1X23.29Y31.46
G1Y31.38
G1Y31.35
M5
G0X22.48Y31.89
M3 S30
; Layer C00
G1X22.44Y31.86
G1X22.37Y31.88
G1X22.31Y31.91
G1X22.28Y31.96
G1X22.3Y31.99
G1X22.35Y31.97
G1X22.38Y31.96
G1X22.39
G1X22.38Y31.99
G1X22.35Y32.03
G1X22.27Y32.08
G1X22.21Y32.09
G1X22.17
G1X22.16Y32.12
G1X22.19Y32.17
G1X22.26
G1X22.34Y32.14
G1X22.42Y32.06
G1X22.48Y31.96
G1Y31.89
M5
G0X22.3Y31.85
M3 S30
; Layer C00
G1X22.4Y31.76
G1X22.49Y31.69
G1X22.57Y31.65
G1X22.61
G1X22.63Y31.66
G1X22.61Y31.62
G1Y31.52
G1X22.71Y31.39
G1X22.84Y31.24
G1X22.95Y31.07
G1X23.05Y30.87
G1X23.15Y30.64
G1X23.23Y30.38
G1X23.31Y30.08
G1X23.38Y29.75
G1X23.45Y29.38
G1X23.51Y28.93
G1X23.53Y28.42
G1Y27.9
G1X23.51Y27.37
G1X23.46Y26.86
G1X23.39Y26.41
G1X23.35Y26.21
G1X23.3Y26.04
G1X23.25Y25.89
G1X23.2Y25.77
G1X23.14Y25.63
G1X23.12Y25.52
G1X23.1Y25.44
G1X23.05Y25.31
G1X22.97Y25.14
G1X22.79Y24.76
G1X22.72Y24.61
G1X22.68Y24.5
G1X22.65Y24.42
G1Y24.38
G1X22.67
G1X22.71Y24.4
G1X22.77Y24.46
G1X22.91Y24.66
G1X23.05Y24.91
G1X23.18Y25.19
G1X23.28Y25.46
G1X23.35Y25.7
G1X23.41Y25.86
G1X23.48Y26.05
G1X23.54Y26.28
G1X23.56Y26.38
G1Y26.47
G1X23.57Y26.54
G1Y26.58
G1Y26.62
G1X23.6Y26.64
G1X23.63Y26.65
G1X23.65Y26.69
G1Y26.76
G1X23.64Y26.86
G1Y27.03
G1X23.66Y27.13
G1X23.7Y27.22
G1X23.74Y27.42
G1Y27.39
G1Y27.28
G1Y27.12
G1X23.73Y26.93
G1X23.71Y26.75
G1X23.7Y26.6
G1X23.66Y26.43
G1X23.67Y26.38
G1X23.7Y26.36
G1X23.76Y26.35
G1X23.9Y26.4
G1X24.06Y26.51
G1X24.2Y26.65
G1X24.25Y26.76
G1X24.24Y26.8
G1X24.22Y26.77
G1X24.17Y26.73
G1X24.1
G1X24.06Y26.75
G1X24.05Y26.77
G1X24.06Y26.8
G1X24.16Y26.88
G1X24.18Y26.92
G1X24.16Y26.97
G1X24.11Y27.05
G1X24.06Y27.14
G1X24.03Y27.24
G1X24.02Y27.36
G1Y27.51
G1Y27.78
G1Y27.99
G1X24Y28.14
G1X23.96Y28.24
G1X23.9Y28.29
G1X23.86Y28.27
G1X23.81Y28.18
G1X23.76Y27.98
G1Y27.96
G1X23.74
G1Y27.99
G1X23.73Y28.05
G1Y28.14
G1X23.71Y28.65
G1X23.7Y28.87
G1X23.69Y29.05
G1X23.68Y29.15
G1X23.65Y29.33
G1Y29.47
G1Y29.58
G1X23.67Y29.71
G1X23.71Y29.82
G1X23.77Y29.89
G1X23.81
G1X23.84Y29.84
G1X23.82Y29.8
G1X23.73Y29.76
G1X23.72Y29.72
G1X23.74Y29.68
G1X23.8Y29.67
G1X23.87Y29.7
G1X23.91Y29.79
G1X23.93Y29.89
G1X23.9Y29.95
G1X23.85Y30.02
G1X23.8Y30.14
G1X23.75Y30.26
G1X23.68Y30.36
G1X23.52Y30.6
G1X23.42Y30.85
G1X23.44
G1X23.5Y30.79
G1X23.57Y30.71
G1X23.63Y30.62
G1Y30.66
G1Y30.71
G1X23.6Y30.84
G1X23.51Y30.96
G1X23.49Y31.05
G1X23.47Y31.17
G1X23.45Y31.32
G1Y31.52
G1Y31.58
G1Y31.61
G1X23.48
G1X23.54Y31.54
G1X23.64Y31.38
G1X23.72Y31.17
G1X23.76Y31.08
G1X23.79Y31.01
G1X23.82Y30.97
G1X23.84Y30.96
G1X23.87
G1X23.9Y30.94
G1X23.93Y30.89
G1X23.98Y30.81
G1X24.02Y30.7
G1X24.08Y30.54
G1X24.16Y30.35
G1X24.3Y29.93
G1X24.35Y29.79
G1X24.4Y29.68
G1X24.44Y29.6
G1X24.5Y29.5
G1X24.55
G1X24.59Y29.56
G1Y29.66
G1X24.54Y29.74
G1X24.49
G1X24.46Y29.75
G1Y29.8
G1Y29.85
G1Y29.94
G1X24.42Y30.07
G1X24.37Y30.23
G1X24.25Y30.59
G1X24.1Y30.98
G1X23.69Y31.71
G1X23.25Y32.37
G1X23.15Y32.44
G1X23.05Y32.47
G1X22.99Y32.46
G1X22.96Y32.42
G1X22.94Y32.35
G1Y32.25
G1Y32.02
G1X22.56Y32.15
G1X22.36Y32.21
G1X22.21Y32.24
G1X22.11
G1X22.05Y32.22
G1Y32.17
G1X22.08Y32.09
G1X22.16Y31.98
G1X22.3Y31.85
M5
G0X14.98Y19.8
M3 S30
; Layer C00
G1X15.04Y19.78
G1X15.12Y19.71
G1X15.15Y19.65
G1X15.12Y19.55
G1X15.04Y19.44
G1X14.99Y19.39
G1X14.96Y19.36
G1X14.93Y19.34
G1X14.92Y19.36
G1X14.9Y19.41
G1X14.85Y19.43
G1X14.81Y19.41
G1Y19.35
G1X14.83Y19.29
G1X14.8
G1X14.75Y19.34
G1X14.74Y19.41
G1X14.75Y19.47
G1X14.8Y19.49
G1X14.83Y19.51
G1Y19.55
G1Y19.62
G1X14.86Y19.72
G1X14.89Y19.77
G1X14.93Y19.8
G1X14.98
M5
G0X14.55Y18.8
M3 S30
; Layer C00
G1X14.49Y18.78
G1X14.38Y18.74
G1X14.3Y18.69
G1Y18.65
G1X14.36Y18.6
G1X14.51Y18.56
G1X14.65
G1X14.74Y18.6
G1X14.76Y18.67
G1X14.68Y18.74
G1X14.61Y18.78
G1X14.55Y18.8
M5
G0X13.97Y18.37
M3 S30
; Layer C00
G1X13.89Y18.35
G1X13.79Y18.26
G1X13.7Y18.14
G1Y18.06
G1X13.73Y18.02
G1X13.78Y18.01
G1X13.82Y18.03
G1X13.87Y18.15
G1X13.93Y18.24
G1X13.98Y18.32
G1Y18.37
M5
G0X10.79Y14.76
M3 S30
; Layer C00
G1X10.82Y14.75
G1X10.86Y14.71
G1X10.88Y14.64
G1X10.9Y14.55
G1Y14.44
G1Y14.36
G1X10.89Y14.31
G1X10.88Y14.29
G1X10.87Y14.32
G1X10.81Y14.55
G1X10.8Y14.62
G1X10.78Y14.66
G1X10.76
G1X10.73Y14.61
G1X10.7Y14.48
G1Y14.31
G1X10.68Y14.19
G1X10.65Y14.15
G1X10.62Y14.21
G1X10.61Y14.33
G1X10.63Y14.47
G1X10.67Y14.63
G1X10.71Y14.7
G1X10.75Y14.75
G1X10.79Y14.76
M5
G0X12.12Y13.97
M3 S30
; Layer C00
G1X12.15
G1X12.2Y13.94
G1X12.26Y13.88
G1X12.28Y13.81
G1X12.27Y13.78
G1X12.24Y13.81
G1X12.19Y13.86
G1X12.13Y13.85
G1X12.07Y13.79
G1X12.04Y13.71
G1X12.05Y13.66
G1X12.08Y13.63
G1X12.12Y13.61
G1X12.25Y13.59
G1X12.24Y13.56
G1X12.2Y13.55
G1X12.19Y13.52
G1Y13.49
G1X12.27Y13.41
G1Y13.39
G1X12.22Y13.41
G1X12.15Y13.46
G1X12.04Y13.54
G1X11.99Y13.65
G1Y13.76
G1X12.05Y13.9
G1X12.08Y13.95
G1X12.12Y13.97
M5
G0X12.34Y13.95
M3 S30
; Layer C00
G1X12.39Y14
G1X12.5
G1X12.63Y13.95
G1X12.88Y13.74
G1X13.07Y13.67
G1X13.19Y13.65
G1X13.3Y13.66
G1X13.43Y13.72
G1X13.61Y13.83
G1X13.73Y13.92
G1X13.83Y13.98
G1X13.9Y14.02
G1X13.95Y14.04
G1X14.01Y14.03
G1X14.05Y13.95
G1X14.09Y13.87
G1X14.15Y13.83
G1X14.18Y13.82
G1X14.16Y13.73
G1X14.19Y13.72
G1X14.25Y13.75
G1X14.31Y13.82
G1X14.35Y13.87
G1X14.36Y13.88
G1X14.37Y13.86
G1Y13.8
G1X14.35Y13.71
G1X14.27Y13.65
G1X14.18
G1X14.1Y13.69
G1X14.06Y13.75
G1Y13.8
G1X14.08Y13.83
G1X14.06
G1X14.01
G1X13.89Y13.77
G1X13.61Y13.61
G1X13.5Y13.57
G1X13.38Y13.56
G1X13.24
G1X12.98Y13.63
G1X12.68Y13.74
G1X12.55Y13.8
G1X12.44Y13.86
G1X12.37Y13.91
G1X12.34Y13.95
M5
G0X12.64Y13.36
M3 S30
; Layer C00
G1X12.69
G1X12.68Y13.3
G1X12.6Y13.18
G1X12.48Y13.08
G1X12.36Y13.02
G1X12.27Y13.01
G1X12.25Y13.02
G1X12.24Y13.06
G1X12.06Y13.21
G1X12.05Y13.26
G1X12.11Y13.27
G1X12.23Y13.23
G1X12.35Y13.18
G1X12.42Y13.16
G1X12.48Y13.19
G1X12.55Y13.27
G1X12.64Y13.36
M5
G0X13.55Y13.17
M3 S30
; Layer C00
G1X13.57Y13.18
G1X13.64Y13.16
G1X13.69Y13.13
G1X13.74Y13.12
G1X13.82
G1X13.86Y13.15
G1Y13.17
G1X13.85Y13.2
G1X13.8Y13.24
G1X13.73Y13.29
G1Y13.31
G1X13.8Y13.29
G1X13.93Y13.24
G1X14.06Y13.19
G1X14.16
G1X14.22Y13.23
G1X14.27Y13.43
G1X14.33Y13.53
G1X14.37Y13.57
G1X14.4
G1X14.43Y13.53
G1X14.46Y13.44
G1X14.48Y13.35
G1Y13.28
G1X14.47Y13.22
G1X14.43Y13.17
G1X14.34Y13.11
G1X14.24Y13.08
G1X14.13
G1X14.02Y13.11
G1X13.93Y13.12
G1X13.85Y13.09
G1X13.8Y13.04
G1Y12.98
G1X13.86Y12.95
G1X13.96Y12.98
G1X14.04Y13.01
G1X14.08
G1Y12.97
G1X14.11Y12.89
G1X14.12Y12.84
G1X14.1Y12.81
G1X14.06Y12.8
G1X14
G1X13.84Y12.87
G1X13.67Y13
G1X13.6Y13.07
G1X13.56Y13.13
G1X13.55Y13.17
M5
G0X13.71Y12.8
M3 S30
; Layer C00
G1X13.76
G1X13.78Y12.78
G1X13.74Y12.74
G1X13.65Y12.66
G1X13.6Y12.62
G1X13.57Y12.6
G1X13.56
G1Y12.62
G1X13.57Y12.67
G1X13.54Y12.69
G1X13.5Y12.67
G1X13.48Y12.63
G1X13.47Y12.56
G1Y12.47
G1Y12.44
G1X13.46Y12.42
G1X13.43
G1X13.38Y12.45
G1X13.28Y12.48
G1X13.14
G1X13.1Y12.51
G1X13.11Y12.54
G1X13.21
G1X13.29
G1X13.33Y12.56
G1X13.34Y12.59
G1X13.32Y12.72
G1X13.33Y12.71
G1X13.36Y12.68
G1X13.4
G1X13.45
G1X13.63Y12.77
G1X13.71Y12.8
M5
G0X12.86Y11.7
M3 S30
; Layer C00
G1Y11.68
G1X12.79Y11.63
G1X12.69Y11.58
G1X12.6Y11.56
G1X12.52Y11.58
G1X12.48Y11.65
G1Y11.68
G1X12.51Y11.7
G1X12.58Y11.71
G1X12.68
G1X12.81
G1X12.86
M5
G0X12.86Y11.55
M3 S30
; Layer C00
G1X12.88Y11.53
G1X12.92Y11.48
G1Y11.44
G1X12.89Y11.45
G1X12.83
G1X12.77Y11.37
G1X12.73Y11.27
G1Y11.2
G1X12.71Y11.18
G1X12.61
G1X12.52Y11.19
G1X12.47Y11.17
G1X12.45Y11.11
G1Y11.01
G1Y10.99
G1X12.41Y11
G1X12.38Y11.06
G1X12.4Y11.18
G1X12.43Y11.27
G1Y11.31
G1X12.38Y11.29
G1X12.3Y11.22
G1X12.26Y11.17
G1X12.24Y11.15
G1Y11.18
G1X12.28Y11.25
G1X12.35Y11.34
G1X12.43Y11.37
G1X12.5Y11.4
G1X12.55Y11.45
G1X12.56
G1X12.54Y11.33
G1Y11.29
G1X12.57Y11.27
G1X12.61Y11.26
G1X12.67Y11.28
G1X12.7Y11.33
G1X12.76Y11.46
G1X12.86Y11.55
M5
G0X11.56Y11.53
M3 S30
; Layer C00
G1X11.53Y11.38
G1X11.44Y11.17
G1X11.4Y11.07
G1X11.35Y10.99
G1X11.32Y10.94
G1X11.29Y10.93
G1Y10.96
G1Y11.03
G1X11.31Y11.13
G1X11.33Y11.24
G1X11.38Y11.48
G1X11.42Y11.65
G1X11.46Y11.7
G1X11.51Y11.69
G1X11.55Y11.63
G1X11.56Y11.53
M5
G0X11.05Y11.58
M3 S30
; Layer C00
G1X11.02Y11.49
G1X10.99Y11.44
G1X10.98
G1Y11.46
G1Y11.51
G1Y11.58
G1X11.03Y11.77
G1X11.09Y12.02
G1X11.12Y12.13
G1X11.15Y12.19
G1X11.16Y12.22
G1X11.17
G1Y12.17
G1Y12.09
G1X11.15Y11.98
G1X11.12Y11.84
G1X11.08Y11.7
G1X11.05Y11.58
M5
G0X10.84Y12.52
M3 S30
; Layer C00
G1X10.82
G1X10.8Y12.55
G1Y12.6
G1X10.78Y12.82
G1X10.76Y12.97
G1X10.8Y12.94
G1X10.85
G1X10.87
G1X10.89Y12.9
G1Y12.84
G1Y12.75
G1X10.87Y12.59
G1X10.84Y12.52
M5
G0X15.07Y9.55
M3 S30
; Layer C00
G1X15.12Y9.56
G1X15.18
G1X15.25Y9.53
G1X15.27
G1X15.25Y9.51
G1X15.17Y9.5
G1X15.12Y9.49
G1X15.08Y9.46
G1X15.07Y9.44
G1Y9.4
G1X15.06Y9.32
G1X14.84Y9.18
G1X14.8Y9.09
G1X14.76Y8.99
G1X14.66Y8.88
G1X14.53Y8.77
G1X14.64Y8.9
G1X14.71Y9.01
G1Y9.11
G1Y9.15
G1X14.74Y9.19
G1X14.79Y9.23
G1X14.86Y9.27
G1X14.98Y9.34
G1X15.04Y9.39
G1X15.02Y9.41
G1X14.97Y9.4
G1X14.95
G1X14.98Y9.47
G1X15.02Y9.52
G1X15.07Y9.55
M5
G0X15.17Y9.41
M3 S30
; Layer C00
G1X15.19
G1X15.25
G1X15.36Y9.46
G1X15.46Y9.52
G1X15.51Y9.54
G1X15.5Y9.51
G1X15.41Y9.44
G1X15.35Y9.39
G1X15.31Y9.33
G1Y9.26
G1X15.33Y9.17
G1X15.38Y9.06
G1X15.44Y9.01
G1X15.48Y9
G1X15.49Y8.94
G1Y8.89
G1X15.47
G1X15.42
G1X15.36Y8.86
G1X15.33Y8.84
G1X15.3
G1X15.27Y8.85
G1X15.25Y8.89
G1Y8.94
G1X15.28
G1X15.31Y8.96
G1Y9.06
G1X15.26Y9.2
G1X15.17Y9.41
M5
G0X15.87Y9.52
M3 S30
; Layer C00
G1X15.9
G1X15.96Y9.49
G1X16.01Y9.46
G1X16.04
G1X16.05Y9.51
G1Y9.6
G1Y9.68
G1X16.08Y9.74
G1X16.12Y9.77
G1X16.25Y9.78
G1X16.28Y9.8
G1Y9.86
G1X16.25Y10.04
G1Y10.09
G1X16.28
G1X16.39Y10.02
G1X16.42Y10.01
G1X16.44Y10.2
G1X16.48Y10.32
G1X16.53Y10.4
G1X16.61Y10.44
G1X16.7
G1X16.74Y10.42
G1X16.77Y10.46
G1X16.78Y10.5
G1Y10.56
G1X16.8Y10.76
G1X16.84Y10.94
G1X16.91Y11.08
G1X16.95Y11.12
G1X16.98Y11.14
G1X17Y11.12
G1X17.01Y11.06
G1Y10.99
G1X16.97Y10.87
G1X16.94Y10.73
G1X16.89Y10.58
G1X16.82Y10.31
G1X16.79Y10.05
G1Y9.94
G1Y9.86
G1X16.81Y9.81
G1X16.85
G1X16.87Y9.88
G1Y10
G1Y10.08
G1Y10.14
G1X16.91Y10.18
G1X17.04Y10.24
G1X17.05Y10.27
G1Y10.3
G1Y10.36
G1X17.07Y10.44
G1X17.1Y10.53
G1X17.14Y10.64
G1X17.18Y10.72
G1X17.23Y10.77
G1X17.29Y10.8
G1X17.4Y10.85
G1X17.48Y10.95
G1X17.5Y11
G1Y11.05
G1X17.47Y11.08
G1X17.42
G1X17.39Y11.06
G1Y10.93
G1X17.36Y10.88
G1X17.32
G1X17.33Y10.91
G1X17.35Y10.95
G1X17.32Y10.97
G1X17.28Y11
G1Y11.06
G1X17.34Y11.12
G1X17.43Y11.15
G1X17.48
G1X17.52Y11.19
G1X17.55Y11.25
G1X17.58Y11.34
G1X17.63Y11.53
G1X17.76Y11.84
G1X17.81Y12.03
G1X17.85Y12.06
G1X17.91Y12.12
G1X17.98Y12.26
G1X18.01Y12.34
G1X18.04Y12.39
G1X18.07Y12.41
G1X18.1Y12.39
G1X18.15Y12.34
G1X18.18Y12.38
G1X18.21Y12.51
G1Y12.72
G1X18.22Y12.9
G1X18.23Y12.98
G1X18.26Y12.99
G1X18.3Y12.94
G1X18.38Y12.85
G1X18.44Y12.77
G1X18.51Y12.68
G1X18.59Y12.54
G1X18.7Y12.4
G1X18.83Y12.3
G1X18.89Y12.27
G1X18.93
G1X18.95Y12.29
G1Y12.33
G1X18.87Y12.46
G1X18.75Y12.63
G1X18.6Y12.82
G1X18.47Y12.98
G1X18.37Y13.12
G1X18.28Y13.24
G1X18.17Y13.43
G1X18.11Y13.56
G1X18.06Y13.73
G1X17.96Y13.91
G1X17.87Y14.06
G1X17.79Y14.12
G1X17.73Y14.14
G1X17.64Y14.21
G1X17.58Y14.26
G1X17.65
G1X17.67Y14.32
G1X17.65Y14.37
G1X17.62
G1X17.56Y14.38
G1X17.49Y14.43
G1X17.45Y14.48
G1Y14.5
G1X17.46
G1X17.51Y14.48
G1X17.58
G1X17.6Y14.52
G1Y14.57
G1X17.56Y14.63
G1X17.52Y14.72
G1X17.47Y14.84
G1X17.34Y15.14
G1X17.22Y15.47
G1X17.18Y15.61
G1X17.13Y15.72
G1X17.1Y15.79
G1X17.07Y15.8
G1X17.04
G1X17.03Y15.84
G1Y15.91
G1X17.04Y15.99
G1X17.1Y16.19
G1X17.18Y16.37
G1X17.28Y16.59
G1X17.31Y16.74
G1X17.29Y16.79
G1X17.26Y16.8
G1X17.21Y16.79
G1X17.15Y16.74
G1X17.11Y16.72
G1X17.08
G1X17.06Y16.76
G1X17.04Y16.84
G1X16.99Y17.05
G1X16.88Y17.47
G1X16.84Y17.66
G1Y17.7
G1X16.81Y17.71
G1X16.74
G1X16.68Y17.69
G1X16.65Y17.64
G1X16.67Y17.52
G1X16.73Y17.4
G1X16.79Y17.3
G1X16.86Y17.26
G1X16.87Y17.24
G1X16.82Y17.2
G1X16.75Y17.14
G1Y17.09
G1Y17.05
G1X16.69Y17.03
G1X16.61Y17.05
G1X16.56Y17.1
G1X16.54Y17.14
G1X16.58Y17.12
G1X16.63
G1X16.65Y17.14
G1X16.63Y17.19
G1X16.58Y17.21
G1X16.36Y17.23
G1X16.21Y17.2
G1X16.03Y17.1
G1X15.89Y16.98
G1X15.8Y16.88
G1X15.74Y16.77
G1X15.69Y16.6
G1X15.62Y16.37
G1X15.51Y16.13
G1X15.46Y16.01
G1X15.42Y15.91
G1X15.4Y15.83
G1Y15.78
G1Y15.76
G1X15.43
G1X15.48Y15.8
G1X15.54Y15.86
G1X15.63Y16
G1X15.65Y16.08
G1Y16.11
G1X15.68Y16.1
G1X15.74Y16.09
G1X15.79Y16.12
G1X15.88Y16.16
G1X16.05
G1X16.15Y16.14
G1X16.19
G1Y16.15
G1X16.09Y16.21
G1X16.12
G1X16.21
G1X16.35
G1X16.46Y16.26
G1X16.5Y16.31
G1X16.55Y16.39
G1X16.6Y16.49
G1X16.66Y16.62
G1X16.77Y16.89
G1X16.74Y16.52
G1X16.68Y16.21
G1X16.62Y15.97
G1X16.56Y15.81
G1X16.54Y15.71
G1Y15.69
G1X16.56
G1X16.59Y15.72
G1X16.66Y15.84
G1X16.69Y15.87
G1X16.7
G1Y15.85
G1X16.68Y15.74
G1X16.61Y15.57
G1X16.51Y15.41
G1X16.42Y15.33
G1X16.38
G1X16.36
G1X16.38Y15.36
G1X16.45Y15.45
G1X16.46Y15.47
G1Y15.48
G1X16.37Y15.45
G1X16.36Y15.47
G1X16.37Y15.52
G1X16.46Y15.69
G1Y15.71
G1X16.44
G1X16.39Y15.67
G1X16.32Y15.58
G1X16.29Y15.48
G1Y15.43
G1X16.27Y15.4
G1X16.24Y15.39
G1X16.2
G1X16.14
G1X16.11Y15.3
G1X16.13Y15.16
G1X16.18Y14.99
G1X16.22Y14.91
G1X16.24Y14.88
G1X16.26Y14.89
G1X16.28Y14.94
G1X16.34Y15.05
G1X16.45Y15.16
G1X16.55Y15.27
G1X16.59Y15.37
G1X16.63Y15.49
G1X16.71Y15.66
G1X16.83Y15.86
G1Y15.58
G1X16.84Y15.02
G1X16.8Y14.45
G1X16.78Y14.23
G1Y14.09
G1X16.8Y14.02
G1X16.84Y14
G1X16.88
G1Y13.97
G1X16.83Y13.95
G1X16.77Y13.86
G1X16.73Y13.73
G1X16.7Y13.55
G1X16.65Y13.33
G1X16.61Y13.14
G1Y13.01
G1X16.62Y12.94
G1X16.6Y12.92
G1X16.58Y12.89
G1X16.57Y12.82
G1X16.56Y12.71
G1Y12.58
G1X16.54Y12.34
G1X16.51Y12.19
G1X16.49Y12.15
G1X16.46Y12.14
G1X16.44Y12.15
G1X16.41Y12.21
G1X16.39Y12.25
G1X16.37Y12.24
G1X16.35Y12.18
G1X16.32Y12.06
G1X16.28Y11.85
G1X16.23Y11.72
G1X16.21Y11.69
G1X16.19Y11.68
G1Y11.7
G1X16.18Y11.76
G1X16.17Y11.82
G1X16.15Y11.86
G1X16.11Y11.88
G1X16Y11.9
G1X15.96Y11.92
G1X15.94Y11.97
G1Y12.05
G1Y12.12
G1X15.95Y12.15
G1X15.96Y12.14
G1X15.98Y12.07
G1X16.02Y11.98
G1X16.09Y11.95
G1X16.13Y11.97
G1X16.16Y12.06
G1Y12.14
G1Y12.24
G1X16.17Y12.38
G1Y12.76
G1X16.19Y12.96
G1X16.2Y13.12
G1X16.23Y13.25
G1X16.26Y13.35
G1X16.3Y13.42
G1X16.34Y13.45
G1X16.39
G1X16.43
G1X16.45Y13.47
G1X16.47Y13.52
G1Y13.6
G1X16.46Y13.72
G1X16.42Y13.78
G1X16.4Y13.82
G1Y13.94
G1Y14.07
G1X16.34Y14.17
G1X16.29Y14.19
G1X16.26Y14.18
G1X16.23Y14.11
G1X16.21Y13.98
G1X16.16Y13.79
G1X16.11Y13.69
G1X16.07Y13.6
G1X16.05Y13.44
G1Y13.36
G1X16.03Y13.32
G1X16.01Y13.36
G1X15.97Y13.45
G1X15.89Y13.49
G1X15.82Y13.46
G1X15.77Y13.37
G1X15.75Y13.32
G1X15.73Y13.29
G1X15.71
G1X15.69Y13.33
G1X15.65Y13.41
G1X15.64Y13.52
G1Y13.63
G1X15.69Y13.52
G1X15.72Y13.46
G1X15.74Y13.44
G1X15.76Y13.48
G1X15.78Y13.56
G1X15.8Y13.74
G1X15.78Y13.96
G1X15.75Y14.15
G1X15.74Y14.27
G1X15.72Y14.31
G1X15.68
G1X15.65
G1X15.61Y14.45
G1X15.55Y14.47
G1X15.47Y14.45
G1X15.38Y14.37
G1X15.31Y14.27
G1X15.28Y14.19
G1X15.29
G1X15.34Y14.23
G1X15.36Y14.27
G1X15.38
G1X15.39Y14.24
G1X15.4Y14.18
G1Y13.99
G1X15.38Y13.87
G1X15.33Y13.84
G1X15.27Y13.89
G1X15.24Y13.93
G1X15.22Y13.94
G1X15.19
G1X15.15Y13.9
G1X15.11Y13.87
G1Y13.83
G1Y13.8
G1X15.14Y13.76
G1X15.19Y13.7
G1X15.22Y13.64
G1X15.19
G1X15.13Y13.7
G1X15.07Y13.82
G1Y13.92
G1X15.09Y13.96
G1Y13.99
G1X15.07
G1X15.03
G1X14.98Y13.95
G1X14.96Y13.9
G1Y13.85
G1X14.92Y13.83
G1X14.87Y13.85
G1X14.83Y13.9
G1Y13.85
G1Y13.76
G1X14.87Y13.33
G1Y13.09
G1X14.85Y12.88
G1X14.81Y12.69
G1X14.79Y12.61
G1X14.76Y12.56
G1X14.75Y12.53
G1X14.7Y12.55
G1X14.62Y12.52
G1X14.53Y12.43
G1X14.5Y12.3
G1X14.45Y12.13
G1X14.31Y11.95
G1X14.19Y11.85
G1X14.09Y11.8
G1X13.96Y11.79
G1X13.75Y11.81
G1X13.37Y11.84
G1X12.97
G1X12.83
G1X12.72
G1X12.64
G1X12.57Y11.85
G1X12.47Y11.91
G1X12.35Y12.03
G1X12.22Y12.21
G1X12.16Y12.35
G1Y12.39
G1X12.18Y12.42
G1X12.23
G1X12.29Y12.4
G1X12.37Y12.37
G1X12.5Y12.36
G1X12.65Y12.35
G1X12.81
G1X13.16
G1X13.42
G1X13.75Y12.33
G1X13.9
G1X14.1
G1X14.19Y12.34
G1X14.25Y12.36
G1X14.28Y12.38
G1Y12.4
G1X14.26Y12.42
G1X14.22Y12.44
G1X14.15Y12.46
G1X14.05
G1X13.89Y12.48
G1X13.78Y12.55
G1X13.73Y12.62
G1X13.78Y12.69
G1X13.88Y12.73
G1X13.99Y12.75
G1X14.16Y12.8
G1X14.35Y12.92
G1X14.44Y12.98
G1X14.52Y13.05
G1X14.56Y13.11
G1X14.58Y13.16
G1X14.59Y13.22
G1X14.63
G1X14.67
G1Y13.3
G1X14.65Y13.38
G1X14.63Y13.5
G1X14.55Y13.86
G1X14.5Y14.01
G1X14.45Y14.13
G1X14.39Y14.23
G1X14.32Y14.31
G1X14.24Y14.35
G1X14.15Y14.38
G1X14.05
G1X13.94Y14.35
G1X13.67Y14.3
G1X13.31Y14.28
G1X13.13Y14.27
G1X13Y14.26
G1X12.94Y14.24
G1X12.93Y14.21
G1Y14.18
G1X12.88Y14.21
G1X12.82Y14.24
G1X12.71Y14.26
G1X12.58Y14.28
G1X12.44
G1X12.24
G1X12.11Y14.26
G1X12.01Y14.22
G1X11.91Y14.14
G1X11.85Y14.08
G1X11.79Y14.04
G1X11.76Y14.03
G1X11.74
G1X11.72
G1X11.65Y13.96
G1X11.61Y13.89
G1X11.59Y13.84
G1Y13.78
G1X11.62Y13.72
G1X11.68Y13.64
G1X11.73Y13.61
G1X11.78
G1X11.83Y13.68
G1Y13.66
G1Y13.61
G1Y13.53
G1X11.81Y13.43
G1Y13.36
G1X11.84Y13.31
G1X11.89Y13.28
G1X11.96Y13.22
G1X11.98Y13.13
G1Y13.07
G1X12Y13.04
G1X12.01Y13.05
G1X12.07Y13.13
G1X12.09
G1Y13.11
G1X12.1Y13.05
G1X12.12Y12.98
G1X12.16Y12.92
G1X12.25Y12.86
G1X12.37Y12.8
G1X12.57Y12.73
G1X12.74Y12.71
G1X12.79Y12.72
G1X12.82Y12.74
G1X12.81Y12.77
G1X12.76Y12.81
G1X12.72Y12.84
G1Y12.85
G1X12.73
G1X12.87Y12.81
G1X12.95
G1X12.98Y12.78
G1X13Y12.71
G1Y12.67
G1X12.97Y12.65
G1X12.94Y12.64
G1X12.89
G1X12.79
G1X12.71Y12.57
G1X12.68Y12.52
G1Y12.49
G1X12.71Y12.48
G1X12.76
G1X12.85Y12.5
G1X12.88Y12.53
G1X12.9Y12.56
G1X12.94Y12.57
G1X12.98Y12.56
G1Y12.52
G1Y12.48
G1X13.02Y12.44
G1Y12.43
G1X12.98Y12.42
G1X12.9
G1X12.79
G1X12.56Y12.45
G1X12.41Y12.5
G1X12.31Y12.56
G1X12.18Y12.61
G1X12.03Y12.68
G1X11.88Y12.79
G1X11.79Y12.87
G1X11.75Y12.96
G1X11.72Y13.08
G1Y13.25
G1Y13.37
G1Y13.45
G1X11.71Y13.49
G1X11.7Y13.48
G1X11.67Y13.4
G1X11.62Y13.38
G1X11.56Y13.42
G1X11.48Y13.5
G1X11.38Y13.63
G1X11.4Y13.47
G1X11.41Y13.38
G1Y13.35
G1X11.36Y13.39
G1X11.29Y13.5
G1X11.19Y13.68
G1X11.12Y13.83
G1X11.09Y13.97
G1X11.06Y14.24
G1X11.03Y14.29
G1X11.01Y14.31
G1X10.99Y14.36
G1Y14.43
G1Y14.52
G1X11.01Y14.76
G1X11.06Y15.01
G1X11.16Y15.36
G1X10.93Y15.76
G1X10.84Y15.93
G1X10.75Y16.05
G1X10.69Y16.12
G1X10.64Y16.13
G1X10.62
G1X10.66Y16.19
G1X10.71Y16.24
G1X10.75Y16.26
G1X10.79Y16.25
G1X10.84Y16.21
G1X10.94Y16.15
G1X11.04Y16.12
G1X11.11Y16.13
G1X11.15Y16.18
G1X11.16Y16.21
G1X11.27Y16.2
G1X11.36Y16.22
G1X11.42Y16.27
G1X11.46Y16.36
G1X11.51Y16.39
G1X11.55Y16.4
G1X11.56
G1Y16.39
G1X11.51Y16.36
G1X11.48Y16.33
G1Y16.3
G1Y16.26
G1X11.53Y16.21
G1X11.62Y16.15
G1X11.72
G1X11.71Y16.09
G1Y16.03
G1X11.74Y16
G1X11.79Y16.03
G1Y16.1
G1X11.78Y16.22
G1X11.71Y16.4
G1X11.65Y16.57
G1X11.63Y16.66
G1Y16.68
G1X11.68Y16.66
G1X11.73
G1X11.78Y16.7
G1X11.8Y16.74
G1X11.77
G1X11.73Y16.73
G1X11.65Y16.78
G1X11.53Y16.9
G1X11.36Y17.09
G1X11.29Y17.16
G1X11.22Y17.19
G1X11.11
G1X10.79Y17.17
G1X10.69
G1X10.63Y17.18
G1X10.61Y17.21
G1X10.65Y17.31
G1X10.76Y17.47
G1X10.9Y17.64
G1X11.04Y17.79
G1X11.11Y17.88
G1X11.15Y17.95
G1X11.18Y17.99
G1X11.25Y18
G1X11.29
G1X11.31Y18.02
G1Y18.04
G1X11.22Y18.14
G1Y18.18
G1X11.25Y18.2
G1X11.32
G1X11.41
G1X11.44Y18.15
G1X11.45Y18.13
G1X11.48
G1X11.49Y18.19
G1X11.46Y18.26
G1X11.41Y18.32
G1X11.34Y18.35
G1X11.3
G1X11.28Y18.36
G1Y18.39
G1X11.32Y18.42
G1X11.35Y18.49
G1Y18.53
G1X11.38Y18.57
G1X11.5Y18.6
G1X11.63Y18.66
G1X11.68Y18.72
G1X11.71Y18.78
G1X11.81Y18.81
G1X11.83Y18.86
G1X11.79Y18.93
G1X11.71Y18.96
G1X11.61
G1X11.54Y18.89
G1Y18.83
G1X11.57Y18.81
G1X11.6Y18.79
G1Y18.75
G1X11.55Y18.71
G1X11.5Y18.73
G1X11.45Y18.81
G1X11.42Y18.95
G1X11.4Y19.14
G1X11.43Y19.27
G1X11.52Y19.36
G1X11.69Y19.43
G1X11.85Y19.5
G1X11.96Y19.59
G1X12.14
G1X12.2Y19.61
G1X12.25Y19.63
G1X12.31Y19.56
G1X12.35Y19.44
G1Y19.31
G1X12.34Y19.23
G1X12.32Y19.19
G1X12.3
G1X12.24Y19.25
G1X12.22Y19.22
G1Y19.15
G1X12.18Y19.06
G1X12.17Y19.01
G1X12.18Y18.98
G1X12.23
G1X12.32Y18.99
G1X12.49Y19.02
G1X12.35Y18.91
G1X12.26Y18.81
G1X12.24Y18.72
G1X12.25Y18.66
G1X12.18Y18.59
G1X12.14Y18.48
G1X12.11Y18.41
G1X12.09Y18.38
G1X12.07
G1X12.04Y18.4
G1X12.02Y18.48
G1Y18.56
G1Y18.59
G1Y18.61
G1X11.98Y18.63
G1X11.93
G1X11.84Y18.62
G1X11.8Y18.57
G1X11.82Y18.54
G1X11.86
G1X11.9
G1X11.94Y18.46
G1X11.96Y18.4
G1X11.95Y18.38
G1X11.9Y18.39
G1X11.81Y18.45
G1X11.69Y18.51
G1X11.57Y18.53
G1X11.48
G1X11.44Y18.48
G1X11.46Y18.44
G1X11.49Y18.38
G1X11.54Y18.29
G1X11.6Y18.2
G1X11.7Y18.05
G1X11.8Y17.97
G1X11.92Y17.94
G1X12.09
G1X12.14
G1X12.16Y17.89
G1X12.19Y17.85
G1X12.25Y17.83
G1X12.32Y17.82
G1X12.34Y17.78
G1X12.4Y17.74
G1X12.55Y17.71
G1X12.65
G1X12.71
G1X12.74Y17.73
G1X12.73Y17.81
G1X12.76
G1X12.81Y17.74
G1Y17.66
G1Y17.58
G1X12.76Y17.55
G1X12.72Y17.53
G1Y17.5
G1X12.76Y17.48
G1X12.82
G1X12.91
G1X13.02Y17.49
G1X13.24Y17.53
G1X13.42Y17.59
G1X13.49Y17.61
G1X13.55Y17.63
G1X13.61Y17.65
G1X13.64Y17.69
G1Y17.74
G1X13.61Y17.79
G1X13.51Y17.84
G1X13.36
G1X13.27
G1X13.22
G1X13.2Y17.87
G1X13.23Y17.95
G1X13.22Y17.98
G1X13.2Y18
G1X13.16
G1X13.09Y18.03
G1X13.06Y18.09
G1X13.05Y18.14
G1X13.01Y18.17
G1X12.94Y18.19
G1X12.84
G1X12.75
G1X12.66Y18.23
G1X12.6Y18.26
G1X12.58Y18.28
G1X12.6
G1X12.66
G1X12.73Y18.31
G1X12.76Y18.35
G1X12.78Y18.39
G1X12.82Y18.41
G1X12.86Y18.39
G1X12.84Y18.31
G1X12.88Y18.29
G1X12.93Y18.31
G1Y18.36
G1X12.87Y18.43
G1X12.66Y18.6
G1X12.6Y18.67
G1X12.56Y18.75
G1X12.55Y18.83
G1Y18.92
G1X12.57Y18.97
G1X12.61Y19
G1X12.68
G1X12.74
G1X12.77Y18.99
G1Y18.97
G1X12.75Y18.94
G1X12.73Y18.9
G1Y18.86
G1X12.76Y18.81
G1X12.8Y18.75
G1X12.89Y18.69
G1X12.96Y18.68
G1X13.02Y18.72
G1X13.08Y18.81
G1X13.09Y18.84
G1X13.1
G1X13.11Y18.82
G1Y18.77
G1X13.15Y18.67
G1X13.21Y18.61
G1X13.27
G1X13.3Y18.69
G1X13.34Y18.77
G1X13.42Y18.82
G1X13.49
G1X13.51Y18.8
G1Y18.77
G1X13.56Y18.78
G1X13.64Y18.84
G1X13.72Y18.94
G1X13.76Y19
G1X13.8Y19.04
G1X13.85Y19.05
G1X13.95
G1X13.99Y19.07
G1X14.02Y19.11
G1X14.04Y19.17
G1X14.06Y19.3
G1X14.05Y19.38
G1Y19.42
G1X14.09Y19.43
G1X14.13Y19.41
G1X14.16Y19.35
G1X14.18Y19.27
G1Y19.16
G1X14.16Y18.96
G1X14.1Y18.83
G1X14.04Y18.76
G1Y18.67
G1X14.07Y18.6
G1X14.14
G1X14.18Y18.66
G1Y18.73
G1X14.17Y18.78
G1X14.19
G1X14.24
G1X14.29Y18.8
G1X14.38Y18.85
G1X14.54Y18.86
G1X14.69Y18.84
G1X14.77Y18.78
G1X14.82Y18.72
G1X14.89Y18.69
G1X14.97Y18.7
G1X15.05Y18.75
G1X15.28Y18.92
G1X15.34Y18.97
G1X15.38Y19.02
G1Y19.06
G1X15.35Y19.1
G1X15.31Y19.17
G1X15.36Y19.34
G1X15.34Y19.38
G1X15.3
G1X15.25Y19.32
G1X15.2Y19.28
G1X15.15Y19.26
G1Y19.29
G1X15.22Y19.37
G1X15.29Y19.43
G1X15.32Y19.47
G1Y19.52
G1X15.29Y19.57
G1X15.25Y19.61
G1Y19.63
G1X15.28
G1X15.35Y19.62
G1X15.46Y19.58
G1X15.53Y19.53
G1X15.61Y19.48
G1X15.74Y19.46
G1X15.93Y19.39
G1X16.12Y19.25
G1X16.26Y19.06
G1X16.33Y18.86
G1X16.35Y18.62
G1X16.37Y18.58
G1X16.42
G1X16.46Y18.62
G1X16.5Y18.69
G1X16.55Y18.76
G1X16.61
G1X16.64
G1X16.6Y18.82
G1X16.56Y18.9
G1Y18.97
G1X16.61Y19.02
G1X16.7Y19.04
G1X16.74
G1Y19.05
G1X16.72Y19.07
G1X16.67Y19.09
G1X16.6Y19.13
G1X16.56Y19.18
G1X16.54Y19.26
G1Y19.38
G1X16.56Y19.5
G1X16.59Y19.59
G1X16.65Y19.68
G1X16.74Y19.76
G1X16.8Y19.82
G1X16.84Y19.86
G1Y19.88
G1X16.82
G1X16.75Y19.86
G1X16.72
G1Y19.91
G1X16.79Y19.97
G1X16.83Y20.01
G1X16.86
G1X16.89
G1X16.92Y19.97
G1X16.96Y19.93
G1X17.01Y19.92
G1X17.09
G1X17.19Y19.95
G1X17.47Y20
G1X17.84Y20.03
G1X18.01Y20.04
G1X18.14
G1X18.22
G1Y20.02
G1X18.14Y19.99
G1X18.02Y19.92
G1X17.86Y19.82
G1X17.68Y19.71
G1X17.48Y19.57
G1X17.35Y19.46
G1X17.29Y19.39
G1X17.28Y19.33
G1X17.29Y19.28
G1X17.19
G1X17.06Y19.22
G1X16.92Y19.13
G1X16.83Y19.03
G1X16.76Y18.95
G1X16.67
G1X16.62
G1Y18.91
G1X16.68Y18.88
G1X16.75
G1X16.81
G1X16.83Y18.84
G1X16.87Y18.77
G1X16.97Y18.72
G1X17.09Y18.66
G1X17.21Y18.59
G1X17.26Y18.55
G1X17.29Y18.53
G1X17.31Y18.55
G1Y18.58
G1Y18.62
G1X17.32Y18.63
G1X17.34
G1X17.36Y18.59
G1X17.44Y18.53
G1X17.53
G1X17.6Y18.57
G1X17.62Y18.65
G1X17.63Y18.7
G1X17.69Y18.72
G1X17.78Y18.69
G1X17.89Y18.62
G1X17.95
G1X18.02Y18.69
G1X18.08Y18.84
G1X18.14Y19.06
G1X18.17Y19.14
G1X18.2Y19.19
G1X18.23Y19.22
G1X18.27
G1X18.31Y19.2
G1X18.35Y19.16
G1X18.39Y19.09
G1X18.42Y18.99
G1X18.46Y18.87
G1Y18.79
G1Y18.76
G1X18.35Y18.73
G1X18.33Y18.69
G1X18.37Y18.62
G1X18.46Y18.55
G1X18.59Y18.48
G1X18.68Y18.46
G1X18.73Y18.5
G1Y18.57
G1Y18.68
G1X18.8Y18.76
G1X18.85Y18.8
G1X18.87
G1X18.86Y18.78
G1X18.78Y18.68
G1X18.76Y18.65
G1X18.78Y18.64
G1X18.82
G1X18.9Y18.67
G1X18.98Y18.74
G1X19.03Y18.79
G1X19.07Y18.82
G1X19.12
G1X19.17Y18.79
G1X19.28Y18.76
G1X19.35Y18.79
G1X19.39Y18.86
G1X19.37Y18.96
G1X19.34Y19.05
G1Y19.2
G1X19.29
G1X19.23Y19.15
G1X19.15Y19.05
G1X19.05Y18.89
G1Y19.04
G1X19.07Y19.17
G1X19.14Y19.3
G1X19.3Y19.47
G1X19.54Y19.64
G1X19.66Y19.71
G1X19.76Y19.77
G1X19.85Y19.8
G1X19.91
G1X19.98
G1X20.03Y19.87
G1X20.12Y19.84
G1X20.21Y19.81
G1X20.27Y19.83
G1X20.3Y19.88
G1X20.27Y19.95
G1X20.22Y19.99
G1X20.14Y20.01
G1X20.04
G1X19.93Y19.99
G1X19.71Y19.92
G1X19.57Y19.8
G1X19.51Y19.74
G1X19.25Y19.67
G1X19.04Y19.54
G1X18.85Y19.38
G1X18.73Y19.22
G1X18.66Y19.03
G1X18.55Y19.27
G1X18.48Y19.46
G1Y19.59
G1X18.53Y19.66
G1X18.64Y19.75
G1X18.78Y19.85
G1X18.96Y19.96
G1X19.14Y20.05
G1X19.31Y20.13
G1X19.46Y20.19
G1X19.57Y20.21
G1X19.75Y20.25
G1X19.91Y20.31
G1X20.03Y20.37
G1X20.1Y20.34
G1X20.09Y20.29
G1X19.92Y20.21
G1X19.88Y20.14
G1X19.91Y20.08
G1X19.97Y20.07
G1X20.04Y20.1
G1X20.13Y20.26
G1X20.21Y20.29
G1X20.3Y20.25
G1X20.37Y20.14
G1X20.4Y20
G1Y19.85
G1X20.35Y19.72
G1X20.26Y19.62
G1X20.21Y19.58
G1X20.28
G1X20.3Y19.53
G1X20.29Y19.46
G1X20.23Y19.4
G1X20.2Y19.39
G1Y19.43
G1X20.21Y19.47
G1X20.16Y19.49
G1X20.07Y19.44
G1X19.96Y19.32
G1X19.88Y19.2
G1X19.81Y19.15
G1X19.78Y19.11
G1X19.76Y19.01
G1X19.74Y18.9
G1X19.7Y18.83
G1X19.66Y18.82
G1X19.69Y18.91
G1X19.65Y18.89
G1X19.61Y18.84
G1Y18.78
G1X19.58Y18.68
G1X19.47Y18.55
G1X19.39Y18.48
G1X19.33Y18.45
G1X19.29
G1X19.27Y18.47
G1X19.25Y18.5
G1X19.22Y18.51
G1X19.18Y18.49
G1X19.12Y18.45
G1X19.02Y18.38
G1X18.95Y18.35
G1X18.86
G1X18.8Y18.34
G1X18.75Y18.29
G1X18.72Y18.22
G1X18.69Y18.12
G1Y18.05
G1X18.66Y18.02
G1X18.61
G1X18.51Y18
G1X18.4Y17.95
G1X18.31Y17.88
G1X18.27Y17.8
G1X18.3Y17.74
G1X18.37Y17.72
G1X18.41
G1X18.4Y17.69
G1X18.36Y17.65
G1X18.28Y17.6
G1X18.1Y17.52
G1X17.95Y17.5
G1X17.83
G1X17.75Y17.47
G1X17.71Y17.41
G1Y17.34
G1X17.72Y17.3
G1Y17.28
G1X17.68
G1X17.62
G1X17.53Y17.3
G1X17.49Y17.27
G1X17.53Y17.22
G1X17.63Y17.19
G1X17.74Y17.18
G1X17.82Y17.21
G1X17.89Y17.24
G1X18Y17.27
G1X18.15Y17.31
G1X18.65Y17.42
G1X18.88Y17.49
G1X19.08Y17.58
G1X19.31Y17.72
G1X19.56Y17.9
G1X19.79Y18.12
G1X20.03Y18.37
G1X20.26Y18.68
G1X20.39Y18.88
G1X20.46Y19.02
G1X20.48Y19.11
G1X20.43Y19.17
G1X20.48
G1X20.51
G1X20.53
G1Y19.21
G1Y19.26
G1X20.52Y19.34
G1X20.54Y19.35
G1X20.56Y19.36
G1X20.6Y19.41
G1X20.64Y19.49
G1X20.68Y19.59
G1X20.79Y20.02
G1X20.83Y20.41
G1X20.82Y20.58
G1X20.79Y20.74
G1X20.74Y20.86
G1X20.67Y20.96
G1X20.62Y21.02
G1Y21.06
G1X20.69Y21.11
G1X20.85Y21.19
G1X21Y21.26
G1X21.19Y21.36
G1X21.39Y21.48
G1X21.6Y21.6
G1X21.78Y21.71
G1X21.93Y21.81
G1X22.04Y21.87
G1X22.12Y21.91
G1X22.2Y21.96
G1X22.3Y22.03
G1X23.18Y22.65
G1X23.49Y22.88
G1X23.72Y23.07
G1X23.8Y23.15
G1X23.85Y23.21
G1X23.88Y23.26
G1X23.89Y23.3
G1Y23.37
G1X23.9Y23.44
G1X23.95Y23.51
G1X24.02Y23.61
G1X24.09Y23.68
G1X24.11Y23.7
G1X24.09Y23.65
G1X23.89Y23.29
G1X24.13Y23.55
G1X24.38Y23.84
G1X24.64Y24.19
G1X24.88Y24.56
G1X25.07Y24.93
G1X25.19Y25.14
G1X25.35Y25.35
G1X25.56Y25.6
G1X26.1Y26.15
G1X26.28Y26.35
G1X26.35Y26.44
G1X26.39Y26.5
G1X26.42Y26.55
G1Y26.58
G1Y26.62
G1Y26.64
G1X26.43Y26.62
G1X26.47Y26.58
G1X26.51Y26.55
G1X26.57
G1X26.65Y26.63
G1X26.79Y26.76
G1X26.98Y27
G1X27.19Y27.32
G1X27.28Y27.47
G1X27.36Y27.62
G1X27.41Y27.73
G1X27.44Y27.84
G1X27.46Y27.91
G1X27.5Y28
G1X27.55Y28.1
G1X27.63Y28.35
G1X27.69Y28.69
G1X27.72Y29.08
G1Y29.51
G1X27.69Y29.96
G1X27.63Y30.41
G1X27.55Y30.84
G1X27.45Y31.22
G1X27.39Y31.41
G1X27.33Y31.55
G1X27.28Y31.67
G1X27.23Y31.75
G1X27.19Y31.8
G1X27.14Y31.82
G1X27.1
G1X27.05Y31.79
G1X27.03Y31.75
G1X27.02Y31.68
G1X27Y31.57
G1Y31.42
G1X26.99Y31.22
G1Y30.96
G1X26.98Y30.65
G1Y28.84
G1X26.68Y28.32
G1X26.47Y27.96
G1X26.28Y27.67
G1X26.2Y27.56
G1X26.13Y27.48
G1X26.07Y27.42
G1X25.95Y27.33
G1X25.84Y27.24
G1X25.74Y27.15
G1X25.67Y27.08
G1X25.61Y27.05
G1X25.58
G1X25.55Y27.09
G1X25.54Y27.17
G1Y27.29
G1X25.53Y27.45
G1X25.51Y27.77
G1X25.48Y28.01
G1X25.44Y28.16
G1X25.39Y28.24
G1X25.34
G1X25.28Y28.15
G1X25.21Y27.97
G1X25.15Y27.71
G1X25.07Y27.39
G1X24.99Y27.1
G1X24.95Y26.98
G1X24.92Y26.89
G1X24.89Y26.84
G1X24.88Y26.82
G1Y26.85
G1X24.86Y26.92
G1Y27.15
G1X24.84Y27.49
G1X24.82Y28.28
G1X24.8Y28.6
G1X24.78Y28.86
G1X24.75Y29.08
G1X24.72Y29.24
G1X24.69Y29.35
G1X24.65Y29.4
G1X24.6
G1X24.58Y29.35
G1X24.56Y29.22
G1Y29.02
G1X24.57Y28.75
G1Y28.57
G1X24.58Y28.43
G1Y28.33
G1Y28.25
G1X24.56Y28.17
G1X24.52Y28.16
G1X24.48
G1X24.45
G1X24.44Y28.12
G1Y28.07
G1X24.46Y27.99
G1X24.52Y27.95
G1X24.59Y27.93
G1X24.61Y27.87
G1X24.59Y27.8
G1X24.55Y27.78
G1X24.52Y27.76
G1X24.51Y27.71
G1Y27.63
G1Y27.51
G1X24.55Y27.23
G1X24.58Y26.95
G1X24.6Y26.8
G1X24.62Y26.71
G1X24.67Y26.66
G1X24.76Y26.65
G1X24.86Y26.63
G1X24.9Y26.58
G1Y26.53
G1X24.88Y26.45
G1X24.81Y26.18
G1X24.76Y26.02
G1X24.71Y25.9
G1X24.66Y25.83
G1X24.61Y25.81
G1X24.56Y25.78
G1X24.55Y25.72
G1X24.57Y25.55
G1X24.54Y25.38
G1X24.46Y25.2
G1X24.33Y24.99
G1X23.92Y24.41
G1X23.71Y24.16
G1X23.47Y23.94
G1X23.19Y23.71
G1X22.88Y23.44
G1X22.74Y23.32
G1X22.6Y23.21
G1X22.47Y23.12
G1X22.2Y22.97
G1X22.07Y22.86
G1X21.95Y22.73
G1X22.13Y22.76
G1X22.23Y22.78
G1X22.25Y22.77
G1X22.22Y22.74
G1X22.16Y22.69
G1X21.94Y22.54
G1X21.72Y22.38
G1X21.56Y22.25
G1X21.48Y22.15
G1Y22.1
G1X21.53
G1X21.59Y22.12
G1X21.68Y22.15
G1X21.77Y22.21
G1X21.95Y22.31
G1X22.08Y22.35
G1X22.13Y22.36
G1Y22.4
G1X22.15Y22.44
G1X22.23Y22.48
G1X22.26
G1X22.25Y22.43
G1X22.19Y22.36
G1X22.1Y22.27
G1X21.87Y22.07
G1X21.63Y21.92
G1X21.47Y21.83
G1X21.34Y21.75
G1X21.26Y21.71
G1X21.14Y21.65
G1X21Y21.58
G1X20.86Y21.5
G1X20.74Y21.43
G1X20.66Y21.36
G1X20.56Y21.23
G1X20.35Y21.09
G1X20.33Y21.03
G1Y21
G1X20.28Y21.01
G1X20.17Y21
G1X20.05Y20.91
G1X19.92Y20.82
G1X19.82Y20.78
G1X19.76Y20.76
G1X19.74Y20.72
G1X19.73Y20.7
G1X19.68Y20.68
G1X19.61Y20.66
G1X19.51Y20.65
G1X19.32Y20.62
G1X19.19Y20.57
G1X19.12Y20.54
G1X19.11Y20.56
G1X19.14Y20.63
G1X19.21Y20.7
G1X19.34Y20.78
G1X19.49Y20.83
G1X19.67Y20.91
G1X19.91Y21.06
G1X20.18Y21.26
G1X20.44Y21.49
G1X20.68Y21.71
G1X20.87Y21.91
G1X20.93Y22
G1X20.96Y22.06
G1X20.97Y22.11
G1X20.95Y22.13
G1X20.93Y22.16
G1Y22.2
G1X20.95Y22.27
G1X21.01Y22.36
G1X21.09Y22.51
G1X21.1Y22.6
G1Y22.62
G1X21.13Y22.63
G1X21.18Y22.65
G1X21.25Y22.7
G1X21.34Y22.79
G1X21.46Y22.9
G1X21.6Y23.04
G1X21.76Y23.2
G1X21.93Y23.39
G1X22.13Y23.61
G1X22.24Y23.73
G1X22.33Y23.84
G1X22.4Y23.93
G1X22.45Y24
G1X22.49Y24.09
G1X22.46Y24.12
G1X22.41Y24.09
G1X22.33Y24.01
G1X22.22Y23.9
G1X22.1Y23.76
G1X21.8Y23.43
G1X21.49Y23.14
G1X21.35Y23.03
G1X21.23Y22.95
G1X21.13Y22.9
G1X21.08
G1X21.05Y22.92
G1Y22.94
G1Y22.96
G1X21.09Y22.98
G1X21.15Y23.09
G1X21.16Y23.27
G1X21.15Y23.48
G1X21.09Y23.65
G1X21.01Y23.74
G1X20.9Y23.78
G1X20.86Y23.76
G1X20.81Y23.72
G1X20.77Y23.66
G1X20.73Y23.57
G1X20.64Y23.33
G1X20.58Y23.02
G1X20.51Y22.82
G1X20.39Y22.64
G1X20.29Y22.51
G1X20.21Y22.35
G1X20.13Y22.26
G1X20.05Y22.17
G1Y22.1
G1Y22.07
G1X20.04
G1X20
G1X19.93Y22.05
G1X19.85Y22.01
G1X19.76Y21.95
G1X19.54Y21.8
G1X19.23Y21.64
G1X18.86Y21.46
G1X18.46Y21.29
G1X18.29Y21.2
G1X18.22Y21.14
G1Y21.11
G1X18.24Y21.1
G1X18.29
G1X18.37
G1X18.63Y21.18
G1X18.91Y21.27
G1X19.03Y21.32
G1X19.13Y21.37
G1X19.2Y21.41
G1X19.23Y21.44
G1X19.25Y21.48
G1X19.36Y21.51
G1X19.44Y21.54
G1X19.53Y21.6
G1X19.73Y21.72
G1X19.8Y21.76
G1X19.84
G1Y21.75
G1X19.81Y21.69
G1X19.76Y21.66
G1X19.7Y21.61
G1X19.56Y21.42
G1X19.5Y21.35
G1X19.42Y21.31
G1X19.2Y21.22
G1X19.15Y21.17
G1X19.14Y21.14
G1X19.11Y21.11
G1X19.04Y21.07
G1X18.95Y21.02
G1X18.82Y20.96
G1X18.66Y20.88
G1X18.45Y20.78
G1X18.21Y20.67
G1X17.95Y20.57
G1X17.75Y20.5
G1X17.68Y20.48
G1X17.64
G1X17.66Y20.51
G1X17.72Y20.57
G1X17.7Y20.63
G1X17.62Y20.66
G1X17.49
G1X17.31Y20.64
G1X17.11Y20.66
G1X16.95Y20.7
G1X16.89Y20.75
G1X16.93Y20.8
G1X17.03Y20.86
G1X17.15Y20.91
G1X17.28Y20.94
G1X17.34Y20.96
G1X17.41Y20.99
G1X17.55Y21.03
G1X17.79Y21.04
G1X17.9Y21.05
G1X18Y21.06
G1X18.06Y21.08
G1X18.09Y21.11
G1X18.06Y21.12
G1X17.97Y21.14
G1X17.84
G1X17.7
G1X17.39Y21.11
G1X17.18Y21.07
G1X17.13Y21.05
G1X17.11
G1Y21.09
G1Y21.16
G1X17.17Y21.29
G1X17.24Y21.42
G1X17.29Y21.54
G1Y21.64
G1X17.28Y21.69
G1X17.3
G1X17.36Y21.72
G1X17.42Y21.81
G1X17.47Y21.93
G1X17.49Y22.01
G1X17.47Y22.04
G1X17.43
G1X17.4
G1Y22.09
G1X17.45Y22.14
G1X17.51Y22.16
G1X17.55Y22.19
G1X17.58Y22.27
G1X17.61Y22.4
G1X17.62Y22.57
G1Y22.98
G1X17.59Y23.44
G1X17.55Y23.93
G1X17.53Y24.35
G1Y24.59
G1Y24.77
G1X17.49Y24.9
G1X17.45Y24.97
G1X17.4Y24.99
G1X17.33Y24.94
G1X17.25Y24.85
G1X17.16Y24.69
G1X17.09Y24.52
G1X17.05Y24.36
G1X17.04Y24.16
G1Y23.87
G1Y23.4
G1X17Y22.93
G1X16.97Y22.71
G1X16.93Y22.51
G1X16.88Y22.33
G1X16.78Y22.09
G1X16.76Y21.99
G1X16.74Y21.92
G1X16.75Y21.87
G1X16.77Y21.84
G1X16.74
G1X16.72
G1X16.67Y21.81
G1X16.6Y21.74
G1X16.51Y21.62
G1X16.38Y21.47
G1X16.22Y21.26
G1X16.02Y21
G1X15.78Y20.69
G1X15.52Y20.35
G1X15.48Y20.28
G1X15.45Y20.23
G1X15.44Y20.2
G1X15.53Y20.15
G1X15.6Y20.02
G1X15.65Y19.91
G1Y19.84
G1X15.61
G1X15.53Y19.9
G1X15.49Y19.96
G1Y20.03
G1Y20.08
G1X15.43Y20.1
G1X15.39
G1X15.37Y20.08
G1X15.36Y20.04
G1Y20
G1X15.37Y19.92
G1X15.34Y19.89
G1X15.3Y19.91
G1Y19.94
G1Y19.99
G1X15.22Y20.03
G1X15.11Y20.04
G1X15Y20.03
G1X14.87Y19.96
G1X14.74Y19.88
G1X14.67Y19.81
G1Y19.78
G1X14.73Y19.77
G1Y19.75
G1X14.69
G1X14.59Y19.77
G1X14.45Y19.8
G1X14.05Y19.9
G1X13.87Y19.92
G1X13.69
G1X13.47Y19.89
G1X13.33Y19.86
G1X13.21Y19.83
G1X13.13Y19.79
G1X13.06Y19.75
G1X13.03Y19.71
G1Y19.66
G1Y19.6
G1X13.08Y19.54
G1X13.11Y19.51
G1Y19.5
G1X13.06Y19.53
G1X12.99Y19.58
G1X12.94Y19.6
G1X12.85Y19.61
G1X12.78Y19.66
G1X12.72Y19.71
G1X12.7Y19.77
G1Y19.81
G1X12.71Y19.83
G1X12.73Y19.82
G1X12.75Y19.79
G1X12.81Y19.75
G1X12.9
G1X12.97Y19.78
G1X13Y19.84
G1X12.93Y19.92
G1X12.77Y20.02
G1X12.58Y20.09
G1X12.43Y20.11
G1X12.33
G1X12.28Y20.13
G1X12.26Y20.16
G1X12.17Y20.19
G1X12.1Y20.23
G1X12.01Y20.29
G1X11.81Y20.43
G1X11.73Y20.49
G1X11.67Y20.52
G1X11.65
G1X11.62
G1X11.58Y20.54
G1X11.57Y20.57
G1X11.67Y20.53
G1Y20.57
G1X11.61Y20.67
G1X11.3Y21.06
G1X11.15Y21.29
G1X11.02Y21.52
G1X10.93Y21.76
G1X10.85Y22.03
G1X10.79Y22.32
G1X10.75Y22.65
G1X10.73Y23.04
G1X10.71Y23.37
G1X10.68Y23.65
G1Y23.77
G1X10.66Y23.94
G1X10.65Y23.98
G1X10.62Y24.07
G1Y24.14
G1X10.59Y24.16
G1X10.5Y24.13
G1X10.51Y24.17
G1Y24.23
G1Y24.32
G1X10.46Y24.43
G1X10.4Y24.56
G1X10.34Y24.67
G1X10.27Y24.77
G1X10.21Y24.84
G1X10.15Y24.86
G1X10.12
G1X10.1Y24.84
G1X10.09Y24.79
G1X10.08Y24.71
G1Y24.58
G1Y24.41
G1Y24.18
G1X10.09Y23.88
G1X10.11Y23.48
G1X10.13Y23.13
G1X10.14Y22.99
G1X10.16Y22.78
G1Y22.73
G1X10.2Y22.42
G1Y22.03
G1X10.19Y21.84
G1X10.17Y21.66
G1X10.15Y21.52
G1X10.13Y21.43
G1X10.03Y21.29
G1X9.89Y21.19
G1X9.81Y21.16
G1X9.78Y21.14
G1X9.8Y21.12
G1X9.91Y21.07
G1X9.93Y21.05
G1Y21.03
G1X9.89Y21.01
G1X9.82Y21
G1X9.76Y21.06
G1X9.68Y21.12
G1X9.57Y21.15
G1X9.48Y21.16
G1X9.34Y21.2
G1X9.17Y21.26
G1X8.99Y21.32
G1X8.81Y21.4
G1X8.65Y21.47
G1X8.52Y21.53
G1X8.44Y21.59
G1X8.31Y21.66
G1X8.14Y21.7
G1X7.98Y21.75
G1X7.81Y21.86
G1X7.67Y21.98
G1X7.61Y22.09
G1X7.63
G1X7.66Y22.08
G1X7.71Y22.04
G1X7.78Y21.97
G1X7.91Y21.85
G1X8.03Y21.77
G1X8.12Y21.74
G1X8.15Y21.78
G1X8.14Y21.82
G1X8.06Y21.85
G1X7.99Y21.9
G1X7.91Y21.97
G1X7.81Y22.05
G1X7.58Y22.26
G1X7.36Y22.42
G1X7.27Y22.48
G1X7.19Y22.52
G1X7.14Y22.54
G1X7.11
G1X7.08Y22.52
G1Y22.55
G1X7.05Y22.65
G1X6.94Y22.81
G1X6.82Y22.97
G1X6.78Y23.08
G1X6.76Y23.14
G1X6.72Y23.24
G1X6.66Y23.36
G1X6.58Y23.49
G1X6.5Y23.62
G1X6.43Y23.74
G1X6.36Y23.83
G1X6.31Y23.88
G1X6.2Y23.92
G1X6.12Y23.88
G1X6.08Y23.75
G1Y23.57
G1Y23.47
G1Y23.39
G1Y23.34
G1X6.06Y23.32
G1X6.01Y23.34
G1X5.98Y23.42
G1X5.93Y23.49
G1X5.85Y23.59
G1X5.76Y23.7
G1X5.52Y23.98
G1X5.33Y24.21
G1X5.18Y24.41
G1X5.05Y24.59
G1X4.87Y24.9
G1X4.74Y25.22
G1X4.69Y25.37
G1X4.64Y25.49
G1X4.59Y25.58
G1X4.56Y25.61
G1X4.53Y25.63
G1X4.49Y25.69
G1X4.45Y25.77
G1X4.32Y26.09
G1X4.25Y26.2
G1X4.23Y26.25
G1X4.22Y26.34
G1X4.21Y26.46
G1Y26.59
G1Y26.78
G1X4.25Y26.96
G1X4.29Y27.06
G1X4.34Y27.18
G1X4.41Y27.32
G1X4.62Y27.75
G1X4.73Y27.98
G1X4.82Y28.17
G1X4.89Y28.34
G1X4.99Y28.62
G1X5.07Y28.91
G1X5.12Y29.24
G1X5.15Y29.6
G1Y29.76
G1Y29.89
G1Y29.98
G1X5.13Y30.01
G1X5.12Y29.98
G1X5.1Y29.92
G1X5.07Y29.82
G1X5Y29.54
G1X4.96Y29.44
G1X4.91Y29.39
G1X4.85Y29.38
G1X4.73Y29.35
G1X4.62Y29.29
G1X4.55Y29.21
G1X4.53Y29.08
G1X4.49Y29.01
G1X4.43Y28.93
G1X4.35Y28.83
G1X4.27Y28.74
G1X4.2Y28.66
G1X4.16Y28.59
G1X4.14Y28.56
G1X4.11Y28.5
G1X4.04Y28.44
G1X3.97Y28.36
G1X3.94Y28.26
G1X3.91Y28.14
G1X3.85Y27.99
G1X3.81Y27.86
G1Y27.79
G1X3.78Y27.76
G1X3.67Y27.74
G1X3.58
G1Y27.76
G1X3.64Y27.81
G1X3.66Y27.88
G1Y27.93
G1Y27.94
G1X3.63
G1X3.58Y27.87
G1X3.56Y27.85
G1X3.54Y27.86
G1X3.51Y27.9
G1X3.5Y27.96
G1X3.54Y28
G1X3.56Y28.01
G1Y28.03
G1X3.55Y28.06
G1X3.46Y28.14
G1X3.44Y28.17
G1Y28.2
G1X3.47Y28.22
G1X3.52Y28.26
G1X3.54Y28.33
G1X3.53Y28.38
G1X3.48Y28.39
G1X3.42Y28.41
G1X3.38Y28.46
G1Y28.51
G1X3.47Y28.49
G1X3.48Y28.53
G1X3.46Y28.6
G1X3.39Y28.67
G1X3.33Y28.79
G1X3.3Y28.94
G1Y29.02
G1X3.32Y29.07
G1X3.34
G1X3.36Y29.04
G1X3.39Y29.01
G1X3.41Y29.04
G1Y29.11
G1X3.42Y29.24
G1Y29.36
G1X3.41Y29.44
G1X3.39Y29.46
G1X3.36Y29.44
G1X3.34Y29.4
G1X3.32
G1X3.31Y29.44
G1Y29.51
G1Y29.58
G1X3.32Y29.62
G1X3.34Y29.64
G1X3.38
G1X3.41Y29.62
G1X3.42
G1Y29.63
G1X3.38Y29.67
G1X3.33Y29.75
G1X3.31Y29.83
G1Y29.88
G1X3.32
G1X3.35
G1X3.39Y29.82
G1X3.43Y29.78
G1X3.46
G1X3.5Y29.84
G1X3.54Y29.96
G1X3.58Y30.13
G1Y30.22
G1X3.55Y30.2
G1X3.51Y30.13
G1X3.46Y30.02
G1X3.41Y30.01
G1X3.38Y30.08
G1X3.39Y30.21
G1X3.41Y30.32
G1Y30.38
G1X3.38Y30.4
G1X3.32
G1X3.22
G1X3.14Y30.43
G1X3.11Y30.44
G1X3.09
G1Y30.42
G1X3.12Y30.33
G1Y30.31
G1X3.1
G1X3.05Y30.33
G1X3.03
G1Y30.3
G1X3.04Y30.26
G1X3.06Y30.22
G1X3.08Y30.2
G1X3.11Y30.21
G1X3.16Y30.28
G1X3.17
G1Y30.26
G1X3.13Y30.12
G1Y30.05
G1X3.1
G1X3.03Y30.12
G1X3Y30.18
G1X2.97Y30.21
G1X2.96Y30.23
G1X2.95Y30.21
G1X2.97Y30.13
G1X3.06Y29.9
G1X3.08Y29.84
G1Y29.8
G1X3.06Y29.78
G1X3.01Y29.82
G1X2.97Y29.93
G1X2.94Y30
G1X2.92Y30.04
G1X2.9Y30.03
G1X2.87Y29.98
G1X2.84Y29.89
G1Y29.81
G1Y29.75
G1X2.79Y29.71
G1X2.8Y29.68
G1X2.84Y29.64
G1X2.97Y29.53
G1X3.01Y29.47
G1Y29.41
G1Y29.35
G1X2.97Y29.29
G1X2.96Y29.27
G1Y29.3
G1X2.95Y29.36
G1X2.91Y29.47
G1X2.83Y29.55
G1X2.75Y29.57
G1X2.68Y29.52
G1Y29.45
G1X2.72Y29.4
G1X2.75
G1X2.72Y29.48
G1X2.76
G1X2.8Y29.42
G1X2.79Y29.37
G1X2.74Y29.34
G1X2.6
G1X2.55Y29.31
G1X2.54Y29.28
G1X2.63Y29.3
G1X2.67Y29.28
G1X2.66Y29.25
G1X2.59Y29.23
G1X2.44Y29.22
G1X2.2Y29.21
G1X2.11Y29.22
G1X2.06Y29.26
G1X2.03Y29.3
G1X1.94Y29.29
G1X1.93Y29.32
G1X1.91Y29.36
G1X1.86Y29.35
G1X1.82Y29.33
G1Y29.37
G1Y29.44
G1X1.74Y29.51
G1X1.69Y29.55
G1X1.67Y29.58
G1Y29.61
G1X1.7Y29.63
G1X1.73Y29.65
G1X1.67Y29.66
G1X1.6Y29.68
G1X1.57Y29.72
G1Y29.76
G1X1.63Y29.78
G1X1.67Y29.83
G1Y29.94
G1Y30.01
G1Y30.04
G1X1.66Y30.03
G1X1.65Y29.97
G1X1.61Y29.87
G1X1.56Y29.84
G1X1.54Y29.88
G1X1.53Y30
G1Y30.18
G1Y30.41
G1Y30.59
G1Y30.74
G1X1.55Y30.85
G1X1.57Y30.93
G1X1.58Y30.97
G1X1.6Y30.98
G1X1.62Y30.95
G1X1.66Y30.85
G1Y30.88
G1Y30.93
G1Y31.03
G1X1.62Y31.06
G1X1.58Y31.07
G1X1.54Y31.13
G1X1.52Y31.2
G1Y31.25
G1X1.56Y31.24
G1X1.62
G1X1.66Y31.27
G1X1.68Y31.31
G1X1.59Y31.29
G1X1.57Y31.31
G1X1.56Y31.35
G1Y31.42
G1X1.63Y31.58
G1X1.74Y31.73
G1X1.8Y31.79
G1X1.85Y31.85
G1Y31.89
G1Y31.91
G1X1.83Y31.95
G1X1.89Y32.02
G1X1.96Y32.12
G1X1.98Y32.24
G1X1.95Y32.32
G1X1.9Y32.38
G1X1.85Y32.4
G1X1.79Y32.38
G1X1.78Y32.33
G1X1.79Y32.22
G1Y32.19
G1X1.75Y32.16
G1X1.7Y32.14
G1X1.61Y32.1
G1X1.57Y32.06
G1X1.59Y32.03
G1X1.64Y32.04
G1X1.66
G1X1.63Y32
G1X1.58Y31.96
G1X1.5Y31.86
G1X1.45Y31.78
G1X1.46Y31.74
G1X1.52Y31.75
G1X1.54
G1X1.48Y31.7
G1X1.42Y31.64
G1X1.44Y31.61
G1X1.49Y31.59
G1X1.51Y31.55
G1X1.48Y31.51
G1X1.41Y31.49
G1X1.36
G1X1.34
G1Y31.46
G1X1.38Y31.43
G1X1.43Y31.36
G1X1.45Y31.31
G1X1.42Y31.28
G1X1.36
G1X1.29
G1X1.27Y31.23
G1X1.29Y31.18
G1X1.33
G1X1.37
G1X1.39Y31.16
G1X1.36Y31.1
G1X1.23Y31
G1X1.25Y30.98
G1X1.31Y30.95
G1X1.33Y30.89
G1X1.3Y30.84
G1X1.24Y30.81
G1X1.17Y30.77
G1X1.15Y30.69
G1X1.17Y30.62
G1X1.21Y30.61
G1X1.23
G1X1.25Y30.56
G1X1.26Y30.49
G1X1.27Y30.28
G1X1.29Y30.2
G1X1.31Y30.14
G1X1.33Y30.12
G1X1.37Y30.11
G1X1.39Y30.07
G1X1.36Y30.04
G1X1.31
G1X1.24Y30.03
G1X1.19Y29.96
G1X1.18Y29.87
G1X1.21Y29.81
G1X1.25Y29.76
G1X1.27Y29.69
G1X1.25Y29.64
G1X1.22Y29.63
G1X1.19
G1X1.17Y29.6
G1Y29.55
G1Y29.48
G1X1.18Y29.32
G1X1.24Y29.19
G1X1.29Y29.09
G1Y29.03
G1X1.23Y28.99
G1X1.04Y28.97
G1X1.01Y28.96
G1X1Y28.93
G1X1.02Y28.88
G1X1.07Y28.83
G1X1.15Y28.77
G1X1.25Y28.7
G1X1.38Y28.62
G1X1.64Y28.45
G1X1.8Y28.29
G1X1.83Y28.23
G1Y28.22
G1X1.78Y28.26
G1X1.67Y28.35
G1X1.58Y28.42
G1X1.51Y28.47
G1X1.47Y28.49
G1X1.45Y28.47
G1X1.43Y28.43
G1X1.38Y28.44
G1X1.35Y28.48
G1X1.39Y28.52
G1X1.42Y28.54
G1Y28.56
G1X1.41Y28.58
G1X1.37Y28.6
G1X1.31
G1X1.29Y28.55
G1X1.33Y28.46
G1X1.41Y28.36
G1X1.48Y28.28
G1X1.53Y28.17
G1X1.59Y28.08
G1X1.68Y27.95
G1X1.92Y27.63
G1X2.01Y27.5
G1X2.08Y27.39
G1X2.12Y27.32
G1X2.13Y27.26
G1Y27.23
G1X2.1
G1X1.99Y27.24
G1X1.95
G1X1.9Y27.2
G1X1.87Y27.15
G1X1.83Y27.05
G1Y26.99
G1X1.89Y26.95
G1X1.97
G1X2.02Y26.97
G1X2.04
G1X2.03Y26.96
G1X1.99Y26.93
G1X1.95Y26.89
G1Y26.82
G1X1.98Y26.72
G1X2.17Y26.38
G1X2.21Y26.25
G1Y26.13
G1X2.17Y25.95
G1X2.13Y25.71
G1X2.11Y25.43
G1X2.12Y25.12
G1X2.16Y24.79
G1X2.21Y24.47
G1X2.28Y24.16
G1X2.37Y23.88
G1X2.47Y23.65
G1X2.56Y23.5
G1X2.67Y23.36
G1X2.74Y23.27
G1X2.84Y23.16
G1X3.12Y22.85
G1X3.23Y22.75
G1X3.42Y22.61
G1X3.66Y22.44
G1X3.94Y22.24
G1X4.56Y21.85
G1X5.11Y21.53
G1X5.26Y21.46
G1X5.47Y21.38
G1X5.71Y21.3
G1X5.95Y21.23
G1X6.22Y21.14
G1X6.57Y21.02
G1X6.93Y20.87
G1X7.27Y20.72
G1X7.57Y20.58
G1X7.81Y20.47
G1X7.9Y20.44
G1X7.97Y20.41
G1X8.02Y20.4
G1X8.03
G1X8Y20.45
G1X7.91Y20.49
G1X7.83Y20.53
G1X7.81Y20.56
G1X7.89
G1X8.05Y20.5
G1X8.15Y20.46
G1X8.23Y20.45
G1X8.29
G1X8.33Y20.48
G1X8.38Y20.52
G1Y20.48
G1X8.39Y20.42
G1X8.5Y20.36
G1X8.77Y20.27
G1X9Y20.21
G1X9.17Y20.19
G1X9.29
G1X9.36Y20.2
G1X9.38Y20.18
G1Y20.15
G1X9.44Y20.12
G1X9.51Y20.08
G1X9.6Y20.04
G1X9.79Y19.99
G1X9.91
G1X9.94
G1Y19.97
G1Y19.93
G1X9.99Y19.88
G1X10.08Y19.82
G1X10.18Y19.76
G1X10.29Y19.71
G1X10.4Y19.67
G1X10.49Y19.65
G1X10.54Y19.66
G1X10.59Y19.71
G1X10.58Y19.77
G1X10.55Y19.8
G1X10.53Y19.81
G1X10.49
G1X10.45Y19.77
G1X10.4Y19.75
G1X10.35Y19.74
G1X10.29Y19.76
G1X10.22Y19.8
G1X10.11Y19.87
G1X10.07Y19.92
G1X10.1
G1X10.19Y19.89
G1X10.32Y19.85
G1X10.53
G1X10.6Y19.81
G1X10.63Y19.74
G1X10.65Y19.65
G1X10.63Y19.59
G1X10.6
G1X10.55Y19.6
G1X10.56Y19.57
G1X10.64Y19.5
G1X10.76Y19.39
G1X10.85Y19.32
G1X10.91Y19.28
G1X10.94
G1Y19.3
G1X10.93Y19.35
G1X10.96Y19.33
G1X11.02Y19.28
G1X11.1Y19.19
G1X11.14Y19.13
G1Y19.1
G1X11.09Y19.12
G1X11.05
G1X11.06Y19.07
G1Y19
G1X11.03Y18.98
G1X10.98Y19.01
G1X10.96Y19.08
G1Y19.1
G1X10.94
G1X10.93Y19.06
G1X10.91Y19.01
G1X10.89Y18.92
G1X10.85Y18.86
G1X10.78Y18.84
G1X10.68Y18.83
G1X10.53
G1X10.45Y18.87
G1Y18.91
G1X10.47
G1X10.51Y18.94
G1X10.53Y19
G1X10.51Y19.05
G1X10.43Y19.06
G1X10.33Y19.1
G1X10.19Y19.16
G1X9.84Y19.32
G1X9.7Y19.37
G1X9.61Y19.39
G1X9.56Y19.37
G1X9.53Y19.33
G1X9.58Y19.34
G1X9.62Y19.36
G1X9.64Y19.34
G1Y19.31
G1X9.68Y19.25
G1X9.74Y19.18
G1X9.89Y19.03
G1X9.95Y18.96
G1X9.99Y18.91
G1X10.01Y18.88
G1X9.99
G1X9.93Y18.92
G1X9.84Y19
G1X9.73Y19.1
G1X9.62Y19.21
G1X9.54Y19.32
G1X9.49Y19.4
G1X9.48Y19.46
G1X9.51Y19.5
G1X9.58
G1X9.64Y19.48
G1X9.72Y19.45
G1X9.83Y19.4
G1X9.96Y19.33
G1X10.14Y19.25
G1X10.29Y19.19
G1X10.39Y19.16
G1X10.43
G1X10.38Y19.21
G1X10.26Y19.28
G1X10.09Y19.37
G1X9.89Y19.45
G1X9.69Y19.53
G1X9.5Y19.59
G1X9.36Y19.63
G1X9.28
G1X9.24
G1X9.23Y19.66
G1X9.2Y19.69
G1X9.14Y19.74
G1X9.04Y19.8
G1X8.92Y19.86
G1X8.75Y19.92
G1X8.6Y19.96
G1X8.44Y19.98
G1X8.27
G1X8.15
G1X8.06
G1X8.02
G1Y19.99
G1X8.04Y20.02
G1X7.98Y20.08
G1X7.87Y20.14
G1X7.72Y20.22
G1X7.56Y20.29
G1X7.39Y20.35
G1X7.24Y20.39
G1X7.13Y20.41
G1X6.95Y20.4
G1X6.82Y20.37
G1X6.75Y20.33
G1Y20.28
G1X6.8Y20.26
G1X6.87Y20.3
G1X6.93Y20.33
G1X6.96Y20.3
G1X6.93Y20.25
G1X6.81Y20.18
G1X6.79Y20.13
G1Y20.05
G1Y19.82
G1Y19.74
G1Y19.7
G1X6.73
G1Y19.63
G1X6.77Y19.5
G1X6.81Y19.33
G1X6.85Y19.2
G1X6.89Y19.15
G1X6.92Y19.13
G1X6.96Y19.08
G1X7Y19
G1X7.05Y18.91
G1X7.12Y18.78
G1X7.23Y18.63
G1X7.37Y18.47
G1X7.54Y18.29
G1X7.91Y17.93
G1X8.3Y17.62
G1X8.59Y17.43
G1X8.87Y17.27
G1X8.99Y17.22
G1X9.1Y17.18
G1X9.17Y17.16
G1X9.21
G1X9.19Y17.2
G1X8.98Y17.28
G1X8.93Y17.32
G1X8.95
G1X9.01
G1X9.1Y17.3
G1X9.2Y17.27
G1X9.3Y17.23
G1X9.39Y17.19
G1X9.45Y17.16
G1X9.47Y17.14
G1X9.44Y17.12
G1X9.36
G1X9.31Y17.14
G1X9.3
G1Y17.13
G1X9.35Y17.1
G1X9.46Y17.05
G1X9.6Y17.04
G1X9.73Y17.05
G1X9.83Y17.1
G1X9.86Y17.14
G1X9.88
G1X9.86Y17.1
G1Y17.07
G1X9.89Y17.05
G1X9.95Y17.04
G1X10.06
G1X10.16
G1X10.24Y17.05
G1X10.29Y17.07
G1X10.31Y17.1
G1X10.28Y17.13
G1X10.22
G1X10.15Y17.12
G1X10.1Y17.15
G1Y17.21
G1X10.19Y17.26
G1X10.3Y17.29
G1X10.4Y17.28
G1X10.45Y17.27
G1X10.48
G1Y17.29
G1Y17.33
G1Y17.43
G1X10.56Y17.53
G1X10.61Y17.57
G1X10.64Y17.58
G1X10.59Y17.45
G1X10.56Y17.35
G1X10.53Y17.26
G1X10.45Y17.18
G1X10.47Y17.13
G1Y17.1
G1X10.44Y17.11
G1X10.38Y17.12
G1X10.37Y17.07
G1X10.41Y16.98
G1X10.49Y16.89
G1X10.57Y16.84
G1X10.61Y16.85
G1X10.62Y16.9
G1X10.67Y16.92
G1X10.71Y16.91
G1Y16.88
G1Y16.8
G1X10.72Y16.74
G1X10.74Y16.71
G1X10.77
G1X10.82
G1X10.88Y16.64
G1X10.94Y16.55
G1X10.96Y16.46
G1X10.94Y16.39
G1X10.88Y16.37
G1X10.83
G1X10.81Y16.47
G1X10.74Y16.55
G1X10.68Y16.6
G1X10.64
G1X10.62Y16.55
G1X10.58Y16.42
G1X10.56Y16.23
G1Y16.06
G1X10.58Y15.99
G1X10.6Y15.94
G1X10.63Y15.91
G1X10.66
G1X10.69Y15.88
G1X10.7Y15.76
G1Y15.56
G1Y15.33
G1X10.68Y15.08
G1X10.65Y14.83
G1X10.62Y14.62
G1X10.59Y14.46
G1X10.54Y14.29
G1X10.52Y14.16
G1Y14.04
G1X10.57Y13.91
G1X10.63Y13.65
G1X10.62Y13.34
G1X10.6Y13.16
G1X10.59Y13
G1Y12.88
G1Y12.78
G1Y12.7
G1X10.6Y12.65
G1X10.62Y12.62
G1X10.64
G1X10.67Y12.57
G1X10.7Y12.46
G1X10.71Y12.28
G1Y12.08
G1X10.72Y11.87
G1Y11.69
G1X10.7Y11.54
G1X10.67Y11.46
G1X10.59Y11.31
G1X10.51Y11.06
G1X10.48Y10.93
G1X10.46Y10.82
G1Y10.73
G1Y10.68
G1X10.48Y10.64
G1X10.44Y10.65
G1X10.42
G1X10.39Y10.61
G1X10.36Y10.54
G1X10.34Y10.44
G1X10.31Y10.32
G1X10.24Y10.15
G1X10.16Y9.97
G1X10.06Y9.78
G1X9.97Y9.62
G1X9.91Y9.49
G1X9.86Y9.4
G1X9.84Y9.33
G1Y9.29
G1X9.86Y9.27
G1X9.9
G1X9.96
G1X10.03Y9.29
G1X10.06
G1X10.05Y9.28
G1X9.99Y9.24
G1X9.93Y9.18
G1X9.89Y9.12
G1Y9.1
G1X9.95Y9.12
G1X9.97
G1Y9.11
G1Y9.06
G1X9.95Y9
G1X9.9Y8.83
G1X9.88Y8.64
G1X9.87Y8.46
G1X9.83Y8.32
G1X9.82Y8.2
G1X9.86Y8.09
G1X9.9Y8.02
G1X9.91Y7.94
G1Y7.85
G1X9.86Y7.62
G1Y7.53
G1Y7.45
G1X9.88Y7.41
G1X9.9Y7.33
G1X9.88Y7.23
G1X9.84Y7.1
G1Y7
G1X9.86Y6.94
G1X9.95Y6.93
G1X9.98Y6.88
G1X10.01Y6.77
G1X10.03Y6.59
G1X10.05Y6.44
G1X10.08Y6.3
G1X10.12Y6.2
G1X10.19Y6.08
G1X10.22Y5.98
G1X10.26Y5.85
G1X10.28Y5.71
G1X10.3Y5.56
G1X10.32Y5.43
G1X10.35Y5.32
G1X10.37Y5.26
G1X10.44Y5.12
G1X10.55Y4.92
G1X10.67Y4.67
G1X10.77Y4.5
G1X10.85Y4.41
G1X10.95Y4.37
G1X10.97Y4.32
G1X11.08Y4
G1X11.25Y3.66
G1X11.28
G1X11.35Y3.75
G1X11.37Y3.74
G1X11.38Y3.7
G1Y3.61
G1X11.42Y3.45
G1X11.5Y3.33
G1X11.59Y3.24
G1X11.62Y3.16
G1X11.67Y3.06
G1X11.93Y2.78
G1X12.01Y2.66
G1X12.07Y2.54
G1X12.17Y2.4
G1X12.23Y2.34
G1X12.28Y2.31
G1X12.31
G1X12.36Y2.36
G1X12.39
G1X12.41Y2.31
G1X12.43Y2.24
G1X12.48Y2.11
G1X12.53Y2.06
G1X12.57Y2.03
G1X12.58Y1.98
G1X12.63Y1.88
G1X12.73Y1.75
G1X12.85Y1.65
G1X12.94Y1.6
G1X12.98Y1.63
G1X12.91Y1.79
G1X12.93Y1.83
G1X12.99Y1.77
G1X13.21Y1.45
G1X13.38Y1.24
G1X13.47Y1.15
G1X13.53Y1.08
G1X13.58Y1.04
G1X13.6
G1X13.57Y1.12
G1X13.5Y1.24
G1X13.41Y1.4
G1X13.53Y1.26
G1X13.62Y1.15
G1X13.66Y1.08
G1X13.69Y1.04
G1X13.77Y0.99
G1X13.84Y0.95
G1X13.87Y0.96
G1Y1.03
G1X13.86Y1.28
G1Y1.34
G1X13.88Y1.33
G1X13.91Y1.27
G1X13.95Y1.21
G1X13.99Y1.17
G1X14.05Y1.16
G1X14.1
G1X14.17Y1.17
G1X14.2Y1.21
G1X14.22Y1.3
G1Y1.52
G1Y1.59
G1X14.23Y1.62
G1X14.24
G1X14.28Y1.56
G1X14.34Y1.55
G1X14.41Y1.57
G1X14.48Y1.64
G1X14.53Y1.7
G1X14.55Y1.71
G1Y1.7
G1X14.53Y1.64
G1Y1.58
G1X14.54Y1.55
G1X14.58
G1X14.63Y1.57
G1Y1.61
G1Y1.68
G1X14.61Y1.78
G1X14.58Y1.9
G1X14.52Y2.18
G1X14.49Y2.43
G1X14.45Y2.64
G1X14.36Y2.81
G1X14.32Y2.85
G1X14.29Y2.89
G1X14.28
G1Y2.82
G1X14.25Y2.74
G1X14.23Y2.71
G1X14.21
G1X14.2Y2.75
G1Y2.83
G1Y2.97
G1Y3.06
G1X14.22Y3.15
G1X14.27Y3.51
G1X14.32Y3.82
G1X14.35Y4
G1Y4.12
G1Y4.2
G1X14.32Y4.25
G1X14.28Y4.27
G1X14.27
G1Y4.23
G1X14.3Y4.07
G1Y4.02
G1X14.26
G1X14.11Y4.04
G1X14.18Y3.97
G1X14.2Y3.88
G1Y3.82
G1X14.18Y3.8
G1X14.15
G1X14.1Y3.85
G1X14.02Y3.92
G1X13.94Y3.94
G1X13.9
G1X13.95Y3.9
G1X13.98Y3.84
G1Y3.76
G1X13.95Y3.69
G1X13.89Y3.66
G1X13.84Y3.68
G1X13.8Y3.74
G1X13.75Y3.8
G1X13.67Y3.83
G1X13.64
G1X13.63Y3.85
G1X13.65Y3.88
G1X13.71Y3.94
G1X13.77Y4
G1X13.81Y4.08
G1X13.83Y4.18
G1Y4.31
G1Y4.41
G1Y4.5
G1X13.8Y4.55
G1X13.77Y4.57
G1X13.73Y4.53
G1X13.74Y4.42
G1X13.76Y4.35
G1Y4.31
G1X13.75
G1X13.72Y4.34
G1X13.68Y4.44
G1X13.66Y4.56
G1X13.67Y4.65
G1X13.71Y4.66
G1X13.79Y4.65
G1X13.87Y4.67
G1X13.93Y4.72
G1X13.96Y4.78
G1X13.92Y4.84
G1X13.8Y4.86
G1X13.72
G1X13.68Y4.87
G1Y4.9
G1X13.73Y4.95
G1X13.76Y5.02
G1X13.78Y5.11
G1X13.8Y5.25
G1Y5.41
G1Y5.6
G1Y5.71
G1X13.84Y5.76
G1X13.89Y5.77
G1X13.94
G1X13.95Y5.78
G1Y5.8
G1X13.86Y5.86
G1X13.85Y5.88
G1X13.86Y5.9
G1X13.91Y5.92
G1X13.99Y5.99
G1X14.05Y6.12
G1X14.1Y6.25
G1X14.19Y6.38
G1X14.28Y6.48
G1X14.37Y6.52
G1X14.42Y6.55
G1X14.46Y6.73
G1X14.52Y6.81
G1X14.58Y6.89
G1X14.63Y6.97
G1X14.65Y7.01
G1X14.66Y7.02
G1Y7
G1X14.67Y6.96
G1X14.69Y6.89
G1X14.74Y6.86
G1X14.78Y6.88
G1X14.77Y7
G1X14.8Y7.03
G1X14.84Y7.07
G1X14.85Y7.16
G1Y7.29
G1Y7.37
G1X14.87Y7.41
G1X14.91
G1X14.97
G1X15.03Y7.47
G1X15.1Y7.6
G1X15.17Y7.82
G1X15.27Y8.06
G1X15.36Y8.21
G1X15.43Y8.33
G1X15.45Y8.49
G1X15.46Y8.59
G1X15.48Y8.65
G1X15.53Y8.68
G1X15.71Y8.72
G1X15.76Y8.76
G1X15.8Y8.86
G1X15.83Y9.14
G1X15.85Y9.22
G1Y9.25
G1X15.86Y9.23
G1X15.87Y9.17
G1X15.89Y9.15
G1X15.92Y9.17
G1X15.98Y9.22
G1X16.03Y9.28
G1X16.05Y9.32
G1X16.03Y9.35
G1X15.98Y9.4
G1X15.9Y9.46
G1X15.87Y9.52
M5
G0X16.24Y9.44
M3 S30
; Layer C00
G1X16.18Y9.34
G1X16.13Y9.21
G1X16.12Y9.09
G1Y9.01
G1X16.17Y8.97
G1X16.23Y9.01
G1X16.29Y9.12
G1X16.34Y9.25
G1X16.35Y9.38
G1X16.34Y9.46
G1X16.3Y9.48
G1X16.24Y9.44
M5
G0X26.23Y11.32
M3 S30
; Layer C00
G1X26.29Y11.28
G1X26.44Y11.26
G1X26.59Y11.28
G1X26.65Y11.32
G1X26.59Y11.36
G1X26.44Y11.37
G1X26.29Y11.36
G1X26.23Y11.32
M9
G1S0
M5
G90
; return to user-defined finish pos
G0 X0 Y0
M2
