; LightBurn 0.9.24
; GRBL device profile, absolute coords
; Bounds: X3.56 Y5.33 to X31.65 Y20.7
G00 G17 G40 G21 G54
G90
M4
; Cut @ 6000 mm/min, 20% power
M8
M5
G0X7.03Y7.63
M3 S30
; Layer C00
G1X7.09Y7.64S20F6000
G1X7.14Y7.68
G1X7.16Y7.72
G1X7.14Y7.74
G1X7.09
G1X7.03Y7.73
G1X7.01Y7.67
G1X7.03Y7.63
M5
G0X6.11Y8.1
M3 S30
; Layer C00
G1X6.13Y8.14
G1X6.11Y8.16
G1X6.06
G1X6.01Y8.15
G1X5.99Y8.09
G1X6.01Y8.05
G1X6.06Y8.06
G1X6.11Y8.1
M5
G0X6.42Y9.36
M3 S30
; Layer C00
G1X6.48Y9.38
G1X6.54Y9.43
G1Y9.48
G1X6.51Y9.5
G1X6.44Y9.48
G1X6.39Y9.43
G1X6.38Y9.38
G1X6.42Y9.36
M5
G0X6.1Y9.5
M3 S30
; Layer C00
G1X6.12Y9.52
G1X6.13Y9.57
G1X6.11Y9.62
G1X6.06Y9.64
G1X6.01Y9.62
G1X6.02Y9.57
G1X6.06Y9.52
G1X6.1Y9.5
M5
G0X6.13Y9.85
M3 S30
; Layer C00
G1X6.18Y9.87
G1X6.21Y9.92
G1X6.2Y9.97
G1X6.17Y9.99
G1X6.14Y9.97
G1X6.1Y9.92
G1X6.09Y9.87
G1X6.13Y9.85
M5
G0X5.99Y9.99
M3 S30
; Layer C00
G1X6.02Y10
G1X6.04Y10.04
G1X6.1Y10.1
G1X6.19Y10.13
G1X6.24
G1X6.26Y10.14
G1Y10.16
G1X6.17Y10.26
G1X6.09Y10.37
G1X6.02Y10.46
G1X5.95Y10.52
G1X5.88Y10.53
G1X5.82Y10.5
G1X5.77Y10.41
G1Y10.28
G1X5.81Y10.15
G1X5.89Y10.05
G1X5.95Y10.01
G1X5.99Y9.99
M5
G0X5.6Y10.37
M3 S30
; Layer C00
G1Y10.41
G1X5.57Y10.48
G1X5.51Y10.56
G1X5.43Y10.66
G1X5.26Y10.85
G1X5.13Y10.95
G1X5.06
G1X5Y10.9
G1X4.97Y10.79
G1X5.02Y10.68
G1X5.13Y10.56
G1X5.3Y10.46
G1X5.41Y10.41
G1X5.5Y10.38
G1X5.57Y10.37
G1X5.6
M5
G0X5.76Y11.61
M3 S30
; Layer C00
G1X5.72Y11.63
G1X5.7Y11.68
G1Y11.76
G1Y11.89
G1X5.75Y11.98
G1X5.81
G1X5.89Y11.9
G1X5.95Y11.8
G1X5.96Y11.71
G1X5.91Y11.65
G1X5.82Y11.61
G1X5.76
M5
G0X7.53Y12.41
M3 S30
; Layer C00
G1X7.62Y12.38
G1X7.78Y12.34
G1X7.88Y12.32
G1X7.93
G1Y12.34
G1X7.89Y12.37
G1X7.78Y12.41
G1X7.65Y12.44
G1X7.54
G1Y12.41
M5
G0X7.67Y12.48
M3 S30
; Layer C00
G1X7.89Y12.44
G1X7.99Y12.42
G1X8.13Y12.39
G1X8.31Y12.37
G1X8.54Y12.35
G1X8.81Y12.33
G1X9.1Y12.32
G1X9.42Y12.3
G1X9.76
G1X10.2Y12.28
G1X9.69Y12.22
G1X9.45Y12.19
G1X9.23
G1X9.04
G1X8.88Y12.23
G1X8.7Y12.25
G1X8.43Y12.27
G1X8.11
G1X7.75Y12.26
G1X6.61Y12.22
G1X5.31Y12.23
G1X5.1
G1X4.92Y12.22
G1X4.81Y12.2
G1X4.73Y12.19
G1X4.71
G1X4.75Y12.21
G1X4.85Y12.26
G1X5Y12.31
G1X5.2Y12.34
G1X5.33
G1X5.49
G1X5.68
G1X6.11Y12.32
G1X6.29
G1X6.43
G1X6.54
G1X6.61Y12.33
G1X6.66Y12.34
G1X6.68Y12.36
G1Y12.38
G1X6.66Y12.41
G1X6.67Y12.43
G1X6.71
G1X6.78
G1X6.9Y12.41
G1X6.97Y12.43
G1X7.01Y12.45
G1X7.11Y12.47
G1X7.23Y12.48
G1X7.37
G1X7.67
M5
G0X7.99Y11.88
M3 S30
; Layer C00
G1X7.93Y11.86
G1Y11.83
G1X7.97Y11.77
G1X8.1Y11.7
G1X8.29Y11.68
G1X8.37
G1X8.41Y11.69
G1Y11.7
G1X8.39Y11.72
G1X8.31Y11.76
G1X8.3Y11.81
G1Y11.84
G1X8.26Y11.86
G1X8.2Y11.87
G1X8.11
G1X7.99
M5
G0X8.58Y11.99
M3 S30
; Layer C00
G1X8.61Y12.01
G1X8.66
G1X8.74
G1X8.75Y11.98
G1X8.69Y11.96
G1X8.61Y11.97
G1X8.58Y11.99
M5
G0X10.25Y12.29
M3 S30
; Layer C00
G1X10.24Y12.36
G1X10.27Y12.46
G1X10.35Y12.5
G1X10.47
G1X10.6Y12.44
G1X10.67Y12.39
G1Y12.35
G1X10.6Y12.31
G1X10.44Y12.26
G1X10.34Y12.24
G1X10.28
G1X10.25Y12.29
M5
G0X11.42Y12.08
M3 S30
; Layer C00
G1Y11.98
G1Y11.89
G1X11.44Y11.84
G1X11.47Y11.83
G1X11.53
G1X11.59Y11.85
G1Y11.81
G1Y11.75
G1X11.63Y11.7
G1X11.68Y11.72
G1X11.71Y11.81
G1Y11.89
G1X11.75Y11.93
G1X11.84
G1X11.98
G1X12.28Y11.88
G1Y11.86
G1X12.25Y11.8
G1X12.23Y11.75
G1X12.28Y11.76
G1X12.35Y11.78
G1X12.4Y11.74
G1X12.47Y11.69
G1X12.57Y11.67
G1X12.62
G1X12.63Y11.7
G1X12.6Y11.75
G1X12.51Y11.82
G1X12.33Y11.96
G1X12.77Y11.89
G1X12.59Y12.03
G1X12.44Y12.12
G1X12.32Y12.13
G1X12.11Y12.07
G1X11.9Y12.05
G1X11.71
G1X11.57Y12.09
G1X11.48Y12.12
G1X11.44
G1X11.42Y12.08
M5
G0X11.63Y11.25
M3 S30
; Layer C00
G1X11.59Y11.23
G1Y11.18
G1X11.64Y11.13
G1X11.67Y11.11
G1X11.7Y11.13
G1Y11.18
G1X11.68Y11.23
G1X11.63Y11.25
M5
G0X11.51Y10.68
M3 S30
; Layer C00
G1X11.53Y10.66
G1X11.59Y10.59
G1X11.67Y10.47
G1X11.71Y10.38
G1X11.7Y10.34
G1X11.68Y10.35
G1X11.63Y10.42
G1X11.57Y10.55
G1X11.52Y10.64
G1X11.51Y10.68
M5
G0X11.82Y10.13
M3 S30
; Layer C00
G1X11.84Y10.1
G1X11.89Y9.96
G1X11.95Y9.74
G1X11.97Y9.66
G1Y9.61
G1X11.94Y9.64
G1X11.88Y9.78
G1X11.82Y9.99
G1Y10.07
G1Y10.12
M5
G0X12.78Y10.44
M3 S30
; Layer C00
G1X12.84Y10.37
G1X13.02Y10.36
G1X13.11Y10.28
G1X13.16Y10.22
G1X13.17Y10.2
G1X13.15
G1X13.09Y10.25
G1X12.99Y10.3
G1X12.93
G1Y10.23
G1X13.01Y10.14
G1X13.16Y10.01
G1X13.3Y9.91
G1X13.46Y9.82
G1X13.66Y9.74
G1X13.94Y9.62
G1X13.8Y9.77
G1X13.67Y9.87
G1X13.56Y9.89
G1X13.52Y9.88
G1X13.5
G1Y9.9
G1Y9.93
G1Y9.97
G1X13.48Y10.04
G1X13.42Y10.13
G1X13.14Y10.44
G1X13.02Y10.62
G1X12.98Y10.75
G1X13.03Y10.83
G1X13.08Y10.89
G1X13.09Y10.96
G1X13.06Y10.98
G1X13.01Y10.97
G1X12.93Y10.93
G1X12.84Y10.87
G1X12.72Y10.77
G1X12.67Y10.71
G1X12.69Y10.65
G1X12.82Y10.54
G1X12.85Y10.51
G1X12.79Y10.52
G1X12.77
G1Y10.49
G1Y10.44
M5
G0X13.49Y10.58
M3 S30
; Layer C00
G1X13.52Y10.53
G1X13.56Y10.44
G1X13.7Y10.24
G1X13.87Y10.06
G1X13.92Y10.01
G1X13.96Y9.99
G1X13.98Y9.98
G1Y9.99
G1X13.96Y10.02
G1X13.92Y10.07
G1X13.87Y10.14
G1X13.59Y10.49
G1X13.53Y10.56
G1X13.5Y10.6
G1X13.48
G1X13.49Y10.58
M5
G0X13.63Y11
M3 S30
; Layer C00
G1X13.62Y11.04
G1Y11.13
G1Y11.25
G1X13.64Y11.31
G1X13.67
G1X13.71Y11.22
G1Y11.13
G1X13.68Y11.03
G1X13.65Y11
G1X13.63
M5
G0X12.71Y11.27
M3 S30
; Layer C00
G1X12.7Y11.32
G1X12.65Y11.37
G1X12.62Y11.39
G1X12.6Y11.37
G1X12.59Y11.32
G1X12.61Y11.27
G1X12.66Y11.25
G1X12.71Y11.27
M5
G0X12.49Y11.01
M3 S30
; Layer C00
G1X12.47Y10.99
G1Y10.92
G1Y10.8
G1X12.51Y10.64
G1X12.56Y10.46
G1X12.68Y10.08
G1X12.81Y9.77
G1X12.85Y9.71
G1X12.91Y9.62
G1X13Y9.52
G1X13.1Y9.4
G1X13.34Y9.13
G1X13.6Y8.85
G1X13.82Y8.63
G1X14Y8.42
G1X14.16Y8.24
G1X14.29Y8.07
G1X14.48Y7.76
G1X14.6Y7.47
G1X14.61Y7.41
G1X14.59
G1X14.53Y7.48
G1X14.43Y7.61
G1X14.2Y7.88
G1X13.97Y8.09
G1X13.72Y8.26
G1X13.95Y8.02
G1X14.15Y7.78
G1X14.31Y7.54
G1X14.44Y7.29
G1X14.09Y7.61
G1X13.96Y7.72
G1X13.86Y7.8
G1X13.8Y7.83
G1Y7.82
G1Y7.79
G1X13.76Y7.81
G1X13.71Y7.86
G1X13.58Y7.98
G1X13.44Y8.05
G1X13.39Y8.08
G1X13.36Y8.11
G1Y8.14
G1X13.38Y8.22
G1X13.34
G1X13.29
G1X13.23Y8.24
G1X13.17Y8.3
G1X13.1Y8.38
G1X13.04Y8.46
G1X13.01Y8.53
G1X12.99Y8.57
G1X13Y8.59
G1Y8.61
G1X12.94Y8.66
G1X12.88Y8.71
G1X12.82Y8.8
G1X12.75Y8.91
G1X12.64Y9.16
G1X12.58Y9.25
G1X12.53Y9.31
G1X12.48
G1X12.4Y9.35
G1X12.32Y9.48
G1X12.24Y9.67
G1X12.22Y9.5
G1Y9.4
G1X12.2Y9.37
G1X12.17Y9.42
G1X12.11Y9.53
G1X12.03Y9.73
G1X11.99Y9.99
G1X11.95Y10.11
G1X11.89Y10.24
G1X11.83Y10.38
G1X11.75Y10.52
G1X11.68Y10.65
G1X11.6Y10.75
G1X11.54Y10.82
G1X11.49Y10.85
G1X11.46
G1X11.44Y10.82
G1Y10.6
G1X11.41Y10.53
G1X11.32
G1X11.16Y10.58
G1X11.07Y10.62
G1X10.98Y10.65
G1X10.92
G1X10.89
G1X10.88Y10.67
G1Y10.72
G1X10.87Y10.81
G1Y10.92
G1X10.86Y11.04
G1X10.84Y11.13
G1X10.81Y11.2
G1X10.78Y11.22
G1X10.75
G1X10.71Y11.18
G1X10.69Y11.1
G1X10.67Y10.99
G1Y10.85
G1X10.69Y10.72
G1X10.74Y10.6
G1X10.82Y10.48
G1X10.89Y10.38
G1X10.93Y10.34
G1X10.95
G1Y10.39
G1X10.92Y10.46
G1X10.93Y10.5
G1X10.96Y10.52
G1X11.02
G1X11.11Y10.47
G1X11.16Y10.37
G1X11.19Y10.23
G1X11.26Y10.09
G1X11.3Y10.03
G1X11.32Y10.02
G1Y10.07
G1X11.27Y10.33
G1Y10.39
G1X11.31
G1X11.43Y10.3
G1X11.46Y10.29
G1X11.47
G1X11.46Y10.32
G1X11.44Y10.38
G1X11.48Y10.41
G1X11.54Y10.39
G1X11.6Y10.34
G1X11.65Y10.3
G1X11.72Y10.31
G1X11.76Y10.33
G1X11.77Y10.32
G1Y10.29
G1X11.76Y10.24
G1X11.75Y10.14
G1X11.76Y9.97
G1X11.81Y9.76
G1X11.87Y9.5
G1X12.04Y8.93
G1X12.24Y8.38
G1X12.4Y7.89
G1X12.49Y7.44
G1X12.52Y7.01
G1X12.38Y7.36
G1X12.21Y7.77
G1X12.15Y7.91
G1X12.1Y8.01
G1X12.03Y8.13
G1X11.98Y8.17
G1X11.95Y8.19
G1X11.96Y8.24
G1Y8.28
G1X11.93Y8.35
G1X11.86Y8.44
G1X11.77Y8.53
G1X11.67Y8.62
G1X11.59Y8.7
G1X11.54Y8.76
G1X11.5Y8.84
G1X11.43Y8.94
G1X11.32Y9.08
G1X11.2Y9.24
G1X11.07Y9.41
G1X10.94Y9.57
G1X10.83Y9.71
G1X10.75Y9.81
G1X10.73
G1X10.71
G1Y9.76
G1X10.72Y9.7
G1X10.76Y9.53
G1X10.68Y9.7
G1X10.64Y9.83
G1Y9.92
G1X10.66Y9.97
G1X10.62Y9.99
G1X10.56Y10.03
G1X10.51Y10.13
G1Y10.22
G1X10.53Y10.23
G1X10.59Y10.24
G1X10.63Y10.32
G1X10.64Y10.36
G1X10.66
G1Y10.33
G1X10.67Y10.26
G1X10.7Y10.11
G1X10.75Y10.03
G1X10.78
G1Y10.1
G1X10.76Y10.22
G1X10.71Y10.39
G1X10.69Y10.47
G1Y10.52
G1X10.67Y10.57
G1X10.63Y10.61
G1X10.59Y10.65
G1X10.54Y10.74
G1X10.47Y10.85
G1X10.32Y11.11
G1X10.26Y11.21
G1X10.21Y11.27
G1X10.18Y11.28
G1Y11.23
G1X10.23Y11.16
G1X10.3Y11.08
G1X10.31Y11.02
G1X10.27Y11
G1X10.19Y11.05
G1X10.13Y11.09
G1X10.1
G1Y11.06
G1X10.15Y10.87
G1Y10.84
G1X10.12Y10.86
G1X10.06Y10.93
G1X9.95Y11.03
G1X9.84Y11.08
G1X9.76
G1X9.73Y11.06
G1X9.75Y11
G1X9.81Y10.88
G1Y10.84
G1X9.78Y10.86
G1X9.7Y10.93
G1X9.47Y11.16
G1X9.38Y11.24
G1X9.31Y11.28
G1X9.29
G1X9.31Y11.21
G1X9.35Y11.14
G1X9.43Y11.01
G1X9.49Y10.81
G1X9.52Y10.71
G1Y10.62
G1X9.53Y10.55
G1X9.52Y10.52
G1X9.47Y10.55
G1X9.45Y10.67
G1X9.39Y10.83
G1X9.28Y11
G1X9.22Y11.07
G1X9.17Y11.12
G1X9.12Y11.15
G1X9.08
G1X9Y11.16
G1X8.85Y11.24
G1X8.73Y11.32
G1X8.64Y11.37
G1X8.58Y11.41
G1X8.54Y11.42
G1X8.52
G1X8.53Y11.39
G1X8.56Y11.34
G1X8.6Y11.28
G1X8.7Y11.1
G1X8.74Y10.94
G1X8.76Y10.78
G1X8.81Y10.62
G1X8.87Y10.44
G1X8.71Y10.58
G1X8.66Y10.62
G1X8.63Y10.63
G1X8.62
G1Y10.61
G1X8.63Y10.56
G1X8.66Y10.48
G1X8.71Y10.37
G1X8.88Y10.04
G1X9.01Y9.76
G1X9.04Y9.71
G1X9.08Y9.7
G1X9.1Y9.76
G1Y9.89
G1X9.07Y10.09
G1X9.05Y10.23
G1X9.03Y10.34
G1Y10.41
G1Y10.46
G1X9.05
G1X9.07Y10.43
G1X9.09Y10.36
G1X9.17Y10.13
G1X9.19Y10.09
G1X9.2Y10.11
G1Y10.21
G1X9.17Y10.44
G1X9.07Y10.72
G1X9.02Y10.84
G1X8.98Y10.94
G1Y11
G1X9.06Y10.92
G1X9.18Y10.68
G1X9.22Y10.62
G1X9.26Y10.59
G1X9.33
G1X9.32Y10.53
G1X9.34Y10.41
G1X9.44Y10.26
G1X9.52Y10.17
G1X9.57Y10.13
G1Y10.16
G1X9.56Y10.25
G1X9.55Y10.37
G1X9.58Y10.45
G1X9.61
G1X9.63Y10.42
G1X9.66Y10.37
G1X9.7Y10.28
G1X9.74Y10.16
G1X9.78Y9.99
G1X9.83Y9.79
G1X9.99Y9.11
G1X10.04Y9.45
G1X10.06Y9.67
G1Y9.82
G1X10.02Y9.89
G1X9.96
G1X9.94
G1X9.92Y9.94
G1X9.91Y10
G1Y10.08
G1X9.9Y10.3
G1X9.98Y10.1
G1X10.06Y9.95
G1X10.14Y9.86
G1X10.19Y9.79
G1X10.24Y9.65
G1X10.3Y9.46
G1X10.35Y9.24
G1X10.39Y9.01
G1X10.43Y8.79
G1X10.44Y8.6
G1Y8.46
G1X10.33Y7.83
G1X10.3Y7.61
G1X10.28Y7.44
G1X10.27Y7.21
G1X10.28Y7.06
G1X10.3Y6.98
G1Y6.93
G1X10.28
G1X10.25Y6.98
G1X10.21Y7.06
G1X10.16Y7.21
G1X10.1Y7.41
G1X9.99Y7.85
G1X9.94Y8
G1X9.9Y8.08
G1X9.87
G1X9.85Y7.99
G1X9.88Y7.88
G1X9.93Y7.76
G1X9.94Y7.7
G1X9.91
G1X9.84Y7.79
G1X9.8Y7.89
G1X9.76Y8.06
G1X9.72Y8.28
G1X9.69Y8.52
G1X9.67Y8.78
G1X9.65Y9.03
G1X9.63Y9.26
G1X9.61Y9.43
G1X9.57Y9.74
G1X9.46Y9.5
G1X9.41Y9.35
G1X9.37Y9.15
G1X9.32Y8.91
G1X9.29Y8.65
G1X9.26Y8.37
G1X9.22Y8.15
G1X9.19Y7.99
G1X9.15Y7.9
G1X9.12Y7.89
G1X9.09Y7.95
G1X9.07Y8.09
G1X9.05Y8.53
G1X9.03Y8.76
G1X9Y8.96
G1X8.95Y9.11
G1X8.88Y9.35
G1X8.82Y9.66
G1X8.77Y9.78
G1X8.74Y9.8
G1X8.72Y9.73
G1Y9.59
G1X8.76Y9.11
G1Y8.94
G1X8.74Y8.82
G1X8.71Y8.77
G1X8.67
G1X8.65Y8.78
G1X8.63Y8.84
G1X8.62Y8.92
G1X8.61Y9
G1X8.6Y9.02
G1X8.58Y8.96
G1X8.55Y8.83
G1X8.5Y8.55
G1X8.48Y8.94
G1X8.46Y9.23
G1Y9.43
G1X8.48Y9.61
G1X8.52Y9.84
G1X8.54Y9.98
G1Y10.07
G1X8.53Y10.11
G1X8.49Y10.1
G1X8.43Y10.02
G1X8.4Y9.9
G1X8.39Y9.87
G1X8.36Y9.91
G1X8.33Y10.01
G1X8.25Y10.36
G1X8.22Y10.46
G1X8.18Y10.49
G1X8.15Y10.44
G1X8.02Y10.11
G1X7.95Y9.96
G1X7.89Y9.88
G1X7.87
G1Y9.93
G1X7.9Y10.01
G1X7.94Y10.11
G1X8.01Y10.37
G1Y10.68
G1Y10.83
G1X7.98Y10.96
G1X7.94Y11.07
G1X7.89Y11.14
G1X7.85Y11.16
G1X7.83
G1Y11.12
G1X7.85Y11.04
G1Y10.99
G1X7.84
G1X7.8Y11.05
G1X7.75Y11.14
G1X7.6Y11.42
G1Y11
G1X7.45Y11.28
G1X7.31Y11.51
G1X7.18Y11.7
G1X7.11Y11.78
G1X7.09Y11.81
G1X7.12Y11.79
G1X7.21Y11.71
G1X7.28Y11.66
G1X7.33Y11.63
G1X7.36
G1X7.37Y11.64
G1Y11.68
G1X7.33Y11.73
G1X7.28Y11.79
G1X7.22Y11.87
G1X7.13Y11.97
G1X7.11Y12
G1X7.12Y11.99
G1X7.27Y11.86
G1X7.37Y11.78
G1X7.45Y11.72
G1X7.51Y11.69
G1X7.55Y11.68
G1Y11.69
G1Y11.73
G1X7.51Y11.79
G1X7.39Y11.98
G1X7.35Y12.04
G1Y12.08
G1X7.38
G1X7.43Y12.06
G1X7.5Y12
G1X7.59Y11.92
G1X7.7Y11.81
G1X7.8Y11.71
G1X7.87Y11.64
G1X7.92Y11.59
G1X7.95Y11.58
G1Y11.59
G1Y11.63
G1X7.91Y11.7
G1X7.76Y11.99
G1X8.28Y11.94
G1X8.5Y11.91
G1X8.71Y11.87
G1X8.87Y11.84
G1X9.12Y11.77
G1X9.2
G1X9.17Y11.82
G1X9.06Y11.88
G1X9.02Y11.9
G1X9.06Y11.92
G1X9.16
G1X9.31
G1X9.68Y11.88
G1X10.02Y11.81
G1X10.15Y11.78
G1X10.21
G1Y11.79
G1X10.06Y11.9
G1X10.04Y11.93
G1X10.06Y11.95
G1X10.12
G1X10.2Y11.98
G1X10.24Y12.05
G1X10.25Y12.1
G1X10.29Y12.13
G1X10.35Y12.15
G1X10.42
G1X10.51
G1X10.57Y12.12
G1X10.62Y12.07
G1X10.65Y11.98
G1X10.71Y11.86
G1X10.8Y11.81
G1X10.87Y11.84
G1X10.93Y12.06
G1X11.02Y12.14
G1X11.07Y12.16
G1X11.09Y12.18
G1X11.08Y12.2
G1X11.04Y12.23
G1X11.02Y12.26
G1X11.04Y12.3
G1X11.11Y12.35
G1X11.21Y12.4
G1X11.4Y12.51
G1X11.51Y12.62
G1X11.52Y12.74
G1X11.45Y12.85
G1X11.38Y12.9
G1X11.27Y12.92
G1X11.2
G1X11.1Y12.9
G1X10.97Y12.88
G1X10.81Y12.84
G1X10.55Y12.81
G1X10.2Y12.78
G1X9.79Y12.76
G1X9.34
G1X8.88
G1X8.43
G1X8.01Y12.79
G1X7.65Y12.83
G1X7.24Y12.84
G1X6.84Y12.79
G1X6.63Y12.76
G1X6.39Y12.74
G1X6.11Y12.75
G1X5.77Y12.78
G1X5.07Y12.85
G1X5.87Y12.82
G1X6.26
G1X6.55
G1X6.76Y12.85
G1X6.92Y12.9
G1X7.19Y12.97
G1X7.49Y12.99
G1X7.81Y12.97
G1X8.13Y12.89
G1X8.31Y12.84
G1X8.48Y12.82
G1X8.65
G1X8.86Y12.84
G1X9.31Y12.88
G1X9.84
G1X10.04
G1X10.18
G1X10.26Y12.89
G1X10.29Y12.91
G1X10.25Y12.94
G1X10.16Y12.97
G1X10.01Y13.01
G1X9.8Y13.06
G1X9.47Y13.13
G1X9.8Y13.1
G1X10.21Y13.07
G1X10.72Y13.03
G1X11.02Y13
G1X11.27Y12.96
G1X11.47Y12.92
G1X11.62Y12.86
G1X11.72Y12.79
G1X11.76Y12.71
G1Y12.62
G1X11.69Y12.52
G1X11.65Y12.47
G1X11.63Y12.44
G1X11.65
G1X11.71Y12.45
G1X11.8Y12.51
G1X11.84Y12.62
G1X11.82Y12.75
G1X11.75Y12.89
G1X11.67Y12.98
G1X11.55Y13.03
G1X11.45Y13.05
G1X11.33Y13.07
G1X11.16Y13.08
G1X10.96Y13.09
G1X10.34Y13.14
G1X9.79Y13.23
G1X9.31Y13.37
G1X8.88Y13.54
G1X8.7Y13.63
G1X8.52Y13.71
G1X8.37Y13.77
G1X8.26Y13.81
G1X8.05Y13.88
G1X7.82Y14
G1X7.56Y14.15
G1X7.78Y14.2
G1X8.02Y14.24
G1X8.19
G1X8.31Y14.23
G1X8.39Y14.17
G1X8.55Y14.08
G1X8.79Y13.98
G1X8.91Y13.93
G1X9.01Y13.88
G1X9.07Y13.83
G1X9.09Y13.8
G1X9.11Y13.77
G1X9.16Y13.75
G1X9.25Y13.73
G1X9.35
G1X9.52Y13.71
G1X9.77Y13.66
G1X10.07Y13.6
G1X10.75Y13.44
G1X11.04Y13.39
G1X11.27Y13.37
G1X11.45Y13.38
G1X12.26Y13.5
G1X11.7Y13.16
G1X12.03Y13.07
G1X12.19Y13.02
G1X12.28Y12.98
G1X12.31Y12.94
G1X12.29Y12.89
G1X12.25Y12.83
G1X12.3Y12.78
G1X12.37Y12.76
G1X12.48Y12.74
G1X12.62Y12.72
G1X13.06Y12.65
G1X12.86Y12.76
G1X12.74Y12.84
G1X12.7Y12.92
G1Y12.95
G1X12.73Y12.97
G1X12.77
G1X12.84Y12.96
G1X12.92
G1X13.07Y13.05
G1X13.21Y13.07
G1X13.36Y13.04
G1X13.5Y12.97
G1X13.57Y12.92
G1X13.59Y12.87
G1X13.54Y12.82
G1X13.33Y12.68
G1X13.28Y12.63
G1X13.3Y12.6
G1X13.37Y12.57
G1X13.43Y12.54
G1X13.46Y12.53
G1X13.44Y12.52
G1X13.38
G1X13.28
G1X13.22Y12.57
G1X13.16Y12.6
G1X13.04
G1X12.85Y12.58
G1X12.59Y12.53
G1X12.4Y12.49
G1X12.59Y12.42
G1X12.68Y12.37
G1X12.71Y12.35
G1X12.65Y12.33
G1X12.49Y12.32
G1X12.39Y12.3
G1X12.3Y12.28
G1X12.24Y12.26
G1X12.22Y12.23
G1X12.26Y12.2
G1X12.35
G1X12.53
G1X12.77Y12.15
G1X12.94Y12.1
G1X13.05
G1X13.14Y12.15
G1X13.34Y12.34
G1X13.41Y12.4
G1X13.46Y12.44
G1X13.49
G1X13.51Y12.38
G1X13.53Y12.25
G1Y12.09
G1X13.54Y11.9
G1Y11.7
G1Y11.53
G1X13.53Y11.39
G1X13.51Y11.3
G1X13.5Y11.23
G1Y11.11
G1X13.53Y10.97
G1X13.58Y10.81
G1X13.68Y10.59
G1X13.85Y10.35
G1X13.98Y10.2
G1X14.15Y10.03
G1X14.36Y9.82
G1X14.62Y9.57
G1X14.95Y9.24
G1X15.23Y8.95
G1X15.45Y8.68
G1X15.64Y8.44
G1X15.78Y8.21
G1X15.89Y7.98
G1X15.97Y7.75
G1X16.03Y7.5
G1X16.05Y7.37
G1X16.07Y7.25
G1X16.08Y7.18
G1Y7.15
G1X16.05Y7.18
G1X15.98Y7.27
G1X15.88Y7.41
G1X15.76Y7.58
G1X15.64Y7.75
G1X15.56Y7.88
G1X15.51Y7.97
G1X15.49Y8.02
G1X15.5
G1X15.55Y7.97
G1X15.63Y7.88
G1X15.82Y7.63
G1X15.89Y7.55
G1X15.94Y7.51
G1X15.96
G1X15.94Y7.57
G1X15.89Y7.65
G1X15.81Y7.74
G1X15.73Y7.84
G1X15.64Y7.93
G1X15.56Y8.01
G1X15.49Y8.06
G1X15.37Y8.08
G1X15.25Y8.18
G1X15.15Y8.27
G1X15Y8.41
G1X14.8Y8.57
G1X14.59Y8.73
G1X14.39Y8.89
G1X14.21Y9.02
G1X14.08Y9.11
G1X14.02Y9.15
G1X14Y9.12
G1X14.03Y9.06
G1X14.04Y9.03
G1Y9.02
G1X14.01
G1X13.96Y9.07
G1X13.88Y9.16
G1X13.85Y9.24
G1X13.82Y9.3
G1X13.72Y9.32
G1X13.62Y9.35
G1X13.58Y9.4
G1X13.55Y9.45
G1X13.47Y9.55
G1X13.36Y9.67
G1X13.22Y9.81
G1X12.97Y10.1
G1X12.74Y10.42
G1X12.65Y10.57
G1X12.57Y10.72
G1X12.53Y10.85
G1X12.51Y10.95
G1X12.49Y11.01
M5
G0X13.63Y11.88
M3 S30
; Layer C00
G1X13.64Y11.91
G1X13.69Y12
G1X13.77Y12.1
G1X13.83Y12.12
G1X13.81Y12.06
G1X13.73Y11.96
G1X13.66Y11.9
G1X13.63Y11.88
M5
G0X13.98Y11.85
M3 S30
; Layer C00
G1X13.99Y11.88
G1X14.02Y11.87
G1X14.07Y11.83
G1X14.14Y11.76
G1X14.19Y11.69
G1Y11.67
G1X14.17Y11.68
G1X14.11Y11.73
G1X14.02Y11.81
G1X13.98Y11.85
M5
G0X13.08Y12.16
M3 S30
; Layer C00
G1X13.06Y12.18
G1X12.91Y12.32
G1X12.81Y12.42
G1X12.76Y12.46
G1Y12.48
G1X12.83
G1X12.95Y12.46
G1X13.14Y12.42
G1X13.24Y12.39
G1X13.22Y12.38
G1X13.14Y12.37
G1X13.08
G1X13.05Y12.34
G1Y12.3
G1Y12.25
G1X13.08Y12.19
G1Y12.16
M5
G0X12.53Y13.05
M3 S30
; Layer C00
G1X12.33
G1X12.25Y13.07
G1X12.2Y13.1
G1Y13.14
G1X12.23Y13.19
G1X12.33Y13.25
G1X12.48Y13.29
G1X12.67Y13.32
G1X12.88Y13.34
G1X12.97
G1X13.01Y13.33
G1X12.99Y13.31
G1X12.92Y13.28
G1X12.83Y13.23
G1X12.84Y13.21
G1X12.86
G1X12.84Y13.18
G1X12.79Y13.14
G1X12.73Y13.1
G1X12.53Y13.05
M5
G0X12.24Y13.79
M3 S30
; Layer C00
G1X12.26Y13.81
G1X12.25
G1X12.21Y13.83
G1X12.15
G1X12.08
G1X12.04Y13.82
G1Y13.81
G1X12.05Y13.79
G1X12.15Y13.78
G1X12.24Y13.79
M5
G0X13.65Y14.05
M3 S30
; Layer C00
G1X13.64Y14.1
G1X13.68Y14.12
G1X13.74Y14.1
G1X13.8Y14.05
G1Y14
G1X13.77Y13.98
G1X13.7Y14
G1X13.65Y14.05
M5
G0X13.87Y14.18
M3 S30
; Layer C00
G1X13.76Y14.23
G1X13.66Y14.28
G1X13.63Y14.31
G1X13.69
G1X13.83Y14.28
G1X13.93Y14.27
G1X14
G1X14.03Y14.28
G1Y14.31
G1Y14.38
G1X14.11Y14.43
G1X14.13
G1X14.12Y14.45
G1X14.05
G1X13.81Y14.44
G1X13.74
G1Y14.47
G1X13.8Y14.52
G1X13.97Y14.59
G1X14.19Y14.65
G1X14.4Y14.68
G1X14.53Y14.71
G1X14.6
G1X14.74Y14.69
G1X14.93Y14.66
G1X15.15Y14.61
G1X15.46Y14.55
G1X15.55Y14.53
G1X15.59Y14.52
G1Y14.5
G1X15.56
G1X15.49Y14.48
G1X15.39Y14.47
G1X15.08Y14.43
G1X15.43Y14.3
G1X15.72Y14.18
G1X15.92Y14.07
G1X16Y14.01
G1X16.02Y13.99
G1X15.99
G1X15.89Y14.01
G1X15.85
G1X15.87Y13.99
G1X15.95Y13.94
G1X16.24Y13.8
G1X16.35Y13.75
G1X16.43Y13.7
G1X16.46Y13.68
G1Y13.66
G1X16.4Y13.67
G1X16.31Y13.69
G1X16.17Y13.74
G1X15.99Y13.78
G1X15.74Y13.81
G1X15.43Y13.84
G1X15.09
G1X14.92Y13.85
G1X14.78
G1X14.67Y13.86
G1X14.59
G1X14.54Y13.88
G1X14.51
G1X14.52Y13.89
G1X14.57Y13.9
G1X14.65Y13.92
G1X14.7Y13.93
G1X14.73Y13.94
G1Y13.95
G1X14.7Y13.97
G1X14.63Y13.99
G1X14.38Y14.04
G1X14.2Y14.08
G1X14.02Y14.13
G1X13.87Y14.18
M5
G0X14.21Y13.74
M3 S30
; Layer C00
G1X14.33Y13.72
G1X14.42
G1X14.69Y13.69
G1X15.03Y13.66
G1X15.42Y13.64
G1X15.8Y13.62
G1X16.11Y13.6
G1X16.24Y13.59
G1X16.33Y13.58
G1X16.4Y13.57
G1X16.42Y13.56
G1X16.36Y13.55
G1X16.28
G1X16.18Y13.54
G1X15.89
G1X15.53
G1X15.29
G1X15.09Y13.55
G1X14.91Y13.56
G1X14.75Y13.58
G1X14.51Y13.61
G1X14.34Y13.67
G1X14.25Y13.71
G1X14.21Y13.74
M5
G0X15.02Y12.84
M3 S30
; Layer C00
G1X14.95Y12.8
G1X14.9Y12.77
G1X14.89Y12.74
G1X14.91Y12.72
G1X14.96Y12.7
G1X15.01Y12.69
G1X15.05
G1X15.07Y12.72
G1Y12.76
G1Y12.82
G1Y12.85
G1X15.02
M5
G0X15.62Y13.08
M3 S30
; Layer C00
G1X15.61Y13.13
G1X15.72Y13.09
G1X15.84Y13.07
G1X15.98Y13.05
G1X16.15
G1X16.26
G1X16.35
G1X16.42
G1X16.46
G1X16.47Y13.08
G1X16.42Y13.13
G1X16.33Y13.21
G1X16.31Y13.29
G1X16.29Y13.33
G1X16.22
G1X16.17Y13.32
G1X16.14
G1X16.11Y13.35
G1Y13.39
G1Y13.44
G1X16.14Y13.46
G1X16.18Y13.47
G1X16.23
G1X16.54Y13.38
G1X16.62Y13.36
G1X16.66
G1X16.67Y13.39
G1X16.64Y13.46
G1X16.68
G1X16.74Y13.41
G1X16.89Y13.31
G1X17.06Y13.25
G1X17.24Y13.18
G1X17.41Y13.09
G1X17.53Y13
G1X17.57Y12.93
G1X17.56Y12.91
G1X17.52
G1X17.46Y12.93
G1X17.39Y12.97
G1X17.28Y13.03
G1X17.21Y13.06
G1X17.18
G1Y13.05
G1X17.2Y13
G1X17.25Y12.95
G1X17.34Y12.87
G1X17.45Y12.78
G1X17.73Y12.54
G1X17.96Y12.3
G1X18.06Y12.13
G1X18.19Y11.9
G1X18.34Y11.61
G1X18.48Y11.29
G1X18.63Y10.96
G1X18.76Y10.63
G1X18.88Y10.33
G1X18.96Y10.06
G1X19.02Y9.85
G1X19.06Y9.68
G1X19.09Y9.54
G1X19.1Y9.45
G1Y9.4
G1X19.09Y9.41
G1X19.05Y9.49
G1X19Y9.64
G1X18.94Y9.8
G1X18.84Y9.99
G1X18.72Y10.21
G1X18.59Y10.42
G1X18.46Y10.62
G1X18.34Y10.78
G1X18.24Y10.9
G1X18.16Y10.96
G1X18.12
G1X18.1
G1Y10.93
G1X18.12Y10.89
G1Y10.87
G1X18.1Y10.88
G1X18.05Y10.93
G1X17.87Y11.12
G1X17.81Y11.16
G1Y11.13
G1X17.83Y11.04
G1X17.91Y10.84
G1X18.02Y10.6
G1X18.08Y10.46
G1X18.12Y10.3
G1X18.15Y10.11
G1X18.16Y9.9
G1X18.18Y9.46
G1X18.24Y9.02
G1X18.26Y8.84
G1X18.28Y8.69
G1Y8.59
G1Y8.54
G1X18.25Y8.57
G1X18.2Y8.68
G1X18.12Y8.85
G1X18.04Y9.07
G1X17.95Y9.28
G1X17.88Y9.44
G1X17.82Y9.53
G1X17.79
G1X17.78
G1X17.77Y9.63
G1X17.76Y9.78
G1X17.75Y9.99
G1Y10.21
G1X17.72Y10.41
G1X17.69Y10.56
G1X17.66Y10.64
G1X17.61Y10.72
G1Y10.77
G1Y10.82
G1X17.6Y10.9
G1X17.56Y11.02
G1X17.44Y11.35
G1X17.42Y11.45
G1X17.43Y11.49
G1X17.49
G1X17.54Y11.48
G1X17.57Y11.44
G1X17.59Y11.39
G1Y11.32
G1Y11.18
G1X17.63Y11.06
G1X17.66
G1X17.68Y11.11
G1Y11.24
G1Y11.43
G1Y11.62
G1X17.66Y11.78
G1X17.63Y11.88
G1X17.6Y11.93
G1X17.57
G1X17.55Y11.9
G1X17.54Y11.85
G1Y11.71
G1Y11.66
G1X17.52Y11.64
G1X17.49
G1X17.46Y11.69
G1Y11.74
G1X17.47Y11.83
G1X17.43Y11.93
G1X17.4Y11.98
G1X17.38Y12
G1X17.36
G1X17.35Y11.92
G1X17.33Y11.9
G1X17.3
G1X17.26Y11.93
G1X17.17Y11.98
G1X17.1Y12
G1X17.06Y12.01
G1X17.01Y12.06
G1X16.95Y12.13
G1X16.84Y12.32
G1X16.79Y12.4
G1X16.74Y12.46
G1X16.71Y12.48
G1X16.6Y12.51
G1X16.51Y12.55
G1X16.45Y12.61
G1Y12.66
G1Y12.7
G1X16.42Y12.71
G1X16.3
G1X16.23
G1Y12.76
G1X16.29Y12.81
G1X16.35Y12.87
G1X16.34Y12.9
G1X16.3Y12.91
G1X16.24Y12.93
G1X16.16Y12.94
G1X16.05Y12.96
G1X15.9Y12.98
G1X15.77Y13.01
G1X15.67Y13.05
G1X15.62Y13.08
M5
G0X15.93Y13.39
M3 S30
; Layer C00
G1X15.85Y13.43
G1X15.82Y13.46
G1Y13.48
G1X15.88Y13.49
G1X15.94Y13.47
G1X16Y13.42
G1Y13.38
G1X15.93Y13.39
M5
G0X16.86Y13.79
M3 S30
; Layer C00
G1X16.91Y13.74
G1X16.99Y13.69
G1X17.08Y13.62
G1X17.32Y13.46
G1X17.14Y13.65
G1X17.02Y13.76
G1X16.93Y13.82
G1X16.86Y13.84
G1X16.84Y13.81
G1X16.86Y13.79
M5
G0X16.8Y13.75
M3 S30
; Layer C00
G1X16.71Y13.87
G1X16.64Y13.95
G1X16.62Y13.98
G1X16.64Y13.97
G1X16.71Y13.92
G1X16.8Y13.87
G1X16.84Y13.9
G1X16.82Y13.96
G1X16.77Y14.01
G1X16.72Y14.1
G1Y14.26
G1Y14.36
G1Y14.44
G1X16.68Y14.5
G1X16.57Y14.59
G1X16.59Y14.61
G1X16.68Y14.58
G1X16.77Y14.5
G1X16.84Y14.44
G1X16.9
G1X16.96
G1X17.03Y14.39
G1X17.1Y14.32
G1X17.13Y14.25
G1X17.11Y14.21
G1X17.06Y14.22
G1X17.01
G1X16.99Y14.18
G1Y14.14
G1X16.97Y14.12
G1X16.95Y14.14
G1X16.92Y14.18
G1X16.89Y14.21
G1X16.86Y14.23
G1X16.84
G1X16.81Y14.2
G1Y14.16
G1X16.88Y14.11
G1X16.97Y14.05
G1X17.09Y13.98
G1X17.24Y13.9
G1X17.4Y13.78
G1X17.59Y13.63
G1X17.78Y13.45
G1X18.17Y13.04
G1X18.52Y12.61
G1X18.77Y12.26
G1X18.41Y12.59
G1X18.06Y12.87
G1X17.68Y13.12
G1X17.51Y13.21
G1X17.37Y13.28
G1X17.25Y13.31
G1X17.18
G1X17.14Y13.29
G1X17.15Y13.31
G1Y13.38
G1X17.08Y13.46
G1X16.98Y13.51
G1X16.91Y13.5
G1X16.85
G1X16.74Y13.59
G1X16.67Y13.65
G1X16.64Y13.69
G1X16.66
G1X16.72Y13.68
G1X16.81Y13.66
G1X16.83Y13.68
G1X16.8Y13.75
M5
G0X17.08Y14.06
M3 S30
; Layer C00
G1Y14.07
G1X17.09Y14.09
G1X17.13Y14.12
G1X17.22Y14.17
G1X17.26Y14.19
G1Y14.17
G1X17.24Y14.12
G1X17.19Y14.07
G1X17.11Y14.05
G1X17.08
M5
G0X17.3Y14.02
M3 S30
; Layer C00
G1X17.32Y14.03
G1X17.37
G1X17.46
G1X17.64Y13.97
G1X17.78Y13.88
G1X17.83Y13.83
G1Y13.81
G1X17.76Y13.82
G1X17.62Y13.87
G1X17.5Y13.91
G1X17.41Y13.94
G1X17.35Y13.98
G1X17.31Y14
G1X17.3Y14.02
M5
G0X17.55Y14.12
M3 S30
; Layer C00
G1X17.41Y14.2
G1X17.25Y14.3
G1X17.1Y14.41
G1X16.75Y14.63
G1X16.42Y14.81
G1X16.29Y14.87
G1X16.2Y14.9
G1X16.15
G1Y14.88
G1Y14.85
G1X16.13
G1X16.09Y14.88
G1X16.03Y14.93
G1X15.84Y15.07
G1X15.63Y15.2
G1X15.41Y15.32
G1X15.65Y15.28
G1X15.74
G1X15.82
G1X15.87Y15.29
G1X15.89Y15.32
G1X15.93Y15.36
G1X16.05Y15.34
G1X16.24Y15.27
G1X16.52Y15.15
G1X16.69Y15.06
G1X16.91Y14.92
G1X17.15Y14.74
G1X17.4Y14.54
G1X17.65Y14.33
G1X17.89Y14.11
G1X18.1Y13.91
G1X18.27Y13.73
G1X18.56Y13.38
G1X18.2Y13.69
G1X18.04Y13.82
G1X17.88Y13.93
G1X17.75Y14.02
G1X17.65Y14.07
G1X17.55Y14.12
M5
G0X18.1Y14.2
M3 S30
; Layer C00
G1X18.12Y14.24
G1Y14.3
G1X18.09Y14.33
G1X18.04Y14.35
G1X18.01Y14.4
G1X18.07Y14.46
G1X18.19
G1X18.33Y14.43
G1X18.41Y14.36
G1X18.45Y14.24
G1Y14.17
G1X18.4Y14.15
G1X18.32Y14.18
G1X18.2Y14.22
G1X18.12Y14.2
G1X18.1
M5
G0X18.47Y13.92
M3 S30
; Layer C00
G1X18.55Y13.95
G1X18.62
G1X18.66Y13.94
G1X18.68Y13.89
G1Y13.82
G1Y13.74
G1X18.67Y13.69
G1X18.65Y13.67
G1X18.6Y13.69
G1X18.53Y13.75
G1X18.46Y13.81
G1X18.43Y13.85
G1Y13.89
G1X18.47Y13.92
M5
G0X18.82Y13.78
M3 S30
; Layer C00
G1X18.86Y13.82
G1X18.97Y13.84
G1X19.07
G1X19.11Y13.81
G1X19.07Y13.78
G1X18.97Y13.75
G1X18.86
G1X18.82Y13.78
M5
G0X18.82Y13.49
M3 S30
; Layer C00
G1X18.87Y13.46
G1X18.89Y13.38
G1X18.87Y13.32
G1X18.82
G1X18.77Y13.36
G1X18.75Y13.42
G1X18.77Y13.47
G1X18.82Y13.49
M5
G0X19.09Y13.51
M3 S30
; Layer C00
G1X19.13Y13.55
G1X19.18
G1X19.25Y13.53
G1X19.32Y13.48
G1X19.39Y13.39
G1Y13.34
G1X19.34
G1X19.23Y13.37
G1X19.11Y13.44
G1X19.09Y13.51
M5
G0X19.07Y13.21
M3 S30
; Layer C00
G1X19.11Y13.19
G1X19.15Y13.14
G1Y13.09
G1X19.12Y13.07
G1X19.06Y13.09
G1X19.04Y13.14
G1Y13.19
G1X19.07Y13.21
M5
G0X19.15Y12.81
M3 S30
; Layer C00
G1X19.37Y12.57
G1X19.46Y12.48
G1X19.58Y12.34
G1X19.6Y12.31
G1X19.62
G1X19.65Y12.36
G1Y12.4
G1X19.6Y12.46
G1X19.53Y12.54
G1X19.42Y12.62
G1X19.15Y12.81
M5
G0X19.13Y12.84
M3 S30
; Layer C00
G1X19.24Y12.9
G1X19.36Y12.93
G1X19.54Y12.89
G1X19.75Y12.79
G1X19.92Y12.66
G1X19.99Y12.54
G1Y12.49
G1X19.95
G1X19.9Y12.52
G1X19.81Y12.6
G1X19.66Y12.73
G1X19.54Y12.79
G1X19.52Y12.77
G1X19.54Y12.73
G1X19.59Y12.66
G1X19.77Y12.48
G1X19.84Y12.4
G1X19.87Y12.32
G1Y12.26
G1X19.82Y12.2
G1X19.77
G1X19.73
G1X19.75Y12.04
G1X19.7Y11.95
G1X19.6Y11.9
G1X19.48Y11.89
G1X19.35Y11.94
G1X19.27Y12.01
G1Y12.05
G1Y12.08
G1X19.31
G1X19.45Y12.04
G1X19.48Y12.06
G1X19.43Y12.1
G1X19.32Y12.16
G1X19.25Y12.2
G1X19.21
G1X19.22Y12.15
G1X19.24Y12.12
G1X19.23
G1X19.2Y12.13
G1X19.15Y12.17
G1X19.06Y12.3
G1X19Y12.46
G1Y12.53
G1Y12.59
G1X19.02Y12.63
G1X19.06Y12.65
G1X19.1Y12.66
G1X19.09Y12.7
G1X19.07Y12.76
G1X19.13Y12.84
M5
G0X18.44Y13.09
M3 S30
; Layer C00
G1X18.42Y13.07
G1X18.38Y13.09
G1X18.34Y13.14
G1Y13.19
G1X18.38Y13.21
G1X18.43Y13.19
G1X18.45Y13.14
G1Y13.09
M5
G0X17.83Y12.74
M3 S30
; Layer C00
G1X17.94Y12.63
G1X18.01Y12.55
G1X18.05Y12.49
G1X18.08Y12.44
G1Y12.41
G1X18.06
G1X18.03
G1X17.97Y12.45
G1X17.9Y12.51
G1X17.79Y12.62
G1X17.73Y12.71
G1X17.72Y12.77
G1X17.76Y12.79
G1X17.83Y12.74
M5
G0X17.14Y11.95
M3 S30
; Layer C00
G1X17.16Y11.94
G1X17.21Y11.87
G1X17.27Y11.74
G1X17.32Y11.65
G1X17.33Y11.61
G1X17.31Y11.63
G1X17.25Y11.7
G1X17.17Y11.82
G1X17.13Y11.9
G1Y11.95
M5
G0X16.82Y11.91
M3 S30
; Layer C00
G1X16.74Y12
G1X16.66Y12.07
G1X16.64Y12.09
G1Y12.05
G1X16.7Y11.97
G1X16.78Y11.87
G1X16.83Y11.85
G1X16.82Y11.91
M5
G0X16.23Y11.86
M3 S30
; Layer C00
G1X16.21Y11.93
G1X16.18Y12.01
G1X16.13Y12.12
G1X16.06Y12.23
G1X16Y12.31
G1X15.92Y12.36
G1X15.84
G1X15.77
G1X15.71Y12.34
G1X15.68Y12.31
G1X15.67Y12.27
G1X15.71Y12.17
G1X15.82Y12.07
G1X15.94Y11.99
G1X16.04
G1X16.09Y11.98
G1X16.14Y11.9
G1X16.18Y11.83
G1X16.22
G1Y11.86
M5
G0X16.29Y12.26
M3 S30
; Layer C00
G1Y12.3
G1X16.24Y12.34
G1X16.18Y12.37
G1X16.13
G1X16.11Y12.34
G1X16.14Y12.31
G1X16.22Y12.27
G1X16.29
M5
G0X17.15Y11.3
M3 S30
; Layer C00
G1X17.13Y11.27
G1X17.16Y11.2
G1X17.21Y11.11
G1X17.24Y11.06
G1X17.26
G1X17.27Y11.09
G1Y11.16
G1X17.26Y11.27
G1X17.21Y11.32
G1X17.15Y11.3
M5
G0X17.28Y11.35
M3 S30
; Layer C00
G1X17.31Y11.19
G1X17.33Y10.97
G1X17.35Y10.68
G1Y10.49
G1X17.38Y9.78
G1X17.41Y9.34
G1X17.46Y8.94
G1X17.53Y8.56
G1X17.62Y8.21
G1X17.74Y7.88
G1X17.88Y7.57
G1X18.05Y7.28
G1X18.24Y7.01
G1X18.46Y6.73
G1X18.17Y7.04
G1X18.03Y7.2
G1X17.89Y7.38
G1X17.76Y7.59
G1X17.64Y7.83
G1X17.51Y8.1
G1X17.39Y8.42
G1X17.26Y8.78
G1X16.99Y9.62
G1X16.86Y9.99
G1X16.73Y10.33
G1X16.61Y10.63
G1X16.36Y11.14
G1X16.09Y11.59
G1X15.8Y11.95
G1X15.43Y12.28
G1X15.24Y12.42
G1X15.05Y12.55
G1X14.87Y12.65
G1X14.69Y12.71
G1X14.57Y12.76
G1X14.49Y12.81
G1X14.43Y12.86
G1X14.42Y12.9
G1X14.44Y12.94
G1X14.49Y12.97
G1X14.58Y12.99
G1X14.71
G1X14.79
G1X14.83
G1Y12.96
G1X14.79Y12.93
G1X14.69Y12.9
G1X14.58Y12.91
G1X14.54Y12.92
G1X14.51
G1Y12.9
G1X14.52Y12.87
G1X14.6Y12.81
G1X14.7Y12.79
G1X14.81Y12.81
G1X14.91Y12.86
G1X14.96Y12.88
G1X15.07Y12.89
G1X15.2Y12.88
G1X15.36Y12.86
G1X15.7Y12.78
G1X15.99Y12.67
G1X16.1Y12.6
G1X16.25Y12.5
G1X16.41Y12.37
G1X16.58Y12.22
G1X16.91Y11.91
G1X17.15Y11.64
G1X17.21Y11.56
G1X17.25Y11.47
G1X17.28Y11.35
M5
G0X18.73Y11.75
M3 S30
; Layer C00
G1Y11.83
G1X18.75Y11.85
G1X18.78
G1X18.82Y11.82
G1X18.87Y11.77
G1X18.93Y11.67
G1Y11.61
G1X18.86
G1X18.78Y11.67
G1X18.73Y11.75
M5
G0X18.96Y11.18
M3 S30
; Layer C00
G1X19.02Y11.16
G1X19.08Y11.11
G1Y11.06
G1X19.01Y11.04
G1X18.93Y11.06
G1X18.89Y11.11
G1X18.91Y11.16
G1X18.96Y11.18
M5
G0X19.03Y10.78
M3 S30
; Layer C00
G1X19.09
G1X19.19
G1X19.34Y10.75
G1X19.41Y10.72
G1X19.36Y10.68
G1X19.25Y10.67
G1X19.13Y10.68
G1X19.04Y10.72
G1X19.02Y10.76
G1X19.03Y10.78
M5
G0X19.18Y10.34
M3 S30
; Layer C00
G1X19.24Y10.32
G1X19.3Y10.27
G1Y10.22
G1X19.23Y10.2
G1X19.15Y10.22
G1X19.11Y10.27
G1X19.13Y10.32
G1X19.18Y10.34
M5
G0X19.53Y10.26
M3 S30
; Layer C00
G1X19.58
G1X19.67Y10.24
G1X19.79Y10.21
G1X19.91Y10.17
G1X20.18Y10.06
G1X20.38Y9.95
G1X20.54Y9.84
G1X20.37Y9.88
G1X20.11Y9.97
G1X19.81Y10.1
G1X19.68Y10.16
G1X19.58Y10.21
G1X19.52Y10.25
G1Y10.26
M5
G0X19.27Y9.98
M3 S30
; Layer C00
G1X19.36Y9.95
G1X19.43Y9.89
G1Y9.81
G1Y9.76
G1X19.5Y9.69
G1X19.6Y9.6
G1X19.74Y9.51
G1X20.09Y9.3
G1X19.82
G1X19.71Y9.32
G1X19.65Y9.33
G1X19.62Y9.35
G1X19.65Y9.38
G1X19.67Y9.4
G1X19.66Y9.41
G1X19.61
G1X19.45Y9.38
G1X19.39
G1X19.36Y9.4
G1Y9.42
G1X19.38Y9.47
G1X19.34Y9.51
G1X19.29Y9.59
G1X19.24Y9.76
G1X19.22Y9.84
G1X19.21Y9.92
G1Y9.97
G1Y9.99
G1X19.27Y9.98
M5
G0X19.73Y9.76
M3 S30
; Layer C00
G1X19.77
G1X19.86Y9.74
G1X20Y9.71
G1X20.47Y9.57
G1X20.68Y9.51
G1X20.89Y9.43
G1X21.05Y9.35
G1X21.17Y9.29
G1X21.35Y9.15
G1X21.09Y9.24
G1X20.79Y9.34
G1X20.43Y9.43
G1X20.09Y9.53
G1X19.84Y9.65
G1X19.77Y9.7
G1X19.74Y9.74
G1Y9.76
M5
G0X20.56Y10.06
M3 S30
; Layer C00
G1X20.49Y10.16
G1Y10.19
G1X20.54Y10.17
G1X20.64Y10.1
G1X20.93Y9.85
G1X21.08Y9.72
G1X21.21Y9.61
G1X21.31Y9.54
G1X21.38Y9.5
G1X21.42Y9.46
G1X21.43Y9.44
G1X21.42Y9.43
G1X21.33Y9.45
G1X21.22Y9.51
G1X21.08Y9.6
G1X20.94Y9.71
G1X20.8Y9.83
G1X20.67Y9.95
G1X20.56Y10.06
M5
G0X21.74Y10.4
M3 S30
; Layer C00
G1X21.71Y10.45
G1Y10.52
G1X21.75Y10.6
G1X21.81Y10.67
G1X21.85Y10.7
G1X21.91Y10.68
G1X21.98Y10.63
G1X22.08Y10.52
G1X22.12Y10.42
G1X22.1Y10.37
G1X22.05
G1X21.99Y10.38
G1X21.97Y10.35
G1X22Y10.29
G1X22.06Y10.24
G1X22.11Y10.22
G1X22.07Y10.2
G1X21.97Y10.24
G1X21.82Y10.33
G1X21.74Y10.4
M5
G0X22.38Y10.61
M3 S30
; Layer C00
G1X22.35Y10.7
G1Y10.78
G1X22.39Y10.85
G1X22.44Y10.87
G1X22.48Y10.84
G1X22.54Y10.75
G1X22.62Y10.6
G1X22.66Y10.47
G1X22.64Y10.42
G1X22.57Y10.43
G1X22.45Y10.52
G1X22.38Y10.61
M5
G0X22.76Y10.66
M3 S30
; Layer C00
G1X22.72Y10.73
G1X22.67Y10.84
G1X22.65Y10.89
G1X22.68Y10.88
G1X22.75Y10.82
G1X22.82Y10.71
G1X22.84Y10.62
G1X22.82Y10.6
G1X22.79Y10.62
G1X22.76Y10.66
M5
G0X22.71Y11
M3 S30
; Layer C00
G1X22.45Y11.27
G1X22.3Y11.44
G1X22.21Y11.56
G1X22.2Y11.64
G1X22.25Y11.67
G1X22.33Y11.63
G1X22.43Y11.55
G1X22.54Y11.4
G1X22.63Y11.21
G1X22.71Y11
M5
G0X22.29Y11.11
M3 S30
; Layer C00
G1X22.22
G1X22.18
G1X22.15Y11.14
G1X22.14Y11.16
G1Y11.2
G1Y11.3
G1X22.11Y11.4
G1X22.08Y11.43
G1X22.06
G1Y11.4
G1X22.05Y11.33
G1Y11.25
G1X22.02Y11.21
G1X21.97Y11.2
G1X21.88Y11.22
G1X21.8Y11.24
G1X21.76
G1Y11.21
G1X21.82Y11.15
G1X21.88Y11.07
G1Y11.04
G1X21.82Y11.08
G1X21.72Y11.18
G1X21.65Y11.25
G1Y11.31
G1X21.7Y11.37
G1X21.83Y11.45
G1X21.93Y11.51
G1X22.01Y11.55
G1X22.06Y11.57
G1X22.09
G1X22.1Y11.56
G1X22.22Y11.34
G1X22.28Y11.21
G1X22.31Y11.14
G1X22.29Y11.11
M5
G0X21.48Y10.9
M3 S30
; Layer C00
G1X21.39Y10.99
G1X21.23Y11.11
G1X21.06Y11.2
G1X20.99Y11.23
G1X20.93Y11.24
G1X20.89
G1X20.87Y11.21
G1X20.94Y11.16
G1X21.09Y11.1
G1X21.24Y11.03
G1X21.29Y10.95
G1X21.32Y10.89
G1X21.42Y10.84
G1X21.5
G1X21.52
G1X21.48Y10.9
M5
G0X21.42Y10.78
M3 S30
; Layer C00
G1X21.3Y10.83
G1X21.18Y10.9
G1X21.05Y11
G1X20.76Y11.23
G1X20.93Y11.41
G1X21.05Y11.52
G1X21.15
G1X21.22Y11.49
G1X21.31Y11.43
G1X21.42Y11.32
G1X21.57Y11.19
G1X21.65Y11.11
G1X21.7Y11.05
G1X21.72Y11.01
G1Y10.98
G1X21.68
G1X21.64Y11
G1X21.57Y11.05
G1X21.48Y11.11
G1X21.28Y11.28
G1X21.69Y10.76
G1X21.51
G1X21.42Y10.78
M5
G0X21.73Y11.6
M3 S30
; Layer C00
G1X21.67Y11.62
G1X21.61Y11.67
G1X21.54Y11.75
G1X21.4Y11.94
G1X21.34Y12.02
G1X21.28Y12.07
G1X21.24Y12.09
G1X21.2Y12.06
G1Y12
G1X21.23Y11.96
G1Y11.95
G1X21.21Y11.96
G1X21.17Y12
G1X21.12Y12.08
G1Y12.15
G1X21.21Y12.19
G1X21.35
G1X21.55Y12.13
G1X21.77Y12.04
G1X21.91Y11.93
G1X21.98Y11.8
G1Y11.74
G1X21.97Y11.7
G1X21.92Y11.68
G1X21.86Y11.7
G1X21.79
G1Y11.62
G1X21.73Y11.6
M5
G0X22.61Y11.9
M3 S30
; Layer C00
G1X22.62Y11.92
G1X22.61Y12
G1X22.56Y12.12
G1X22.53Y12.18
G1X22.51Y12.2
G1X22.5
G1Y12.16
G1X22.51Y12.05
G1X22.56Y11.95
G1X22.61Y11.9
M5
G0X22.5Y11.84
M3 S30
; Layer C00
G1X22.24Y12.04
G1X21.97Y12.16
G1X21.66Y12.22
G1X21.26Y12.28
G1X20.8Y12.32
G1X21.02Y12.45
G1X21.16Y12.54
G1X21.23Y12.6
G1Y12.62
G1X21.22
G1X21.17
G1X21.11Y12.6
G1X21.07
G1X21.08Y12.64
G1X21.13Y12.7
G1X21.2Y12.79
G1X21.39Y12.96
G1X21.57Y13.07
G1X21.69Y13.12
G1X21.76Y13.13
G1X21.81
G1X21.85Y13.09
G1Y13.02
G1X21.74Y12.91
G1X21.66Y12.85
G1X21.63Y12.82
G1X21.65
G1X21.77Y12.85
G1X21.8
G1X21.81Y12.84
G1X21.79Y12.78
G1X21.8Y12.76
G1X21.84
G1X21.91Y12.77
G1X21.97Y12.79
G1X22Y12.81
G1Y12.84
G1X21.97Y12.86
G1Y12.9
G1X22.03Y12.95
G1X22.16Y12.98
G1X22.31Y13
G1X22.37Y12.95
G1Y12.83
G1X22.34Y12.67
G1X22.27Y12.54
G1X22.21Y12.46
G1X22.2Y12.44
G1X22.23Y12.46
G1X22.32Y12.54
G1X22.45Y12.62
G1X22.54
G1X22.6
G1X22.7Y12.67
G1X22.78Y12.72
G1X22.9Y12.78
G1X23.04Y12.85
G1X23.2Y12.92
G1X23.4Y12.99
G1X23.54Y13.03
G1X23.65
G1X23.86Y12.96
G1X23.95
G1X24.05Y12.99
G1X24.11Y12.96
G1Y12.89
G1X24.05Y12.82
G1X23.98Y12.76
G1Y12.74
G1X24.02
G1X24.14Y12.76
G1X24.18
G1X24.2
G1Y12.74
G1X24.16Y12.72
G1X24.11Y12.68
G1X24.04Y12.64
G1X23.94Y12.58
G1X23.56Y12.39
G1X23.37Y12.29
G1X23.24Y12.23
G1X23.15Y12.2
G1X23.1Y12.21
G1X23.09Y12.25
G1Y12.32
G1X23.15Y12.68
G1X23.03Y12.44
G1X22.92Y12.15
G1X22.87Y11.84
G1Y11.54
G1X22.95Y11.3
G1X23.04Y11.06
G1X23.11Y10.8
G1X23.15Y10.67
G1X23.22Y10.53
G1X23.31Y10.39
G1X23.41Y10.27
G1X23.5Y10.16
G1X23.57Y10.07
G1X23.61Y10
G1Y9.96
G1Y9.93
G1X23.65Y9.92
G1X23.71Y9.86
G1X23.73Y9.71
G1Y9.62
G1X23.7Y9.55
G1X23.67Y9.51
G1X23.62Y9.5
G1X23.53Y9.52
G1X23.47Y9.6
G1Y9.72
G1X23.53Y9.96
G1X23.52Y10.05
G1X23.45Y10.15
G1X23.32Y10.27
G1X23.13Y10.51
G1X22.96Y10.82
G1X22.83Y11.15
G1X22.78Y11.42
G1X22.76Y11.51
G1X22.7Y11.61
G1X22.61Y11.72
G1X22.5Y11.84
M5
G0X23.16Y11.39
M3 S30
; Layer C00
G1X23.2
G1X23.26Y11.35
G1X23.35Y11.3
G1X23.46Y11.21
G1X23.58Y11.1
G1X23.65Y11.01
G1X23.66Y10.99
G1Y10.98
G1X23.63
G1X23.59Y11
G1X23.57
G1X23.58Y10.93
G1X23.62Y10.83
G1X23.67Y10.71
G1X23.79Y10.46
G1X23.89Y10.3
G1X23.92Y10.28
G1Y10.29
G1Y10.33
G1X23.85Y10.47
G1X23.82Y10.53
G1X23.81Y10.57
G1Y10.59
G1X23.83
G1X23.86Y10.56
G1X23.9Y10.52
G1X23.96Y10.45
G1X24.1Y10.23
G1X24.21Y9.96
G1X24.25Y9.84
G1X24.27Y9.73
G1Y9.66
G1X24.24Y9.64
G1X24.19Y9.65
G1X24.17Y9.69
G1X24.11Y9.77
G1X23.95Y9.87
G1X23.84Y9.96
G1X23.71Y10.1
G1X23.58Y10.3
G1X23.44Y10.55
G1X23.33Y10.76
G1X23.25Y10.92
G1X23.19Y11.04
G1X23.16Y11.12
G1Y11.16
G1X23.18
G1X23.22Y11.12
G1X23.29Y11.04
G1X23.35Y10.98
G1X23.39Y10.94
G1X23.43
G1Y10.95
G1X23.4Y11.05
G1X23.29Y11.18
G1X23.21Y11.27
G1X23.16Y11.33
G1X23.14Y11.37
G1X23.16Y11.39
M5
G0X23.83Y11.08
M3 S30
; Layer C00
G1X23.85
G1X23.9Y11.04
G1X23.99Y10.9
G1X24.06Y10.72
G1X24.08Y10.64
G1Y10.59
G1X24.06Y10.57
G1X24.04Y10.59
G1X23.97Y10.7
G1X23.89Y10.9
G1X23.85Y11.02
G1X23.83Y11.08
M5
G0X24.26Y11.17
M3 S30
; Layer C00
G1X24.25Y11.21
G1Y11.25
G1X24.3Y11.23
G1X24.36Y11.14
G1X24.46Y11
G1X24.53Y10.88
G1X24.58Y10.8
G1X24.6Y10.74
G1Y10.71
G1X24.56Y10.75
G1X24.5Y10.81
G1X24.43Y10.91
G1X24.36Y11.02
G1X24.3Y11.11
G1X24.26Y11.17
M5
G0X24.83Y11.25
M3 S30
; Layer C00
G1X24.79Y11.35
G1Y11.39
G1X24.84Y11.35
G1X24.91Y11.25
G1X24.95Y11.15
G1Y11.11
G1X24.9Y11.15
G1X24.83Y11.25
M5
G0X25.58Y11.01
M3 S30
; Layer C00
G1X25.64Y11.04
G1X25.69Y11.01
G1X25.75Y10.93
G1X25.82Y10.81
G1X25.89Y10.67
G1X26.02Y10.32
G1X26.1Y9.99
G1X26.15Y9.67
G1X26.05Y9.99
G1X25.93Y10.3
G1X25.76Y10.6
G1X25.64Y10.8
G1X25.58Y10.94
G1Y11.01
M5
G0X25.89Y11.27
M3 S30
; Layer C00
G1X25.85Y11.3
G1X25.82Y11.35
G1Y11.4
G1X25.86Y11.45
G1X25.94Y11.52
G1X26.07Y11.62
G1X26.11Y11.65
G1X26.13
G1X26.15Y11.59
G1Y11.45
G1Y11.34
G1X26.13Y11.29
G1X26.1
G1X26.04Y11.32
G1X25.99Y11.36
G1X25.95Y11.37
G1X25.94Y11.36
G1X25.93Y11.27
G1X25.91Y11.26
G1X25.89
M5
G0X26.39Y10.94
M3 S30
; Layer C00
G1X26.42Y10.92
G1X26.46Y10.87
G1X26.58Y10.69
G1X26.63Y10.62
G1X26.67Y10.57
G1X26.69Y10.55
G1Y10.57
G1Y10.63
G1Y10.71
G1X26.68Y10.82
G1Y10.96
G1X26.7Y11.09
G1X26.75Y11.23
G1X26.84Y11.37
G1X27.13Y11.74
G1X27.43Y12.05
G1X27.56Y12.16
G1X27.67Y12.22
G1X27.74Y12.23
G1X27.77Y12.19
G1X27.74Y12.15
G1X27.67Y12.07
G1X27.56Y11.97
G1X27.43Y11.86
G1X27.17Y11.61
G1X27Y11.39
G1X26.92Y11.17
G1Y10.95
G1X26.96Y10.64
G1X26.99Y10.27
G1Y10.1
G1Y9.98
G1Y9.9
G1X26.94Y9.95
G1X26.88
G1X26.83
G1X26.79Y10.03
G1X26.73Y10.04
G1X26.69Y10.07
G1X26.64Y10.15
G1X26.58Y10.28
G1X26.51Y10.44
G1X26.46Y10.62
G1X26.41Y10.76
G1X26.39Y10.86
G1Y10.92
G1Y10.94
M5
G0X26.41Y10.33
M3 S30
; Layer C00
G1X26.44Y10.31
G1X26.47Y10.25
G1X26.56Y10.06
G1X26.63Y9.92
G1X26.68Y9.79
G1X26.71Y9.7
G1Y9.66
G1X26.69
G1X26.65Y9.69
G1X26.61Y9.74
G1X26.56Y9.82
G1X26.48Y10.01
G1X26.42Y10.2
G1Y10.27
G1X26.41Y10.31
G1Y10.33
M5
G0X26.23Y10.3
M3 S30
; Layer C00
G1X26.34Y10.09
G1X26.41Y9.91
G1X26.44Y9.75
G1Y9.71
G1X26.42Y9.67
G1X26.39Y9.65
G1X26.35
G1X26.32Y9.69
G1X26.28Y9.77
G1X26.26Y9.87
G1X26.25Y9.99
G1X26.23Y10.3
M5
G0X27.41Y9.88
M3 S30
; Layer C00
G1X27.37Y9.81
G1X27.39Y9.78
G1X27.45Y9.74
G1X27.49Y9.64
G1X27.55Y9.53
G1X27.64Y9.5
G1X27.73Y9.54
G1X27.79Y9.66
G1X27.8Y9.73
G1Y9.8
G1X27.76Y9.85
G1X27.71Y9.9
G1X27.62Y9.96
G1X27.55Y9.98
G1X27.49Y9.95
G1X27.41Y9.88
M5
G0X27.29Y9.18
M3 S30
; Layer C00
G1X27.3Y9.17
G1X27.32Y9.07
G1X27.3Y8.96
G1Y8.93
G1X27.28
G1Y8.97
G1X27.27Y9.04
G1Y9.12
G1Y9.17
G1X27.29Y9.18
M5
G0X26.92Y9.04
M3 S30
; Layer C00
G1X26.93Y9.03
G1X26.95Y8.93
G1X26.94Y8.82
G1X26.92Y8.79
G1X26.9Y8.83
G1Y8.9
G1Y8.98
G1Y9.03
G1X26.92Y9.04
M5
G0X26.85Y8.65
M3 S30
; Layer C00
G1X26.89Y8.63
G1X26.85Y8.6
G1X26.78Y8.56
G1X26.7
G1X26.67Y8.59
G1X26.7Y8.64
G1X26.78Y8.66
G1X26.85Y8.65
M5
G0X27.05Y8.43
M3 S30
; Layer C00
G1X27.11Y8.45
G1X27.16Y8.44
G1X27.18Y8.42
G1X27.16Y8.34
G1X27.1Y8.19
G1X27.06Y8.1
G1X27.03Y8.06
G1X26.99
G1X26.96Y8.1
G1X26.91Y8.2
G1X26.89Y8.29
G1X26.91Y8.35
G1X26.96
G1X27.01Y8.33
G1X27.03Y8.37
G1X27.05Y8.43
M5
G0X27.27Y8.49
M3 S30
; Layer C00
G1Y8.53
G1Y8.59
G1Y8.65
G1Y8.69
G1X27.29
G1X27.3Y8.68
G1X27.32Y8.59
G1X27.3Y8.5
G1X27.29Y8.48
G1X27.27Y8.49
M5
G0X26.65Y8.18
M3 S30
; Layer C00
G1X26.71Y8.13
G1X26.78Y8.06
G1X26.86Y7.98
G1X26.9Y7.9
G1X26.91Y7.84
G1Y7.8
G1X26.86Y7.77
G1X26.79Y7.76
G1X26.7
G1X26.58Y7.79
G1X26.46Y7.83
G1X26.39Y7.88
G1X26.36Y7.94
G1Y8.02
G1Y8.09
G1Y8.13
G1X26.34Y8.15
G1X26.31Y8.14
G1X26.25
G1X26.23Y8.19
G1X26.24Y8.29
G1X26.29Y8.33
G1X26.36
G1X26.46Y8.26
G1X26.55Y8.2
G1X26.59
G1X26.61
G1X26.65Y8.18
M5
G0X27.05Y7.91
M3 S30
; Layer C00
G1X27.09Y7.92
G1Y7.85
G1X27.06Y7.71
G1X27.04Y7.64
G1X27.01Y7.59
G1X26.98
G1X26.96Y7.61
G1X26.94Y7.71
G1X26.98Y7.83
G1X27.05Y7.91
M5
G0X27.93Y7.67
M3 S30
; Layer C00
G1X27.98Y7.7
G1X28.01
G1X28.05Y7.66
G1X28.08Y7.58
G1X28.1Y7.48
G1Y7.39
G1X28.06Y7.3
G1X27.99Y7.19
G1X27.82Y7
G1X27.62Y6.84
G1X27.53Y6.78
G1X27.44Y6.74
G1X27.37Y6.72
G1X27.33Y6.73
G1X27.26Y6.79
G1Y6.85
G1X27.32Y6.89
G1X27.43Y6.91
G1X27.52Y6.92
G1X27.62Y6.97
G1X27.73Y7.06
G1X27.83Y7.17
G1X27.92Y7.27
G1X27.98Y7.35
G1X28.02Y7.41
G1X28.05Y7.46
G1Y7.49
G1X28.04Y7.51
G1X28
G1X27.95Y7.49
G1X27.87
G1X27.84Y7.52
G1X27.86Y7.58
G1X27.93Y7.67
M5
G0X28.98Y7.33
M3 S30
; Layer C00
G1Y7.27
G1X28.93Y7.12
G1X28.86Y6.98
G1X28.76Y6.85
G1X28.64Y6.74
G1X28.51Y6.65
G1X28.38Y6.59
G1X28.26Y6.56
G1X28.17Y6.57
G1X28.1Y6.63
G1X28.12Y6.68
G1X28.23Y6.7
G1X28.39Y6.74
G1X28.58Y6.83
G1X28.65Y6.88
G1X28.71Y6.93
G1Y6.96
G1X28.69Y6.97
G1X28.79Y7.15
G1X28.98Y7.33
M5
G0X29.25Y7.42
M3 S30
; Layer C00
G1X29.31Y7.43
G1X29.36Y7.47
G1X29.38Y7.51
G1X29.36Y7.53
G1X29.31
G1X29.25Y7.52
G1X29.23Y7.46
G1X29.25Y7.42
M5
G0X27.02Y7
M3 S30
; Layer C00
G1X26.99Y7.05
G1X26.96
G1Y6.99
G1Y6.89
G1X26.99Y6.73
G1X27.02Y6.58
G1X27.06Y6.46
G1X27.09Y6.38
G1X27.11Y6.35
G1X27.13Y6.37
G1Y6.45
G1Y6.55
G1X27.1Y6.67
G1X27.08Y6.79
G1X27.05Y6.91
G1X27.02Y7
M5
G0X25.85Y7.03
M3 S30
; Layer C00
G1X25.8Y6.99
G1X25.7Y6.95
G1X25.55
G1X25.44Y6.99
G1X25.39Y7.07
G1X25.43Y7.16
G1X25.51Y7.23
G1X25.59Y7.25
G1X25.68Y7.23
G1X25.77Y7.17
G1X25.84Y7.09
G1X25.85Y7.03
M5
G0X25.47Y7.27
M3 S30
; Layer C00
G1X25.42Y7.26
G1X25.37Y7.28
G1X25.35Y7.32
G1X25.33Y7.4
G1X25.3Y7.51
G1X25.28Y7.58
G1Y7.6
G1X25.31Y7.58
G1X25.38Y7.51
G1X25.46Y7.39
G1X25.49Y7.31
G1X25.47Y7.27
M5
G0X24.81Y7.63
M3 S30
; Layer C00
G1X24.78
G1X24.72Y7.68
G1X24.65Y7.74
G1X24.62Y7.78
G1Y7.81
G1X24.68
G1X24.74Y7.78
G1X24.79Y7.7
G1X24.81Y7.65
G1Y7.63
M5
G0X24.9Y8.01
M3 S30
; Layer C00
G1X24.85Y8.04
G1X24.79Y8.11
G1X24.76Y8.16
G1X24.79Y8.2
G1X24.85Y8.21
G1X24.92Y8.18
G1X24.95Y8.09
G1Y8.03
G1X24.93Y8.01
G1X24.9
M5
G0X24.54Y8.03
M3 S30
; Layer C00
G1X24.51Y8.01
G1X24.47
G1X24.41Y8.05
G1X24.32Y8.1
G1X24.16Y8.22
G1X24.1Y8.31
G1X24.12Y8.36
G1X24.17
G1X24.25Y8.33
G1X24.37Y8.24
G1X24.45Y8.17
G1X24.51Y8.11
G1X24.53Y8.06
G1Y8.03
M5
G0X24.82Y8.31
M3 S30
; Layer C00
G1X24.78Y8.36
G1X24.74Y8.42
G1X24.68Y8.45
G1X24.59Y8.48
G1X24.47Y8.57
G1X24.36Y8.67
G1X24.32Y8.74
G1X24.34Y8.79
G1X24.41
G1X24.52Y8.71
G1X24.68Y8.58
G1X24.77Y8.5
G1X24.83Y8.42
G1X24.87Y8.36
G1Y8.32
G1X24.82
M5
G0X24Y8.61
M3 S30
; Layer C00
G1X23.92Y8.62
G1X23.79Y8.71
G1X23.73Y8.77
G1X23.7Y8.82
G1X23.69Y8.85
G1Y8.86
G1X23.77Y8.84
G1X23.91Y8.76
G1X24Y8.67
G1Y8.61
M5
G0X23.64Y8.66
M3 S30
; Layer C00
G1X23.58Y8.7
G1X23.48Y8.8
G1X23.43Y8.85
G1X23.41Y8.9
G1Y8.93
G1X23.43
G1X23.51Y8.9
G1X23.59Y8.8
G1X23.63Y8.7
G1Y8.66
M5
G0X23.5Y9.11
M3 S30
; Layer C00
G1X23.44
G1X23.28Y9.26
G1X23.2Y9.29
G1X23.18Y9.26
G1X23.22Y9.18
G1X23.26Y9.13
G1X23.27Y9.1
G1X23.25
G1X23.19Y9.12
G1X23.11Y9.17
G1X23.07Y9.23
G1X23.04Y9.27
G1X22.96Y9.29
G1X22.88Y9.31
G1X22.85Y9.36
G1X22.91Y9.42
G1X23.04
G1X23.2Y9.37
G1X23.36Y9.28
G1X23.47Y9.18
G1X23.5Y9.11
M5
G0X22.62Y9.61
M3 S30
; Layer C00
G1X22.59
G1X22.52Y9.63
G1X22.42Y9.67
G1X22.3Y9.73
G1X22.24Y9.78
G1Y9.83
G1X22.27Y9.89
G1X22.37Y9.95
G1X22.47
G1X22.56Y9.93
G1X22.63Y9.92
G1X22.69Y9.88
G1X22.74Y9.8
G1X22.75Y9.75
G1Y9.73
G1X22.73
G1X22.69Y9.76
G1X22.57Y9.81
G1X22.42Y9.83
G1X22.32
G1X22.29Y9.8
G1X22.34Y9.78
G1X22.46Y9.75
G1X22.56Y9.71
G1X22.62Y9.64
G1Y9.61
M5
G0X23.1Y9.87
M3 S30
; Layer C00
G1X23Y9.95
G1X22.92Y10.06
G1X22.9Y10.14
G1X22.92Y10.15
G1X22.96Y10.14
G1X23.02Y10.1
G1X23.07Y10.04
G1X23.16Y9.92
G1X23.18Y9.85
G1X23.1Y9.87
M5
G0X23.33Y10
M3 S30
; Layer C00
G1X23.25Y10.05
G1X23.17Y10.12
G1X23.08Y10.22
G1X23.04Y10.28
G1X23.02Y10.31
G1Y10.33
G1X23.06
G1X23.16Y10.28
G1X23.29Y10.16
G1X23.35Y10.1
G1X23.39Y10.04
G1X23.41Y10
G1X23.4Y9.99
G1X23.33Y10
M5
G0X25.07Y9.29
M3 S30
; Layer C00
G1X25.13Y9.28
G1X25.2Y9.23
G1X25.27Y9.15
G1X25.32Y9.09
G1X25.37Y9.06
G1X25.4
G1X25.43Y9.1
G1X25.46Y9.13
G1X25.48
G1Y9.12
G1X25.49Y9.07
G1X25.46Y8.96
G1X25.38Y8.92
G1X25.27Y8.94
G1X25.17Y9.04
G1X25.09Y9.17
G1X25.05Y9.25
G1X25.07Y9.29
M5
G0X28.28Y9
M3 S30
; Layer C00
G1X28.3Y8.96
G1X28.35Y8.97
G1X28.4Y9.01
G1X28.43Y9.05
G1X28.4Y9.07
G1X28.35
G1X28.3Y9.06
G1X28.28Y9
M5
G0X28.79Y9.07
M3 S30
; Layer C00
G1X28.81Y9.03
G1X28.87Y9.04
G1X28.92Y9.08
G1X28.94Y9.12
G1X28.92Y9.14
G1X28.87
G1X28.81Y9.13
G1X28.79Y9.07
M5
G0X29.69Y10.15
M3 S30
; Layer C00
G1X29.75Y10.16
G1X29.8Y10.2
G1X29.82Y10.24
G1X29.8Y10.26
G1X29.75
G1X29.69Y10.25
G1X29.67Y10.19
G1X29.69Y10.15
M5
G0X29.6Y11.11
M3 S30
; Layer C00
G1X29.65Y11.13
G1X29.67Y11.18
G1X29.65Y11.23
G1X29.6Y11.25
G1X29.55Y11.23
G1X29.53Y11.18
G1X29.55Y11.13
G1X29.6Y11.11
M5
G0X28.61Y11.06
M3 S30
; Layer C00
G1X28.57Y10.98
G1X28.5Y10.93
G1X28.4
G1X28.32Y10.99
G1X28.28Y11.04
G1X28.25Y11.11
G1X28.18Y11.19
G1X28.14Y11.24
G1X28.12Y11.3
G1Y11.37
G1X28.14Y11.44
G1X28.2Y11.6
G1X28.38Y11.43
G1X28.51Y11.28
G1X28.59Y11.16
G1X28.61Y11.06
M5
G0X28.74Y11.74
M3 S30
; Layer C00
G1X28.62Y11.76
G1X28.54Y11.81
G1X28.52Y11.86
G1X28.55Y11.87
G1X28.63Y11.86
G1X28.76Y11.81
G1X28.84Y11.77
G1X28.86Y11.76
G1X28.83Y11.75
G1X28.74
M5
G0X29.63Y12.26
M3 S30
; Layer C00
G1X29.57Y12.32
G1X29.48Y12.4
G1X29.39Y12.42
G1X29.3Y12.45
G1X29.2Y12.54
G1X29.15Y12.59
G1X29.13Y12.61
G1X29.12
G1X29.13Y12.58
G1X29.16Y12.53
G1Y12.51
G1X29.12Y12.53
G1X29.06Y12.58
G1X28.98Y12.64
G1X28.96Y12.67
G1X28.99Y12.71
G1X29.08Y12.74
G1X29.19Y12.81
G1X29.23Y12.87
G1X29.28Y12.91
G1X29.38Y12.93
G1X29.48Y12.95
G1X29.49Y12.99
G1Y13.06
G1X29.54Y13.11
G1X29.57Y13.13
G1X29.59
G1Y13.11
G1X29.54Y13.03
G1Y13.01
G1X29.57
G1X29.61
G1X29.68Y13.06
G1X29.72Y13.13
G1Y13.21
G1X29.74Y13.25
G1X29.76Y13.27
G1X29.79
G1X29.8
G1X29.79Y13.22
G1X29.81Y13.16
G1X29.92Y13.09
G1X30.05Y12.99
G1X30.13Y12.86
G1X30.18Y12.7
G1X30.02Y12.84
G1X29.89Y12.92
G1X29.78Y12.95
G1X29.7Y12.91
G1X29.65Y12.75
G1X29.54Y12.69
G1Y12.63
G1X29.58Y12.52
G1X29.63Y12.37
G1X29.65Y12.28
G1Y12.24
G1X29.63Y12.26
M5
G0X30.28Y12.31
M3 S30
; Layer C00
G1X30.27Y12.41
G1Y12.5
G1X30.31Y12.59
G1X30.37Y12.66
G1X30.45Y12.7
G1X30.55Y12.71
G1X30.59
G1Y12.69
G1X30.56Y12.67
G1X30.5Y12.63
G1X30.38Y12.56
G1X30.34Y12.5
G1X30.36Y12.47
G1X30.46Y12.48
G1X30.53Y12.5
G1X30.55
G1X30.53Y12.48
G1X30.46Y12.44
G1X30.37Y12.36
G1X30.33Y12.29
G1Y12.26
G1X30.36
G1X30.39
G1X30.44Y12.3
G1X30.55Y12.35
G1X30.66
G1X30.71Y12.33
G1X30.75Y12.35
G1X30.77Y12.39
G1X30.78Y12.55
G1X30.81Y12.57
G1Y12.53
G1X30.82Y12.45
G1Y12.33
G1X30.8Y12.21
G1X30.77Y12.04
G1X30.74Y11.95
G1X30.71
G1X30.65Y12
G1X30.59Y12.07
G1X30.55
G1Y12.05
G1X30.51
G1X30.46Y12.08
G1X30.41Y12.12
G1X30.33Y12.21
G1X30.28Y12.31
M5
G0X30.92Y12.61
M3 S30
; Layer C00
G1X30.88Y12.67
G1Y12.72
G1X30.93Y12.78
G1X30.96
G1X30.98Y12.75
G1X30.99Y12.68
G1X30.97Y12.62
G1X30.92
M5
G0X30.9Y12.89
M3 S30
; Layer C00
G1X30.85
G1X30.79Y12.97
G1X30.77Y13.09
G1Y13.16
G1X30.79Y13.19
G1X30.81
G1X30.85Y13.14
G1X30.9Y13.04
G1X30.92Y12.94
G1X30.9Y12.89
M5
G0X30.48Y13.12
M3 S30
; Layer C00
G1X30.42
G1X30.32Y13.18
G1X30.25Y13.23
G1X30.21Y13.26
G1Y13.24
G1X30.29Y13.14
G1X30.3Y13.09
G1X30.29Y13.06
G1X30.25Y13.03
G1X30.18Y13.01
G1X30.13Y13.06
G1X30.08Y13.12
G1X29.99Y13.14
G1X29.93
G1X29.91Y13.16
G1X29.92Y13.19
G1X29.97Y13.24
G1X30.06Y13.32
G1X30.16Y13.35
G1X30.23Y13.37
G1X30.26Y13.42
G1X30.28Y13.45
G1X30.33Y13.47
G1X30.41Y13.48
G1X30.61Y13.5
G1X30.7Y13.52
G1X30.76Y13.55
G1X30.84Y13.65
G1X30.94Y13.69
G1X31.09Y13.73
G1X31.32Y13.76
G1X31.34
G1Y13.73
G1X31.3Y13.7
G1X31.25Y13.66
G1X31.1Y13.56
G1X31Y13.47
G1X30.94Y13.4
G1X30.9Y13.34
G1X30.88Y13.29
G1X30.84
G1X30.78
G1X30.68Y13.34
G1X30.53Y13.39
G1X30.41
G1X30.37Y13.37
G1X30.36Y13.34
G1Y13.3
G1X30.47Y13.17
G1Y13.12
M5
G0X29.98Y13.69
M3 S30
; Layer C00
G1X29.87Y13.66
G1X29.82
G1X29.87Y13.71
G1X29.98Y13.77
G1X30.06Y13.8
G1X30.09Y13.82
G1X30.08Y13.83
G1X30.02
G1X29.94Y13.86
G1X29.93Y13.91
G1X29.99Y13.94
G1X30.08
G1X30.15Y13.89
G1X30.17Y13.82
G1X30.1Y13.76
G1X29.98Y13.69
M5
G0X29.58Y13.7
M3 S30
; Layer C00
G1X29.49Y13.67
G1X29.31Y13.65
G1X29.2
G1X29.11Y13.66
G1X29.06Y13.68
G1X29.02Y13.7
G1Y13.72
G1X29.04Y13.75
G1X29.09Y13.77
G1X29.18Y13.79
G1X29.3Y13.81
G1X29.35Y13.83
G1X29.4
G1X29.48Y13.8
G1X29.58Y13.75
G1Y13.7
M5
G0X29.45Y13.53
M3 S30
; Layer C00
G1X29.41Y13.49
G1X29.3Y13.47
G1X29.17
G1X29.08Y13.5
G1X29.05Y13.52
G1Y13.54
G1X29.11Y13.55
G1X29.21
G1X29.38
G1X29.45Y13.53
M5
G0X29.23Y13.13
M3 S30
; Layer C00
G1X29.26
G1Y13.1
G1X29.23Y13.06
G1X29.17Y13.01
G1X29.07Y12.95
G1X28.92Y12.9
G1X28.73Y12.86
G1X28.49Y12.83
G1X28.29Y12.82
G1X28.12
G1X28.01
G1X27.95
G1X27.94Y12.83
G1X27.98Y12.85
G1X28.09Y12.87
G1X28.25Y12.89
G1X28.58Y12.95
G1X28.87Y13.04
G1X28.99Y13.08
G1X29.1Y13.11
G1X29.18Y13.13
G1X29.23
M5
G0X28.76Y13.39
M3 S30
; Layer C00
G1X28.75
G1X28.71Y13.41
G1X28.65
G1X28.58
G1X28.54Y13.4
G1Y13.39
G1X28.55Y13.37
G1X28.65Y13.36
G1X28.74Y13.37
G1X28.76Y13.39
M5
G0X28.83Y13.37
M3 S30
; Layer C00
G1X28.81Y13.32
G1X28.75Y13.29
G1X28.66Y13.28
G1X28.54Y13.3
G1X28.41Y13.36
G1X28.34Y13.4
G1X28.31Y13.43
G1Y13.46
G1X28.36Y13.5
G1X28.41Y13.53
G1Y13.55
G1X28.39
G1X28.33
G1X28.25Y13.57
G1X28.21Y13.61
G1Y13.66
G1X28.25Y13.72
G1X28.33Y13.76
G1X28.42
G1X28.53Y13.71
G1X28.68Y13.61
G1X28.77Y13.52
G1X28.82Y13.44
G1X28.83Y13.37
M5
G0X28.05Y13.32
M3 S30
; Layer C00
G1Y13.34
G1X27.99
G1X27.93Y13.33
G1X27.88Y13.28
G1Y13.24
G1X27.95Y13.25
G1X28.02Y13.29
G1X28.05Y13.32
M5
G0X28.14Y13.36
M3 S30
; Layer C00
G1Y13.26
G1X28.1Y13.19
G1X28Y13.15
G1X27.9
G1X27.79Y13.17
G1X27.7Y13.23
G1X27.67Y13.27
G1X27.68Y13.31
G1X27.74Y13.35
G1X27.86Y13.39
G1X27.98Y13.43
G1X28.06
G1X28.11Y13.41
G1X28.14Y13.36
M5
G0X28.01Y13.53
M3 S30
; Layer C00
G1X27.87Y13.5
G1X27.71Y13.49
G1X27.62
G1X27.58Y13.51
G1Y13.54
G1X27.62Y13.59
G1X27.73Y13.65
G1X27.91Y13.68
G1X28.06
G1X28.13Y13.63
G1X28.1Y13.57
G1X28.01Y13.53
M5
G0X27.38Y13.54
M3 S30
; Layer C00
G1X27.35Y13.51
G1X27.28Y13.47
G1X27.18Y13.45
G1X27.06Y13.44
G1X26.91Y13.43
G1X26.84
G1Y13.47
G1X26.92Y13.52
G1X27.07Y13.6
G1X27.23Y13.63
G1X27.3
G1X27.35Y13.61
G1X27.38Y13.58
G1Y13.54
M5
G0X27.27Y13.18
M3 S30
; Layer C00
G1X27.14Y13.19
G1X27.02
G1X26.98Y13.16
G1X27.06Y13.13
G1X27.18Y13.11
G1X27.28
G1X27.33Y13.13
G1X27.27Y13.18
M5
G0X27.39Y13.21
M3 S30
; Layer C00
G1Y13.15
G1X27.36Y13.04
G1X27.25Y12.98
G1X27.12
G1X26.99Y13.05
G1X26.91Y13.15
G1Y13.22
G1X26.98Y13.27
G1X27.14
G1X27.27
G1X27.35Y13.25
G1X27.39Y13.21
M5
G0X27.4Y12.71
M3 S30
; Layer C00
G1X27.45
G1X27.47
G1X27.45Y12.69
G1X27.4Y12.65
G1X27.27Y12.6
G1X27.11Y12.59
G1X26.92
G1X27.11Y12.65
G1X27.27Y12.69
G1X27.4Y12.71
M5
G0X26.85Y12.62
M3 S30
; Layer C00
G1X26.83Y12.6
G1X26.73Y12.59
G1X26.61Y12.6
G1X26.58Y12.61
G1Y12.62
G1X26.63Y12.63
G1X26.7
G1X26.78
G1X26.83
G1X26.85Y12.62
M5
G0X26.51Y13.05
M3 S30
; Layer C00
G1Y13.07
G1X26.48Y13.14
G1X26.37Y13.21
G1X26.27Y13.26
G1X26.23
G1X26.27Y13.21
G1X26.37Y13.12
G1X26.43Y13.08
G1X26.48Y13.06
G1X26.51
M5
G0X26.65Y13.07
M3 S30
; Layer C00
G1X26.63Y12.93
G1X26.6Y12.87
G1X26.54
G1X26.44Y12.95
G1X26.29Y13.08
G1X26.2Y13.2
G1X26.18Y13.3
G1X26.23Y13.38
G1X26.34Y13.46
G1X26.48Y13.49
G1X26.61Y13.47
G1X26.67Y13.41
G1X26.62Y13.37
G1X26.51Y13.39
G1X26.44Y13.4
G1X26.41
G1X26.39Y13.39
G1X26.4Y13.36
G1X26.47Y13.3
G1X26.61Y13.27
G1X26.64Y13.23
G1X26.65Y13.16
G1Y13.07
M5
G0X26.01Y13.14
M3 S30
; Layer C00
G1X25.95Y13.09
G1X25.82Y13.07
G1X25.69Y13.09
G1X25.64Y13.14
G1X25.69Y13.19
G1X25.82Y13.21
G1X25.95Y13.19
G1X26.01Y13.14
M5
G0X25.71Y13.68
M3 S30
; Layer C00
G1X25.55
G1X25.41Y13.71
G1X25.35Y13.77
G1X25.38Y13.82
G1X25.46Y13.86
G1X25.59Y13.88
G1X25.74Y13.9
G1X25.82
G1X25.85
G1X25.82Y13.86
G1X25.74Y13.8
G1X25.67Y13.75
G1X25.64Y13.72
G1X25.67
G1X25.75Y13.74
G1X25.81Y13.76
G1X25.84
G1Y13.75
G1X25.82Y13.72
G1X25.71Y13.68
M5
G0X26.1Y13.78
M3 S30
; Layer C00
G1Y13.81
G1X26.15Y13.84
G1X26.26Y13.89
G1X26.36Y13.91
G1X26.41Y13.89
G1Y13.84
G1X26.33Y13.79
G1X26.2Y13.77
G1X26.13
G1X26.1Y13.78
M5
G0X25.87Y14.13
M3 S30
; Layer C00
G1X25.77
G1X25.67Y14.15
G1X25.6Y14.2
G1X25.57Y14.26
G1Y14.28
G1X25.62
G1X25.68
G1X25.76Y14.24
G1X25.83Y14.21
G1X25.87Y14.18
G1X25.88Y14.15
G1X25.87Y14.13
M5
G0X25.32Y14.06
M3 S30
; Layer C00
G1X25.27
G1X25.14Y14.05
G1X24.99Y14.06
G1X24.89Y14.1
G1X24.85Y14.15
G1X24.88Y14.22
G1X24.95Y14.25
G1X25.03
G1X25.12Y14.22
G1X25.23Y14.15
G1X25.31Y14.1
G1X25.32Y14.06
M5
G0X25.38Y14.45
M3 S30
; Layer C00
G1X25.32Y14.47
G1X25.24Y14.49
G1X25.22Y14.52
G1X25.24Y14.57
G1X25.32Y14.64
G1X25.4Y14.7
G1X25.47
G1X25.49Y14.64
G1X25.48Y14.52
G1X25.46Y14.48
G1X25.43Y14.46
G1X25.38
M5
G0X25.72Y14.56
M3 S30
; Layer C00
G1Y14.6
G1X25.73Y14.65
G1X25.78Y14.72
G1X25.85Y14.81
G1X25.93Y14.9
G1X26.01Y14.98
G1X26.09Y15.05
G1X26.15Y15.09
G1X26.17
G1X26.23Y15.02
G1X26.34Y14.89
G1X26.48Y14.72
G1X26.32Y14.85
G1X26.21Y14.92
G1X26.16Y14.93
G1Y14.87
G1X26.26Y14.68
G1Y14.64
G1X26.2
G1X26.07Y14.66
G1X25.97Y14.67
G1X25.88
G1X25.82Y14.64
G1X25.78Y14.6
G1X25.75Y14.56
G1X25.73Y14.54
G1X25.72Y14.56
M5
G0X25.75Y14.97
M3 S30
; Layer C00
G1X25.52
G1X25.36
G1X25.26Y15.01
G1X25.22Y15.06
G1X25.25Y15.13
G1X25.3Y15.16
G1X25.35
G1X25.44Y15.13
G1X25.57Y15.07
G1X25.75Y14.97
M5
G0X26.5Y15.08
M3 S30
; Layer C00
G1X26.49Y15.16
G1X26.52Y15.22
G1X26.6Y15.24
G1X26.66Y15.21
G1X26.71Y15.14
G1X26.74Y15.02
G1X26.72Y14.95
G1X26.66Y14.93
G1X26.57Y14.99
G1X26.5Y15.08
M5
G0X26.82Y14.99
M3 S30
; Layer C00
G1X26.86Y15.05
G1X26.92Y15.08
G1X26.99
G1X27.05Y15.04
G1X27.09Y14.97
G1X27.07Y14.91
G1X26.97Y14.89
G1X26.87Y14.9
G1X26.82Y14.94
G1Y14.99
M5
G0X26.78Y14.65
M3 S30
; Layer C00
G1X26.92Y14.62
G1X27.03Y14.57
G1Y14.54
G1X27.01Y14.5
G1X26.92Y14.48
G1X26.78Y14.5
G1X26.65Y14.55
G1X26.59Y14.62
G1X26.65Y14.65
G1X26.78
M5
G0X27.22Y14.55
M3 S30
; Layer C00
G1X27.36Y14.61
G1X27.51Y14.65
G1X27.66Y14.67
G1X27.8
G1X27.66Y14.61
G1X27.51Y14.57
G1X27.36Y14.55
G1X27.22
M5
G0X27.23Y14.19
M3 S30
; Layer C00
G1X27.36Y14.17
G1X27.43Y14.13
G1X27.41Y14.08
G1X27.31Y14.03
G1X27.2Y14
G1X27.12Y14.02
G1Y14.04
G1X27.19Y14.05
G1X27.23
G1X27.25Y14.06
G1X27.23Y14.09
G1X27.13Y14.15
G1Y14.17
G1X27.15Y14.19
G1X27.23
M5
G0X26.96Y14.12
M3 S30
; Layer C00
G1X26.91Y14.07
G1X26.81Y14.05
G1X26.71Y14.07
G1Y14.12
G1X26.77Y14.17
G1X26.85Y14.19
G1X26.93Y14.17
G1X26.96Y14.12
M5
G0X27.63Y14.24
M3 S30
; Layer C00
G1X27.66Y14.25
G1X27.74
G1X27.87Y14.24
G1X27.95Y14.19
G1X27.97Y14.14
G1X27.93Y14.13
G1X27.86Y14.14
G1X27.73Y14.19
G1X27.65Y14.22
G1X27.63Y14.24
M5
G0X28.13Y14.27
M3 S30
; Layer C00
G1X28.16Y14.3
G1X28.24Y14.26
G1X28.31Y14.19
G1X28.32Y14.14
G1X28.27Y14.13
G1X28.21Y14.16
G1X28.16Y14.21
G1X28.13Y14.27
M5
G0X28.45Y14.44
M3 S30
; Layer C00
G1X28.43Y14.48
G1X28.45Y14.57
G1X28.53Y14.65
G1X28.65Y14.68
G1X28.74
G1X28.77Y14.66
G1X28.73Y14.62
G1X28.64Y14.55
G1X28.52Y14.46
G1X28.45Y14.44
M5
G0X28.34Y14.71
M3 S30
; Layer C00
G1X28.32
G1X28.28Y14.74
G1X28.18Y14.84
G1X28.01Y14.92
G1X27.93Y14.96
G1X27.88Y15
G1Y15.03
G1X27.9Y15.06
G1X27.96Y15.07
G1X27.99Y15.03
G1X28.01Y14.98
G1X28.05Y14.96
G1X28.09Y15
G1Y15.09
G1X28.06Y15.15
G1X28.02Y15.18
G1X27.97Y15.2
G1X27.91
G1X27.8
G1X27.73Y15.24
G1X27.71Y15.28
G1Y15.3
G1X27.73
G1X27.8Y15.27
G1X27.79Y15.3
G1X27.75Y15.33
G1X27.66Y15.43
G1X27.62Y15.52
G1X27.63Y15.55
G1X27.67
G1X27.73Y15.51
G1X27.81Y15.45
G1X28.01Y15.28
G1X27.92Y15.44
G1X27.78Y15.6
G1X27.58Y15.74
G1X27.48Y15.8
G1X27.4Y15.86
G1X27.35Y15.91
G1X27.33Y15.94
G1X27.28Y15.99
G1X27.18Y16.03
G1X27.06
G1X26.88Y15.99
G1X26.79
G1X26.68Y16.03
G1X26.57Y16.08
G1X26.46Y16.15
G1X26.38Y16.22
G1X26.32Y16.29
G1X26.3Y16.36
G1X26.32Y16.38
G1X26.4Y16.37
G1X26.5Y16.33
G1X26.64Y16.26
G1X26.81Y16.17
G1X26.93Y16.12
G1X26.99Y16.1
G1Y16.12
G1X26.96Y16.16
G1X26.87Y16.23
G1X26.73Y16.32
G1X26.54Y16.44
G1X26.25Y16.6
G1X26.03Y16.7
G1X25.91Y16.72
G1X25.78Y16.74
G1X25.63Y16.76
G1X25.44
G1X25.2Y16.78
G1X25Y16.81
G1X24.86Y16.83
G1X24.79Y16.85
G1X24.81Y16.88
G1X24.89Y16.9
G1X25.02
G1X25.19
G1X25.58Y16.87
G1X25.97Y16.8
G1X26.28Y16.69
G1X26.63Y16.52
G1X27Y16.31
G1X27.36Y16.07
G1X27.69Y15.82
G1X27.96Y15.59
G1X28.06Y15.48
G1X28.14Y15.38
G1X28.19Y15.3
G1X28.23Y15.13
G1X28.28Y15.07
G1X28.33Y14.98
G1X28.35Y14.83
G1Y14.75
G1X28.34Y14.71
M5
G0X28.19Y14.73
M3 S30
; Layer C00
G1Y14.71
G1X28.13Y14.68
G1X28.04Y14.63
G1X27.97Y14.61
G1X27.93Y14.63
G1X27.91Y14.68
G1X27.96Y14.73
G1X28.08Y14.75
G1X28.15
G1X28.19Y14.73
M5
G0X28.54Y15.13
M3 S30
; Layer C00
G1X28.48Y15.18
G1X28.43Y15.24
G1X28.37Y15.37
G1X28.35Y15.46
G1X28.38Y15.49
G1X28.57Y15.32
G1X28.76Y15.21
G1X28.98Y15.1
G1X28.74
G1X28.63
G1X28.54Y15.13
M5
G0X28.9Y15.21
M3 S30
; Layer C00
G1X28.54Y15.45
G1X28.25Y15.71
G1X28.23Y15.77
G1X28.26Y15.8
G1X28.31
G1X28.39
G1X28.61Y15.72
G1X28.87Y15.59
G1X29Y15.51
G1X29.11Y15.44
G1X29.2Y15.4
G1X29.25Y15.38
G1X29.34Y15.36
G1X29.5Y15.3
G1X29.71Y15.21
G1X29.38Y15.17
G1X29.1
G1X28.9Y15.21
M5
G0X29.29Y14.72
M3 S30
; Layer C00
G1X29.35Y14.74
G1X29.38
G1Y14.73
G1X29.34Y14.67
G1X29.24Y14.58
G1X29.18Y14.53
G1X29.12Y14.51
G1X29.08
G1X29.05Y14.54
G1X29.07Y14.61
G1X29.17Y14.68
G1X29.29Y14.72
M5
G0X29.63Y14.68
M3 S30
; Layer C00
G1X29.68Y14.73
G1X29.71Y14.75
G1Y14.71
G1X29.7Y14.64
G1X29.66Y14.58
G1X29.62Y14.57
G1X29.61Y14.61
G1X29.63Y14.68
M5
G0X29.55Y14.4
M3 S30
; Layer C00
G1X29.64Y14.39
G1X29.71Y14.34
G1X29.72Y14.26
G1X29.7Y14.16
G1X29.67Y14.11
G1X29.64Y14.08
G1X29.6Y14.09
G1X29.54Y14.14
G1X29.48Y14.18
G1X29.46
G1Y14.17
G1X29.51Y14.07
G1Y14.05
G1X29.5Y14.06
G1X29.45Y14.1
G1X29.4Y14.19
G1Y14.29
G1X29.46Y14.36
G1X29.55Y14.4
M5
G0X29.13Y14.23
M3 S30
; Layer C00
G1X29.15Y14.19
G1Y14.14
G1X29.07Y14.05
G1X28.93Y13.98
G1X28.77Y13.95
G1X28.68Y13.99
G1Y14.07
G1X28.77Y14.16
G1X28.9Y14.23
G1X29.04Y14.26
G1X29.09
G1X29.13Y14.23
M5
G0X30.3Y14.05
M3 S30
; Layer C00
G1X30.38Y14.1
G1X30.5
G1X30.61Y14.07
G1X30.68Y14.01
G1X30.65Y13.94
G1X30.56Y13.89
G1X30.46
G1X30.45Y13.92
G1Y13.96
G1X30.37Y13.98
G1X30.3Y14
G1Y14.05
M5
G0X30.47Y14.35
M3 S30
; Layer C00
G1X30.34Y14.37
G1X30.31Y14.41
G1X30.34Y14.45
G1X30.4Y14.47
G1X30.46Y14.45
G1X30.55Y14.4
G1X30.6Y14.37
G1Y14.35
G1X30.56
G1X30.47
M5
G0X30.8Y14.56
M3 S30
; Layer C00
G1X30.81Y14.66
G1X30.77Y14.72
G1X30.73Y14.77
G1X30.74Y14.84
G1Y14.86
G1X30.71Y14.84
G1X30.61Y14.72
G1X30.57Y14.7
G1X30.56Y14.71
G1Y14.77
G1X30.53Y14.86
G1X30.48Y14.89
G1X30.43Y14.91
G1X30.41Y14.96
G1X30.42Y14.99
G1X30.47Y15.01
G1X30.55Y15.02
G1X30.64
G1X30.77Y15
G1X30.85Y14.96
G1X30.89Y14.89
G1X30.91Y14.77
G1Y14.68
G1X30.9Y14.6
G1X30.88Y14.56
G1X30.85Y14.54
G1X30.8Y14.56
M5
G0X31.15Y14.54
M3 S30
; Layer C00
G1Y14.67
G1Y14.8
G1Y14.91
G1X31.17Y15
G1X31.19Y15.05
G1X31.26Y15.1
G1X31.31Y15.07
G1X31.36Y14.99
G1X31.42Y14.82
G1X31.44Y14.72
G1Y14.63
G1Y14.59
G1X31.42Y14.58
G1X31.38Y14.64
G1X31.36Y14.74
G1Y14.8
G1X31.34Y14.81
G1X31.32Y14.79
G1X31.28Y14.73
G1X31.23Y14.59
G1Y14.43
G1Y14.32
G1X31.2Y14.3
G1X31.18Y14.34
G1X31.16Y14.43
G1X31.15Y14.54
M5
G0X29.57Y15.6
M3 S30
; Layer C00
G1X29.48Y15.63
G1X29.33Y15.73
G1X29.26Y15.78
G1X29.22Y15.83
G1X29.2Y15.86
G1X29.21Y15.87
G1X29.32Y15.83
G1X29.46Y15.73
G1X29.53Y15.67
G1X29.57Y15.63
G1X29.58Y15.6
M5
G0X28.24Y15.98
M3 S30
; Layer C00
G1X28.23Y15.96
G1X28.12Y15.95
G1X28.01Y15.96
G1X27.97Y15.97
G1Y15.99
G1X28.02
G1X28.1
G1X28.17
G1X28.22
G1X28.24Y15.98
M5
G0X27.42Y15.69
M3 S30
; Layer C00
G1Y15.63
G1X27.33Y15.65
G1X27.21Y15.73
G1X27.14Y15.82
G1X27.15Y15.86
G1X27.22Y15.85
G1X27.35Y15.77
G1X27.42Y15.69
M5
G0X26.13Y15.49
M3 S30
; Layer C00
G1X26.11Y15.47
G1X26.07Y15.45
G1X25.99
G1X25.82Y15.46
G1X25.69Y15.49
G1X25.6Y15.54
G1X25.57Y15.61
G1X25.58Y15.63
G1X25.64Y15.64
G1X25.71
G1X25.8
G1X25.98Y15.59
G1X26.11Y15.52
G1X26.13Y15.49
M5
G0X25.26Y15.5
M3 S30
; Layer C00
G1X25.22Y15.46
G1X25.11Y15.47
G1X24.94Y15.55
G1X24.84Y15.6
G1X24.8Y15.64
G1X24.81Y15.68
G1X24.88Y15.72
G1X25.02Y15.78
G1X25.13
G1X25.22Y15.72
G1X25.26Y15.61
G1Y15.5
M5
G0X24.83Y15
M3 S30
; Layer C00
G1X24.89Y14.96
G1X24.93Y14.89
G1X24.94Y14.79
G1X24.92Y14.73
G1X24.86Y14.69
G1X24.77
G1X24.72
G1X24.71Y14.7
G1X24.73Y14.72
G1X24.86Y14.78
G1X24.87Y14.8
G1X24.82Y14.81
G1X24.7
G1X24.61Y14.82
G1X24.54Y14.84
G1X24.48Y14.86
G1X24.47Y14.88
G1X24.48Y14.94
G1X24.53Y14.99
G1X24.6Y15.02
G1X24.68Y15.03
G1X24.76
G1X24.83Y15
M5
G0X23.93Y14.92
M3 S30
; Layer C00
G1Y14.95
G1X23.84
G1X23.79
G1X23.76
G1Y14.93
G1X23.79Y14.91
G1X23.87Y14.9
G1X23.93Y14.92
M5
G0X23.98Y14.92
M3 S30
; Layer C00
G1X23.94Y14.88
G1X23.85Y14.85
G1X23.73Y14.84
G1X23.61Y14.83
G1X23.55
G1Y14.86
G1X23.63Y14.93
G1X23.62Y14.95
G1X23.55
G1X23.42Y14.94
G1X23.31Y14.92
G1X23.23
G1X23.19Y14.94
G1Y14.96
G1X23.17Y15.01
G1X23.08Y15.03
G1X23.01
G1X22.96Y15.06
G1X22.94Y15.11
G1X22.93Y15.16
G1X22.95Y15.26
G1X23.01Y15.32
G1X23.11Y15.33
G1X23.22Y15.3
G1X23.39Y15.23
G1X23.66Y15.15
G1X23.79Y15.1
G1X23.89Y15.06
G1X23.96Y15.01
G1X23.99Y14.96
G1Y14.92
M5
G0X23.75Y15.51
M3 S30
; Layer C00
G1X23.58Y15.5
G1X23.43
G1X23.32Y15.51
G1X23.25Y15.54
G1X23.22Y15.58
G1Y15.62
G1X23.25Y15.65
G1X23.31Y15.68
G1X23.4Y15.7
G1X23.52Y15.72
G1X23.66
G1X23.82Y15.73
G1X24.07
G1X24.22Y15.71
G1X24.28Y15.69
G1X24.26Y15.65
G1X24.19Y15.6
G1X24.06Y15.57
G1X23.91Y15.53
G1X23.75Y15.51
M5
G0X22.58Y15.15
M3 S30
; Layer C00
G1X22.62Y15.09
G1Y15.03
G1X22.6Y15
G1X22.56Y14.98
G1X22.5
G1X22.4Y15
G1X22.38Y15.07
G1X22.33Y15.09
G1X22.25Y15.1
G1X22.14Y15.11
G1X22
G1X21.88Y15.12
G1X21.8Y15.13
G1X21.73Y15.14
G1X21.64Y15.19
G1X21.55Y15.26
G1X21.49Y15.32
G1X21.47Y15.36
G1X21.49
G1X21.54Y15.35
G1X21.62Y15.33
G1X21.76Y15.3
G1X21.93Y15.28
G1X22.12Y15.25
G1X22.35Y15.23
G1X22.5Y15.19
G1X22.58Y15.15
M5
G0X22.16Y14.61
M3 S30
; Layer C00
G1X21.93Y14.48
G1X21.73Y14.37
G1X21.56Y14.31
G1X21.51Y14.29
G1X21.56Y14.27
G1X21.64
G1X21.84Y14.23
G1X22.01Y14.15
G1X22.07Y14.1
G1Y14.07
G1X22.04Y14.06
G1X21.98
G1X21.9
G1X21.79
G1X21.62
G1X21.53Y14.07
G1X21.52Y14.09
G1X21.57Y14.12
G1X21.63Y14.15
G1Y14.17
G1X21.55Y14.18
G1X21.41
G1X21.17Y14.22
G1X21.02Y14.29
G1X20.99Y14.35
G1X21.02Y14.39
G1X21.11Y14.44
G1X21.29Y14.5
G1X21.61Y14.57
G1X21.9Y14.6
G1X22.16
M5
G0X22.6Y14.47
M3 S30
; Layer C00
G1X22.64Y14.52
G1X22.7Y14.53
G1X22.79Y14.5
G1X22.93Y14.43
G1X22.99Y14.39
G1X23.02Y14.36
G1X22.84Y14.39
G1X22.7Y14.4
G1X22.61Y14.42
G1X22.6Y14.47
M5
G0X22.62Y14.13
M3 S30
; Layer C00
G1X22.73
G1X22.87
G1X23.26Y14.09
G1X22.93Y14.06
G1X22.8
G1X22.69
G1X22.6Y14.08
G1X22.55Y14.1
G1Y14.12
G1X22.62
M5
G0X22.46Y13.83
M3 S30
; Layer C00
G1X22.53Y13.82
G1X22.64Y13.77
G1X22.73Y13.69
G1X22.74Y13.63
G1X22.67Y13.59
G1X22.46Y13.66
G1X22.38Y13.65
G1X22.36
G1X22.38Y13.72
G1X22.42Y13.8
G1X22.46Y13.83
M5
G0X22.97Y13.64
M3 S30
; Layer C00
G1X23.05Y13.69
G1X23.19
G1X23.32Y13.68
G1X23.4Y13.63
G1X23.43Y13.54
G1X23.39Y13.49
G1X23.29Y13.48
G1X23.15Y13.51
G1X23.07Y13.54
G1X23.01Y13.58
G1X22.97Y13.62
G1Y13.64
M5
G0X23.53Y13.9
M3 S30
; Layer C00
G1X23.51Y13.94
G1X23.52Y14.01
G1X23.56Y14.04
G1X23.64
G1X23.79Y14.01
G1X23.89Y13.96
G1X23.91Y13.9
G1X23.84Y13.86
G1X23.69Y13.84
G1X23.62
G1X23.56Y13.87
G1X23.53Y13.9
M5
G0X23.73Y14.1
M3 S30
; Layer C00
G1X23.58Y14.17
G1X23.48Y14.23
G1X23.44Y14.27
G1X23.47Y14.29
G1X23.55
G1X23.66
G1X23.8Y14.25
G1X24.08Y14.16
G1X24.27Y14.06
G1X24.36Y13.95
G1X24.38Y13.88
G1X24.33
G1X24.22Y13.91
G1X24.07Y13.96
G1X23.9Y14.03
G1X23.73Y14.1
M5
G0X23.66Y13.49
M3 S30
; Layer C00
G1X23.75
G1X23.87Y13.43
G1X23.92Y13.37
G1X23.9Y13.33
G1X23.82
G1X23.7Y13.39
G1X23.63Y13.46
G1X23.66Y13.49
M5
G0X24.21Y13.39
M3 S30
; Layer C00
G1X24.25Y13.45
G1X24.36Y13.56
G1X24.44Y13.64
G1X24.51Y13.7
G1X24.56Y13.74
G1X24.61Y13.76
G1X24.71Y13.73
G1X24.84Y13.63
G1X24.9Y13.58
G1X24.94Y13.54
G1X24.96Y13.51
G1Y13.5
G1X24.88
G1X24.74Y13.57
G1X24.68Y13.6
G1X24.64
G1X24.62
G1X24.63Y13.53
G1X24.55Y13.45
G1X24.43Y13.38
G1X24.29Y13.35
G1X24.22
G1X24.21Y13.39
M5
G0X24.86Y13.26
M3 S30
; Layer C00
G1Y13.25
G1X24.89Y13.23
G1X24.97Y13.22
G1X25.03Y13.24
G1Y13.27
G1X24.94
G1X24.89
G1X24.86Y13.26
M5
G0X24.72Y13.22
M3 S30
; Layer C00
G1Y13.29
G1X24.77Y13.36
G1X24.86Y13.38
G1X24.98
G1X25.11Y13.35
G1X25.2Y13.3
G1Y13.26
G1X25.12Y13.2
G1X25.01Y13.16
G1X24.89Y13.14
G1X24.78Y13.16
G1X24.72Y13.22
M5
G0X24.96Y12.41
M3 S30
; Layer C00
G1X25.2Y12.42
G1X25.29
G1X25.34
G1Y12.4
G1X25.31
G1X24.78Y12.27
G1X24.63Y12.23
G1X24.52Y12.22
G1X24.45
G1X24.43Y12.23
G1X24.54Y12.3
G1X24.73Y12.36
G1X24.96Y12.41
M5
G0X25.05Y12.14
M3 S30
; Layer C00
G1X25.12
G1X25.15
G1X25.12Y12.11
G1X25.05Y12.09
G1X24.67Y11.97
G1X24.38Y11.89
G1X24.27Y11.86
G1X24.19Y11.85
G1X24.14Y11.84
G1X24.11
G1Y11.86
G1X24.14Y11.89
G1X24.2Y11.93
G1X24.28Y11.96
G1X24.48Y12.03
G1X24.71Y12.09
G1X24.85Y12.11
G1X24.96Y12.13
G1X25.05Y12.14
M5
G0X26.71Y11.82
M3 S30
; Layer C00
G1X26.76Y11.9
G1X26.83Y12
G1X26.91Y12.08
G1X26.93
G1X26.91Y12.03
G1X26.84Y11.91
G1X26.75Y11.79
G1X26.69Y11.74
G1Y11.76
G1X26.71Y11.82
M5
G0X21.68Y13.25
M3 S30
; Layer C00
G1X21.65Y13.22
G1X21.57Y13.18
G1X21.5
G1Y13.21
G1X21.54Y13.25
G1X21.6Y13.28
G1X21.66
G1X21.68Y13.25
M5
G0X21.44Y13.57
M3 S30
; Layer C00
G1X21.41
G1X21.33
G1X21.21Y13.58
G1X21.17Y13.63
G1X21.18Y13.68
G1X21.22Y13.7
G1X21.29Y13.68
G1X21.39Y13.63
G1X21.43Y13.6
G1X21.44Y13.57
M5
G0X20.77Y13.78
M3 S30
; Layer C00
G1X20.75Y13.81
G1X20.69Y13.85
G1X20.6Y13.91
G1X20.4Y14.01
G1X20.27Y14.05
G1X20.25Y14.04
G1X20.28Y14.01
G1X20.34Y13.96
G1X20.43Y13.91
G1X20.55Y13.85
G1X20.64Y13.81
G1X20.71Y13.78
G1X20.76
M5
G0X20.88Y13.7
M3 S30
; Layer C00
G1X20.8Y13.68
G1X20.71
G1X20.59Y13.72
G1X20.44Y13.79
G1X20.33Y13.85
G1X20.25Y13.9
G1X20.19Y13.95
G1X20.16Y13.99
G1Y14.02
G1X20.17Y14.05
G1X20.22Y14.08
G1X20.29Y14.1
G1X20.35Y14.12
G1X20.39Y14.15
G1Y14.18
G1Y14.2
G1X20.3Y14.24
G1X20.15Y14.23
G1X20.06Y14.21
G1X20.02
G1Y14.23
G1X20.07Y14.26
G1X20.18Y14.31
G1X20.31Y14.33
G1X20.45Y14.31
G1X20.58Y14.26
G1X20.72Y14.15
G1X20.87Y13.98
G1X20.96Y13.86
G1X20.98Y13.79
G1X20.96Y13.75
G1X20.88Y13.7
M5
G0X20.32Y13.35
M3 S30
; Layer C00
G1Y13.32
G1X20.3Y13.29
G1X20.22
G1X20.1
G1X19.92Y13.33
G1X19.8Y13.4
G1X19.77Y13.43
G1Y13.46
G1X19.81Y13.48
G1X19.88Y13.49
G1X19.95Y13.47
G1X19.96Y13.43
G1X19.99Y13.4
G1X20.1
G1X20.23
G1X20.32Y13.35
M5
G0X20.23Y13.08
M3 S30
; Layer C00
G1X20.35Y13.06
G1X20.39Y13.04
G1X20.38Y13.03
G1X20.3Y13.01
G1X20.15
G1X20.06Y13.05
G1X20.04Y13.08
G1X20.07
G1X20.13
G1X20.23
M5
G0X20.21Y12.78
M3 S30
; Layer C00
G1X20.32
G1X20.38
G1X20.41Y12.75
G1X20.39Y12.72
G1X20.29Y12.68
G1X20.13Y12.71
G1X20.04Y12.75
G1X20.02Y12.77
G1X20.07Y12.78
G1X20.21
M5
G0X20.29Y12.33
M3 S30
; Layer C00
G1X20.36
G1X20.48Y12.26
G1X20.67Y12.13
G1X20.76Y12.06
G1X20.83Y12.01
G1X20.86Y11.97
G1Y11.95
G1X20.83Y11.94
G1X20.77
G1X20.68Y11.96
G1X20.56Y12
G1X20.43Y12.04
G1X20.32Y12.09
G1X20.24Y12.13
G1X20.19Y12.16
G1X20.15Y12.23
G1X20.21Y12.3
G1X20.29Y12.33
M5
G0X20.06Y12.18
M3 S30
; Layer C00
G1X20.1Y12.14
G1X20.17Y12.08
G1X20.27Y12.01
G1X20.38Y11.93
G1X20.53Y11.84
G1X20.57Y11.8
G1X20.59Y11.78
G1X20.57Y11.76
G1X20.47
G1X20.29Y11.8
G1X20.11Y11.92
G1X20.03Y11.99
G1X19.98Y12.05
G1X19.95Y12.12
G1X19.96Y12.17
G1X20.01Y12.2
G1X20.06Y12.18
M5
G0X19.54Y13.65
M3 S30
; Layer C00
G1X19.5Y13.67
G1X19.51Y13.72
G1X19.59Y13.8
G1X19.7Y13.88
G1X19.75Y13.9
G1X19.77Y13.88
G1Y13.81
G1X19.74Y13.73
G1X19.65Y13.67
G1X19.54Y13.65
M5
G0X19.42Y13.99
M3 S30
; Layer C00
G1X19.3
G1X19.23
G1Y14.02
G1X19.26Y14.05
G1X19.38Y14.1
G1X19.53Y14.12
G1X19.65Y14.11
G1X19.7Y14.06
G1X19.68Y14.04
G1X19.62Y14.02
G1X19.53Y14
G1X19.42
M5
G0X19.34Y14.28
M3 S30
; Layer C00
G1X19.19Y14.26
G1X19.03Y14.28
G1X18.97Y14.33
G1X19.03Y14.38
G1X19.19Y14.4
G1X19.34Y14.38
G1X19.41Y14.33
G1X19.34Y14.28
M5
G0X19.6Y14.35
M3 S30
; Layer C00
G1X19.59Y14.4
G1X19.65Y14.45
G1X19.74Y14.47
G1X19.82Y14.45
G1X19.85Y14.4
G1X19.8Y14.35
G1X19.7Y14.33
G1X19.6Y14.35
M5
G0X19.7Y14.57
M3 S30
; Layer C00
G1X19.55Y14.63
G1X19.44Y14.7
G1X19.42Y14.72
G1X19.43Y14.74
G1X19.48
G1X19.55Y14.72
G1X19.7Y14.66
G1X19.81Y14.59
G1X19.83Y14.57
G1X19.82Y14.55
G1X19.78
G1X19.7Y14.57
M5
G0X19.33Y14.61
M3 S30
; Layer C00
G1X19.3Y14.55
G1X19.23
G1X19.12Y14.58
G1X19Y14.65
G1X18.92Y14.71
G1X18.9Y14.74
G1X18.92
G1X18.99Y14.72
G1X19.12Y14.69
G1X19.23Y14.68
G1X19.3Y14.66
G1X19.33Y14.61
M5
G0X19.23Y14.86
M3 S30
; Layer C00
G1X19.11
G1X19.07Y14.89
G1X19.16Y14.94
G1X19.31Y14.96
G1X19.44
G1X19.47Y14.93
G1X19.37Y14.89
G1X19.23Y14.86
M5
G0X18.8Y14.85
M3 S30
; Layer C00
G1Y14.82
G1X18.77Y14.8
G1X18.72
G1X18.64
G1X18.52Y14.85
G1X18.5Y14.9
G1X18.56Y14.94
G1X18.65
G1X18.74Y14.91
G1X18.8Y14.85
M5
G0X18.38Y14.82
M3 S30
; Layer C00
G1X18.34Y14.77
G1X18.25Y14.75
G1X18.13Y14.77
G1X18.01Y14.82
G1X17.97Y14.85
G1Y14.87
G1X18.03Y14.89
G1X18.14
G1X18.23
G1X18.31Y14.87
G1X18.36Y14.85
G1X18.38Y14.82
M5
G0X18.36Y15.12
M3 S30
; Layer C00
G1X18.2
G1X18.04
G1X17.96Y15.16
G1X17.94Y15.2
G1X17.99Y15.26
G1X18.05Y15.3
G1X18.13
G1X18.23
G1X18.34Y15.27
G1X18.44Y15.21
G1Y15.16
G1X18.36Y15.12
M5
G0X17.75Y14.86
M3 S30
; Layer C00
G1X17.77Y14.83
G1X17.72
G1X17.57Y14.86
G1X17.38Y14.91
G1X17.25Y14.96
G1X17.23Y14.99
G1Y15.01
G1X17.26Y15.02
G1X17.32
G1X17.47Y15
G1X17.65Y14.92
G1X17.75Y14.86
M5
G0X17.28Y15.38
M3 S30
; Layer C00
G1X17.23Y15.4
G1X17.21Y15.45
G1X17.23Y15.5
G1X17.28Y15.52
G1X17.33Y15.5
G1X17.35Y15.45
G1X17.33Y15.4
G1X17.28Y15.38
M5
G0X16.91Y15.38
M3 S30
; Layer C00
G1X16.88Y15.35
G1X16.8
G1X16.74Y15.4
G1Y15.46
G1X16.78Y15.49
G1X16.84
G1X16.89Y15.44
G1X16.91Y15.38
M5
G0X16.35Y14.78
M3 S30
; Layer C00
G1X16.43Y14.74
G1Y14.69
G1X16.38
G1X16.31Y14.74
G1X16.27Y14.78
G1Y14.8
G1X16.29
G1X16.35Y14.78
M5
G0X16.24Y14.6
M3 S30
; Layer C00
G1X16.43Y14.5
G1X16.56Y14.38
G1X16.6Y14.29
G1Y14.27
G1X16.55Y14.29
G1X16.43Y14.36
G1X16.24Y14.48
G1X16.11Y14.56
G1X16.02Y14.62
G1X15.98Y14.66
G1Y14.68
G1X16.02Y14.67
G1X16.11Y14.64
G1X16.24Y14.6
M5
G0X16.4Y14.23
M3 S30
; Layer C00
G1X16.43
G1X16.51Y14.22
G1X16.59Y14.17
G1X16.62Y14.1
G1X16.59Y14.08
G1X16.51Y14.12
G1X16.43Y14.19
G1X16.4Y14.23
M5
G0X14.97Y14.97
M3 S30
; Layer C00
G1X14.71Y15.07
G1X14.59Y15.11
G1X14.48Y15.14
G1X14.4Y15.16
G1X14.34
G1X14.31
G1Y15.14
G1X14.33Y15.11
G1X14.38Y15.06
G1X14.55Y14.99
G1X14.75Y14.97
G1X14.97
M5
G0X15.07Y15.4
M3 S30
; Layer C00
G1X14.82Y15.44
G1X14.64Y15.46
G1X14.58
G1Y15.48
G1X14.63Y15.5
G1X14.75Y15.52
G1X14.87Y15.54
G1X15.03Y15.57
G1X15.07Y15.58
G1Y15.57
G1X15.05Y15.53
G1Y15.47
G1X15.1Y15.42
G1X15.12Y15.41
G1X15.11
G1X15.07
M5
G0X15.19Y15.53
M3 S30
; Layer C00
G1X15.17Y15.54
G1X15.23Y15.59
G1X15.34Y15.64
G1X15.45Y15.65
G1X15.48
G1X15.49Y15.64
G1X15.47Y15.62
G1X15.41Y15.59
G1X15.28Y15.54
G1X15.19Y15.53
M5
G0X15.8Y16.38
M3 S30
; Layer C00
G1X15.77Y16.4
G1Y16.41
G1X15.79Y16.42
G1X15.84
G1X15.93
G1Y16.39
G1X15.88Y16.37
G1X15.8Y16.38
M5
G0X15.49Y17.23
M3 S30
; Layer C00
G1X15.39Y17.25
G1X15.2Y17.35
G1X15.06Y17.47
G1X15.02Y17.53
G1Y17.58
G1Y17.61
G1X15.08Y17.62
G1X15.13Y17.6
G1X15.15Y17.56
G1X15.21Y17.49
G1X15.46Y17.33
G1X15.51Y17.27
G1X15.49Y17.23
M5
G0X15.01Y17.25
M3 S30
; Layer C00
G1X14.98Y17.22
G1X14.94Y17.18
G1X14.88Y17.12
G1X14.81Y17.06
G1X14.74Y17.03
G1X14.67Y17.01
G1X14.61
G1X14.51Y17.07
G1Y17.13
G1X14.58Y17.19
G1X14.73Y17.22
G1X14.91Y17.24
G1X15Y17.26
M5
G0X14.38Y17
M3 S30
; Layer C00
G1X14.36Y16.94
G1X14.27Y16.9
G1X14.18Y16.89
G1X14.13Y16.91
G1Y16.95
G1X14.18Y17.01
G1X14.23Y17.05
G1X14.28
G1X14.34
G1X14.38Y17
M5
G0X12.8Y16.35
M3 S30
; Layer C00
G1X12.78
G1X12.72Y16.36
G1X12.62Y16.34
G1X12.55Y16.29
G1X12.53Y16.24
G1X12.57Y16.22
G1X12.64Y16.24
G1X12.73Y16.29
G1X12.79Y16.33
G1X12.8Y16.35
M5
G0X10.91Y15.26
M3 S30
; Layer C00
G1X11Y15.15
G1X11.03Y15.04
G1X11.04Y14.9
G1X11.08Y14.73
G1Y14.63
G1X11.06Y14.52
G1X11.01Y14.42
G1X10.92Y14.33
G1X10.82Y14.24
G1X10.7Y14.18
G1X10.57Y14.14
G1X10.44Y14.12
G1X10.27Y14.14
G1X10.12Y14.19
G1X9.99Y14.28
G1X9.88Y14.39
G1X9.8Y14.52
G1X9.75Y14.66
G1X9.73Y14.81
G1X9.76Y14.96
G1X9.82Y15.07
G1X9.89Y15.1
G1X9.93Y15.05
G1X9.9Y14.74
G1X9.96Y14.57
G1X10.06Y14.42
G1X10.22Y14.32
G1X10.42Y14.28
G1X10.6Y14.3
G1X10.76Y14.4
G1X10.91Y14.56
G1X10.97Y14.64
G1X11.01Y14.7
G1X11.02Y14.74
G1X10.94Y14.72
G1X10.85Y14.76
G1X10.81Y14.8
G1X10.79Y14.84
G1X10.8Y14.89
G1X10.84Y14.94
G1X10.88Y15
G1Y15.05
G1X10.85Y15.1
G1X10.7Y15.23
G1X10.67Y15.28
G1Y15.31
G1X10.7Y15.33
G1X10.8
G1X10.91Y15.26
M5
G0X10.22Y15.01
M3 S30
; Layer C00
G1X10.24Y14.96
G1X10.22Y14.91
G1X10.17Y14.89
G1X10.11Y14.91
G1X10.09Y14.96
G1X10.11Y15.01
G1X10.17Y15.03
G1X10.22Y15.01
M5
G0X8.74Y14.18
M3 S30
; Layer C00
G1X8.75Y14.15
G1X8.69Y14.13
G1X8.61Y14.14
G1X8.58Y14.16
G1Y14.17
G1X8.61
G1X8.66Y14.18
G1X8.74
M5
G0X7.17Y14.86
M3 S30
; Layer C00
G1X7.2Y14.91
G1Y14.96
G1X7.16Y15.01
G1X7.13Y15.03
G1X7.12Y15
G1Y14.93
G1Y14.87
G1X7.17
M5
G0X6.91Y15.24
M3 S30
; Layer C00
G1X6.87Y15.26
G1X6.83Y15.31
G1Y15.36
G1X6.86Y15.38
G1X6.92Y15.36
G1X6.94Y15.31
G1Y15.26
G1X6.91Y15.24
M5
G0X6.95Y15.21
M3 S30
; Layer C00
G1X6.99Y15.27
G1Y15.35
G1Y15.42
G1X7.07Y15.47
G1X7.14Y15.48
G1X7.16Y15.49
G1X7.14Y15.51
G1X7.08Y15.53
G1X6.96
G1X6.85Y15.48
G1X6.68Y15.39
G1X6.42Y15.32
G1X6.23Y15.29
G1X6.14Y15.24
G1X6.1Y15.15
G1Y14.98
G1Y14.87
G1Y14.78
G1X6.12Y14.73
G1X6.14Y14.72
G1X6.18Y14.71
G1X6.25Y14.66
G1X6.35Y14.58
G1X6.46Y14.47
G1X6.67Y14.22
G1X6.82Y14
G1X6.88Y13.91
G1X6.93Y13.84
G1X6.97Y13.79
G1X7.01Y13.77
G1X7.03Y13.81
G1X7.04Y13.92
G1Y14.08
G1Y14.28
G1X7.02Y14.65
G1Y14.78
G1X7Y14.88
G1X6.98Y14.99
G1X6.94Y15
G1X6.87Y15.04
G1X6.74Y15.15
G1X6.67Y15.22
G1X6.64Y15.27
G1Y15.3
G1X6.68Y15.31
G1X6.77Y15.29
G1X6.83Y15.24
G1X6.89Y15.2
G1X6.95Y15.21
M5
G0X6.13Y15.98
M3 S30
; Layer C00
G1X6.18Y16.02
G1X6.21Y16.05
G1X6.18Y16.07
G1X6.13Y16.08
G1X6.08Y16.06
G1X6.06Y16.01
G1X6.08Y15.97
G1X6.13
M5
G0X6.06Y16.19
M3 S30
; Layer C00
G1X6.11Y16.24
G1X6.13Y16.29
G1X6.11Y16.34
G1X6.06Y16.36
G1X6.01Y16.33
G1X5.99Y16.25
G1X6.01Y16.19
G1X6.06
M5
G0X5.21Y15.84
M3 S30
; Layer C00
G1X5.1Y15.87
G1X5.04
G1X5Y15.83
G1X4.97Y15.79
G1X4.96Y15.73
G1X4.99Y15.62
G1X5.07Y15.55
G1X5.17Y15.53
G1X5.26Y15.57
G1X5.3Y15.66
G1X5.28Y15.76
G1X5.21Y15.84
M5
G0X5.12Y14.96
M3 S30
; Layer C00
G1X5.13Y14.92
G1X5.18Y14.84
G1X5.23Y14.76
G1X5.24Y14.68
G1Y14.6
G1X5.19Y14.49
G1X5.15Y14.39
G1X5.13Y14.35
G1X5.16Y14.36
G1X5.22Y14.43
G1X5.3Y14.56
G1X5.32Y14.69
G1X5.29Y14.8
G1X5.2Y14.9
G1X5.14Y14.95
G1X5.12
M5
G0X5.31Y14.32
M3 S30
; Layer C00
G1X5.22Y14.26
G1Y14.22
G1X5.3Y14.24
G1X5.41
G1X5.51Y14.16
G1X5.57Y14.06
G1Y13.95
G1Y13.87
G1X5.61Y13.81
G1X5.64Y13.8
G1X5.66
G1Y13.83
G1X5.65Y13.87
G1X5.64Y13.95
G1X5.68Y13.98
G1X5.74Y13.95
G1X5.79Y13.89
G1X5.81Y13.85
G1X5.82
G1X5.83Y13.89
G1X5.81Y13.97
G1X5.65Y14.08
G1X5.62Y14.15
G1X5.57Y14.25
G1X5.45Y14.31
G1X5.31
M5
G0X5.1Y14.22
M3 S30
; Layer C00
G1X5.02Y14.2
G1X4.9Y14.1
G1X4.83Y14.01
G1X4.75Y13.89
G1X4.66Y13.74
G1X4.58Y13.58
G1X4.5Y13.42
G1X4.43Y13.28
G1X4.39Y13.16
G1X4.37Y13.07
G1Y13.03
G1X4.39Y13.01
G1X4.42
G1X4.45Y13.05
G1X4.52Y13.18
G1X4.68Y13.61
G1X4.79Y13.82
G1X4.9Y13.98
G1X5.02Y14.1
G1X5.09Y14.17
G1Y14.22
M5
G0X5.44Y13.84
M3 S30
; Layer C00
G1X5.4Y13.82
G1X5.36Y13.77
G1Y13.72
G1X5.4Y13.7
G1X5.45Y13.72
G1X5.47Y13.77
G1Y13.82
G1X5.44Y13.84
M5
G0X5.33Y13.35
M3 S30
; Layer C00
G1X5.28
G1X5.25Y13.32
G1X5.29Y13.29
G1X5.37Y13.25
G1X5.44
G1Y13.28
G1X5.39Y13.32
G1X5.33Y13.35
M5
G0X4.93Y13.14
M3 S30
; Layer C00
G1Y13.12
G1X4.92Y13.09
G1X4.88Y13.06
G1X4.8Y13.03
G1X4.76
G1X4.75Y13.07
G1X4.77Y13.14
G1X4.83Y13.18
G1X4.9Y13.17
G1X4.93Y13.14
M5
G0X4.97Y13.13
M3 S30
; Layer C00
G1X4.96Y13.18
G1X4.95Y13.22
G1X4.97Y13.28
G1X5.01Y13.34
G1X5.07Y13.41
G1X5.21Y13.51
G1X5.32Y13.53
G1X5.38Y13.52
G1X5.43Y13.54
G1X5.41Y13.59
G1X5.33Y13.61
G1X5.26Y13.59
G1X5.16Y13.54
G1X5.04Y13.45
G1X4.92Y13.35
G1X4.82Y13.24
G1X4.74Y13.14
G1X4.7Y13.06
G1Y13.01
G1Y12.95
G1X4.57Y12.9
G1X4.54Y12.83
G1X4.56Y12.8
G1X4.6
G1X4.68Y12.84
G1X4.79Y12.92
G1X4.89Y13
G1X4.95Y13.07
G1X4.97Y13.13
M5
G0X4Y13.14
M3 S30
; Layer C00
G1X4.04Y13.62
G1X4.08Y13.85
G1X4.12Y14.04
G1X4.18Y14.17
G1X4.22Y14.26
G1X4.25Y14.32
G1X4.27Y14.37
G1Y14.39
G1X4.23Y14.37
G1X4.19Y14.34
G1X4.14Y14.28
G1X4Y14.1
G1X3.92Y13.92
G1X3.87Y13.69
G1Y13.41
G1Y13.18
G1X3.88Y13.01
G1X3.9Y12.91
G1X3.93Y12.87
G1X3.95Y12.9
G1X3.98Y12.99
G1X4Y13.14
M5
G0X6.67Y13.93
M3 S30
; Layer C00
G1X6.72Y13.87
G1X6.77
G1X6.79Y13.9
G1X6.77Y13.96
G1X6.72Y14.01
G1X6.67Y14.02
G1X6.65Y13.99
G1X6.67Y13.93
M5
G0X6.58Y13.92
M3 S30
; Layer C00
G1X6.49Y14.11
G1X6.48Y14.26
G1X6.45Y14.38
G1X6.34Y14.49
G1X6.2Y14.58
G1X6.06Y14.6
G1X6.01
G1X5.97Y14.65
G1X5.94Y14.72
G1X5.91Y14.81
G1X5.82Y15.01
G1X5.69Y15.15
G1X5.52Y15.26
G1X5.69Y15.39
G1X5.83Y15.49
G1X5.92Y15.51
G1X5.94Y15.46
G1X5.91Y15.34
G1X5.88Y15.18
G1X5.9Y15.05
G1X5.93Y15.01
G1X5.96
G1X5.98Y15.06
G1X6.01Y15.15
G1X6.05Y15.26
G1X6.12Y15.35
G1X6.26Y15.43
G1X6.67Y15.58
G1X6.81Y15.65
G1X6.91Y15.71
G1X6.95Y15.75
G1X6.96Y15.78
G1X7.05Y15.64
G1X7.14Y15.56
G1X7.22Y15.43
G1X7.26Y15.24
G1X7.3Y15.02
G1X7.35Y14.83
G1X7.37Y14.75
G1Y14.71
G1X7.36Y14.69
G1X7.29Y14.71
G1X7.28Y14.69
G1Y14.63
G1X7.31Y14.54
G1X7.34Y14.35
G1Y14.22
G1X7.33Y14.13
G1X7.37Y14.03
G1X7.46Y13.93
G1X7.59Y13.84
G1X7.9Y13.69
G1X8.24Y13.63
G1X8.44Y13.6
G1X8.69Y13.51
G1X8.95Y13.39
G1X9.17Y13.26
G1X9.24Y13.21
G1Y13.18
G1X9.18Y13.17
G1X9.05
G1X8.95
G1X8.88Y13.19
G1X8.83Y13.21
G1Y13.27
G1X8.75Y13.26
G1X8.66Y13.25
G1X8.63Y13.29
G1X8.6Y13.32
G1X8.5Y13.3
G1X8.48Y13.34
G1X8.43Y13.37
G1X8.32
G1X8.22Y13.36
G1X8.21Y13.39
G1X8.19Y13.42
G1X8.09Y13.44
G1X7.94
G1X7.74
G1X7.29Y13.39
G1X6.88Y13.31
G1X6.48Y13.22
G1X6.07Y13.17
G1X5.4Y13.12
G1X5.19Y13.08
G1X5.03Y13.02
G1X4.4Y12.52
G1X4.39Y12.7
G1X4.36Y12.84
G1X4.33Y12.92
G1X4.31
G1Y12.9
G1Y12.84
G1Y12.77
G1X4.32Y12.64
G1X4.29Y12.58
G1X4.25Y12.56
G1X4.23Y12.51
G1X4.25Y12.47
G1X4.35Y12.48
G1X4.37Y12.44
G1X4.4Y12.4
G1X4.46Y12.41
G1X4.51Y12.43
G1X4.49Y12.38
G1X4.44Y12.33
G1X4.39
G1X4.35Y12.3
G1X4.33Y12.19
G1X4.3Y12.01
G1X4.26Y11.83
G1X4.23Y11.72
G1X4.2Y11.71
G1X4.18Y11.73
G1X4.15Y11.79
G1X4.12Y11.87
G1X4.08Y11.97
G1X3.95Y12.36
G1X3.83Y12.79
G1X3.78Y13.01
G1X3.75Y13.2
G1X3.72Y13.37
G1Y13.5
G1X3.74Y13.71
G1X3.8Y13.92
G1X3.9Y14.13
G1X4.04Y14.33
G1X4.2Y14.51
G1X4.39Y14.67
G1X4.61Y14.81
G1X4.84Y14.93
G1X4.97Y14.97
G1X5.09Y15
G1X5.19
G1X5.27Y14.98
G1X5.35Y14.93
G1X5.42Y14.86
G1X5.49Y14.77
G1X5.63Y14.5
G1X5.71Y14.4
G1X5.81Y14.32
G1X5.92Y14.27
G1X6.02Y14.23
G1X6.08Y14.18
G1X6.11Y14.14
G1Y14.09
G1X6.1Y14.01
G1X6.13Y13.98
G1X6.24Y13.93
G1X6.41Y13.81
G1X6.5Y13.74
G1X6.57Y13.7
G1X6.63Y13.68
G1X6.66
G1X6.67Y13.71
G1Y13.76
G1X6.63Y13.83
G1X6.58Y13.92
M5
G0X8.26Y16.02
M3 S30
; Layer C00
G1X8.32Y16.04
G1X8.44Y16.09
G1X8.79Y16.26
G1X8.9Y16.31
G1X8.95
G1X8.92Y16.26
G1X8.87Y16.19
G1Y16.17
G1X8.95Y16.2
G1X9.1Y16.28
G1X9.34Y16.4
G1X9.53Y16.52
G1X9.59Y16.57
G1X9.63Y16.6
G1Y16.62
G1X9.62Y16.63
G1X9.5Y16.61
G1X9.32Y16.58
G1X9.06Y16.48
G1X8.73Y16.33
G1X8.57Y16.25
G1X8.43Y16.17
G1X8.32Y16.1
G1X8.25Y16.04
G1Y16.02
M5
G0X7.67Y15.72
M3 S30
; Layer C00
G1X7.64
G1X7.55Y15.67
G1X7.42Y15.61
G1X7.35Y15.6
G1X7.34Y15.64
G1X7.38Y15.73
G1X7.42Y15.83
G1X7.41Y15.87
G1X7.35Y15.84
G1X7.26Y15.75
G1X7.21Y15.69
G1X7.18Y15.67
G1X7.17Y15.7
G1Y15.79
G1X7.14Y15.89
G1X7.09Y15.91
G1X7.03Y15.9
G1X7.02Y15.96
G1X7.05Y16.08
G1X7.13Y16.2
G1X7.25Y16.34
G1X7.44Y16.45
G1X7.58Y16.51
G1X7.75Y16.57
G1X7.96Y16.64
G1X8.51Y16.8
G1X8.81Y16.89
G1X9.08Y16.98
G1X9.46Y17.11
G1X9.6Y17.16
G1X9.69Y17.18
G1X9.75
G1X9.77
G1X9.75Y17.15
G1X9.7Y17.1
G1X9.62Y17.03
G1X9.53Y16.96
G1X9.47Y16.91
G1X9.45Y16.88
G1X9.46Y16.86
G1X9.51
G1X9.6Y16.89
G1X9.73Y16.93
G1X10.09Y17.05
G1X10.23Y17.09
G1X10.33Y17.11
G1X10.39Y17.12
G1X10.42
G1X10.41Y17.09
G1X10.37Y17.04
G1X10.22Y16.91
G1X10.19Y16.87
G1X10.21
G1X10.46Y16.94
G1X10.68Y17
G1X10.76Y17.02
G1X10.87Y17.03
G1X11.01Y17.04
G1X11.17Y17.06
G1X11.52Y17.08
G1X11.89Y17.09
G1X12.23Y17.1
G1X12.49
G1X12.58
G1X12.64Y17.09
G1X12.65Y17.08
G1X12.62Y17.07
G1X12.41Y17.02
G1X12.19Y17
G1X11.92Y16.96
G1X11.59Y16.88
G1X11.43Y16.83
G1X11.28Y16.78
G1X11.16Y16.73
G1X11.08Y16.68
G1X11.01Y16.63
G1Y16.61
G1X11.1
G1X11.44Y16.67
G1X11.67Y16.71
G1X12.18Y16.78
G1X12.7Y16.87
G1X13.12Y16.97
G1X13.26Y17.01
G1X13.38Y17.04
G1X13.47
G1X13.51
G1X13.47Y17.02
G1X13.34Y16.97
G1X13.16Y16.9
G1X12.94Y16.83
G1X12.71Y16.76
G1X12.5Y16.7
G1X12.33Y16.66
G1X12.24Y16.64
G1X12.17Y16.62
G1X12.15Y16.58
G1X12.17Y16.56
G1X12.22Y16.55
G1X12.31
G1X12.67Y16.62
G1X12.88Y16.64
G1X12.96
G1X13Y16.62
G1Y16.6
G1X12.9Y16.53
G1X12.88Y16.5
G1X12.9Y16.47
G1X12.94Y16.44
G1X13Y16.42
G1X13.08Y16.43
G1X13.18Y16.46
G1X13.3Y16.51
G1X13.6Y16.61
G1X13.97Y16.68
G1X14.19Y16.71
G1X14.49Y16.75
G1X14.82Y16.8
G1X15.15Y16.86
G1X15.77Y16.94
G1X16.34Y16.99
G1X16.57
G1X16.75
G1X16.87Y16.96
G1X16.91Y16.93
G1X16.89Y16.9
G1X16.81Y16.87
G1X16.68Y16.84
G1X16.5Y16.81
G1X16.29Y16.78
G1X16.04Y16.75
G1X15.76Y16.73
G1X15.26Y16.7
G1X15.45Y16.65
G1X15.47Y16.64
G1Y16.63
G1X15.43Y16.62
G1X15.37Y16.61
G1X15.18Y16.59
G1X14.59Y16.57
G1X14.31Y16.55
G1X14.09Y16.53
G1X13.94Y16.5
G1X13.86Y16.47
G1Y16.46
G1X13.91
G1X13.98
G1X14.08
G1X14.68Y16.5
G1X14.35Y16.4
G1X14Y16.29
G1X13.72Y16.19
G1X13.62Y16.15
G1X13.57Y16.12
G1Y16.11
G1X13.68Y16.12
G1X13.79Y16.13
G1X14.09Y16.15
G1X14.5Y16.17
G1X14.95Y16.19
G1X15.29Y16.21
G1X15.58
G1X15.82
G1X16.02
G1X16.41Y16.16
G1X16.85Y16.08
G1X17.15Y16.02
G1X17.39Y15.96
G1X17.57Y15.91
G1X17.69Y15.87
G1X17.74Y15.85
G1X17.72Y15.83
G1X17.63
G1X17.3Y15.85
G1X17.22
G1Y15.83
G1X17.28Y15.8
G1X17.34Y15.77
G1X17.32Y15.76
G1X17.28
G1X17.21Y15.75
G1X17.11
G1X16.46
G1X15.85Y15.74
G1X15.05Y15.67
G1X14.33Y15.55
G1X14.2Y15.52
G1X14.09Y15.49
G1X14.01Y15.46
G1X13.96Y15.44
G1Y15.42
G1X13.99Y15.4
G1X14.08Y15.39
G1X14.21
G1X14.59Y15.34
G1X15.03Y15.23
G1X15.25Y15.17
G1X15.45Y15.1
G1X15.61Y15.02
G1X15.73Y14.95
G1X15.79Y14.9
G1X15.83Y14.87
G1Y14.84
G1X15.81
G1X15.76Y14.83
G1X15.67
G1X15.54Y14.86
G1X15.37Y14.89
G1X15.06Y14.9
G1X14.67Y14.87
G1X14.25Y14.8
G1X13.89Y14.69
G1X13.78Y14.65
G1X13.72
G1Y14.68
G1X13.76Y14.75
G1X13.8Y14.81
G1X13.85Y14.85
G1X13.91Y14.87
G1X14.08Y14.85
G1X14.18Y14.88
G1X14.22Y14.91
G1Y14.95
G1X14.19Y15
G1X14.13Y15.06
G1X14.05Y15.13
G1X14Y15.15
G1X13.98Y15.13
G1Y15.08
G1X13.97Y15.03
G1X13.94Y14.99
G1X13.89Y14.97
G1X13.83Y14.96
G1X13.73Y14.94
G1Y14.89
G1X13.72Y14.85
G1X13.67Y14.79
G1X13.59Y14.72
G1X13.49Y14.65
G1X13.26Y14.52
G1X13.06Y14.47
G1X13
G1X12.98Y14.44
G1X13.03Y14.4
G1X13.14Y14.33
G1X13.32Y14.24
G1X13.45Y14.22
G1X13.52
G1X13.59Y14.18
G1X13.6Y14.15
G1Y14.13
G1X13.57
G1X13.53Y14.16
G1X13.5
G1Y14.15
G1X13.53Y14.11
G1X13.58Y14.05
G1X13.76Y13.9
G1X14.02Y13.73
G1X14.32Y13.58
G1X14.63Y13.46
G1X14.9Y13.34
G1X15.12Y13.22
G1X15.3Y13.09
G1X15.11
G1X15.03
G1X14.98Y13.11
G1X14.96Y13.14
G1Y13.22
G1Y13.25
G1X14.91Y13.27
G1X14.85
G1X14.78
G1X14.74Y13.26
G1Y13.23
G1X14.78Y13.18
G1X14.8Y13.14
G1X14.76Y13.1
G1X14.63Y13.07
G1X14.41Y13.04
G1X14.05Y13.03
G1X13.73Y13.04
G1X13.59Y13.06
G1X13.48Y13.08
G1X13.4Y13.11
G1X13.35Y13.15
G1X13.36Y13.19
G1X13.48Y13.22
G1X13.46Y13.24
G1X13.41Y13.27
G1X13.33Y13.3
G1X13.14Y13.39
G1X13.04Y13.49
G1Y13.54
G1Y13.56
G1X13.05Y13.54
G1X13.09Y13.49
G1X13.15Y13.43
G1X13.22Y13.46
G1X13.32Y13.42
G1X13.41Y13.38
G1X13.46Y13.36
G1X13.47
G1X13.46Y13.39
G1X13.35Y13.47
G1X13.15Y13.59
G1X12.85Y13.72
G1X12.58Y13.76
G1X12.33
G1X12.57Y13.7
G1X12.77Y13.64
G1X12.89Y13.58
G1Y13.56
G1X12.83
G1X12.72Y13.57
G1X12.57Y13.61
G1X12.41Y13.64
G1X12.25Y13.68
G1X12.12Y13.7
G1X11.95Y13.73
G1X11.92Y13.75
G1Y13.79
G1X11.95Y13.85
G1X12.02Y13.93
G1X12.14Y13.95
G1X12.2Y14.03
G1X12.28Y14.17
G1X12.37Y14.38
G1X12.45Y14.57
G1X12.22Y14.37
G1X12.14Y14.29
G1X12.08Y14.24
G1X12.03Y14.22
G1X12.01
G1Y14.25
G1X12.03Y14.3
G1X12.06Y14.38
G1X12.12Y14.49
G1X12.26Y14.69
G1X12.47Y14.92
G1X12.58Y15.03
G1X12.68Y15.12
G1X12.75Y15.17
G1X12.79Y15.18
G1X12.86
G1X13.01Y15.17
G1X13.21
G1X12.94Y15.34
G1X12.69Y15.48
G1X12.47Y15.56
G1X12.26Y15.61
G1X12.84Y15.77
G1X12.5Y15.86
G1X12.14Y15.93
G1X11.76Y15.91
G1X11.54Y15.88
G1X11.31Y15.82
G1X11.05Y15.74
G1X10.77Y15.64
G1X10.58Y15.58
G1X10.43Y15.52
G1X10.31Y15.49
G1X10.24Y15.47
G1X10.19
G1X10.18
G1Y15.5
G1X10.22Y15.54
G1X10.41Y15.68
G1X10.68Y15.84
G1X10.78Y15.89
G1X10.85Y15.93
G1X10.9Y15.96
G1X10.92Y15.98
G1X10.91Y16
G1X10.82
G1X10.72
G1X10.58Y15.97
G1X10.41Y15.93
G1X10.23Y15.88
G1X10.06Y15.82
G1X9.9Y15.77
G1X9.78Y15.71
G1X9.7Y15.67
G1X9.64Y15.63
G1X9.53Y15.57
G1X9.4Y15.5
G1X9.11Y15.35
G1X9.02Y15.3
G1X8.97Y15.26
G1Y15.24
G1X9.05Y15.26
G1X9.2Y15.31
G1X9.38Y15.39
G1X9.79Y15.59
G1X9.96Y15.66
G1X10.08Y15.71
G1X10.13
G1X10.1Y15.67
G1X9.99Y15.57
G1X9.82Y15.42
G1X9.61Y15.24
G1X9.36Y15.04
G1X9.13Y14.88
G1X8.93Y14.74
G1X8.73Y14.64
G1X8.54Y14.56
G1X8.36Y14.51
G1X8.19Y14.49
G1X8.01
G1X7.64Y14.5
G1X7.62Y14.82
G1Y14.97
G1X7.63Y15.09
G1X7.67Y15.17
G1X7.73Y15.23
G1X7.79Y15.28
G1X7.81Y15.3
G1X7.77
G1X7.57Y15.25
G1X7.53
G1X7.55Y15.29
G1X7.63Y15.37
G1X7.7Y15.47
G1Y15.52
G1X7.64Y15.51
G1X7.54Y15.44
G1X7.5Y15.4
G1X7.47Y15.39
G1X7.46
G1Y15.42
G1X7.5Y15.5
G1X7.58Y15.61
G1X7.65Y15.69
G1X7.67Y15.72
M5
G0X9.14Y17.59
M3 S30
; Layer C00
G1X9.19
G1X9.21Y17.65
G1X9.19Y17.73
G1X9.14Y17.76
G1X9.09Y17.74
G1X9.07Y17.7
G1X9.09Y17.64
G1X9.14Y17.59
M5
G0X6.43Y17.9
M3 S30
; Layer C00
G1X6.42Y17.95
G1X6.39Y17.97
G1X6.36Y17.95
G1X6.32Y17.9
G1X6.31Y17.85
G1X6.35Y17.83
G1X6.4Y17.85
G1X6.43Y17.9
M5
G0X11.67Y18.88
M3 S30
; Layer C00
G1X11.73Y18.83
G1X11.82Y18.81
G1X11.9Y18.85
G1X11.93Y18.95
G1X11.9Y19.04
G1X11.83Y19.09
G1X11.74
G1X11.67Y19.02
G1X11.65Y18.95
G1X11.67Y18.88
M5
G0X12.05Y18.24
M3 S30
; Layer C00
G1X12.03
G1Y18.22
G1X12.06Y18.2
G1X12.14Y18.19
G1X12.2Y18.21
G1X12.19Y18.24
G1X12.1
G1X12.05
M5
G0X12.84Y18.69
M3 S30
; Layer C00
G1X12.91
G1X13.01Y18.77
G1X13.05Y18.82
G1X13.07Y18.85
G1Y18.86
G1X13.05
G1X12.98Y18.85
G1X12.93Y18.9
G1X12.91Y18.93
G1X12.89
G1X12.87Y18.91
G1X12.84Y18.86
G1X12.81Y18.75
G1X12.84Y18.69
M5
G0X13.14Y18.54
M3 S30
; Layer C00
G1Y18.48
G1X13.17Y18.43
G1X13.24Y18.41
G1X13.32Y18.43
G1X13.36Y18.47
G1Y18.53
G1X13.31Y18.58
G1X13.25Y18.6
G1X13.19Y18.58
G1X13.14Y18.54
M5
G0X13.64Y18.69
M3 S30
; Layer C00
G1X13.68Y18.67
G1X13.74Y18.69
G1X13.76Y18.74
G1Y18.79
G1X13.73Y18.81
G1X13.69Y18.79
G1X13.65Y18.74
G1Y18.69
M5
G0X13Y19.11
M3 S30
; Layer C00
G1X13.02Y19.17
G1Y19.24
G1X12.99Y19.28
G1X12.97Y19.29
G1X12.95
G1X12.92Y19.24
G1X12.89Y19.17
G1X12.91Y19.11
G1X12.96Y19.09
G1X13Y19.11
M5
G0X15.23Y19.6
M3 S30
; Layer C00
G1X15.27Y19.54
G1X15.34Y19.51
G1X15.41Y19.54
G1X15.45Y19.61
G1X15.43Y19.69
G1X15.39Y19.75
G1X15.33Y19.77
G1X15.27Y19.74
G1X15.23Y19.67
G1Y19.6
M5
G0X15.69Y19.34
M3 S30
; Layer C00
G1X15.67Y19.27
G1X15.69Y19.19
G1X15.75Y19.18
G1X15.8Y19.21
G1X15.82Y19.27
G1X15.8Y19.32
G1X15.75Y19.36
G1X15.69Y19.34
M5
G0X16.29Y19.54
M3 S30
; Layer C00
G1X16.33Y19.51
G1X16.38Y19.54
G1X16.4Y19.62
G1Y19.69
G1X16.37Y19.72
G1X16.34Y19.69
G1X16.3Y19.62
G1Y19.54
M5
G0X16.7Y19.35
M3 S30
; Layer C00
G1X16.66Y19.3
G1X16.65Y19.25
G1X16.69Y19.23
G1X16.74Y19.25
G1X16.77Y19.3
G1X16.76Y19.35
G1X16.73Y19.37
G1X16.7Y19.35
M5
G0X17.41Y18.53
M3 S30
; Layer C00
G1X17.36Y18.51
G1X17.28Y18.46
G1X17.24Y18.43
G1X17.22Y18.41
G1Y18.4
G1X17.26
G1X17.33Y18.41
G1X17.39Y18.46
G1X17.42Y18.51
G1X17.41Y18.53
M5
G0X17.68Y18.55
M3 S30
; Layer C00
G1X17.72Y18.5
G1X17.77
G1X17.79Y18.56
G1Y18.63
G1X17.76Y18.67
G1X17.73Y18.66
G1X17.69Y18.61
G1X17.68Y18.55
M5
G0X19.35Y17.67
M3 S30
; Layer C00
G1X19.3Y17.62
G1X19.29Y17.57
G1X19.32Y17.55
G1X19.39Y17.57
G1X19.44Y17.62
G1X19.45Y17.67
G1X19.41Y17.69
G1X19.35Y17.67
M5
G0X19.65Y17.45
M3 S30
; Layer C00
G1X19.63Y17.38
G1X19.65Y17.3
G1X19.7Y17.24
G1X19.75
G1X19.77Y17.3
G1X19.75Y17.38
G1X19.7Y17.45
G1X19.65
M5
G0X19.74Y16.87
M3 S30
; Layer C00
G1X19.8
G1X19.89Y16.85
G1X20Y16.81
G1X20.25Y16.74
G1X20.44Y16.71
G1X20.5
G1X20.53Y16.67
G1Y16.6
G1X20.49Y16.47
G1X20.44Y16.36
G1X20.39Y16.28
G1X20.34Y16.24
G1X20.27Y16.22
G1X20.18
G1X20.14Y16.25
G1X20.13Y16.31
G1X20.08Y16.47
G1Y16.5
G1X20.09Y16.48
G1X20.14Y16.41
G1X20.22Y16.33
G1X20.29Y16.29
G1X20.31Y16.3
G1Y16.33
G1X20.28Y16.37
G1X20.23Y16.42
G1X20.08Y16.55
G1X19.9Y16.67
G1X19.81Y16.74
G1X19.74Y16.79
G1X19.71Y16.83
G1Y16.86
G1X19.74
M5
G0X19.25Y16.53
M3 S30
; Layer C00
G1X19.16Y16.57
G1X19.12
G1Y16.55
G1X19.37Y16.38
G1X19.4Y16.36
G1Y16.38
G1X19.34Y16.45
G1X19.25Y16.53
M5
G0X19.15Y16.46
M3 S30
; Layer C00
G1X19.02Y16.6
G1X18.97Y16.71
G1X18.99Y16.74
G1X19.05Y16.76
G1X19.13Y16.77
G1X19.24
G1X19.45
G1X19.61Y16.72
G1X19.69Y16.62
G1X19.75Y16.43
G1X19.77Y16.31
G1Y16.25
G1X19.73Y16.23
G1X19.55Y16.28
G1X19.43Y16.29
G1X19.31Y16.34
G1X19.15Y16.46
M5
G0X19.01Y16.37
M3 S30
; Layer C00
G1X19.06Y16.29
G1X19.08Y16.24
G1Y16.19
G1X19.07Y16.17
G1X19.03Y16.16
G1X18.97
G1X18.9Y16.2
G1X18.81Y16.24
G1X18.69Y16.3
G1X18.63Y16.32
G1X18.61Y16.31
G1X18.63Y16.26
G1X18.65Y16.17
G1X18.64
G1X18.57Y16.23
G1X18.46Y16.36
G1X18.3Y16.58
G1X18.6Y16.55
G1X18.74Y16.53
G1X18.85Y16.49
G1X18.94Y16.44
G1X19.01Y16.37
M5
G0X18.37Y16.21
M3 S30
; Layer C00
G1X18.4Y16.12
G1Y16.03
G1X18.38Y15.98
G1X18.31Y15.96
G1X18.18
G1X17.99Y15.99
G1X17.81Y16.07
G1X17.75Y16.12
G1X17.7Y16.17
G1X17.68Y16.21
G1X17.7Y16.25
G1X17.74Y16.27
G1X17.82
G1X17.93Y16.29
G1X18.05
G1X18.22
G1X18.31Y16.26
G1X18.37Y16.21
M5
G0X19.23Y15.68
M3 S30
; Layer C00
G1X19.29Y15.71
G1X19.37Y15.73
G1X19.45Y15.71
G1X19.48Y15.68
G1X19.44Y15.64
G1X19.34Y15.62
G1X19.25Y15.64
G1X19.23Y15.68
M5
G0X19.24Y15.44
M3 S30
; Layer C00
G1X19.36
G1X19.45Y15.42
G1X19.48Y15.36
G1X19.47Y15.32
G1X19.42Y15.29
G1X19.35
G1X19.25
G1X19.15Y15.31
G1X19.1Y15.33
G1Y15.36
G1X19.12Y15.39
G1X19.24Y15.44
M5
G0X19.64Y15.37
M3 S30
; Layer C00
G1X19.7Y15.38
G1X19.76Y15.36
G1X19.81Y15.31
G1Y15.27
G1X19.74Y15.28
G1X19.66Y15.32
G1X19.63Y15.35
G1Y15.37
M5
G0X19.68Y15.17
M3 S30
; Layer C00
G1X19.75Y15.15
G1X19.85Y15.1
G1X19.9Y15.06
G1X19.91Y15.04
G1X19.89
G1X19.83
G1X19.73Y15.05
G1X19.66Y15.1
G1X19.65Y15.15
G1X19.68Y15.17
M5
G0X19.98Y14.92
M3 S30
; Layer C00
G1X20.06Y14.96
G1X20.17Y14.95
G1X20.28Y14.89
G1X20.38Y14.79
G1X20.44Y14.7
G1X20.46Y14.65
G1X20.44Y14.62
G1X20.38Y14.6
G1X20.25Y14.63
G1X20.1Y14.72
G1X20.04Y14.78
G1X19.99Y14.84
G1X19.97Y14.88
G1Y14.92
M5
G0X20.47Y14.89
M3 S30
; Layer C00
G1X20.48Y14.94
G1X20.58Y14.96
G1X20.68
G1X20.73Y14.93
G1X20.69Y14.89
G1X20.61Y14.87
G1X20.52
G1X20.47Y14.89
M5
G0X20.9Y14.87
M3 S30
; Layer C00
G1X20.93Y14.88
G1X20.98
G1X21.06
G1X21.07Y14.85
G1X21.01Y14.83
G1X20.93Y14.84
G1X20.9Y14.86
G1Y14.87
M5
G0X20.94Y15.18
M3 S30
; Layer C00
G1X20.88Y15.22
G1Y15.29
G1X20.92Y15.41
G1X20.97Y15.48
G1X21.04Y15.51
G1X21.13
G1X21.24Y15.45
G1X21.29Y15.41
G1Y15.38
G1X21.26Y15.36
G1X21.1Y15.31
G1X21.07Y15.29
G1Y15.26
G1X21.14Y15.2
G1Y15.19
G1X21.11Y15.18
G1X21.04
G1X20.94
M5
G0X20.5Y15.56
M3 S30
; Layer C00
G1X20.62Y15.66
G1X20.67Y15.72
G1X20.7Y15.76
G1X20.72Y15.78
G1Y15.79
G1X20.65Y15.76
G1X20.52Y15.66
G1X20.45Y15.6
G1X20.41Y15.56
G1X20.4Y15.53
G1X20.41Y15.52
G1X20.5Y15.56
M5
G0X20.54Y15.49
M3 S30
; Layer C00
G1X20.42Y15.45
G1X20.35Y15.46
G1X20.31Y15.5
G1X20.29Y15.55
G1Y15.61
G1X20.37Y15.74
G1X20.51Y15.85
G1X20.65Y15.91
G1X20.74Y15.93
G1X20.79Y15.92
G1Y15.87
G1X20.76Y15.74
G1X20.66Y15.6
G1X20.54Y15.49
M5
G0X20.05Y15.77
M3 S30
; Layer C00
G1X19.95Y15.74
G1X19.87
G1X19.85Y15.79
G1X19.86Y15.86
G1X19.92Y15.9
G1X20Y15.93
G1X20.13Y15.94
G1X20.23
G1X20.27Y15.93
G1X20.25Y15.9
G1X20.17Y15.84
G1X20.05Y15.77
M5
G0X21.1Y15.76
M3 S30
; Layer C00
G1Y15.84
G1X21.14Y15.85
G1X21.16Y15.79
G1X21.14Y15.72
G1X21.13Y15.69
G1X21.11
G1Y15.71
G1X21.1Y15.76
M5
G0X21.01Y16.25
M3 S30
; Layer C00
G1X20.89Y16.27
G1X20.82Y16.37
G1X20.81Y16.41
G1Y16.42
G1X20.83Y16.41
G1X20.87Y16.36
G1X20.9Y16.32
G1X20.92Y16.31
G1X20.94
G1Y16.34
G1X20.9Y16.43
G1X20.79Y16.53
G1X20.69Y16.62
G1Y16.71
G1X20.75Y16.74
G1X20.87Y16.71
G1X20.98Y16.66
G1X21.06Y16.64
G1X21.07Y16.66
G1X21.06Y16.71
G1Y16.74
G1X21.08Y16.76
G1X21.13Y16.78
G1X21.19
G1X21.34Y16.76
G1X21.42Y16.71
G1Y16.67
G1X21.34Y16.69
G1X21.29Y16.7
G1X21.26
G1Y16.69
G1Y16.66
G1X21.28Y16.55
G1X21.23Y16.4
G1X21.13Y16.29
G1X21.01Y16.25
M5
G0X21.68Y16.42
M3 S30
; Layer C00
G1X21.71Y16.38
G1X21.79Y16.36
G1X21.84
G1X21.86Y16.34
G1Y16.31
G1Y16.28
G1X21.84Y16.25
G1Y16.23
G1X21.86
G1X21.9Y16.26
G1X21.94Y16.29
G1Y16.32
G1X21.92Y16.36
G1X21.86Y16.4
G1X21.79Y16.46
G1X21.77Y16.49
G1X21.79Y16.51
G1X21.85Y16.54
G1X21.97Y16.56
G1X22.16Y16.53
G1Y16.57
G1X22.08Y16.62
G1X21.98Y16.64
G1X21.86Y16.62
G1X21.77Y16.56
G1X21.7Y16.48
G1X21.68Y16.42
M5
G0X22.07Y16.19
M3 S30
; Layer C00
G1Y16.17
G1X22.1Y16.16
G1X22.17
G1X22.3Y16.17
G1X22.38Y16.22
G1X22.41Y16.25
G1X22.44
G1X22.48
G1X22.53Y16.21
G1X22.58Y16.18
G1X22.61Y16.17
G1Y16.19
G1X22.59Y16.25
G1X22.54Y16.32
G1X22.49Y16.36
G1X22.43Y16.35
G1X22.38Y16.29
G1X22.33Y16.25
G1X22.21
G1X22.12Y16.22
G1X22.07Y16.19
M5
G0X22.15Y16.33
M3 S30
; Layer C00
G1X22.24
G1X22.35Y16.38
G1X22.46Y16.44
G1X22.51Y16.46
G1X22.57Y16.45
G1X22.62Y16.41
G1X22.67Y16.35
G1X22.72Y16.22
G1X22.69Y16.1
G1X22.66Y16.06
G1Y16.03
G1Y16.02
G1X22.71
G1X22.76Y16
G1Y15.96
G1X22.68
G1X22.57Y16.04
G1X22.49Y16.1
G1X22.42Y16.12
G1X22.36
G1X22.29Y16.08
G1X22.22Y16.04
G1X22.2Y16.02
G1X22.22
G1X22.28Y16.04
G1X22.39
G1X22.46Y16
G1Y15.96
G1X22.41Y15.95
G1X22.31
G1X22.16
G1X21.94Y16
G1X21.79Y16.06
G1X21.71Y16.14
G1X21.73Y16.24
G1Y16.27
G1X21.7Y16.28
G1X21.61
G1X21.58Y16.31
G1Y16.38
G1X21.64Y16.5
G1X21.72Y16.62
G1X21.82Y16.72
G1X21.93Y16.79
G1X22.04Y16.84
G1X22.15Y16.85
G1X22.26Y16.84
G1X22.35Y16.79
G1X22.41Y16.71
G1X22.45Y16.64
G1Y16.58
G1X22.4Y16.54
G1X22.31Y16.49
G1X22.17Y16.42
G1X22.12Y16.35
G1X22.15Y16.33
M5
G0X22.59Y16.66
M3 S30
; Layer C00
G1X22.56Y16.69
G1X22.52Y16.77
G1Y16.87
G1X22.57Y16.92
G1X22.65Y16.95
G1X22.8Y16.97
G1X23.02
G1X23.52Y16.94
G1X24.06
G1X24.31Y16.92
G1X24.47Y16.91
G1X24.55Y16.88
G1Y16.86
G1X24.44Y16.82
G1X24.33Y16.84
G1X24.27Y16.85
G1X24.25
G1Y16.82
G1X24.3Y16.77
G1X24.34Y16.71
G1X24.36Y16.65
G1Y16.57
G1X24.33Y16.49
G1X24.29Y16.4
G1X24.26Y16.37
G1Y16.4
G1Y16.48
G1X24.22Y16.6
G1X24.17Y16.68
G1X24.06Y16.71
G1X23.87Y16.73
G1X23.62Y16.74
G1X23.35
G1X23.08
G1X22.85
G1X22.76Y16.73
G1X22.69Y16.72
G1X22.65Y16.7
G1X22.63Y16.69
G1Y16.66
G1X22.61Y16.65
G1X22.59
M5
G0X23.22Y16.47
M3 S30
; Layer C00
G1X23.25Y16.44
G1X23.33Y16.41
G1X23.41Y16.4
G1X23.44Y16.43
G1X23.41Y16.48
G1X23.33Y16.5
G1X23.25
G1X23.22Y16.47
M5
G0X23.14Y16.46
M3 S30
; Layer C00
G1X23.04Y16.49
G1X23.01
G1X23.04Y16.42
G1X23.06Y16.37
G1X23.01Y16.39
G1X22.94Y16.44
G1X22.92Y16.48
G1X22.94Y16.52
G1X23.01Y16.55
G1X23.13Y16.58
G1X23.3Y16.6
G1X23.52Y16.62
G1X23.79Y16.63
G1X23.91
G1X24
G1X24.06
G1X24.1Y16.62
G1X24.13Y16.58
G1X24.09Y16.51
G1X24.01Y16.42
G1X23.94Y16.41
G1X23.9Y16.44
G1Y16.49
G1X23.88Y16.53
G1X23.76Y16.56
G1X23.67
G1X23.63Y16.54
G1Y16.51
G1X23.66Y16.44
G1X23.68Y16.37
G1Y16.32
G1X23.67Y16.29
G1X23.62Y16.27
G1X23.49Y16.28
G1X23.3Y16.37
G1X23.14Y16.46
M5
G0X22.9Y17.29
M3 S30
; Layer C00
G1X22.98Y17.31
G1X23.12Y17.4
G1X23.31Y17.55
G1X23.13
G1X22.98Y17.52
G1X22.9Y17.44
G1X22.87Y17.33
G1X22.9Y17.29
M5
G0X22.67Y17.9
M3 S30
; Layer C00
G1X22.75Y17.92
G1X22.78Y17.97
G1X22.75Y18.02
G1X22.67Y18.04
G1X22.59Y18.02
G1X22.56Y17.97
G1X22.59Y17.92
G1X22.67Y17.9
M5
G0X22.09Y18.2
M3 S30
; Layer C00
G1X22.13Y18.23
G1X22.18Y18.31
G1Y18.36
G1X22.13Y18.35
G1X22.09Y18.27
G1X22.07Y18.21
G1Y18.19
G1X22.09
M5
G0X21.43Y17.97
M3 S30
; Layer C00
G1X21.38Y18.02
G1X21.32Y18.04
G1X21.26Y18.03
G1X21.21Y17.99
G1Y17.92
G1X21.24Y17.83
G1X21.28Y17.78
G1X21.31Y17.77
G1X21.35
G1X21.39Y17.81
G1X21.44Y17.89
G1X21.43Y17.97
M5
G0X23.63Y18.46
M3 S30
; Layer C00
G1X23.69Y18.41
G1X23.78Y18.39
G1X23.82Y18.4
G1X23.85Y18.42
G1X23.87Y18.46
G1Y18.51
G1X23.83Y18.6
G1X23.76Y18.65
G1X23.69
G1X23.63Y18.61
G1X23.6Y18.53
G1X23.63Y18.46
M5
G0X23.99Y18.63
M3 S30
; Layer C00
G1X24.06Y18.6
G1X24.14Y18.64
G1X24.17Y18.74
G1X24.16Y18.83
G1X24.12Y18.87
G1X24.07
G1X24Y18.83
G1X23.96Y18.76
G1Y18.69
G1X23.99Y18.63
M5
G0X24.64Y19.04
M3 S30
; Layer C00
G1X24.69Y19.02
G1X24.73Y19.04
G1X24.75Y19.1
G1Y19.17
G1X24.73Y19.21
G1X24.71Y19.22
G1X24.69
G1X24.66Y19.17
G1X24.63Y19.1
G1X24.64Y19.04
M5
G0X25.13Y18.72
M3 S30
; Layer C00
G1X25.09Y18.67
G1Y18.62
G1X25.12Y18.6
G1X25.18Y18.62
G1X25.2Y18.67
G1X25.19Y18.72
G1X25.17Y18.74
G1X25.13Y18.72
M5
G0X26.18Y18.39
M3 S30
; Layer C00
G1X26.16Y18.35
G1Y18.28
G1X26.17Y18.22
G1X26.23
G1X26.27Y18.27
G1X26.26Y18.33
G1X26.22Y18.38
G1X26.18
M5
G0X26.83Y17.89
M3 S30
; Layer C00
G1X26.81
G1X26.78Y17.84
G1X26.75Y17.77
G1X26.77Y17.71
G1X26.82Y17.69
G1X26.86Y17.71
G1X26.88Y17.77
G1Y17.84
G1X26.85Y17.88
G1X26.83Y17.89
M5
G0X27.01Y17.41
M3 S30
; Layer C00
G1X26.99Y17.4
G1Y17.38
G1X27.03Y17.36
G1X27.09Y17.33
G1X27.2Y17.25
G1X27.25Y17.19
G1X27.28Y17.15
G1X27.34Y17.13
G1X27.37Y17.15
G1X27.36Y17.18
G1X27.32Y17.22
G1X27.26Y17.27
G1X27.12Y17.37
G1X27.01Y17.41
M5
G0X26.21Y16.54
M3 S30
; Layer C00
G1Y16.47
G1X26.14Y16.37
G1X26.05Y16.26
G1X25.98Y16.22
G1X25.95Y16.27
G1X25.97Y16.38
G1X25.99Y16.45
G1Y16.48
G1X25.97
G1X25.94Y16.44
G1X25.85Y16.37
G1X25.73Y16.33
G1X25.61
G1X25.57Y16.37
G1X25.6Y16.43
G1X25.69Y16.49
G1X25.76Y16.53
G1X25.77Y16.55
G1X25.74
G1X25.66
G1X25.56Y16.53
G1X25.54Y16.49
G1Y16.44
G1X25.49Y16.4
G1X25.44
G1X25.42Y16.51
G1Y16.59
G1X25.48Y16.63
G1X25.52
G1X25.59
G1X25.68
G1X25.8Y16.61
G1X25.95Y16.59
G1X26.08Y16.57
G1X26.17Y16.55
G1X26.21Y16.54
M5
G0X25.31Y16.59
M3 S30
; Layer C00
G1X25.26Y16.47
G1X25.22Y16.34
G1X25.15Y16.26
G1X25.05Y16.22
G1X24.95
G1X24.91Y16.29
G1X24.94Y16.32
G1X25.02
G1X25.08Y16.3
G1X25.11Y16.32
G1X25.12Y16.36
G1Y16.44
G1X25.09Y16.52
G1X25.05Y16.57
G1X24.97Y16.6
G1X24.85Y16.62
G1X24.76
G1X24.68Y16.61
G1X24.63Y16.59
G1X24.61Y16.57
G1X24.68Y16.54
G1X24.83
G1X24.93
G1X25
G1X25.04Y16.51
G1X25.05Y16.47
G1Y16.43
G1X25.01Y16.4
G1X24.97
G1X24.84
G1X24.79Y16.39
G1X24.77Y16.35
G1X24.75Y16.3
G1Y16.25
G1Y16.23
G1X24.73Y16.24
G1X24.71Y16.29
G1X24.65Y16.39
G1X24.56Y16.49
G1X24.51Y16.55
G1X24.48Y16.59
G1Y16.63
G1X24.5Y16.66
G1X24.56Y16.69
G1X24.64Y16.7
G1X24.76
G1X24.91Y16.71
G1X25.05
G1X25.15
G1X25.23
G1X25.28Y16.69
G1X25.32Y16.65
G1X25.31Y16.59
M5
G0X18.77Y14.43
M3 S30
; Layer C00
G1X18.79Y14.38
G1X18.78Y14.36
G1X18.74
G1X18.67Y14.4
G1X18.57Y14.46
G1X18.53Y14.5
G1X18.55Y14.53
G1X18.63Y14.54
G1X18.71Y14.51
G1X18.77Y14.43
M5
G0X16.07Y10.68
M3 S30
; Layer C00
G1X16.04
G1Y10.62
G1X16.05Y10.56
G1X16.11Y10.51
G1X16.14
G1Y10.58
G1X16.1Y10.65
G1X16.07Y10.68
M5
G0X15.99Y10.68
M3 S30
; Layer C00
G1X16Y10.77
G1X15.97Y10.87
G1X15.92Y10.95
G1X15.85Y10.99
G1X15.8Y11.05
G1X15.77Y11.17
G1Y11.24
G1Y11.28
G1X15.79
G1X15.82Y11.26
G1X15.87Y11.21
G1X15.93Y11.11
G1X16.01Y10.99
G1X16.11Y10.83
G1X16.19Y10.69
G1X16.25Y10.61
G1X16.29Y10.58
G1Y10.62
G1X16.18Y10.88
G1X16.03Y11.16
G1X15.86Y11.42
G1X15.69Y11.6
G1X15.56Y11.71
G1X15.46Y11.79
G1X15.38Y11.85
G1X15.33Y11.88
G1X15.31
G1Y11.86
G1X15.36Y11.8
G1X15.44Y11.72
G1X15.57Y11.58
G1X15.64Y11.46
G1X15.68Y11.34
G1Y11.21
G1X15.7Y10.98
G1X15.77Y10.79
G1X15.86Y10.66
G1X15.88Y10.58
G1X15.85
G1X15.76Y10.63
G1X15.72Y10.65
G1Y10.63
G1X15.75Y10.56
G1X15.82Y10.43
G1X15.89Y10.32
G1X15.96Y10.24
G1X16.02Y10.19
G1X16.06Y10.18
G1X16.09
G1X16.07Y10.13
G1X16.05Y10.06
G1X16.09Y10
G1X16.15Y9.92
G1X16.21Y9.79
G1X16.24Y9.7
G1Y9.67
G1X16.22
G1X16.17Y9.7
G1X15.98Y9.85
G1X15.87Y9.94
G1X15.84Y9.98
G1X15.88Y9.95
G1X15.94Y9.92
G1X15.96
G1X15.94Y9.94
G1X15.89Y10.01
G1X15.81Y10.08
G1X15.75Y10.09
G1X15.72
G1X15.66Y10.12
G1X15.59Y10.18
G1X15.41Y10.33
G1X15.34Y10.38
G1X15.31
G1Y10.36
G1X15.35Y10.29
G1X15.42Y10.19
G1X15.52Y10.06
G1X15.66Y9.89
G1X16.02Y9.43
G1X16.31Y9.01
G1X16.53Y8.62
G1X16.69Y8.25
G1X16.76Y8.05
G1X16.8Y7.89
G1X16.83Y7.77
G1Y7.71
G1X16.82Y7.69
G1X16.78Y7.74
G1X16.73Y7.84
G1X16.66Y8.01
G1X16.51Y8.36
G1X16.32Y8.67
G1X16.12Y8.94
G1X15.9Y9.16
G1X15.84Y9.21
G1X15.79Y9.24
G1X15.81Y9.2
G1X15.85Y9.14
G1X15.87Y9.1
G1X15.85Y9.08
G1X15.8
G1X15.78Y9.07
G1Y9.05
G1X15.8Y9.04
G1X15.84Y9.02
G1X15.95Y8.94
G1X16Y8.85
G1Y8.77
G1X15.95
G1X15.91Y8.81
G1X15.92Y8.86
G1X15.9Y8.92
G1X15.81Y8.96
G1X15.71Y9.01
G1X15.68Y9.09
G1X15.67Y9.15
G1X15.55Y9.18
G1X15.52Y9.29
G1X15.46Y9.3
G1X15.4
G1Y9.35
G1Y9.38
G1X15.36Y9.43
G1X15.29Y9.48
G1X15.2Y9.53
G1X15.07Y9.6
G1X14.91Y9.72
G1X14.73Y9.86
G1X14.54Y10.03
G1X14.36Y10.21
G1X14.19Y10.38
G1X14.06Y10.55
G1X13.96Y10.68
G1X13.91Y10.77
G1X13.87Y10.83
G1X13.85Y10.88
G1Y10.9
G1X13.88Y10.86
G1X13.97Y10.77
G1X14.09Y10.63
G1X14.23Y10.46
G1X14.39Y10.28
G1X14.55Y10.1
G1X14.7Y9.95
G1X14.82Y9.85
G1X14.87Y9.81
G1X14.9Y9.79
G1Y9.81
G1X14.87Y9.85
G1X14.82Y9.91
G1X14.67Y10.09
G1X14.35Y10.5
G1X14.03Y11
G1X13.89Y11.24
G1X13.79Y11.45
G1X13.72Y11.62
G1X13.69Y11.73
G1X13.7Y11.76
G1X13.72Y11.74
G1X13.75Y11.69
G1X13.82Y11.53
G1X13.86Y11.46
G1X13.9Y11.43
G1X13.93
G1X13.95
G1X13.93Y11.35
G1X13.91Y11.28
G1Y11.25
G1X13.94Y11.26
G1X14Y11.31
G1X14.08Y11.39
G1Y11.46
G1Y11.51
G1X14.12Y11.56
G1X14.2Y11.58
G1X14.23Y11.53
G1X14.2Y11.45
G1X14.13Y11.35
G1X14.05Y11.28
G1X14.02Y11.22
G1X14.04Y11.14
G1X14.1Y11.03
G1X14.14Y10.95
G1X14.19Y10.9
G1X14.24Y10.87
G1X14.37
G1X14.47Y10.82
G1X14.53Y10.77
G1X14.55
G1Y10.8
G1X14.49Y10.88
G1X14.4Y10.98
G1X14.34Y11
G1X14.28
G1X14.24Y11.04
G1X14.22Y11.09
G1X14.25Y11.1
G1X14.37
G1X14.43Y11.13
G1Y11.23
G1X14.38Y11.41
G1X14.25Y11.69
G1X14.09Y11.97
G1X14.02Y12.07
G1X13.98Y12.15
G1X13.96Y12.21
G1X13.98Y12.23
G1X14.03Y12.26
G1X14.05Y12.33
G1X14.06Y12.41
G1X14.1Y12.43
G1X14.17Y12.42
G1X14.3Y12.37
G1X14.38Y12.33
G1X14.42Y12.32
G1X14.39Y12.34
G1X14.31Y12.4
G1X14.18Y12.47
G1X14.07
G1X14.01Y12.49
G1X13.98Y12.55
G1Y12.6
G1X14.02Y12.63
G1X14.08
G1X14.24Y12.61
G1X14.29
G1X14.32Y12.63
G1Y12.67
G1Y12.71
G1X14.39Y12.66
G1X14.48Y12.65
G1X14.6Y12.63
G1X14.74Y12.57
G1X14.91Y12.49
G1X15.08Y12.37
G1X15.44Y12.09
G1X15.76Y11.76
G1X16.11Y11.31
G1X16.39Y10.84
G1X16.51Y10.56
G1X16.65Y10.24
G1X16.79Y9.85
G1X17.11Y8.93
G1X17.34Y8.3
G1X17.45Y8
G1X17.55Y7.76
G1X17.59Y7.65
G1X17.61Y7.57
G1Y7.54
G1X17.59Y7.56
G1X17.55Y7.61
G1X17.51Y7.69
G1X17.45Y7.8
G1X17.3Y8.07
G1X17.14Y8.39
G1X16.98Y8.72
G1X16.83Y9.03
G1X16.72Y9.27
G1X16.68Y9.37
G1X16.66Y9.43
G1X16.57Y9.65
G1X16.43Y9.94
G1X16.36Y10.07
G1X16.3Y10.19
G1X16.26Y10.27
G1X16.24Y10.32
G1X16.19Y10.39
G1X16.09Y10.47
G1X16Y10.57
G1Y10.68
M5
G0X15.91Y10.47
M3 S30
; Layer C00
G1X15.93
G1X15.97Y10.43
G1X16.02Y10.35
G1Y10.3
G1X15.98Y10.31
G1X15.93Y10.39
G1X15.91Y10.45
G1Y10.47
M5
G0X17.81Y9.26
M3 S30
; Layer C00
G1X17.84
G1X17.86Y9.21
G1X17.84Y9.13
G1X17.83Y9.11
G1X17.81
G1Y9.13
G1X17.8Y9.18
G1Y9.26
M5
G0X18.45Y9.34
M3 S30
; Layer C00
G1X18.47Y9.36
G1X18.53Y9.35
G1X18.61Y9.31
G1X18.7Y9.24
G1X18.88Y9.09
G1X18.96Y8.97
G1X18.93Y8.91
G1X18.86Y8.89
G1X18.8Y8.91
G1Y8.95
G1X18.78Y8.99
G1X18.7
G1X18.6Y9
G1X18.56Y9.05
G1X18.55Y9.13
G1X18.51Y9.19
G1X18.47Y9.26
G1X18.45Y9.34
M5
G0X17.84Y8.51
M3 S30
; Layer C00
G1X17.89Y8.46
G1X17.95Y8.36
G1X17.99Y8.28
G1X18Y8.24
G1X17.98Y8.25
G1X17.91Y8.3
G1X17.83Y8.38
G1X17.79Y8.46
G1X17.8Y8.51
G1X17.84
M5
G0X17.11Y7.87
M3 S30
; Layer C00
G1X17.2Y7.79
G1X17.25Y7.69
G1Y7.62
G1Y7.56
G1X17.4Y7.45
G1X17.42Y7.37
G1X17.37Y7.29
G1X17.26Y7.24
G1X17.18
G1X17.13Y7.25
G1X17.1Y7.3
G1X17.09Y7.38
G1X17.06Y7.54
G1X17.03Y7.71
G1X17.02Y7.83
G1X17.05Y7.88
G1X17.11Y7.87
M5
G0X16.48Y7.54
M3 S30
; Layer C00
G1X16.5Y7.51
G1X16.46Y7.44
G1X16.38Y7.38
G1X16.34Y7.36
G1Y7.41
G1X16.36Y7.47
G1X16.42Y7.52
G1X16.48Y7.54
M5
G0X16.31Y7.64
M3 S30
; Layer C00
G1X16.26Y7.67
G1X16.19Y7.78
G1X16.15Y7.91
G1X16.18Y7.96
G1X16.24Y7.91
G1X16.29Y7.81
G1X16.32Y7.69
G1X16.31Y7.64
M5
G0X16.19Y8.07
M3 S30
; Layer C00
G1X16.15
G1X16.1Y8.11
G1X16.04Y8.17
G1X15.98Y8.25
G1X15.86Y8.42
G1X15.81Y8.55
G1X15.84Y8.58
G1X15.9Y8.54
G1X15.99Y8.45
G1X16.1Y8.31
G1X16.16Y8.23
G1X16.19Y8.16
G1X16.2Y8.1
G1X16.19Y8.07
M5
G0X15.28Y7.59
M3 S30
; Layer C00
G1X15.23Y7.61
G1X15.17Y7.59
G1X15.15Y7.54
G1X15.17Y7.49
G1X15.23Y7.47
G1X15.28Y7.49
G1X15.3Y7.54
G1X15.28Y7.59
M5
G0X14.62Y8.13
M3 S30
; Layer C00
G1X14.57Y8.14
G1X14.49Y8.2
G1X14.45Y8.28
G1X14.48Y8.31
G1X14.55Y8.29
G1X14.61Y8.23
G1X14.64Y8.16
G1X14.62Y8.13
M5
G0X13.78Y7.25
M3 S30
; Layer C00
G1X13.76Y7.24
G1X13.73Y7.2
G1X13.7Y7.12
G1X13.72Y7.07
G1X13.76Y7.05
G1X13.8Y7.07
G1X13.83Y7.12
G1X13.82Y7.2
G1X13.8Y7.24
G1X13.78Y7.25
M5
G0X13.21Y7.05
M3 S30
; Layer C00
G1X13.17Y7.1
G1X13.13Y7.12
G1X13.11Y7.1
G1X13.1Y7.05
G1X13.12Y7
G1X13.18Y6.98
G1X13.22Y7
G1X13.21Y7.05
M5
G0X11.67Y7.43
M3 S30
; Layer C00
G1X11.63
G1X11.57Y7.49
G1X11.49Y7.59
