; LightBurn 0.9.24
; GRBL device profile, absolute coords
; Bounds: X3 Y3 to X22.2 Y33
G00 G17 G40 G21 G54
G90
M4
; Cut @ 6000 mm/min, 20% power
M8
M5
G0X3Y2.87
M3 S30
; Layer C00
G1X3.2S20F6000
G1X3.32
G1X3.4Y2.89
G1X3.45Y2.92
G1X3.49Y2.97
G1Y3
G1Y3.01
G1X3.46
G1X3.42Y2.99
G1X3.37Y2.98
G1X3.25
G1X3.22Y2.95
G1X3.21Y2.94
G1X3.14Y2.93
G1X3.08Y2.91
G1X3Y2.87
M5
G0X3.05Y3.06
M3 S30
; Layer C00
G1X3.08Y3.07
G1X3.09Y3.1
G1Y3.13
G1X3.05Y3.14
G1X3.02
G1Y3.1
G1Y3.07
G1X3.05
M5
G0X3.04Y3.26
M3 S30
; Layer C00
G1X3.14
G1X3.22
G1X3.26
G1X3.27Y3.28
G1X3.3
G1X3.33
G1X3.34Y3.32
G1Y3.37
G1X3.35Y3.41
G1Y3.43
G1X3.33
G1X3.31Y3.44
G1X3.29Y3.47
G1X3.27
G1X3.24Y3.46
G1X3.27Y3.42
G1X3.29Y3.4
G1X3.28Y3.36
G1X3.24Y3.33
G1X3.19
G1X3.16Y3.34
G1X3.14Y3.38
G1X3.13Y3.42
G1X3.11Y3.44
G1Y3.45
G1X3.15Y3.53
G1X3.11
G1X3.06
G1X3.04Y3.49
G1Y3.44
G1X3.05Y3.4
G1X3.06Y3.37
G1X3.04Y3.36
G1X3.02Y3.35
G1Y3.31
G1X3.04Y3.26
M5
G0X3.05Y3.58
M3 S30
; Layer C00
G1X3.07
G1X3.09Y3.61
G1Y3.65
G1Y3.68
G1X3.06
G1X3.03Y3.67
G1X3.02Y3.61
G1X3.05Y3.58
M5
G0X3.44Y3.85
M3 S30
; Layer C00
G1Y3.87
G1X3.47Y3.89
G1X3.49Y3.88
G1X3.47Y3.85
G1X3.44
M5
G0X3.52Y3.85
M3 S30
; Layer C00
G1X3.54Y3.88
G1X3.56Y3.89
G1X3.58
G1Y3.85
G1Y3.82
G1X3.56Y3.8
G1X3.52
G1Y3.85
M5
G0X3.25Y4.04
M3 S30
; Layer C00
G1Y4.06
G1Y4.08
G1X3.23Y4.09
G1X3.21
G1X3.2Y4.06
G1Y4.04
G1X3.23
G1X3.25
M5
G0X3.08Y4.06
M3 S30
; Layer C00
G1X3.1Y4.11
G1Y4.13
G1X3.06
G1X3.02Y4.12
G1Y4.06
G1Y4.01
G1X3.03Y3.99
G1X3.06Y4.01
G1X3.08Y4.06
M5
G0X3.04Y4.2
M3 S30
; Layer C00
G1X3.07
G1X3.09
G1X3.11Y4.21
G1Y4.23
G1X3.1
G1X3.06Y4.24
G1X3.02
G1Y4.21
G1Y4.2
G1X3.04
M5
G0X3.18Y4.55
M3 S30
; Layer C00
G1X3.19
G1Y4.6
G1X3.16Y4.71
G1X3.15Y4.76
G1X3.13Y4.8
G1X3.11Y4.84
G1Y4.89
G1Y4.94
G1Y4.96
G1X3.1Y4.95
G1Y4.92
G1X3.08Y4.88
G1X3.06Y4.83
G1X3.03Y4.71
G1X3.07Y4.64
G1X3.1Y4.63
G1X3.13Y4.59
G1X3.16Y4.56
G1X3.18Y4.55
M5
G0X3.33Y4.59
M3 S30
; Layer C00
G1Y4.63
G1X3.35Y4.67
G1X3.41Y4.7
G1Y4.76
G1X3.39Y4.81
G1X3.37Y4.85
G1X3.35Y4.87
G1Y4.89
G1X3.32Y4.92
G1X3.28Y4.87
G1X3.27Y4.83
G1X3.28Y4.77
G1X3.3Y4.71
G1X3.33Y4.59
M5
G0X3.5Y4.6
M3 S30
; Layer C00
G1X3.53
G1X3.56
G1Y4.59
G1X3.53
G1X3.5
M5
G0X3.93Y4.54
M3 S30
; Layer C00
G1X3.97Y4.56
G1X4.03Y4.53
G1X4.06Y4.51
G1Y4.53
G1X4.09Y4.57
G1X4.14Y4.56
G1X4.19Y4.53
G1X4.23
G1X4.24Y4.56
G1Y4.62
G1X4.22Y4.67
G1X4.17Y4.68
G1X4.12
G1X4.11Y4.7
G1X4.07Y4.72
G1X4.01Y4.7
G1X4
G1X3.97
G1X3.96Y4.69
G1X3.95Y4.67
G1Y4.63
G1X3.93Y4.54
M5
G0X4Y4.4
M3 S30
; Layer C00
G1X3.99
G1Y4.37
G1X3.98Y4.34
G1X3.96Y4.33
G1X3.95Y4.31
G1Y4.27
G1Y4.23
G1X3.99Y4.29
G1X4.02Y4.32
G1X4.03Y4.34
G1Y4.37
G1X4.02Y4.4
G1X4
M5
G0X4.36Y4.55
M3 S30
; Layer C00
G1Y4.56
G1Y4.58
G1X4.38
G1X4.41
G1Y4.56
G1Y4.55
G1X4.38
G1X4.36
M5
G0X4.27Y4.77
M3 S30
; Layer C00
G1Y4.78
G1X4.25Y4.8
G1X4.23Y4.82
G1X4.21
G1Y4.8
G1X4.23Y4.78
G1X4.25Y4.76
G1X4.27
M5
G0X4.15Y4.75
M3 S30
; Layer C00
G1Y4.77
G1X4.13Y4.78
G1X4.11
G1Y4.76
G1Y4.75
G1X4.13Y4.73
G1X4.14
G1Y4.75
M5
G0X4.32Y4.96
M3 S30
; Layer C00
G1X4.27Y4.98
G1X4.23Y5.03
G1X4.26Y5.06
G1X4.32Y5.07
G1X4.37Y5.05
G1Y5.02
G1X4.35Y4.99
G1X4.32Y4.96
M5
G0X4.49Y4.98
M3 S30
; Layer C00
G1Y5.01
G1X4.55Y5.09
G1Y5.13
G1Y5.17
G1X4.48Y5.15
G1Y5.18
G1X4.49Y5.23
G1X4.52Y5.26
G1X4.56
G1X4.58Y5.22
G1X4.59Y5.19
G1X4.61Y5.17
G1X4.64Y5.13
G1Y5.06
G1X4.6Y5
G1X4.55Y4.97
G1X4.51
G1X4.49
M5
G0X4.7Y5.09
M3 S30
; Layer C00
G1X4.71Y5.11
G1X4.73Y5.13
G1X4.77
G1Y5.1
G1X4.74Y5.08
G1X4.7Y5.09
M5
G0X4.69Y5.2
M3 S30
; Layer C00
G1X4.66
G1Y5.22
G1X4.68Y5.25
G1X4.72Y5.3
G1X4.78Y5.35
G1X4.82Y5.34
G1X4.78Y5.25
G1X4.69Y5.2
M5
G0X4.38Y5.18
M3 S30
; Layer C00
G1Y5.16
G1X4.36Y5.14
G1X4.32
G1Y5.17
G1X4.35Y5.19
G1X4.38Y5.18
M5
G0X4.13Y5.18
M3 S30
; Layer C00
G1X4.12Y5.19
G1X4.08Y5.16
G1X4.07Y5.14
G1X4.09
G1X4.12Y5.16
G1Y5.18
M5
G0X3.61Y5.26
M3 S30
; Layer C00
G1Y5.29
G1X3.59
G1X3.57Y5.28
G1X3.55Y5.24
G1X3.53Y5.2
G1Y5.18
G1X3.58Y5.2
G1X3.61Y5.26
M5
G0X3.7Y5.25
M3 S30
; Layer C00
G1X3.71Y5.23
G1X3.75Y5.26
G1X3.77Y5.31
G1Y5.33
G1X3.79Y5.35
G1X3.81
G1X3.84Y5.25
G1X3.89Y5.2
G1X3.92Y5.18
G1X3.87Y5.13
G1X3.82Y5.11
G1Y5.13
G1X3.81Y5.16
G1X3.78
G1X3.76Y5.14
G1X3.74Y5.09
G1X3.73Y5.04
G1Y5.02
G1X3.74
G1X3.77Y5.04
G1X3.81Y5.06
G1X3.83Y5.05
G1Y5.02
G1X3.82Y4.96
G1X3.78Y4.86
G1X3.73
G1X3.69Y4.89
G1X3.71Y4.92
G1X3.73
G1Y4.95
G1X3.72Y4.98
G1X3.66Y4.95
G1X3.63Y4.93
G1X3.62
G1Y4.95
G1X3.61Y4.99
G1Y5.04
G1X3.63Y5.07
G1X3.64Y5.09
G1X3.66Y5.12
G1Y5.15
G1X3.62Y5.11
G1X3.56Y5.06
G1X3.52Y5.08
G1X3.44Y5.1
G1X3.35Y5.05
G1X3.32Y5.03
G1X3.3
G1X3.28Y5.05
G1Y5.09
G1Y5.13
G1X3.21Y5.17
G1X3.2Y5.21
G1Y5.26
G1X3.23Y5.28
G1X3.27
G1X3.3Y5.26
G1X3.34Y5.23
G1X3.37Y5.21
G1X3.39
G1X3.42Y5.19
G1X3.44
G1X3.47Y5.3
G1X3.5Y5.33
G1X3.53Y5.39
G1X3.5Y5.43
G1X3.47Y5.45
G1X3.49Y5.49
G1X3.58Y5.56
G1X3.63Y5.59
G1Y5.56
G1Y5.5
G1Y5.43
G1X3.68Y5.34
G1X3.69Y5.29
G1Y5.25
M5
G0X3.99Y5.58
M3 S30
; Layer C00
G1Y5.6
G1X4.04Y5.62
G1X4.07Y5.6
G1X4.05Y5.58
G1X4.02
G1X3.99
M5
G0X3.83Y5.71
M3 S30
; Layer C00
G1X3.85Y5.75
G1X3.86Y5.8
G1Y5.83
G1X3.82Y5.84
G1X3.77Y5.82
G1X3.76Y5.79
G1X3.78Y5.76
G1X3.8Y5.74
G1X3.82Y5.71
G1X3.83
M5
G0X3.96Y5.83
M3 S30
; Layer C00
G1X3.98
G1X4.02Y5.87
G1X4.06Y5.92
G1Y5.96
G1X4.02Y5.98
G1X3.95Y5.99
G1X3.9Y6
G1X3.88Y6.03
G1X3.83Y6.07
G1X3.79
G1Y6.02
G1X3.77Y5.98
G1Y5.94
G1X3.78Y5.91
G1X3.82Y5.89
G1X3.85Y5.91
G1X3.88Y5.93
G1X3.92Y5.94
G1X3.95
G1Y5.84
G1Y5.83
M5
G0X4.13Y5.86
M3 S30
; Layer C00
G1X4.17Y5.83
G1X4.22Y5.85
G1Y5.88
G1X4.18
G1X4.14
G1Y5.86
M5
G0X4.47Y6.02
M3 S30
; Layer C00
G1X4.43Y6.11
G1X4.42
G1X4.4Y6.09
G1X4.39Y6.1
G1Y6.12
G1X4.45
G1X4.47Y6.13
G1X4.48Y6.16
G1X4.51Y6.2
G1X4.56Y6.18
G1X4.58Y6.14
G1X4.59Y6.07
G1Y6
G1X4.56
G1X4.52Y6.01
G1X4.49
G1X4.47Y6.02
M5
G0X4.94Y5.94
M3 S30
; Layer C00
G1Y5.92
G1X4.95Y5.91
G1X4.97
G1Y5.92
G1Y5.94
G1X4.95
G1X4.94
M5
G0X5.07Y6
M3 S30
; Layer C00
G1X5.09Y6.02
G1Y6.08
G1X5.07Y6.14
G1X5.05Y6.18
G1X5.04
G1X5.03Y6.16
G1Y6.06
G1X5.07Y6
M5
G0X5.15Y6
M3 S30
; Layer C00
G1X5.12Y5.91
G1X5.15Y5.79
G1X5.2Y5.73
G1Y5.65
G1Y5.62
G1Y5.61
G1X5.21Y5.6
G1X5.23Y5.54
G1X5.25Y5.55
G1X5.28Y5.59
G1Y5.73
G1X5.31Y5.77
G1X5.33Y5.8
G1Y5.84
G1X5.31Y5.86
G1X5.25Y5.8
G1X5.22Y5.81
G1X5.2Y5.85
G1X5.19Y5.9
G1Y5.95
G1X5.21
G1X5.24Y5.96
G1Y6.04
G1Y6.11
G1X5.22Y6.14
G1X5.21Y6.13
G1Y6.09
G1X5.19Y6.01
G1X5.15Y6
M5
G0X5.37Y6.01
M3 S30
; Layer C00
G1X5.38Y5.89
G1X5.42Y5.85
G1X5.45Y5.95
G1X5.42Y6.07
G1X5.39Y6.08
G1X5.37
G1Y6.05
G1Y6.01
M5
G0X5.32Y6.1
M3 S30
; Layer C00
G1X5.33Y6.11
G1Y6.14
G1Y6.19
G1X5.3Y6.26
G1X5.28Y6.29
G1X5.27Y6.27
G1Y6.21
G1Y6.14
G1X5.29Y6.11
G1X5.32
M5
G0X5.17Y6.21
M3 S30
; Layer C00
G1Y6.27
G1X5.14Y6.32
G1X5.12Y6.31
G1Y6.27
G1X5.14Y6.21
G1X5.17
M5
G0X4.97Y6.23
M3 S30
; Layer C00
G1X4.99Y6.3
G1X4.97Y6.43
G1X4.94Y6.45
G1X4.93
G1Y6.33
G1X4.97Y6.23
M5
G0X5.2Y6.34
M3 S30
; Layer C00
G1Y6.36
G1Y6.4
G1X5.19Y6.46
G1X5.16Y6.55
G1Y6.47
G1Y6.4
G1X5.18Y6.36
G1X5.2Y6.34
M5
G0X5.35Y6.37
M3 S30
; Layer C00
G1X5.37Y6.3
G1X5.41Y6.24
G1X5.45Y6.28
G1Y6.37
G1X5.43Y6.48
G1X5.37Y6.57
G1X5.32Y6.63
G1X5.28Y6.74
G1X5.22Y6.78
G1X5.18Y6.83
G1X5.16Y6.89
G1X5.14Y6.91
G1X5.12Y6.9
G1Y6.85
G1X5.13Y6.76
G1X5.18Y6.73
G1X5.22Y6.71
G1X5.27Y6.52
G1X5.31Y6.5
G1X5.34
G1Y6.45
G1Y6.4
G1Y6.37
M5
G0X5.08Y6.42
M3 S30
; Layer C00
G1Y6.51
G1X5.04Y6.57
G1X5.02
G1Y6.52
G1Y6.47
G1X5.04Y6.43
G1X5.07Y6.4
G1X5.08Y6.42
M5
G0X4.96Y6.63
M3 S30
; Layer C00
G1X4.98Y6.66
G1Y6.71
G1X4.96Y6.78
G1X4.92Y6.86
G1X4.88Y6.94
G1X4.85Y6.97
G1X4.83Y6.96
G1Y6.9
G1X4.86Y6.84
G1X4.92Y6.75
G1X4.94Y6.69
G1Y6.65
G1X4.96Y6.63
M5
G0X5.08Y6.68
M3 S30
; Layer C00
G1X5.1
G1X5.11
G1Y6.7
G1Y6.73
G1X5.1
G1X5.08
G1Y6.7
G1Y6.68
M5
G0X5.4Y6.76
M3 S30
; Layer C00
G1X5.43Y6.7
G1X5.46
G1Y6.76
G1X5.44Y6.89
G1X5.39Y6.95
G1X5.37Y6.93
G1Y6.86
G1X5.4Y6.76
M5
G0X5.3Y6.91
M3 S30
; Layer C00
G1X5.32Y6.93
G1Y7.07
G1X5.27Y7.21
G1X5.24Y7.23
G1X5.21
G1X5.18Y7.25
G1X5.13Y7.37
G1X5.07Y7.45
G1X5.06Y7.5
G1X5.04Y7.57
G1X4.99Y7.6
G1X4.98Y7.57
G1Y7.49
G1Y7.41
G1X4.96Y7.36
G1X4.94Y7.34
G1Y7.3
G1X4.92Y7.28
G1X4.9Y7.27
G1X4.87Y7.24
G1X4.89Y7.2
G1X4.9Y7.16
G1X4.92Y6.99
G1X4.95Y6.97
G1X4.99Y6.98
G1X4.98Y7.09
G1X4.99Y7.12
G1X5.01Y7.15
G1X5Y7.33
G1X5.03Y7.35
G1X5.07Y7.33
G1X5.13Y7.18
G1X5.21Y7.13
G1X5.24Y6.99
G1X5.27Y6.94
G1X5.3Y6.91
M5
G0X5.05Y7.02
M3 S30
; Layer C00
G1Y7.04
G1Y7.09
G1X5.03Y7.07
G1Y7.05
G1Y7.03
G1X5.05Y7.02
M5
G0X5.31Y7.35
M3 S30
; Layer C00
G1X5.34Y7.37
G1Y7.45
G1Y7.55
G1X5.32Y7.63
G1X5.29Y7.66
G1X5.26Y7.65
G1X5.24Y7.54
G1X5.26Y7.4
G1X5.29Y7.36
G1X5.31Y7.35
M5
G0X5.17Y7.57
M3 S30
; Layer C00
G1X5.18Y7.68
G1X5.16Y7.82
G1X5.13Y7.85
G1X5.11
G1Y7.82
G1X5.1Y7.74
G1Y7.67
G1X5.12Y7.6
G1X5.14Y7.57
G1X5.17
M5
G0X4.94Y7.66
M3 S30
; Layer C00
G1Y7.68
G1X4.95Y7.73
G1Y7.79
G1X4.9Y7.83
G1X4.86Y7.85
G1X4.85Y7.84
G1X4.89Y7.74
G1X4.94Y7.66
M5
G0X5.03Y7.78
M3 S30
; Layer C00
G1X5.05Y7.81
G1Y7.94
G1X5Y8.06
G1X4.96Y8.11
G1X4.92Y8.23
G1X4.89Y8.28
G1X4.86Y8.31
G1X4.85Y8.35
G1X4.8Y8.43
G1X4.74Y8.49
G1X4.73Y8.48
G1X4.72Y8.45
G1X4.71Y8.38
G1X4.73
G1X4.75Y8.36
G1X4.76Y8.28
G1X4.78Y8.26
G1X4.84Y8.18
G1X4.87Y8.09
G1X4.88Y8.04
G1X4.96Y7.94
G1X4.97Y7.89
G1X4.98Y7.85
G1X5Y7.81
G1X5.03Y7.78
M5
G0X5.31Y7.83
M3 S30
; Layer C00
G1X5.34Y7.8
G1X5.36Y7.83
G1Y7.88
G1Y7.96
G1X5.34Y8.07
G1X5.3Y8.08
G1X5.28Y7.96
G1X5.31Y7.83
M5
G0X5.19Y8.02
M3 S30
; Layer C00
G1X5.22Y8.04
G1Y8.14
G1X5.21Y8.23
G1X5.19Y8.28
G1X5.17Y8.3
G1X5.14
G1X5.12Y8.19
G1X5.14Y8.05
G1X5.16Y8.03
G1X5.19Y8.02
M5
G0X5.03Y8.22
M3 S30
; Layer C00
G1X5.06Y8.25
G1Y8.33
G1Y8.42
G1X5.05Y8.46
G1X5.02Y8.49
G1X5.01Y8.48
G1X5Y8.43
G1Y8.36
G1Y8.25
G1X5.03Y8.22
M5
G0X4.9Y8.42
M3 S30
; Layer C00
G1X4.93
G1X4.94Y8.51
G1X4.92Y8.64
G1X4.87Y8.69
G1X4.84Y8.72
G1X4.82Y8.83
G1X4.76Y8.92
G1X4.72Y9.04
G1X4.69Y9.07
G1X4.67
G1Y9
G1X4.69Y8.92
G1X4.73Y8.83
G1X4.76Y8.75
G1X4.78Y8.69
G1X4.8Y8.64
G1X4.83
G1X4.85Y8.61
G1X4.87Y8.53
G1X4.89Y8.46
G1Y8.42
M5
G0X5.18Y8.5
M3 S30
; Layer C00
G1X5.2Y8.46
G1X5.23Y8.45
G1X5.26Y8.47
G1Y8.58
G1X5.24Y8.67
G1X5.23Y8.72
G1X5.21Y8.74
G1X5.19
G1X5.17Y8.72
G1X5.16Y8.65
G1Y8.57
G1X5.18Y8.5
M5
G0X5.07Y8.67
M3 S30
; Layer C00
G1X5.1Y8.81
G1X5.05Y8.96
G1X5.03Y8.95
G1X5.01Y8.91
G1Y8.86
G1Y8.81
G1X5.02Y8.72
G1X5.04Y8.68
G1X5.07Y8.67
M5
G0X4.94Y8.86
M3 S30
; Layer C00
G1X4.96Y8.89
G1X4.97Y8.93
G1X4.96Y9.02
G1X4.94Y9.09
G1X4.91Y9.12
G1X4.88Y9.1
G1Y9.02
G1X4.9Y8.9
G1X4.92Y8.87
G1X4.94
M5
G0X4.82Y9.06
M3 S30
; Layer C00
G1X4.85Y9.1
G1Y9.17
G1X4.82Y9.26
G1X4.79Y9.32
G1X4.76Y9.35
G1X4.73Y9.43
G1X4.69Y9.48
G1X4.65Y9.51
G1Y9.48
G1Y9.45
G1X4.66Y9.43
G1X4.68Y9.39
G1X4.71Y9.26
G1X4.76Y9.2
G1X4.79Y9.08
G1X4.82Y9.06
M5
G0X5.08Y9.12
M3 S30
; Layer C00
G1X5.11
G1X5.13
G1X5.14Y9.17
G1Y9.23
G1X5.12Y9.36
G1X5.09Y9.41
G1X5.07Y9.39
G1X5.06Y9.28
G1Y9.17
G1X5.08Y9.12
M5
G0X4.96Y9.3
M3 S30
; Layer C00
G1X4.98Y9.33
G1X5.01Y9.41
G1Y9.52
G1X4.97Y9.6
G1X4.92
G1Y9.49
G1X4.93Y9.34
G1X4.96Y9.3
M5
G0X4.84Y9.5
M3 S30
; Layer C00
G1X4.88Y9.53
G1Y9.61
G1X4.86Y9.7
G1X4.85Y9.74
G1X4.83Y9.75
G1X4.81
G1X4.8Y9.71
G1Y9.58
G1X4.84Y9.5
M5
G0X4.64Y9.56
M3 S30
; Layer C00
G1Y9.6
G1Y9.64
G1X4.62Y9.66
G1X4.61
G1Y9.65
G1Y9.62
G1X4.62Y9.58
G1X4.64Y9.56
M5
G0X4.74Y9.68
M3 S30
; Layer C00
G1X4.76Y9.7
G1Y9.74
G1Y9.81
G1X4.74Y9.9
G1X4.69
G1Y9.8
G1X4.73Y9.69
G1X4.74Y9.68
M5
G0X4.98Y9.8
M3 S30
; Layer C00
G1X5Y9.77
G1X5.03Y9.8
G1Y9.89
G1X5.02Y10.02
G1X4.97Y10.06
G1X4.94Y10.08
G1X4.91Y10.21
G1X4.88Y10.24
G1X4.86
G1X4.84Y10.22
G1Y10.16
G1Y10.08
G1X4.87Y9.98
G1X4.9Y9.96
G1X4.94Y9.95
G1X4.98Y9.8
M5
G0X4.66Y9.89
M3 S30
; Layer C00
G1Y9.92
G1Y10.04
G1X4.63Y10.1
G1X4.6Y10.13
G1X4.57Y10.24
G1X4.55Y10.26
G1X4.53Y10.24
G1X4.55Y10.16
G1X4.57Y10.07
G1X4.62Y9.99
G1Y9.9
G1X4.64Y9.88
G1X4.66
M5
G0X4.78Y10.14
M3 S30
; Layer C00
G1X4.8Y10.16
G1Y10.28
G1X4.78Y10.4
G1X4.76
G1X4.71Y10.35
G1Y10.41
G1X4.69Y10.51
G1X4.65Y10.54
G1X4.63Y10.55
G1Y10.59
G1X4.61Y10.67
G1X4.57Y10.7
G1X4.54Y10.68
G1Y10.61
G1X4.57Y10.53
G1X4.63Y10.41
G1X4.65Y10.31
G1X4.72Y10.27
G1X4.73Y10.18
G1X4.75Y10.15
G1X4.78Y10.14
M5
G0X4.91Y10.42
M3 S30
; Layer C00
G1X4.93Y10.54
G1X4.91Y10.67
G1X4.9
G1X4.88Y10.64
G1Y10.51
G1X4.91Y10.42
M5
G0X4.83Y10.6
M3 S30
; Layer C00
G1Y10.72
G1X4.78Y10.86
G1X4.75Y10.91
G1X4.71Y11.01
G1X4.65Y11.04
G1X4.62Y11.13
G1X4.57Y11.18
G1X4.53Y11.27
G1X4.51Y11.29
G1X4.49
G1X4.48Y11.25
G1X4.49Y11.18
G1X4.57Y11.02
G1X4.58Y10.97
G1X4.59Y10.95
G1X4.62Y10.94
G1X4.65Y10.92
G1X4.68Y10.79
G1X4.73Y10.75
G1X4.76Y10.73
G1Y10.67
G1X4.79Y10.59
G1X4.83
M5
G0X4.11Y10.69
M3 S30
; Layer C00
G1X4.09Y10.7
G1X4.06Y10.69
G1X4.01Y10.65
G1X3.93Y10.58
G1X3.83Y10.49
G1X3.76Y10.46
G1X3.7Y10.44
G1X3.62Y10.37
G1X3.51Y10.28
G1X3.27Y10.11
G1X3.14Y10
G1X3.05Y9.91
G1X3.01Y9.86
G1X3.05
G1X3.12Y9.9
G1X3.23Y9.99
G1X3.4Y10.12
G1X3.53Y10.22
G1X3.69Y10.34
G1X3.83Y10.43
G1X3.91Y10.46
G1X4.02Y10.56
G1X4.11Y10.69
M5
G0X3.98Y10.36
M3 S30
; Layer C00
G1X3.95
G1X3.91Y10.32
G1X3.88Y10.29
G1Y10.28
G1X3.91
G1X3.95Y10.32
G1X3.99Y10.35
G1X3.98Y10.36
M5
G0X4.02Y10.26
M3 S30
; Layer C00
G1X4Y10.23
G1X4.02Y10.18
G1X4.06
G1X4.07Y10.21
G1Y10.24
G1X4.02Y10.26
M5
G0X3.96Y10.13
M3 S30
; Layer C00
G1X3.94
G1X3.93Y10.11
G1Y10.09
G1X3.95
G1X3.97
G1X3.98Y10.11
G1Y10.12
G1X3.96
M5
G0X3.7Y9.89
M3 S30
; Layer C00
G1X3.66Y9.88
G1Y9.82
G1Y9.77
G1X3.71Y9.81
G1X3.72Y9.87
G1X3.7Y9.89
M5
G0X3.22Y9.87
M3 S30
; Layer C00
G1X3.19Y9.86
G1X3.16Y9.82
G1X3.13Y9.79
G1X3.12Y9.77
G1Y9.76
G1X3.16
G1X3.21Y9.82
G1X3.22Y9.87
M5
G0X3.03Y9.28
M3 S30
; Layer C00
G1X3.01Y9.27
G1Y9.23
G1X3.04Y9.16
G1X3.11Y9.14
G1X3.16
G1X3.19Y9.12
G1X3.27
G1X3.32Y9.19
G1X3.28Y9.22
G1X3.18Y9.25
G1X3.03Y9.28
M5
G0X3.4Y9.1
M3 S30
; Layer C00
G1X3.39Y9.08
G1X3.41Y9.06
G1X3.45
G1X3.5
G1X3.52Y9.08
G1X3.51Y9.1
G1X3.45
G1X3.4
M5
G0X3.54Y9.05
M3 S30
; Layer C00
G1Y9.03
G1X3.55Y9
G1X3.64
G1X3.66Y8.95
G1X3.74Y8.93
G1X3.77Y8.91
G1X3.8Y8.89
G1X3.9Y8.9
G1X3.96Y8.92
G1X3.99Y8.94
G1X3.97Y8.96
G1X3.91
G1X3.85Y8.97
G1X3.82Y8.99
G1X3.78Y9.01
G1X3.74Y9.02
G1X3.7
G1X3.68Y9.04
G1X3.65Y9.06
G1X3.6
G1X3.54
M5
G0X3.53Y8.58
M3 S30
; Layer C00
G1X3.51Y8.56
G1Y8.52
G1X3.53Y8.49
G1Y8.46
G1Y8.44
G1X3.51Y8.4
G1X3.55
G1X3.58Y8.42
G1X3.6Y8.4
G1Y8.38
G1X3.56Y8.35
G1Y8.32
G1Y8.28
G1X3.52Y8.22
G1X3.5Y8.17
G1X3.51Y8.15
G1X3.54Y8.17
G1X3.61Y8.24
G1X3.66Y8.26
G1X3.68Y8.3
G1X3.74Y8.33
G1X3.85Y8.4
G1X3.89Y8.41
G1X3.93
G1X3.95Y8.42
G1X3.92Y8.46
G1X3.81Y8.5
G1X3.79Y8.53
G1X3.76Y8.56
G1X3.73Y8.58
G1X3.7
G1X3.66Y8.54
G1X3.62Y8.5
G1X3.59
G1X3.57
G1Y8.53
G1X3.53Y8.58
M5
G0X3.47Y8.33
M3 S30
; Layer C00
G1X3.45
G1Y8.31
G1X3.47Y8.3
G1X3.5
G1X3.52
G1Y8.31
G1X3.5Y8.33
G1X3.47
M5
G0X3.34Y8.15
M3 S30
; Layer C00
G1X3.36
G1Y8.11
G1Y8.09
G1X3.34Y8.08
G1X3.33
G1Y8.11
G1Y8.14
G1X3.34Y8.15
M5
G0X3.28Y8.2
M3 S30
; Layer C00
G1X3.26Y8.22
G1Y8.24
G1X3.23
G1X3.21Y8.18
G1X3.27Y8.08
G1X3.31Y8.04
G1Y7.98
G1X3.29Y7.93
G1X3.27Y7.95
G1X3.25Y7.99
G1X3.24Y8.03
G1X3.23Y8.06
G1X3.17
G1X3.13
G1X3.11Y8.04
G1X3.12
G1X3.13Y8.03
G1X3.18Y8
G1X3.22Y7.94
G1Y7.88
G1X3.19Y7.86
G1X3.16Y7.89
G1Y7.96
G1X3.14Y7.97
G1X3.11
G1X3.08Y7.99
G1Y8.01
G1X3.06Y8.03
G1X3.04
G1X3.02
G1Y8
G1Y7.97
G1X3.04Y7.96
G1X3.07Y7.93
G1X3.05Y7.89
G1X3.03Y7.83
G1X3.08Y7.76
G1X3.12Y7.73
G1X3.13Y7.74
G1Y7.77
G1X3.11Y7.79
G1X3.13
G1X3.24Y7.75
G1X3.28Y7.71
G1Y7.69
G1X3.33Y7.67
G1X3.34Y7.65
G1X3.39Y7.62
G1X3.46Y7.65
G1Y7.68
G1X3.41Y7.74
G1Y7.82
G1X3.4Y7.87
G1X3.44Y7.95
G1X3.45Y8.02
G1X3.48Y8.07
G1Y8.1
G1Y8.14
G1X3.45Y8.18
G1Y8.21
G1X3.44Y8.24
G1X3.42Y8.25
G1X3.39Y8.32
G1X3.42Y8.46
G1X3.43Y8.54
G1X3.39Y8.57
G1X3.36
G1X3.32Y8.59
G1X3.29Y8.62
G1X3.3Y8.65
G1X3.32Y8.67
G1X3.35
G1X3.4Y8.7
G1X3.41Y8.75
G1X3.37Y8.76
G1X3.22Y8.72
G1X3.19
G1Y8.74
G1X3.2Y8.78
G1X3.23Y8.81
G1Y8.83
G1X3.2Y8.84
G1X3.14Y8.83
G1X3.12Y8.8
G1X3.09Y8.76
G1X3.05Y8.71
G1X3.03Y8.74
G1Y8.76
G1X3.05
G1X3.06Y8.77
G1Y8.8
G1X3.04Y8.83
G1X3.02Y8.81
G1Y8.75
G1Y8.65
G1Y8.56
G1Y8.51
G1Y8.48
G1X3.04
G1X3.06Y8.51
G1X3.08Y8.65
G1X3.11Y8.67
G1X3.18Y8.64
G1X3.21Y8.57
G1X3.22Y8.55
G1X3.26Y8.53
G1X3.3
G1X3.32Y8.52
G1Y8.5
G1X3.3Y8.47
G1Y8.43
G1X3.33Y8.32
G1Y8.26
G1X3.28Y8.2
M5
G0X3.12Y8.21
M3 S30
; Layer C00
G1X3.17Y8.29
G1X3.14Y8.37
G1Y8.45
G1Y8.47
G1X3.09Y8.49
G1X3.07Y8.45
G1Y8.42
G1X3.09Y8.4
G1X3.11Y8.36
G1X3.08Y8.33
G1X3.06Y8.32
G1X3.07Y8.22
G1X3.04
G1X3.01Y8.2
G1X3.05Y8.14
G1X3.09Y8.12
G1X3.11
G1X3.13Y8.13
G1Y8.21
M5
G0X3.66Y8.13
M3 S30
; Layer C00
G1Y8.11
G1X3.68
G1X3.69Y8.1
G1X3.71
G1Y8.11
G1X3.69Y8.13
G1X3.67
G1X3.66
M5
G0X3.64Y7.8
M3 S30
; Layer C00
G1X3.6Y7.79
G1Y7.77
G1X3.59Y7.73
G1Y7.71
G1X3.62Y7.72
G1X3.64Y7.75
G1X3.65Y7.77
G1X3.64Y7.8
M5
G0X3.66Y7.65
M3 S30
; Layer C00
G1X3.59
G1X3.58Y7.63
G1Y7.61
G1X3.6
G1X3.63
G1X3.66
G1X3.7Y7.59
G1Y7.62
G1X3.66Y7.65
M5
G0X3.89Y7.55
M3 S30
; Layer C00
G1X3.92
G1X3.94
G1X3.96Y7.52
G1X3.95Y7.48
G1X3.9Y7.52
G1Y7.55
M5
G0X3.83Y7.52
M3 S30
; Layer C00
G1Y7.49
G1Y7.47
G1X3.77Y7.49
G1X3.72Y7.51
G1X3.7
G1X3.72Y7.48
G1X3.76Y7.44
G1X3.81Y7.41
G1X3.84Y7.43
G1X3.89Y7.46
G1X3.92Y7.44
G1X3.93
G1X3.97Y7.43
G1X4
G1X4.02Y7.35
G1X4.06Y7.31
G1X4.1Y7.26
G1X4.13Y7.33
G1X4.14Y7.4
G1X4.12Y7.44
G1X4.03Y7.53
G1X3.99Y7.59
G1X3.97Y7.65
G1Y7.7
G1Y7.75
G1X3.96Y7.78
G1X3.93
G1X3.89
G1X3.82Y7.73
G1X3.79Y7.63
G1Y7.56
G1X3.81Y7.53
G1X3.83Y7.52
M5
G0X3.67Y7.15
M3 S30
; Layer C00
G1X3.64Y7.13
G1Y7.1
G1X3.65Y7.08
G1X3.66Y6.98
G1X3.6Y6.82
G1X3.58Y6.64
G1X3.57Y6.59
G1X3.55Y6.55
G1X3.61Y6.54
G1X3.64
G1X3.66Y6.56
G1X3.68Y6.6
G1X3.71Y6.68
G1X3.73Y6.8
G1Y6.88
G1X3.72Y6.93
G1X3.75Y6.97
G1X3.77Y7.01
G1X3.71Y7.08
G1X3.69Y7.12
G1X3.67Y7.15
M5
G0X3.61Y7.16
M3 S30
; Layer C00
G1X3.58
G1X3.56
G1Y7.15
G1X3.57Y7.14
G1X3.59
G1X3.61Y7.16
M5
G0X3.41Y7.07
M3 S30
; Layer C00
G1X3.4
G1Y6.98
G1X3.38
G1X3.37
G1Y7
G1X3.34Y7.04
G1X3.29Y7.11
G1X3.23Y7.2
G1X3.19Y7.26
G1X3.16Y7.3
G1Y7.34
G1X3.15Y7.37
G1X3.13Y7.38
G1X3.08Y7.41
G1X3.06Y7.5
G1X3.04Y7.52
G1X3.02
G1Y7.48
G1Y7.43
G1Y7.34
G1Y7.2
G1X3.03Y7.14
G1X3.05
G1Y7.16
G1Y7.2
G1Y7.23
G1X3.08Y7.2
G1X3.1Y7.15
G1X3.11Y7.09
G1Y7.04
G1X3.09Y7.06
G1X3.06Y7.08
G1X3.03Y7.06
G1X3.01Y7.03
G1Y6.99
G1X3.04Y6.96
G1X3.09Y6.94
G1X3.16Y6.91
G1Y6.98
G1Y7.03
G1Y7.05
G1Y7.08
G1X3.17Y7.1
G1X3.19
G1X3.2Y7.07
G1Y7.01
G1Y6.81
G1X3.22Y6.77
G1X3.24Y6.76
G1X3.28Y6.79
G1X3.33Y6.81
G1X3.4Y6.8
G1X3.47Y6.78
G1X3.5
G1X3.52Y6.8
G1X3.48Y6.9
G1X3.45Y6.98
G1X3.44Y7.04
G1X3.41Y7.07
M5
G0X3.06Y6.84
M3 S30
; Layer C00
G1X3.03
G1X3.01Y6.83
G1Y6.77
G1Y6.72
G1X3.04Y6.68
G1X3.07
G1X3.11Y6.7
G1X3.13Y6.74
G1X3.09Y6.79
G1X3.06Y6.84
M5
G0X3.24Y6.7
M3 S30
; Layer C00
G1X3.21Y6.68
G1X3.19Y6.65
G1Y6.62
G1X3.2Y6.6
G1X3.23
G1X3.29Y6.62
G1X3.32Y6.66
G1X3.31Y6.67
G1X3.28Y6.69
G1X3.24Y6.7
M5
G0X3.36Y6.65
M3 S30
; Layer C00
G1X3.35Y6.61
G1Y6.57
G1X3.4Y6.56
G1X3.45
G1X3.48Y6.6
G1Y6.63
G1X3.47Y6.66
G1X3.44Y6.68
G1X3.4
G1X3.36Y6.65
M5
G0X3.11Y6.61
M3 S30
; Layer C00
G1X3.1
G1X3.07
G1X3.04Y6.63
G1X3.02
G1Y6.6
G1X3.04Y6.56
G1X3.09Y6.59
G1X3.11Y6.61
M5
G0X3.2Y6.48
M3 S30
; Layer C00
G1X3.17Y6.46
G1X3.16Y6.43
G1X3.19Y6.42
G1X3.21
G1Y6.45
G1Y6.48
M5
G0X3.33Y6.44
M3 S30
; Layer C00
G1X3.32Y6.35
G1X3.35Y6.23
G1X3.38Y6.18
G1X3.42
G1X3.5Y6.2
G1X3.53Y6.17
G1X3.54Y6.15
G1X3.58Y6.14
G1X3.64Y6.13
G1X3.59Y6.17
G1X3.54Y6.22
G1X3.52Y6.27
G1X3.5Y6.31
G1X3.48Y6.29
G1X3.46Y6.27
G1X3.44
G1X3.43Y6.28
G1X3.42Y6.37
G1X3.39
G1X3.37
G1Y6.4
G1Y6.45
G1X3.33
M5
G0X3.21Y6.36
M3 S30
; Layer C00
G1X3.14Y6.31
G1X3.11Y6.26
G1X3.09Y6.24
G1Y6.23
G1X3.05
G1X3.02Y6.21
G1Y6.19
G1Y6.17
G1X3.03Y6.15
G1X3.05
G1X3.08
G1X3.12
G1X3.13Y6.16
G1X3.14Y6.18
G1X3.16
G1X3.17Y6.12
G1X3.19Y6.11
G1X3.23Y6.19
G1X3.24Y6.34
G1X3.21Y6.36
M5
G0X3.56Y6.4
M3 S30
; Layer C00
G1X3.59Y6.41
G1X3.6Y6.43
G1Y6.45
G1X3.57
G1X3.56Y6.44
G1Y6.4
M5
G0X3.5Y6.08
M3 S30
; Layer C00
G1X3.47
G1Y6.06
G1X3.52Y6.01
G1X3.6Y5.98
G1X3.62Y6
G1X3.63Y6.03
G1Y6.06
G1X3.54
G1X3.53
G1X3.52Y6.08
G1X3.5
M5
G0X3.36Y6.07
M3 S30
; Layer C00
G1X3.33Y6.08
G1X3.27Y6.07
G1X3.25Y6.05
G1Y6.03
G1X3.26Y5.97
G1X3.2Y5.93
G1X3.23Y5.89
G1X3.27
G1X3.31Y5.95
G1X3.35Y6.02
G1Y6.07
M5
G0X3.17Y5.99
M3 S30
; Layer C00
G1X3.09Y6.01
G1X3.01Y6.03
G1Y5.95
G1Y5.89
G1X3.03Y5.85
G1X3.05Y5.83
G1X3.08Y5.86
G1X3.12
G1X3.15Y5.88
G1Y5.95
G1X3.16Y5.97
G1X3.17Y5.99
M5
G0X3.16Y5.82
M3 S30
; Layer C00
G1X3.14
G1X3.11Y5.79
G1X3.08Y5.76
G1X3.07Y5.72
G1X3.05Y5.7
G1X3.03Y5.69
G1X3.02Y5.66
G1Y5.59
G1Y5.52
G1Y5.49
G1X3.07Y5.53
G1X3.08Y5.6
G1Y5.66
G1X3.18Y5.74
G1X3.19Y5.78
G1Y5.81
G1X3.16
M5
G0X3.25Y5.81
M3 S30
; Layer C00
G1X3.22Y5.74
G1X3.26Y5.69
G1X3.29Y5.67
G1Y5.65
G1X3.26Y5.6
G1X3.18Y5.57
G1X3.14
G1X3.16Y5.54
G1X3.27Y5.51
G1X3.33Y5.55
G1X3.35Y5.58
G1X3.36Y5.59
G1X3.38Y5.6
G1Y5.64
G1Y5.67
G1X3.36Y5.69
G1X3.35Y5.71
G1X3.33Y5.8
G1X3.31Y5.83
G1X3.28
G1X3.25Y5.81
M5
G0X3.41Y5.74
M3 S30
; Layer C00
G1Y5.71
G1Y5.68
G1X3.42
G1X3.44Y5.7
G1Y5.72
G1Y5.74
G1X3.42
G1X3.41
M5
G0X3.5Y5.78
M3 S30
; Layer C00
G1X3.58Y5.77
G1X3.62
G1Y5.81
G1Y5.85
G1X3.61Y5.89
G1X3.58Y5.92
G1X3.49Y5.9
G1X3.45Y5.86
G1Y5.82
G1X3.5Y5.78
M5
G0X3.67Y5.85
M3 S30
; Layer C00
G1X3.69Y5.86
G1Y5.91
G1X3.68Y5.96
G1X3.64Y5.94
G1Y5.89
G1X3.67Y5.85
M5
G0X3.03Y5.41
M3 S30
; Layer C00
G1X3.01Y5.4
G1Y5.37
G1X3.02Y5.34
G1X3.05
G1X3.08
G1X3.07Y5.37
G1X3.04Y5.4
G1X3.03Y5.41
M5
G0X3.22Y4.89
M3 S30
; Layer C00
G1X3.2
G1Y4.86
G1Y4.83
G1X3.22Y4.82
G1X3.23
G1Y4.85
G1Y4.87
G1X3.22Y4.89
M5
G0X4.67Y5.42
M3 S30
; Layer C00
G1X4.68
G1X4.7Y5.44
G1Y5.45
G1Y5.47
G1X4.68
G1X4.67
G1Y5.44
G1Y5.42
M5
G0X5.29Y5.37
M3 S30
; Layer C00
G1Y5.34
G1X5.34Y5.32
G1X5.38Y5.28
G1Y5.1
G1X5.41Y5.07
G1X5.44
G1X5.46Y5.09
G1Y5.21
G1X5.41Y5.33
G1X5.38Y5.37
G1X5.37Y5.41
G1X5.35Y5.48
G1X5.32Y5.51
G1X5.31Y5.49
G1Y5.45
G1Y5.4
G1X5.29Y5.37
M5
G0X5.45Y5.43
M3 S30
; Layer C00
G1X5.47Y5.5
G1X5.44Y5.6
G1X5.41Y5.63
G1X5.4Y5.61
G1Y5.5
G1X5.45Y5.43
M5
G0X5.8Y5.25
M3 S30
; Layer C00
G1X5.83
G1X5.84Y5.21
G1X5.85Y5.12
G1Y5.02
G1X5.82Y5
G1X5.8Y5.03
G1X5.78Y5.1
G1Y5.18
G1Y5.22
G1X5.8Y5.25
M5
G0X5.34Y4.97
M3 S30
; Layer C00
G1X5.32
G1X5.31
G1Y4.95
G1Y4.93
G1X5.32
G1X5.34Y4.94
G1Y4.96
G1Y4.97
M5
G0X5.26Y4.5
M3 S30
; Layer C00
G1X5.25
G1Y4.48
G1Y4.45
G1X5.26Y4.44
G1X5.28
G1Y4.46
G1Y4.49
G1X5.26Y4.5
M5
G0X4.89Y4.53
M3 S30
; Layer C00
G1X4.87Y4.54
G1X4.85
G1X4.84Y4.51
G1Y4.47
G1X4.87Y4.49
G1X4.89Y4.53
M5
G0X5.03Y4.15
M3 S30
; Layer C00
G1X5.07Y4.13
G1X5.09Y4.11
G1Y4.03
G1Y4
G1Y3.97
G1X5.04Y4.01
G1X4.99Y4.06
G1X5.01Y4.08
G1X5.03
G1Y4.1
G1X5Y4.12
G1Y4.13
G1X5.03Y4.15
M5
G0X5.43Y3.96
M3 S30
; Layer C00
G1X5.49Y3.93
G1X5.56
G1Y3.95
G1X5.55
G1X5.51
G1X5.47Y3.96
G1X5.44
G1X5.43
M5
G0X5.43Y3.59
M3 S30
; Layer C00
G1X5.41
G1X5.39Y3.56
G1X5.38Y3.52
G1X5.41Y3.5
G1X5.43Y3.54
G1Y3.59
M5
G0X5.56Y3.54
M3 S30
; Layer C00
G1X5.49Y3.49
G1X5.54Y3.34
G1X5.56Y3.32
G1X5.57
G1X5.59Y3.34
G1X5.65Y3.37
G1X5.87Y3.41
G1X5.9Y3.43
G1X5.86Y3.49
G1X5.73Y3.5
G1X5.65
G1X5.61Y3.52
G1X5.6Y3.54
G1X5.63Y3.57
G1X5.65Y3.59
G1X5.61
G1X5.56Y3.54
M5
G0X5.33Y3.47
M3 S30
; Layer C00
G1X5.29Y3.42
G1X5.27Y3.36
G1Y3.3
G1Y3.26
G1X5.25Y3.19
G1Y3.17
G1Y3.14
G1X5.22Y3.11
G1X5.2Y3.06
G1Y3
G1X5.23Y2.96
G1X5.25Y2.95
G1Y2.97
G1X5.26Y3.01
G1X5.27Y3.07
G1X5.3Y3.1
G1X5.33Y3.13
G1Y3.18
G1X5.38Y3.21
G1Y3.24
G1Y3.28
G1X5.39Y3.37
G1Y3.39
G1X5.36Y3.41
G1X5.35Y3.45
G1X5.33Y3.47
M5
G0X5.19Y3.51
M3 S30
; Layer C00
G1X5.17Y3.5
G1X5.15
G1X5.16Y3.53
G1X5.19Y3.55
G1X5.2Y3.53
G1Y3.51
M5
G0X5.23Y3.5
M3 S30
; Layer C00
G1X5.25Y3.52
G1X5.27
G1X5.3
G1Y3.54
G1X5.29Y3.57
G1X5.21Y3.61
G1X5.17Y3.67
G1X5.13
G1X5.08Y3.65
G1X5.03
G1X4.99Y3.69
G1X5.03Y3.73
G1X5.09Y3.79
G1X5.11Y3.84
G1X5.09
G1X5.05Y3.81
G1X5Y3.78
G1X4.97Y3.74
G1X4.92Y3.66
G1X4.9Y3.62
G1X4.91Y3.59
G1X4.95Y3.57
G1X5.02
G1X5.1Y3.55
G1Y3.52
G1X5.08Y3.44
G1X5.09Y3.42
G1X5.18Y3.44
G1X5.23Y3.5
M5
G0X5.09Y3.38
M3 S30
; Layer C00
G1X5.03Y3.35
G1X5Y3.32
G1Y3.26
G1X4.98Y3.22
G1X4.96Y3.19
G1X4.98Y3.16
G1X5.04
G1X5.08Y3.22
G1Y3.25
G1X5.11
G1X5.15Y3.29
G1X5.14Y3.35
G1X5.09Y3.38
M5
G0X4.86Y3.33
M3 S30
; Layer C00
G1X4.85Y3.37
G1X4.82Y3.38
G1X4.8Y3.37
G1X4.78Y3.29
G1Y3.23
G1X4.8Y3.2
G1Y3.12
G1X4.81Y3.03
G1X4.86Y2.97
G1X4.9Y2.95
G1X4.93Y2.94
G1X4.95Y2.95
G1Y2.98
G1X4.96Y3.02
G1X4.98Y3.04
G1X5Y3.09
G1X4.95Y3.1
G1X4.9Y3.16
G1X4.87Y3.27
G1Y3.33
M5
G0X5.07Y3.14
M3 S30
; Layer C00
G1Y3.12
G1X5.09Y3.11
G1X5.12
G1X5.15
G1Y3.12
G1Y3.14
G1X5.11
G1X5.07
M5
G0X5.09Y2.96
M3 S30
; Layer C00
G1X5.07
G1X5.04Y2.94
G1X5.02Y2.91
G1Y2.89
G1X5.03Y2.87
G1X5.07
G1X5.11
G1Y2.92
G1Y2.95
G1X5.09Y2.96
M5
G0X5.3Y2.93
M3 S30
; Layer C00
G1X5.29Y2.91
G1X5.3Y2.89
G1X5.35Y2.87
G1X5.41
G1X5.47
G1Y2.91
G1X5.45Y2.94
G1X5.46Y2.96
G1X5.48Y2.97
G1Y2.99
G1X5.53Y3.05
G1X5.58Y3.07
G1Y3.04
G1X5.59Y2.99
G1X5.6Y2.92
G1X5.65Y2.89
G1X5.69Y2.87
G1X5.72
G1X5.68Y2.9
G1X5.73Y2.96
G1X5.68Y2.97
G1X5.7Y2.99
G1X5.72Y3.03
G1X5.68Y3.08
G1X5.63Y3.13
G1X5.59
G1X5.51Y3.12
G1X5.44
G1X5.43
G1X5.39
G1X5.36
G1X5.35Y3.09
G1Y3.07
G1X5.39Y3.05
G1X5.42Y3.03
G1Y3
G1X5.41Y2.97
G1X5.37Y2.96
G1X5.33Y2.95
G1X5.3Y2.93
M5
G0X4.9Y2.89
M3 S30
; Layer C00
G1X4.88Y2.9
G1X4.86
G1X4.84
G1X4.82Y2.89
G1Y2.87
G1X4.86
G1X4.89
G1X4.9Y2.89
M5
G0X4.56Y2.88
M3 S30
; Layer C00
G1X4.57Y2.94
G1Y3
G1X4.51Y3.01
G1X4.46
G1X4.45Y3.04
G1Y3.07
G1X4.47
G1X4.53Y3.08
G1X4.57Y3.13
G1X4.55Y3.2
G1X4.52
G1X4.48Y3.16
G1X4.43Y3.1
G1X4.38Y3.06
G1X4.34Y3.03
G1X4.32Y3
G1X4.34Y2.98
G1X4.49Y2.92
G1X4.51Y2.88
G1X4.53Y2.87
G1X4.56Y2.88
M5
G0X4.32Y2.93
M3 S30
; Layer C00
G1X4.31Y2.97
G1X4.28Y2.99
G1X4.24Y3.01
G1X4.22
G1Y3.03
G1X4.24
G1X4.26
G1X4.31Y3.08
G1X4.33Y3.15
G1X4.3
G1X4.23Y3.11
G1X4.16Y3.07
G1X4.13Y3.05
G1Y3.03
G1X4.14Y2.99
G1X4.15Y2.95
G1X4.12Y2.92
G1X4.08Y2.9
G1X4.07Y2.88
G1X4.12Y2.87
G1X4.15
G1X4.18Y2.92
G1X4.26Y2.91
G1X4.3
G1X4.32Y2.93
M5
G0X4.24Y3.68
M3 S30
; Layer C00
G1X4.21Y3.69
G1X4.2Y3.79
G1Y3.92
G1X4.26Y3.97
G1X4.28Y3.95
G1Y3.9
G1Y3.86
G1Y3.83
G1X4.25Y3.79
G1X4.27
G1X4.3Y3.77
G1X4.29Y3.71
G1X4.24Y3.68
M5
G0X4.56Y3.83
M3 S30
; Layer C00
G1Y3.85
G1X4.61Y3.88
G1X4.69
G1X4.74Y3.87
G1X4.76Y3.82
G1X4.71Y3.77
G1X4.66
G1X4.62Y3.79
G1X4.59Y3.82
G1X4.56Y3.83
M5
G0X4.49Y3.78
M3 S30
; Layer C00
G1X4.52Y3.76
G1X4.48
G1X4.43Y3.73
G1X4.42Y3.67
G1X4.49Y3.65
G1X4.59Y3.69
G1X4.62Y3.71
G1X4.65Y3.7
G1X4.69Y3.68
G1X4.73Y3.75
G1X4.77Y3.73
G1X4.78Y3.7
G1Y3.66
G1X4.76Y3.64
G1X4.66Y3.58
G1X4.64Y3.56
G1X4.68Y3.52
G1X4.74Y3.51
G1X4.76
G1Y3.48
G1X4.8Y3.44
G1X4.91Y3.43
G1X4.97Y3.44
G1X4.99Y3.47
G1Y3.49
G1X4.94
G1X4.89Y3.5
G1X4.87Y3.51
G1Y3.53
G1X4.89Y3.58
G1X4.87Y3.59
G1X4.85Y3.63
G1Y3.7
G1X4.87Y3.77
G1X4.91Y3.79
G1X4.94Y3.8
G1X4.95Y3.81
G1X4.94Y3.83
G1X4.86Y3.82
G1X4.85Y3.85
G1X4.87Y3.89
G1X4.95Y3.92
G1X5.03Y3.93
G1X5.07Y3.91
G1X5.1Y3.89
G1X5.13Y3.91
G1X5.16Y3.93
G1X5.17Y3.95
G1X5.2Y4.03
G1X5.25Y4.07
G1X5.3Y4.03
G1X5.32Y3.96
G1Y3.93
G1X5.3Y3.96
G1X5.28Y3.98
G1X5.25Y3.99
G1X5.23Y3.98
G1Y3.95
G1Y3.91
G1X5.27
G1X5.31
G1X5.35Y3.89
G1X5.38
G1Y3.91
G1Y3.94
G1X5.37Y3.96
G1X5.35Y3.98
G1Y4
G1X5.47Y4.04
G1X5.63Y4.02
G1X5.65Y4
G1X5.73Y3.98
G1X5.76Y3.96
G1X5.79Y3.93
G1X5.74Y3.88
G1X5.68Y3.84
G1X5.51
G1X5.42Y3.8
G1X5.34Y3.81
G1X5.28Y3.83
G1X5.25
G1X5.22Y3.76
G1X5.2Y3.69
G1X5.25Y3.68
G1X5.31Y3.7
G1X5.33
G1X5.34
G1X5.39
G1X5.54Y3.73
G1X5.58Y3.71
G1X5.61Y3.68
G1X5.65Y3.7
G1X5.68Y3.73
G1Y3.77
G1X5.71
G1X5.75Y3.74
G1Y3.67
G1X5.72Y3.64
G1Y3.63
G1X5.74Y3.62
G1X5.78Y3.61
G1X5.83
G1X5.86
G1Y3.63
G1X5.84Y3.67
G1X5.8Y3.75
G1X5.83Y3.81
G1X5.86Y3.91
G1X5.83Y3.97
G1X5.81
G1Y4
G1X5.83Y4.01
G1X5.87Y4.02
G1X5.91
G1X5.93Y4.01
G1Y3.97
G1X5.94Y3.82
G1X5.95Y3.76
G1Y3.72
G1X5.91Y3.71
G1Y3.68
G1Y3.66
G1X5.92Y3.64
G1X5.94
G1X5.98
G1X6.03Y3.63
G1X6.08Y3.61
G1X6.1Y3.62
G1X6.13Y3.63
G1X6.16Y3.61
G1X6.18Y3.57
G1Y3.53
G1X6.14Y3.51
G1X6.09
G1X6.05Y3.52
G1X6.02Y3.54
G1Y3.44
G1X6Y3.42
G1Y3.41
G1X5.99Y3.38
G1Y3.35
G1X6.03Y3.37
G1X6.07Y3.39
G1X6.11Y3.37
G1X6.13
G1X6.14Y3.42
G1X6.2Y3.43
G1X6.24
G1X6.27Y3.44
G1X6.3
G1X6.41Y3.39
G1X6.45Y3.38
G1X6.48
G1X6.44Y3.42
G1X6.41Y3.46
G1Y3.5
G1Y3.53
G1X6.44Y3.54
G1X6.47Y3.56
G1X6.48Y3.58
G1X6.46Y3.59
G1X6.38Y3.54
G1X6.32Y3.5
G1X6.28Y3.48
G1X6.26Y3.5
G1X6.24Y3.54
G1X6.23Y3.58
G1X6.2Y3.61
G1Y3.64
G1Y3.68
G1X6.16
G1X6.11Y3.7
G1X6.06Y3.73
G1X6Y3.79
G1X5.99Y4.05
G1X5.97Y4.12
G1X5.95Y4.14
G1Y4.17
G1Y4.19
G1X5.92Y4.2
G1X5.89
G1Y4.18
G1Y4.16
G1X5.91Y4.15
G1X5.9Y4.13
G1X5.85Y4.12
G1X5.76Y4.14
G1X5.65Y4.11
G1X5.63Y4.15
G1Y4.18
G1X5.65
G1X5.67Y4.21
G1X5.68Y4.27
G1X5.7Y4.34
G1X5.73Y4.38
G1X5.77Y4.46
G1X5.74Y4.58
G1X5.76Y4.61
G1X5.77Y4.65
G1Y4.73
G1X5.78Y4.81
G1X5.79Y4.86
G1X5.81Y4.89
G1X5.84
G1X5.87Y4.9
G1X5.88Y4.91
G1X5.89Y5.03
G1X5.9Y5.14
G1X5.91Y5.21
G1X5.92Y5.25
G1Y5.4
G1X5.89Y5.61
G1X5.87Y5.63
G1X5.86Y5.61
G1X5.85Y5.57
G1Y5.51
G1Y5.43
G1Y5.38
G1X5.83Y5.36
G1X5.82
G1X5.81Y5.4
G1Y5.47
G1X5.79Y5.57
G1Y5.69
G1X5.78Y5.95
G1Y6.31
G1Y6.42
G1X5.77Y6.49
G1X5.75Y6.58
G1X5.77Y6.6
G1X5.79Y6.65
G1Y6.76
G1X5.77Y6.86
G1X5.76Y6.9
G1Y6.93
G1X5.77Y7.02
G1X5.76Y7.06
G1X5.74Y7.11
G1X5.73Y7.21
G1Y7.32
G1X5.69Y7.53
G1X5.66Y7.86
G1X5.65Y7.95
G1X5.62Y8.11
G1X5.63Y8.19
G1X5.65Y8.22
G1X5.62Y8.27
G1X5.61Y8.29
G1X5.59Y8.33
G1Y8.4
G1X5.57Y8.51
G1X5.55Y8.68
G1X5.53Y8.76
G1X5.52Y8.78
G1Y8.8
G1Y8.88
G1X5.49Y9.06
G1X5.45Y9.27
G1X5.39Y9.58
G1X5.36Y9.78
G1X5.31Y10.03
G1X5.28Y10.23
G1X5.24Y10.38
G1Y10.43
G1X5.22Y10.51
G1X5.19Y10.65
G1X5.15Y10.8
G1X5.13Y10.91
G1X5.12Y10.97
G1X5.04Y11.37
G1Y11.42
G1X5.08
G1X5.12Y11.44
G1X5.14Y11.46
G1Y11.51
G1X5.12Y11.6
G1X5.08Y11.78
G1X5.06Y11.88
G1X5.08Y11.93
G1X5.15
G1Y11.95
G1Y11.97
G1X5.1Y11.98
G1X5.04Y12
G1X4.98Y12.08
G1X4.95Y12.16
G1X4.93Y12.2
G1Y12.23
G1X4.86Y12.31
G1X4.83Y12.36
G1X4.79Y12.41
G1X4.75Y12.39
G1Y12.34
G1X4.79Y12.28
G1X4.82Y12.21
G1Y12.16
G1Y12.13
G1X4.79
G1X4.75
G1Y12.04
G1X4.78Y11.89
G1X4.83Y11.67
G1Y11.59
G1Y11.53
G1Y11.45
G1X4.86Y11.39
G1X4.88Y11.35
G1X4.89Y11.29
G1Y11.21
G1X4.94Y11.02
G1X4.95Y10.95
G1X4.97Y10.84
G1X5.06Y10.43
G1X5.09Y10.27
G1X5.19Y9.75
G1X5.24Y9.44
G1X5.32Y8.91
G1X5.39Y8.42
G1X5.42Y8.2
G1X5.45Y8.02
G1X5.47Y7.75
G1X5.5Y7.58
G1Y7.5
G1Y7.44
G1X5.52Y7.41
G1Y7.39
G1X5.53Y7.37
G1Y7.35
G1X5.45Y7.4
G1X5.44Y7.38
G1Y7.25
G1X5.49Y7.13
G1X5.51Y7.11
G1X5.52Y7.06
G1X5.54Y6.97
G1X5.55Y6.82
G1X5.59Y6.19
G1X5.61Y5.57
G1Y5.28
G1Y5.03
G1X5.6Y4.81
G1X5.58Y4.64
G1X5.56Y4.47
G1X5.53Y4.35
G1X5.5Y4.27
G1X5.46Y4.21
G1X5.41Y4.17
G1X5.36Y4.19
G1X5.24Y4.38
G1X5.12Y4.63
G1X5.08Y4.76
G1Y4.81
G1Y4.84
G1X5.09Y4.86
G1X5.07Y4.92
G1Y5.03
G1X5.06Y5.06
G1X5.04Y5.1
G1X5.03Y5.16
G1X5Y5.23
G1X4.95Y5.36
G1X4.93Y5.45
G1X4.88Y5.58
G1X4.86Y5.64
G1X4.85Y5.66
G1X4.83Y5.7
G1X4.82Y5.78
G1X4.8Y5.88
G1X4.77Y6
G1X4.75Y6.11
G1X4.78Y6.15
G1X4.8Y6.18
G1X4.79Y6.22
G1X4.76Y6.25
G1X4.74Y6.23
G1X4.72
G1X4.7Y6.28
G1X4.74Y6.34
G1X4.7Y6.45
G1X4.68Y6.57
G1X4.67Y6.59
G1X4.63Y6.71
G1X4.6Y6.89
G1X4.58Y6.98
G1X4.51Y7.01
G1X4.42Y7.04
G1X4.33Y7.1
G1X4.24Y7.16
G1X4.08Y7.2
G1X4Y7.22
G1X3.89Y7.27
G1X3.75Y7.34
G1X3.6Y7.42
G1X3.46Y7.49
G1X3.23Y7.56
G1X3.16Y7.6
G1X3.13
G1X3.1Y7.61
G1X3.08Y7.63
G1X3.04Y7.66
G1X3.01
G1X3.04Y7.62
G1X3.1Y7.55
G1X3.19Y7.49
G1X3.25Y7.46
G1X3.37Y7.4
G1X3.44Y7.3
G1X3.46Y7.27
G1X3.5Y7.26
G1X3.55Y7.24
G1X3.65Y7.2
G1X3.76Y7.17
G1X3.84Y7.14
G1X3.89Y7.11
G1X3.91Y7.08
G1X3.97Y7.02
G1X3.98Y6.99
G1X3.99
G1X4Y7
G1X4.03Y7.03
G1X4.1Y7.05
G1X4.15Y7.03
G1X4.19Y6.97
G1X4.23Y6.92
G1X4.25Y6.89
G1X4.26
G1Y6.92
G1Y6.94
G1X4.3
G1X4.31Y6.95
G1X4.38Y6.91
G1X4.46Y6.8
G1Y6.71
G1X4.43Y6.65
G1X4.4Y6.67
G1X4.37Y6.73
G1X4.35
G1X4.34Y6.72
G1Y6.62
G1X4.31Y6.59
G1X4.27Y6.56
G1X4.3Y6.53
G1X4.34Y6.51
G1X4.37Y6.5
G1X4.39
G1X4.37Y6.51
G1X4.34Y6.54
G1X4.38Y6.57
G1X4.4
G1Y6.54
G1X4.42Y6.55
G1X4.45Y6.57
G1X4.48
G1X4.51Y6.54
G1Y6.4
G1Y6.38
G1X4.54Y6.37
G1X4.56Y6.34
G1Y6.3
G1X4.53Y6.26
G1X4.44Y6.21
G1X4.37Y6.23
G1X4.33Y6.2
G1X4.31Y6.17
G1Y6.14
G1Y6.13
G1X4.29
G1X4.27Y6.15
G1X4.25Y6.24
G1X4.2Y6.3
G1X4.24Y6.35
G1X4.28Y6.4
G1X4.27Y6.45
G1X4.25Y6.51
G1X4.2Y6.45
G1X4.16Y6.39
G1X4.13Y6.34
G1X4.11Y6.31
G1X4.08Y6.3
G1X4.06
G1Y6.33
G1Y6.37
G1X4.04Y6.41
G1Y6.46
G1X4.09Y6.55
G1Y6.59
G1Y6.61
G1X4.11
G1X4.12Y6.62
G1X4.09Y6.66
G1Y6.68
G1Y6.69
G1X4.1Y6.68
G1X4.13Y6.66
G1X4.19Y6.7
G1X4.24Y6.69
G1X4.26Y6.71
G1Y6.75
G1X4.24Y6.77
G1Y6.74
G1X4.21
G1X4.19Y6.77
G1X4.16Y6.8
G1X4.12
G1X4.1Y6.79
G1Y6.77
G1X4.13
G1X4.15
G1Y6.75
G1X4.14Y6.72
G1X4.1Y6.71
G1X4.07Y6.69
G1Y6.65
G1X4.06Y6.62
G1X4.04Y6.63
G1X4Y6.65
G1X3.98Y6.63
G1X3.97Y6.6
G1Y6.49
G1X3.96Y6.48
G1X3.86Y6.47
G1X3.81
G1X3.79
G1Y6.54
G1X3.78Y6.59
G1X3.76Y6.62
G1X3.74
G1Y6.58
G1Y6.51
G1X3.72Y6.47
G1X3.7Y6.45
G1X3.68
G1X3.66Y6.43
G1X3.64Y6.4
G1Y6.37
G1X3.67Y6.35
G1X3.71Y6.32
G1X3.76Y6.31
G1X3.8Y6.34
G1X3.83Y6.37
G1X3.86Y6.36
G1X3.88Y6.32
G1X3.86Y6.3
G1X3.84
G1Y6.28
G1Y6.27
G1X3.87Y6.26
G1X3.91Y6.25
G1X4.02Y6.18
G1X4.06Y6.16
G1X4.09Y6.15
G1X4.13Y6.08
G1X4.16Y6.05
G1X4.21Y6.03
G1X4.31Y5.96
G1X4.39Y5.92
G1X4.47Y5.88
G1X4.56Y5.83
G1X4.62Y5.81
G1X4.69Y5.76
G1X4.73Y5.68
G1X4.71Y5.65
G1X4.66Y5.62
G1X4.59Y5.59
G1X4.57Y5.63
G1X4.54Y5.67
G1X4.52Y5.64
G1X4.5Y5.6
G1X4.46Y5.61
G1X4.41Y5.66
G1X4.39Y5.73
G1Y5.76
G1X4.35Y5.72
G1X4.33Y5.71
G1X4.32
G1X4.3Y5.76
G1Y5.73
G1X4.25Y5.64
G1X4.18Y5.59
G1Y5.6
G1Y5.64
G1Y5.68
G1X4.14Y5.7
G1X4.05Y5.73
G1X4Y5.69
G1X3.96Y5.66
G1X3.92Y5.63
G1X3.89Y5.6
G1Y5.57
G1Y5.54
G1Y5.53
G1X3.84Y5.51
G1X3.79Y5.47
G1X3.73Y5.43
G1X3.7
G1Y5.51
G1X3.74Y5.58
G1X3.75Y5.63
G1X3.71Y5.67
G1X3.68
G1X3.66Y5.7
G1X3.65Y5.72
G1X3.62
G1X3.6Y5.71
G1X3.54Y5.61
G1X3.46Y5.51
G1X3.44Y5.48
G1Y5.45
G1X3.4Y5.41
G1X3.38Y5.37
G1Y5.34
G1X3.4Y5.32
G1X3.37
G1X3.35
G1Y5.35
G1Y5.39
G1X3.31Y5.41
G1X3.25
G1X3.19
G1X3.14Y5.37
G1X3.11Y5.32
G1X3.09Y5.28
G1X3.07Y5.25
G1X3.04Y5.21
G1X3.02Y5.19
G1X3.05
G1X3.08
G1X3.1Y5.22
G1X3.12Y5.25
G1X3.14
G1X3.17Y5.24
G1Y5.2
G1X3.13Y5.12
G1X3.06Y5.08
G1X3.04
G1Y5.06
G1X3.06
G1X3.08Y5.04
G1X3.12Y4.98
G1X3.14Y5.03
G1X3.16Y5.07
G1X3.19Y5.09
G1X3.21
G1Y5.06
G1X3.27Y5
G1X3.37Y4.99
G1X3.43Y4.98
G1X3.49Y4.93
G1X3.54Y4.87
G1X3.55Y4.82
G1Y4.79
G1X3.59Y4.77
G1X3.62Y4.74
G1X3.63Y4.69
G1Y4.64
G1X3.59Y4.62
G1X3.56Y4.63
G1X3.54Y4.66
G1X3.52Y4.67
G1X3.51
G1X3.48Y4.63
G1X3.44Y4.56
G1X3.4Y4.51
G1X3.36Y4.48
G1X3.31
G1X3.25
G1X3.22Y4.5
G1Y4.47
G1Y4.44
G1X3.12Y4.41
G1X3.09Y4.38
G1Y4.34
G1Y4.32
G1X3.11
G1X3.13Y4.33
G1X3.17Y4.34
G1X3.21Y4.32
G1X3.23Y4.29
G1X3.18Y4.19
G1X3.21Y4.18
G1X3.25Y4.16
G1X3.28Y4.15
G1X3.32Y4.14
G1X3.34
G1X3.36Y4.19
G1X3.34Y4.23
G1X3.31Y4.26
G1X3.33Y4.33
G1X3.36Y4.36
G1X3.31Y4.37
G1X3.3Y4.39
G1X3.33
G1X3.41
G1X3.53
G1X3.52Y4.44
G1Y4.49
G1X3.53Y4.51
G1X3.56
G1X3.59Y4.48
G1X3.61Y4.45
G1X3.65Y4.47
G1X3.7Y4.49
G1X3.75
G1X3.8Y4.46
G1X3.82Y4.42
G1Y4.39
G1X3.76Y4.42
G1X3.72
G1X3.7Y4.4
G1X3.67Y4.33
G1X3.64Y4.31
G1X3.62
G1X3.59Y4.36
G1X3.56Y4.34
G1X3.51Y4.31
G1X3.46Y4.34
G1X3.43
G1X3.39Y4.32
G1Y4.3
G1X3.41Y4.28
G1X3.51Y4.26
G1X3.54Y4.22
G1X3.6Y4.28
G1X3.63
G1X3.65Y4.24
G1X3.62Y4.17
G1X3.6Y4.14
G1Y4.09
G1Y4.06
G1Y4.08
G1X3.63Y4.13
G1X3.66Y4.19
G1X3.69Y4.25
G1X3.73
G1X3.76Y4.23
G1X3.77Y4.21
G1Y4.18
G1X3.65Y4.06
G1Y4.04
G1X3.67
G1Y4.03
G1X3.64Y4
G1X3.6Y3.96
G1X3.55Y3.93
G1X3.52
G1X3.49
G1X3.48Y3.98
G1X3.46Y3.99
G1X3.45Y4.01
G1Y4.12
G1X3.39Y4.13
G1X3.37Y4.11
G1Y4.07
G1Y4.03
G1X3.38Y4.01
G1X3.4
G1Y3.98
G1Y3.96
G1X3.36
G1X3.31Y3.95
G1X3.25
G1X3.21Y3.94
G1X3.19Y4.01
G1X3.15
G1X3.11Y4
G1X3.08
G1X3.05Y3.94
G1X3.08Y3.86
G1X3.1Y3.83
G1Y3.8
G1X3.11Y3.78
G1X3.15Y3.75
G1X3.19Y3.72
G1X3.18Y3.69
G1Y3.64
G1X3.21Y3.57
G1X3.24
G1X3.27Y3.59
G1X3.29Y3.63
G1X3.27Y3.67
G1X3.25Y3.71
G1X3.24Y3.74
G1X3.23Y3.76
G1X3.16Y3.8
G1Y3.83
G1X3.18Y3.85
G1X3.22Y3.88
G1X3.26Y3.9
G1X3.28Y3.92
G1X3.29
G1X3.33
G1X3.36
G1X3.37Y3.88
G1Y3.82
G1X3.35Y3.75
G1X3.33Y3.7
G1Y3.67
G1X3.35Y3.66
G1X3.39Y3.65
G1X3.43
G1X3.44Y3.67
G1X3.5Y3.73
G1X3.58
G1X3.59Y3.64
G1Y3.54
G1X3.56Y3.53
G1X3.54
G1X3.51Y3.52
G1X3.46Y3.49
G1X3.41Y3.45
G1X3.47Y3.41
G1X3.5Y3.38
G1Y3.37
G1X3.47Y3.34
G1X3.46Y3.26
G1X3.44Y3.23
G1X3.33Y3.2
G1X3.22Y3.22
G1X3.18Y3.23
G1X3.15Y3.17
G1X3.17Y3.13
G1X3.21Y3.09
G1X3.26Y3.07
G1X3.37Y3.13
G1X3.42
G1X3.45
G1X3.46Y3.09
G1Y3.07
G1X3.48
G1X3.53Y3.1
G1Y3.17
G1Y3.23
G1X3.57Y3.27
G1X3.62Y3.3
G1X3.58Y3.33
G1X3.55Y3.37
G1Y3.41
G1Y3.44
G1X3.59Y3.46
G1X3.62
G1X3.64Y3.49
G1X3.66
G1X3.68Y3.51
G1X3.69Y3.54
G1Y3.57
G1X3.72Y3.59
G1Y3.61
G1X3.7Y3.63
G1X3.68Y3.66
G1X3.75Y3.78
G1X3.72Y3.79
G1X3.69Y3.84
G1X3.73Y3.92
G1X3.79Y4.03
G1X3.8Y4.12
G1Y4.16
G1X3.85Y4.24
G1X3.87Y4.32
G1X3.89Y4.35
G1X3.92Y4.43
G1X3.89Y4.48
G1X3.86Y4.5
G1Y4.64
G1X3.82Y4.66
G1X3.73Y4.71
G1Y4.76
G1X3.8Y4.81
G1X3.86Y4.92
G1X3.89Y4.98
G1X3.93Y5.03
G1Y5.08
G1Y5.13
G1X3.97Y5.15
G1X4.01Y5.18
G1X4.02Y5.2
G1Y5.23
G1X4.04Y5.27
G1Y5.31
G1X4.02Y5.3
G1X3.95Y5.27
G1X3.9Y5.3
G1Y5.32
G1X3.88Y5.34
G1X3.86Y5.37
G1Y5.44
G1X3.87Y5.46
G1X3.9Y5.47
G1X3.93
G1X3.95Y5.43
G1X3.97Y5.41
G1X4.02
G1X4.05Y5.44
G1Y5.48
G1X4.06Y5.51
G1X4.09Y5.54
G1X4.14Y5.55
G1X4.2
G1X4.25Y5.52
G1Y5.5
G1X4.22Y5.48
G1X4.17Y5.46
G1X4.13Y5.43
G1X4.07Y5.39
G1X4.14
G1X4.19
G1X4.21Y5.37
G1Y5.34
G1X4.17Y5.3
G1X4.13Y5.25
G1X4.14Y5.21
G1X4.21Y5.26
G1X4.27Y5.36
G1X4.38Y5.47
G1X4.35Y5.5
G1X4.31Y5.52
G1X4.3Y5.55
G1Y5.56
G1X4.35
G1X4.44Y5.53
G1X4.5Y5.45
G1X4.54Y5.43
G1X4.6Y5.48
G1X4.62Y5.51
G1X4.65Y5.53
G1X4.68
G1X4.7Y5.5
G1X4.73Y5.48
G1X4.77
G1X4.8Y5.46
G1Y5.44
G1X4.78Y5.38
G1X4.72Y5.35
G1X4.68
G1X4.6Y5.3
G1X4.59
G1X4.53Y5.33
G1X4.48Y5.29
G1X4.42Y5.24
G1X4.32Y5.23
G1X4.27
G1X4.24Y5.22
G1X4.19Y5.16
G1X4.17Y5.09
G1X4.16Y5.06
G1X4.14Y5.02
G1X4.08Y4.99
G1X4.04Y5.03
G1X4.03Y5.06
G1X3.99Y5.04
G1X3.97Y4.94
G1X3.99Y4.84
G1X4.08
G1X4.15Y4.87
G1X4.18Y4.91
G1X4.26Y4.9
G1X4.32Y4.88
G1X4.49Y4.91
G1X4.54
G1X4.55
G1X4.57
G1X4.63Y4.94
G1X4.68Y4.92
G1X4.64Y4.86
G1X4.63Y4.8
G1X4.64Y4.74
G1X4.67Y4.7
G1X4.69Y4.68
G1Y4.69
G1X4.7Y4.73
G1X4.71Y4.77
G1X4.73Y4.78
G1Y4.8
G1Y4.84
G1Y4.9
G1X4.78Y4.99
G1X4.82Y5.06
G1X4.85Y5.11
G1X4.86Y5.13
G1X4.88Y5.22
G1X4.89Y5.24
G1X4.91
G1X4.93Y5.2
G1Y5.09
G1X4.88Y4.98
G1X4.86Y4.95
G1X4.85Y4.9
G1Y4.84
G1X4.84Y4.78
G1X4.82Y4.71
G1X4.88Y4.76
G1X4.92Y4.78
G1X4.95
G1Y4.76
G1X4.92Y4.7
G1X4.89Y4.61
G1X4.92Y4.56
G1X4.98Y4.54
G1X5.01Y4.48
G1X5.02Y4.45
G1X5.04Y4.43
G1Y4.41
G1Y4.33
G1X5.11Y4.29
G1Y4.25
G1X5.13Y4.21
G1X5.22Y4.16
G1X5.24Y4.14
G1X5.2Y4.11
G1X5.13Y4.15
G1X5.11Y4.18
G1X5.06Y4.2
G1X5.03Y4.24
G1X5.01
G1Y4.23
G1Y4.21
G1X4.98
G1X4.94Y4.28
G1X4.96Y4.38
G1X4.97Y4.41
G1X4.91
G1X4.85
G1X4.82Y4.39
G1Y4.38
G1X4.84
G1Y4.37
G1Y4.35
G1X4.81Y4.34
G1X4.72Y4.3
G1X4.69Y4.25
G1X4.63Y4.27
G1X4.61Y4.3
G1X4.69Y4.39
G1X4.7Y4.42
G1X4.72Y4.46
G1X4.75Y4.52
G1X4.81Y4.64
G1Y4.7
G1X4.79
G1X4.75Y4.67
G1X4.69Y4.65
G1X4.64Y4.63
G1X4.59Y4.62
G1X4.57Y4.59
G1Y4.55
G1X4.65Y4.47
G1Y4.44
G1X4.61Y4.41
G1X4.58Y4.43
G1X4.55
G1X4.52Y4.38
G1Y4.32
G1X4.66Y4.17
G1Y4.14
G1X4.64Y4.08
G1X4.66Y4.02
G1X4.69Y4.04
G1X4.7Y4.12
G1X4.74Y4.21
G1X4.81Y4.27
G1Y4.25
G1Y4.17
G1X4.89
G1X4.91Y4.15
G1X4.92Y4.11
G1Y4.1
G1Y4.07
G1X4.94Y4.04
G1X4.96Y4
G1Y3.98
G1X4.93
G1X4.86Y3.97
G1X4.77
G1X4.69Y4
G1X4.6Y3.98
G1X4.46Y3.93
G1X4.37Y3.91
G1X4.34Y3.93
G1Y3.98
G1Y4.03
G1X4.37Y4.07
G1X4.43
G1X4.46Y4.03
G1Y4
G1X4.48Y3.98
G1X4.49
G1X4.51Y4.04
G1X4.54Y4.08
G1X4.58Y4.16
G1X4.55Y4.24
G1X4.52Y4.26
G1X4.47
G1X4.43Y4.22
G1X4.42Y4.19
G1X4.39Y4.15
G1X4.36Y4.18
G1X4.34Y4.21
G1X4.26Y4.25
G1Y4.27
G1X4.28Y4.29
G1X4.32
G1X4.39Y4.32
G1X4.43Y4.44
G1X4.49Y4.52
G1Y4.56
G1X4.5Y4.59
G1X4.52Y4.6
G1X4.55Y4.67
G1X4.54Y4.75
G1X4.52Y4.78
G1Y4.85
G1X4.5Y4.86
G1X4.48Y4.85
G1Y4.79
G1Y4.76
G1X4.45Y4.75
G1X4.38Y4.81
G1X4.33Y4.8
G1X4.3Y4.77
G1Y4.75
G1Y4.73
G1X4.33Y4.7
G1X4.36Y4.66
G1X4.35Y4.62
G1X4.32Y4.58
G1X4.28Y4.54
G1X4.26Y4.51
G1X4.36Y4.4
G1Y4.36
G1X4.34
G1X4.32Y4.37
G1X4.3Y4.39
G1X4.24
G1X4.19Y4.36
G1X4.18Y4.31
G1Y4.25
G1X4.17Y4.22
G1X4.15
G1X4.12Y4.23
G1X4.08Y4.24
G1X4.02Y4.2
G1X3.99
G1X3.91Y4.18
G1X3.85Y4.11
G1Y4.07
G1X3.88Y4.02
G1X3.91Y3.99
G1Y3.97
G1X3.88
G1X3.84
G1X3.83Y3.83
G1X3.81Y3.76
G1X3.78Y3.71
G1Y3.68
G1X3.8Y3.66
G1X3.85Y3.7
G1X3.88Y3.72
G1X3.9
G1X3.91
G1X3.93Y3.77
G1X3.96Y3.81
G1X4Y3.86
G1X4.05Y3.93
G1X4.11Y4.01
G1X4.05Y4
G1X4
G1X3.98
G1Y4.03
G1X4.01Y4.08
G1X4.02Y4.1
G1X4.04Y4.12
G1X4.08Y4.15
G1X4.12Y4.17
G1X4.17Y4.14
G1X4.2
G1X4.23Y4.13
G1X4.24Y4.02
G1X4.27
G1X4.3Y4
G1X4.31Y3.99
G1Y3.98
G1X4.28
G1X4.22Y4
G1X4.19
G1X4.17
G1Y3.96
G1X4.15Y3.91
G1X4.11Y3.9
G1X4.08
G1X4.07Y3.88
G1X4.08Y3.83
G1X4.13Y3.75
G1Y3.71
G1X4.12Y3.68
G1X4.09Y3.63
G1X4.14Y3.6
G1X4.17Y3.58
G1Y3.53
G1X4.21Y3.55
G1X4.29Y3.6
G1X4.33Y3.58
G1X4.29Y3.5
G1X4.26Y3.46
G1X4.22Y3.44
G1X4.17Y3.46
G1X4.07Y3.56
G1X3.98Y3.59
G1X4Y3.63
G1Y3.68
G1X3.97Y3.71
G1X3.94Y3.7
G1X3.93
G1Y3.68
G1X3.92Y3.63
G1X3.91Y3.58
G1X3.79
G1X3.73Y3.49
G1X3.65Y3.46
G1X3.68Y3.32
G1Y3.29
G1X3.66Y3.27
G1Y3.24
G1X3.64Y3.21
G1X3.61Y3.18
G1X3.63Y3.16
G1X3.64Y3.12
G1X3.61Y3.07
G1X3.57Y3
G1Y2.94
G1X3.6Y2.89
G1X3.65Y2.87
G1X3.71Y2.92
G1Y3.01
G1Y3.05
G1X3.77Y3.16
G1X3.71Y3.24
G1X3.75Y3.28
G1X3.77Y3.3
G1X3.72Y3.42
G1Y3.45
G1X3.76Y3.47
G1X3.83
G1X3.91
G1Y3.43
G1Y3.37
G1Y3.3
G1Y3.23
G1X3.87Y3.22
G1X3.84
G1X3.86Y3.2
G1X3.89Y3.18
G1Y3.15
G1X3.93Y3.12
G1X3.98Y3.14
G1X4Y3.17
G1X4.04Y3.18
G1X4.07
G1Y3.16
G1X4.05Y3.13
G1Y3.12
G1X4.03Y3.08
G1X3.85Y3.04
G1X3.79Y3.01
G1X3.76Y2.98
G1X3.78Y2.95
G1X3.82
G1X3.86Y2.98
G1X3.91Y3.02
G1X3.95Y2.97
G1X3.99Y2.94
G1X4.04Y2.96
G1X4.07Y2.99
G1X4.08Y3.03
G1X4.09Y3.07
G1X4.12Y3.12
G1Y3.18
G1X4.19Y3.2
G1X4.23Y3.22
G1X4.31Y3.26
G1X4.35Y3.23
G1Y3.21
G1X4.37
G1X4.39
G1Y3.22
G1X4.41Y3.24
G1X4.46Y3.27
G1X4.5Y3.28
G1X4.52
G1X4.54Y3.26
G1X4.58Y3.23
G1X4.63Y3.2
G1Y3.15
G1Y3.11
G1X4.65
G1X4.68Y3.12
G1Y3.22
G1X4.66Y3.3
G1X4.65Y3.34
G1X4.63Y3.35
G1X4.59Y3.33
G1X4.57
G1Y3.36
G1X4.59Y3.38
G1X4.61Y3.45
G1X4.57Y3.52
G1X4.55Y3.54
G1Y3.56
G1X4.54Y3.58
G1X4.47Y3.53
G1X4.45Y3.49
G1Y3.42
G1Y3.37
G1X4.42
G1X4.34Y3.35
G1X4.29Y3.32
G1X4.22Y3.27
G1X4.12Y3.25
G1X4.09
G1X4.06
G1X4Y3.23
G1X3.96Y3.27
G1X3.98Y3.3
G1X4.01Y3.33
G1X4.06Y3.35
G1X4.09
G1X4.13Y3.33
G1X4.18Y3.36
G1X4.25Y3.41
G1X4.32Y3.49
G1X4.37Y3.55
G1X4.39Y3.58
G1Y3.61
G1X4.36Y3.62
G1X4.34Y3.65
G1Y3.7
G1X4.35Y3.75
G1X4.36Y3.78
G1X4.42Y3.8
G1X4.49Y3.78
M5
G0X5.65Y3.22
M3 S30
; Layer C00
G1X5.62Y3.2
G1Y3.18
G1X5.63Y3.16
G1X5.71Y3.15
G1X5.75Y3.14
G1X5.8
G1X5.83
G1X5.87
G1Y3.07
G1X5.86Y2.98
G1X5.9Y2.93
G1X5.93Y2.94
G1X5.95Y2.98
G1X5.98Y3.03
G1X6.02Y3.04
G1X6.05
G1Y3.03
G1X6.13Y3.02
G1X6.24Y3.04
G1X6.27Y3.07
G1Y3.09
G1X6.25
G1X6.16Y3.1
G1X6.14Y3.11
G1Y3.13
G1X6.16Y3.15
G1X6.19Y3.16
G1X6.23Y3.15
G1X6.28Y3.13
G1X6.32Y3.15
G1X6.36Y3.23
G1X6.34Y3.28
G1X6.32Y3.3
G1Y3.34
G1X6.28Y3.38
G1X6.25Y3.36
G1X6.24Y3.27
G1X6.22Y3.25
G1X6.13Y3.22
G1X6.11Y3.2
G1X6.1Y3.19
G1X6.07Y3.17
G1X6.04Y3.15
G1X5.98Y3.06
G1X5.93
G1X5.91Y3.09
G1Y3.12
G1X5.93Y3.15
G1X5.96Y3.18
G1X6.01Y3.2
G1X6.02Y3.23
G1Y3.25
G1X5.99Y3.28
G1X5.94Y3.31
G1X5.79Y3.22
G1X5.74Y3.23
G1X5.7Y3.25
G1X5.65Y3.22
M5
G0X6.07Y2.92
M3 S30
; Layer C00
G1X6.06Y2.91
G1Y2.89
G1Y2.88
G1X6.08
G1X6.1
G1Y2.9
G1Y2.92
G1X6.07
M5
G0X6.22Y2.88
M3 S30
; Layer C00
G1X6.25Y2.87
G1X6.28
G1Y2.88
G1X6.25
G1X6.22
M5
G0X6.39Y2.89
M3 S30
; Layer C00
G1Y2.87
G1X6.42
G1X6.45
G1Y2.89
G1X6.44Y2.9
G1X6.42
G1X6.4
G1X6.39Y2.89
M5
G0X6.49Y2.94
M3 S30
; Layer C00
G1X6.51Y2.93
G1Y2.94
G1X6.52Y2.95
G1X6.56
G1X6.61
G1X6.64Y2.97
G1X6.66Y3
G1Y3.04
G1X6.62Y3.08
G1X6.53Y3.07
G1X6.5Y3.06
G1X6.48
G1X6.46Y3.03
G1X6.47Y2.96
G1X6.49Y2.94
M5
G0X6.58Y2.9
M3 S30
; Layer C00
G1Y2.87
G1X6.63
G1X6.68
G1X6.67Y2.9
G1X6.64Y2.92
G1X6.63
G1X6.61
G1X6.58Y2.9
M5
G0X6.76Y2.91
M3 S30
; Layer C00
G1Y2.88
G1X6.79Y2.87
G1X6.82
G1X6.85Y2.92
G1X6.88Y2.94
G1X6.97
G1X7.04Y2.87
G1X7.1
G1X7.17
G1Y2.98
G1Y3.08
G1X7.13Y3.12
G1X7.09Y3.13
G1X7.08
G1Y3.11
G1X7.07Y3.09
G1X7.05Y3.07
G1Y3.05
G1X7.04Y3.02
G1X7.02Y3
G1X6.89
G1X6.83Y2.98
G1X6.79Y2.95
G1X6.76Y2.91
M5
G0X6.78Y3.07
M3 S30
; Layer C00
G1X6.83Y3.11
G1X6.86Y3.14
G1X6.89Y3.17
G1X6.91Y3.22
G1X6.9Y3.26
G1X6.87Y3.24
G1X6.82Y3.18
G1X6.77Y3.12
G1X6.75Y3.09
G1X6.78Y3.07
M5
G0X6.63Y3.12
M3 S30
; Layer C00
G1X6.73Y3.21
G1X6.81Y3.31
G1X6.82Y3.33
G1X6.85Y3.37
G1X6.9Y3.41
G1Y3.37
G1X6.92Y3.33
G1X6.95Y3.31
G1X6.97Y3.29
G1Y3.23
G1Y3.18
G1X6.98Y3.15
G1X7
G1X7.03Y3.16
G1X7.06Y3.24
G1X7.03Y3.33
G1X7.01Y3.38
G1X7Y3.46
G1Y3.52
G1X6.98Y3.55
G1X6.96Y3.57
G1X6.92
G1X6.91Y3.55
G1X6.93Y3.49
G1X6.92Y3.48
G1X6.89Y3.46
G1X6.85Y3.41
G1X6.8Y3.36
G1X6.74Y3.32
G1X6.71Y3.3
G1X6.7Y3.28
G1X6.66Y3.25
G1X6.55Y3.26
G1X6.51Y3.27
G1X6.49
G1Y3.25
G1Y3.22
G1Y3.17
G1X6.51
G1X6.54Y3.2
G1X6.58
G1X6.62
G1Y3.16
G1Y3.14
G1Y3.12
M5
G0X6.42Y3.28
M3 S30
; Layer C00
G1X6.46Y3.32
G1X6.43Y3.35
G1X6.4
G1X6.38Y3.32
G1X6.37Y3.29
G1Y3.28
G1X6.39
G1X6.42
M5
G0X6.33Y3.64
M3 S30
; Layer C00
G1X6.36Y3.67
G1Y3.71
G1X6.34Y3.73
G1X6.32
G1X6.29
G1X6.26Y3.7
G1X6.27Y3.67
G1X6.33Y3.64
M5
G0X6.25Y3.82
M3 S30
; Layer C00
G1X6.29Y3.86
G1X6.24Y3.99
G1Y4.03
G1Y4.06
G1X6.22Y4.07
G1X6.18Y4.06
G1X6.17Y4.01
G1X6.15Y3.95
G1Y3.9
G1Y3.86
G1X6.17Y3.84
G1X6.21Y3.82
G1X6.25
M5
G0X6.65Y3.89
M3 S30
; Layer C00
G1X6.68Y3.93
G1X6.7
G1X6.72Y3.97
G1X6.74
G1X6.76Y3.96
G1Y3.92
G1X6.73Y3.84
G1X6.67Y3.82
G1X6.65Y3.89
M5
G0X6.74Y3.76
M3 S30
; Layer C00
G1X6.79Y3.77
G1X6.81Y3.75
G1X6.79Y3.7
G1X6.75Y3.68
G1X6.73Y3.71
G1X6.74Y3.76
M5
G0X6.67Y4.07
M3 S30
; Layer C00
G1X6.64Y4.12
G1Y4.19
G1X6.66Y4.21
G1X6.69Y4.17
G1Y4.11
G1X6.67Y4.07
M5
G0X6.45Y4.12
M3 S30
; Layer C00
G1X6.44Y4.13
G1X6.41
G1X6.38
G1X6.36Y4.1
G1X6.42
G1X6.45Y4.12
M5
G0X6.3Y4.35
M3 S30
; Layer C00
G1X6.25
G1X6.21Y4.4
G1X6.2Y4.45
G1Y4.48
G1X6.27Y4.5
G1X6.35Y4.47
G1X6.37Y4.43
G1Y4.39
G1X6.35Y4.36
G1X6.3
M5
G0X5.96Y4.34
M3 S30
; Layer C00
G1Y4.38
G1Y4.4
G1X5.95
G1X5.92Y4.37
G1X5.89Y4.34
G1X5.86Y4.32
G1X5.84Y4.31
G1X5.86Y4.28
G1X5.9Y4.26
G1X5.93
G1X5.96Y4.29
G1Y4.34
M5
G0X6.03Y4.54
M3 S30
; Layer C00
G1X6.04Y4.56
G1Y4.59
G1Y4.63
G1X6.01Y4.64
G1Y4.63
G1Y4.59
G1Y4.56
G1X6.03Y4.54
M5
G0X6.14Y4.64
M3 S30
; Layer C00
G1Y4.69
G1X6.16Y4.78
G1X6.2Y4.82
G1X6.23Y4.8
G1Y4.79
G1X6.21
G1Y4.76
G1X6.24Y4.72
G1X6.29Y4.68
G1X6.33
G1X6.35Y4.67
G1Y4.65
G1X6.31Y4.63
G1X6.24
G1X6.14Y4.64
M5
G0X7Y4.61
M3 S30
; Layer C00
G1X7.03Y4.63
G1X7.09Y4.66
G1X7.13Y4.64
G1Y4.63
G1X7.07Y4.61
G1X7.05Y4.59
G1X7.04Y4.57
G1X7.01Y4.58
G1Y4.61
M5
G0X7Y4.63
M3 S30
; Layer C00
G1X6.95Y4.61
G1X6.9
G1X6.87Y4.58
G1Y4.55
G1X6.89Y4.51
G1X6.91Y4.47
G1Y4.38
G1X6.9Y4.31
G1Y4.27
G1X6.92Y4.26
G1X6.95
G1X6.97Y4.31
G1Y4.36
G1X7Y4.43
G1X7.05Y4.5
G1X7.11Y4.54
G1X7.18Y4.55
G1X7.23
G1Y4.58
G1X7.25Y4.65
G1X7.31Y4.68
G1X7.33
G1X7.35Y4.64
G1X7.38Y4.61
G1X7.41
G1X7.44
G1X7.5Y4.67
G1X7.53Y4.68
G1X7.57Y4.7
G1X7.61Y4.74
G1X7.66Y4.8
G1X7.55
G1X7.45
G1X7.32Y4.76
G1X7.19Y4.82
G1X7.13Y4.81
G1X7.11Y4.79
G1X7.09Y4.75
G1X7.07
G1X7.05Y4.73
G1X7.01
G1X6.97
G1X6.95Y4.71
G1X6.96
G1X6.99Y4.7
G1X7.01Y4.68
G1X7Y4.63
M5
G0X7.17Y4.45
M3 S30
; Layer C00
G1X7.13Y4.42
G1X7.11Y4.37
G1Y4.34
G1X7.13Y4.32
G1X7.17Y4.31
G1X7.25Y4.36
G1X7.28Y4.44
G1X7.25Y4.46
G1X7.21
G1X7.17Y4.45
M5
G0X7.36Y4.47
M3 S30
; Layer C00
G1X7.43Y4.43
G1X7.45Y4.47
G1X7.42Y4.53
G1X7.36Y4.54
G1X7.32Y4.53
G1X7.36Y4.47
M5
G0X7.6Y4.18
M3 S30
; Layer C00
G1X7.58Y4.13
G1X7.59Y4.08
G1X7.63
G1X7.68
G1X7.73Y4.1
G1X7.74Y4.14
G1Y4.18
G1X7.68
G1X7.64
G1X7.6
M5
G0X7.87Y4.31
M3 S30
; Layer C00
G1X7.89
G1X7.9
G1Y4.33
G1Y4.34
G1X7.89
G1X7.87
G1Y4.33
G1Y4.31
M5
G0X8Y4.3
M3 S30
; Layer C00
G1Y4.27
G1Y4.25
G1X8.04
G1X8.09Y4.26
G1X8.12Y4.3
G1X8.13Y4.36
G1X8.11Y4.4
G1X8.07
G1X8.02Y4.35
G1X8Y4.3
M5
G0X8.25Y4.25
M3 S30
; Layer C00
G1Y4.11
G1X8.24Y4.05
G1X8.27Y4.04
G1X8.36Y4.02
G1X8.42Y3.96
G1Y3.94
G1X8.38Y3.91
G1X8.4Y3.9
G1X8.42Y3.85
G1Y3.75
G1Y3.63
G1X8.47Y3.55
G1X8.53Y3.5
G1X8.57Y3.47
G1X8.59Y3.44
G1X8.56Y3.19
G1X8.59Y3.14
G1X8.62Y3.1
G1X8.64Y3.02
G1X8.7Y2.97
G1X8.72Y2.93
G1X8.74Y2.88
G1X8.81
G1X8.9Y2.86
G1Y2.94
G1Y3
G1X8.88Y3.03
G1X8.86
G1X8.83Y3
G1X8.79Y2.96
G1Y3.01
G1X8.8Y3.05
G1X8.82Y3.08
G1X8.84Y3.1
G1X8.87Y3.08
G1X8.91Y3.05
G1X8.97Y3.04
G1X9.03
G1X9.08Y3.07
G1X9.1Y3.1
G1X9.04Y3.11
G1X8.95Y3.16
G1X8.9Y3.11
G1X8.86Y3.14
G1X8.83Y3.18
G1Y3.29
G1X8.76Y3.34
G1X8.72Y3.37
G1Y3.53
G1X8.66Y3.6
G1Y3.76
G1X8.62Y3.79
G1X8.58Y3.82
G1X8.57Y3.85
G1Y3.9
G1X8.6Y3.96
G1X8.65Y4.02
G1X8.7Y4.03
G1X8.75Y4.05
G1X8.76Y4.08
G1Y4.11
G1X8.74
G1X8.72Y4.12
G1Y4.22
G1X8.69Y4.21
G1X8.66Y4.18
G1Y4.15
G1Y4.12
G1X8.64Y4.1
G1X8.63Y4.07
G1X8.62Y4.04
G1X8.57
G1X8.52
G1X8.5Y4.13
G1Y4.22
G1X8.56
G1X8.61
G1Y4.28
G1X8.67Y4.36
G1X8.65Y4.44
G1X8.63Y4.49
G1X8.59Y4.42
G1X8.55Y4.37
G1X8.48Y4.31
G1X8.46Y4.28
G1Y4.25
G1X8.38Y4.3
G1X8.34
G1X8.31Y4.32
G1X8.3Y4.34
G1X8.31Y4.36
G1X8.34
G1X8.37Y4.37
G1X8.39Y4.39
G1Y4.42
G1Y4.47
G1X8.36Y4.52
G1X8.33Y4.55
G1X8.31
G1Y4.51
G1Y4.47
G1X8.3
G1X8.27Y4.49
G1Y4.52
G1X8.25Y4.55
G1Y4.56
G1X8.22
G1X8.19Y4.53
G1X8.16Y4.5
G1X8.25Y4.25
M5
G0X8.51Y4.47
M3 S30
; Layer C00
G1X8.52
G1Y4.49
G1Y4.52
G1X8.51
G1X8.5Y4.49
G1Y4.47
M5
G0X8.41Y4.68
M3 S30
; Layer C00
G1X8.39Y4.69
G1Y4.71
G1Y4.73
G1X8.41Y4.74
G1X8.43
G1X8.44Y4.71
G1Y4.69
G1X8.41
M5
G0X8.41Y4.66
M3 S30
; Layer C00
G1X8.47Y4.64
G1X8.51Y4.63
G1X8.57Y4.61
G1X8.8Y4.59
G1X8.84Y4.54
G1X8.85Y4.49
G1X8.84Y4.46
G1X8.82Y4.35
G1X8.85Y4.23
G1X8.89Y4.2
G1X8.99
G1X9.07Y4.22
G1X9.11Y4.23
G1X9.14
G1X9.3Y4.2
G1X9.33
G1Y4.22
G1X9.36
G1Y4.23
G1Y4.26
G1X9.4Y4.3
G1X9.43Y4.32
G1X9.47Y4.27
G1X9.56Y4.25
G1X9.59
G1X9.61Y4.28
G1X9.66Y4.3
G1X9.72Y4.28
G1X9.76Y4.33
G1X9.77Y4.43
G1X9.76Y4.46
G1X9.73Y4.41
G1X9.72Y4.38
G1Y4.39
G1Y4.44
G1Y4.5
G1X9.7Y4.52
G1X9.69
G1Y4.49
G1Y4.45
G1X9.67Y4.39
G1X9.64Y4.35
G1X9.63Y4.34
G1X9.6Y4.35
G1X9.47
G1X9.46Y4.39
G1Y4.43
G1X9.44Y4.45
G1X9.43
G1Y4.42
G1Y4.38
G1X9.4Y4.35
G1X9.38Y4.33
G1Y4.34
G1Y4.36
G1X9.36
G1X9.32
G1X9.28Y4.39
G1X9.23Y4.37
G1X9.08Y4.31
G1X8.94
G1X8.92Y4.32
G1X8.99Y4.33
G1Y4.34
G1X8.97Y4.39
G1Y4.57
G1X8.95Y4.63
G1X8.94Y4.69
G1X8.96Y4.93
G1X8.93Y4.97
G1X8.89Y4.99
G1X8.86
G1X8.84Y4.98
G1X8.83Y4.94
G1X8.82Y4.85
G1X8.9Y4.8
G1Y4.75
G1X8.88Y4.71
G1X8.85Y4.69
G1X8.81
G1X8.78Y4.71
G1X8.75Y4.73
G1X8.64Y4.7
G1X8.6Y4.71
G1X8.58Y4.73
G1X8.56Y4.78
G1X8.53Y4.84
G1X8.51Y4.82
G1X8.48
G1X8.35
G1X8.3
G1X8.27
G1X8.26Y4.85
G1X8.22Y4.87
G1X8.14Y4.82
G1X8.12Y4.78
G1Y4.73
G1X8.15Y4.7
G1X8.2Y4.68
G1X8.28Y4.67
G1X8.41Y4.66
M5
G0X8.43Y4.86
M3 S30
; Layer C00
G1X8.46Y4.88
G1X8.48Y4.9
G1X8.46Y4.93
G1X8.4Y4.91
G1X8.38Y4.87
G1X8.43
M5
G0X8.57Y4.93
M3 S30
; Layer C00
G1X8.61Y4.9
G1X8.65Y4.85
G1X8.67
G1Y5.03
G1X8.61Y5.2
G1X8.59Y5.18
G1X8.58Y5.15
G1X8.56Y5.11
G1X8.51Y5.04
G1Y5
G1X8.53Y4.96
G1X8.57Y4.93
M5
G0X8.38Y5.09
M3 S30
; Layer C00
G1X8.4Y5.11
G1X8.39Y5.13
G1X8.35
G1X8.31
G1Y5.11
G1X8.32Y5.09
G1X8.35
G1X8.38
M5
G0X8.25Y5.07
M3 S30
; Layer C00
G1Y5.14
G1X8.23Y5.18
G1Y5.16
G1X8.22Y5.14
G1X8.21Y5.1
G1X8.19Y5.06
G1X8.17Y5.03
G1Y4.99
G1X8.19Y4.97
G1X8.22Y4.96
G1X8.25Y4.98
G1Y5.07
M5
G0X7.99Y5.13
M3 S30
; Layer C00
G1X8Y5.15
G1X7.98
G1X7.95Y5.13
G1X7.93Y5.12
G1X7.91
G1X7.87Y5.1
G1X7.82Y5.07
G1X7.8Y5.05
G1X7.82
G1X7.84
G1Y5.03
G1X7.86Y5.01
G1X7.91
G1X7.96
G1Y5.05
G1X7.98Y5.1
G1X7.99Y5.13
M5
G0X7.98Y5.2
M3 S30
; Layer C00
G1X8.09Y5.3
G1X8.14Y5.33
G1X8.16Y5.35
G1X8.14Y5.37
G1X8.1Y5.38
G1X8.07Y5.36
G1X8.06Y5.34
G1Y5.32
G1Y5.29
G1X8.01
G1X7.99Y5.33
G1Y5.37
G1X7.96Y5.35
G1X7.94Y5.33
G1X7.97Y5.24
G1Y5.2
G1X7.98
M5
G0X8.16Y5.37
M3 S30
; Layer C00
G1X8.17
G1Y5.39
G1Y5.41
G1X8.16Y5.42
G1X8.15
G1Y5.4
G1Y5.38
M5
G0X8.3Y5.4
M3 S30
; Layer C00
G1Y5.31
G1Y5.29
G1X8.32Y5.31
G1Y5.34
G1Y5.39
G1X8.36Y5.38
G1X8.33Y5.45
G1X8.37
G1X8.34Y5.47
G1X8.31Y5.46
G1X8.3Y5.4
M5
G0X8.33Y5.56
M3 S30
; Layer C00
G1X8.35Y5.58
G1X8.36Y5.59
G1Y5.6
G1X8.34
G1X8.33
G1X8.31Y5.61
G1Y5.6
G1Y5.56
G1X8.33
M5
G0X8.42Y5.58
M3 S30
; Layer C00
G1Y5.55
G1X8.44Y5.54
G1X8.48
G1X8.51Y5.57
G1X8.53Y5.58
G1X8.51
G1X8.49
G1X8.47Y5.61
G1X8.43Y5.59
G1X8.42Y5.58
M5
G0X8.09Y5.65
M3 S30
; Layer C00
G1Y5.68
G1X8.07
G1X8.05Y5.66
G1X8.04Y5.64
G1X8.06
G1X8.09Y5.65
M5
G0X8.08Y5.7
M3 S30
; Layer C00
G1X8.1Y5.78
G1X8.09Y5.84
G1X8.07
G1Y5.82
G1Y5.8
G1Y5.78
G1X8.02Y5.72
G1X8Y5.68
G1X7.99
G1X7.97
G1X7.93Y5.66
G1X7.91
G1X7.9Y5.65
G1Y5.64
G1X7.92
G1X7.95
G1X7.97Y5.65
G1X8
G1X8.08Y5.7
M5
G0X7.75Y5.64
M3 S30
; Layer C00
G1X7.73Y5.71
G1X7.7Y5.75
G1X7.68Y5.71
G1Y5.64
G1X7.71Y5.61
G1X7.75Y5.64
M5
G0X7.6Y5.59
M3 S30
; Layer C00
G1X7.55Y5.65
G1X7.48Y5.69
G1X7.46Y5.68
G1X7.44Y5.66
G1X7.42Y5.63
G1X7.3Y5.64
G1X7.28Y5.62
G1X7.3Y5.57
G1X7.37
G1X7.4
G1Y5.54
G1X7.43Y5.55
G1X7.46Y5.58
G1X7.47Y5.59
G1X7.51Y5.61
G1X7.57Y5.59
G1X7.59Y5.57
G1Y5.59
M5
G0X7.6Y5.44
M3 S30
; Layer C00
G1X7.56
G1X7.54Y5.42
G1X7.55Y5.4
G1X7.6
G1X7.64Y5.42
G1X7.65
G1X7.64
G1X7.6Y5.44
M5
G0X7.2Y5.37
M3 S30
; Layer C00
G1X7.17
G1X7.13
G1X7.11Y5.35
G1Y5.34
G1X7.17Y5.35
G1X7.2Y5.37
M5
G0X7.17Y5.39
M3 S30
; Layer C00
G1X7.15Y5.41
G1X7.07Y5.43
G1X7.04
G1X7.07Y5.42
G1X7.09Y5.41
G1Y5.39
G1Y5.37
G1X7.11
G1X7.14Y5.39
G1X7.17
M5
G0X7.17Y5.33
M3 S30
; Layer C00
G1X7.15
G1X7.13Y5.31
G1Y5.3
G1X7.16
G1X7.17Y5.31
G1Y5.33
M5
G0X7.17Y5.14
M3 S30
; Layer C00
G1X7.15Y5.13
G1X7.12Y5.12
G1X7.11Y5.1
G1X7.13
G1X7.16Y5.12
G1X7.18Y5.13
M5
G0X6.98Y5.09
M3 S30
; Layer C00
G1X6.97Y5.11
G1X6.95Y5.12
G1X6.92
G1Y5.11
G1Y5.09
G1X6.95Y5.08
G1X6.97
G1Y5.09
M5
G0X6.78Y5.16
M3 S30
; Layer C00
G1X6.76
G1X6.74
G1Y5.18
G1X6.75
G1X6.77Y5.2
G1X6.79Y5.19
G1Y5.18
G1Y5.16
M5
G0X6.81Y5.12
M3 S30
; Layer C00
G1X6.84Y5.2
G1X6.82Y5.24
G1X6.83Y5.26
G1X6.87Y5.32
G1X6.84Y5.35
G1X6.82
G1Y5.37
G1X6.81Y5.39
G1X6.8Y5.42
G1Y5.44
G1X6.84Y5.46
G1X6.8Y5.54
G1X6.81Y5.55
G1X6.83
G1X6.82Y5.57
G1Y5.58
G1X6.91Y5.63
G1X6.92Y5.65
G1X6.9Y5.66
G1X6.81
G1X6.77Y5.69
G1X6.71Y5.71
G1Y5.68
G1Y5.63
G1Y5.57
G1Y5.54
G1X6.69Y5.42
G1X6.71Y5.27
G1Y5.25
G1Y5.22
G1X6.69Y5.19
G1Y5.14
G1X6.72Y4.98
G1X6.69Y4.85
G1X6.66Y4.79
G1X6.65Y4.73
G1Y4.67
G1X6.6Y4.52
G1Y4.48
G1X6.62Y4.45
G1X6.61Y4.42
G1X6.52Y4.31
G1Y4.26
G1Y4.23
G1X6.54Y4.21
G1Y4.2
G1X6.49Y4.14
G1Y4.11
G1X6.52Y4.06
G1X6.65Y4.02
G1Y3.98
G1X6.61
G1X6.53Y4
G1Y3.98
G1X6.54
G1X6.56Y3.95
G1Y3.9
G1Y3.86
G1X6.54Y3.84
G1X6.53
G1X6.51
G1X6.47Y3.82
G1X6.43Y3.85
G1X6.41Y3.88
G1X6.39Y3.9
G1Y3.91
G1X6.43Y3.94
G1Y3.95
G1Y3.97
G1X6.39
G1X6.35
G1X6.34Y3.93
G1Y3.9
G1X6.39Y3.87
G1X6.41Y3.8
G1X6.45Y3.76
G1Y3.71
G1X6.48Y3.69
G1X6.51
G1X6.57Y3.77
G1X6.63Y3.8
G1X6.66Y3.69
G1X6.72Y3.64
G1X6.76Y3.61
G1X6.77Y3.6
G1X6.72Y3.57
G1X6.55
G1X6.52
G1X6.51Y3.55
G1X6.53Y3.52
G1X6.65Y3.48
G1X6.75Y3.47
G1X6.77
G1X6.82Y3.45
G1X6.85
G1X6.87Y3.48
G1X6.84Y3.53
G1X6.83Y3.59
G1Y3.64
G1X6.85Y3.68
G1X6.88Y3.7
G1X6.91Y3.73
G1X6.87Y3.78
G1X6.83Y3.86
G1X6.86Y3.96
G1X6.89Y4
G1Y4.03
G1X6.88
G1X6.84Y4.02
G1X6.79Y3.99
G1Y4.11
G1Y4.21
G1X6.77Y4.26
G1X6.75Y4.33
G1X6.77Y4.45
G1X6.75Y4.47
G1X6.74
G1X6.73Y4.49
G1Y4.52
G1X6.75
G1X6.77Y4.54
G1Y4.6
G1X6.8Y4.65
G1Y4.68
G1Y4.71
G1Y4.72
G1X6.82Y4.73
G1Y4.76
G1Y4.79
G1X6.81Y4.8
G1X6.79Y4.84
G1X6.82Y4.93
G1X6.84Y4.99
G1Y5.03
G1X6.82Y5.04
G1Y5.07
G1X6.8Y5.09
G1X6.81Y5.12
M5
G0X7.49Y5.1
M3 S30
; Layer C00
G1Y5.01
G1X7.5Y4.97
G1X7.55Y4.96
G1X7.58Y4.99
G1Y5.01
G1X7.59
G1X7.6Y5.03
G1Y5.07
G1X7.58Y5.1
G1X7.54Y5.12
G1X7.51Y5.11
G1X7.49Y5.1
M5
G0X7.66Y5.05
M3 S30
; Layer C00
G1Y5.04
G1X7.7Y5.02
G1X7.65
G1Y5.01
G1X7.67
G1X7.72
G1X7.78Y5.02
G1X7.74Y5.04
G1X7.66Y5.05
M5
G0X7.91Y4.88
M3 S30
; Layer C00
G1X7.9Y4.85
G1X7.94
G1X8.01Y4.87
G1X8.03Y4.9
G1X7.98Y4.92
G1X7.91Y4.88
M5
G0X8.88Y5.03
M3 S30
; Layer C00
G1X8.9Y5.02
G1X8.91
G1X8.93Y5.06
G1X8.95Y5.09
G1X8.98Y5.11
G1X9
G1X9.02Y5.13
G1X8.99Y5.18
G1X8.97Y5.22
G1X8.98Y5.25
G1X9Y5.27
G1X8.98
G1X8.94Y5.25
G1X8.89Y5.22
G1X8.85Y5.17
G1X8.86Y5.13
G1X8.88Y5.1
G1Y5.03
M5
G0X9.2Y5.08
M3 S30
; Layer C00
G1X9.22Y4.94
G1X9.24Y4.89
G1Y4.92
G1Y5.02
G1X9.23Y5.16
G1X9.2Y5.23
G1X9.19
G1Y5.18
G1X9.2Y5.08
M5
G0X9.26Y5.22
M3 S30
; Layer C00
G1Y5.29
G1Y5.38
G1X9.22Y5.4
G1X9.18
G1X9.2Y5.34
G1X9.23Y5.29
G1X9.25Y5.23
G1X9.26
M5
G0X9.56Y5.14
M3 S30
; Layer C00
G1X9.58Y5.1
G1X9.61
G1Y5.12
G1Y5.14
G1X9.58Y5.16
G1X9.56Y5.14
M5
G0X9.83Y5.08
M3 S30
; Layer C00
G1X9.81Y5.04
G1X9.8Y5
G1Y4.98
G1Y4.99
G1X9.83Y5.03
G1X9.84Y5.07
G1Y5.09
G1X9.83Y5.08
M5
G0X9.94Y5.13
M3 S30
; Layer C00
G1X10Y5.18
G1X10.08Y5.23
G1X10.12Y5.21
G1X10.14
G1X10.16Y5.25
G1X10.14Y5.29
G1X10.13
G1X10.11
G1X10.08Y5.27
G1X9.96Y5.25
G1X9.93Y5.23
G1X9.91Y5.21
G1X9.92Y5.17
G1X9.94Y5.13
M5
G0X10.13Y5.11
M3 S30
; Layer C00
G1Y5.09
G1X10.15Y5.07
G1X10.13Y5.01
G1Y5
G1X10.17Y5.03
G1Y5.1
G1X10.15Y5.13
G1X10.13Y5.11
M5
G0X10.45Y5.11
M3 S30
; Layer C00
G1Y5.1
G1X10.48
G1X10.54Y5.13
G1X10.57
G1Y5.11
G1X10.59
G1X10.6Y5.12
G1Y5.13
G1X10.58Y5.14
G1Y5.19
G1X10.51Y5.16
G1X10.47Y5.14
G1X10.45Y5.11
M5
G0X10.38Y5.28
M3 S30
; Layer C00
G1X10.4Y5.38
G1Y5.43
G1X10.37Y5.45
G1X10.35Y5.41
G1X10.32Y5.32
G1X10.35Y5.27
G1X10.38
M5
G0X10.52Y5.3
M3 S30
; Layer C00
G1X10.54Y5.28
G1X10.59
G1X10.69Y5.31
G1Y5.36
G1X10.67Y5.38
G1X10.63
G1X10.61Y5.41
G1X10.59Y5.44
G1X10.57Y5.49
G1X10.56Y5.57
G1X10.54Y5.7
G1X10.52Y5.78
G1X10.51Y5.82
G1X10.48
G1X10.44Y5.78
G1X10.4Y5.73
G1X10.39Y5.67
G1Y5.62
G1X10.43Y5.58
G1X10.46Y5.55
G1X10.48Y5.49
G1X10.51Y5.47
G1X10.54Y5.44
G1Y5.38
G1X10.52Y5.33
G1Y5.3
M5
G0X10.76Y5.21
M3 S30
; Layer C00
G1X10.74Y5.17
G1X10.73Y5.13
G1Y5.12
G1X10.75Y5.1
G1X10.79Y5.05
G1X10.81Y5.07
G1X10.84
G1X10.82Y5.12
G1Y5.16
G1Y5.21
G1X10.79Y5.22
G1X10.76
M5
G0X10.87Y5.29
M3 S30
; Layer C00
G1X10.89
G1X10.9
G1Y5.31
G1X10.92
G1X10.94
G1Y5.36
G1Y5.41
G1Y5.43
G1X10.93Y5.42
G1Y5.39
G1X10.92Y5.36
G1X10.89Y5.39
G1Y5.37
G1X10.88Y5.34
G1X10.86
G1X10.85
G1Y5.33
G1Y5.3
G1X10.87Y5.29
M5
G0X10.97Y5.33
M3 S30
; Layer C00
G1X10.98Y5.35
G1Y5.38
G1X10.97Y5.35
G1Y5.33
M5
G0X11.07Y5.33
M3 S30
; Layer C00
G1Y5.26
G1X11.1Y5.24
G1X11.12
G1Y5.26
G1X11.14
G1X11.2Y5.28
G1X11.22Y5.3
G1Y5.33
G1X11.2Y5.37
G1X11.16Y5.41
G1X11.12Y5.43
G1X11.08Y5.41
G1X11.07Y5.33
M5
G0X11.1Y5.21
M3 S30
; Layer C00
G1X11.08Y5.19
G1Y5.14
G1X11.16Y5.11
G1X11.31Y5.08
G1X11.28Y5.1
G1X11.24Y5.13
G1X11.21
G1X11.17Y5.15
G1X11.13Y5.18
G1X11.1Y5.21
M5
G0X11.09Y4.96
M3 S30
; Layer C00
G1X11.07
G1Y4.94
G1Y4.92
G1X11.09
G1X11.1
G1Y4.94
G1Y4.95
G1X11.09
M5
G0X11.1Y4.81
M3 S30
; Layer C00
G1X11.07Y4.8
G1X11.06Y4.77
G1X11.04Y4.73
G1X11.03Y4.7
G1X11Y4.69
G1X10.97
G1Y4.73
G1X10.96Y4.78
G1X10.92Y4.73
G1X10.9Y4.74
G1X10.86Y4.72
G1Y4.65
G1Y4.62
G1Y4.6
G1X10.89
G1X10.93Y4.63
G1X10.96Y4.65
G1X11.03Y4.66
G1X11.11
G1Y4.74
G1Y4.81
M5
G0X10.84Y4.8
M3 S30
; Layer C00
G1X10.82Y4.82
G1X10.8
G1X10.77Y4.79
G1X10.74Y4.75
G1X10.77Y4.73
G1X10.79
G1Y4.75
G1X10.81Y4.73
G1X10.84Y4.71
G1Y4.76
G1Y4.8
M5
G0X10.71Y4.82
M3 S30
; Layer C00
G1Y4.83
G1Y4.87
G1X10.69Y4.94
G1X10.65Y4.97
G1X10.64Y4.93
G1Y4.87
G1Y4.81
G1X10.67
G1X10.69
G1X10.71Y4.82
M5
G0X10.78Y4.66
M3 S30
; Layer C00
G1X10.75Y4.61
G1X10.76Y4.56
G1X10.77
G1Y4.55
G1Y4.54
G1X10.79
G1X10.81
G1Y4.56
G1X10.83
G1Y4.6
G1X10.84Y4.62
G1Y4.65
G1X10.81Y4.67
G1X10.78
M5
G0X10.56Y4.65
M3 S30
; Layer C00
G1X10.54Y4.67
G1X10.51Y4.68
G1X10.48
G1X10.47Y4.63
G1Y4.6
G1X10.49Y4.58
G1X10.5
G1Y4.56
G1X10.48
G1X10.47
G1X10.43
G1X10.42Y4.52
G1X10.44Y4.5
G1X10.47Y4.49
G1X10.49
G1Y4.51
G1X10.5Y4.53
G1X10.55Y4.62
G1Y4.65
M5
G0X10.58Y4.5
M3 S30
; Layer C00
G1X10.54
G1Y4.46
G1X10.57
G1X10.6
G1Y4.47
G1X10.58Y4.5
M5
G0X10.4Y4.45
M3 S30
; Layer C00
G1X10.38Y4.48
G1X10.35Y4.49
G1X10.34
G1X10.29Y4.51
G1X10.28
G1X10.27Y4.49
G1Y4.45
G1Y4.41
G1X10.33
G1X10.38Y4.43
G1X10.4
G1Y4.45
M5
G0X10.21Y4.47
M3 S30
; Layer C00
G1X10.17Y4.49
G1X10.12
G1X10.1Y4.46
G1X10.08Y4.42
G1X10.12
G1X10.16Y4.45
G1X10.18
G1X10.21Y4.47
M5
G0X10.14Y4.61
M3 S30
; Layer C00
G1Y4.63
G1Y4.64
G1X10.13Y4.66
G1X10.12Y4.63
G1Y4.61
G1X10.14
M5
G0X9.86Y4.67
M3 S30
; Layer C00
G1X9.88Y4.71
G1Y4.77
G1Y4.82
G1X9.92Y4.83
G1Y4.92
G1X9.9Y4.95
G1X9.87Y4.91
G1X9.85Y4.83
G1X9.84Y4.74
G1Y4.69
G1Y4.66
G1X9.86
M5
G0X9.66Y4.69
M3 S30
; Layer C00
G1Y4.72
G1X9.65Y4.74
G1X9.63
G1Y4.71
G1X9.65Y4.67
G1Y4.69
M5
G0X9.45Y4.74
M3 S30
; Layer C00
G1Y4.76
G1Y4.79
G1X9.44Y4.76
G1Y4.73
M5
G0X9.42Y4.89
M3 S30
; Layer C00
G1X9.43Y4.92
G1Y4.94
G1X9.42Y4.92
G1Y4.89
M5
G0X9.25Y4.59
M3 S30
; Layer C00
G1X9.23
G1Y4.55
G1Y4.52
G1X9.25Y4.5
G1X9.26Y4.52
G1X9.27Y4.54
G1Y4.57
G1X9.25Y4.59
M5
G0X9.04Y4.54
M3 S30
; Layer C00
G1X9.03Y4.57
G1X9.01
G1Y4.54
G1Y4.51
G1X9.03Y4.52
G1X9.04Y4.54
M5
G0X9.63Y4.51
M3 S30
; Layer C00
G1Y4.46
G1Y4.42
G1X9.64Y4.4
G1X9.66
G1Y4.44
G1Y4.48
G1Y4.51
G1X9.63
M5
G0X9.83Y4.47
M3 S30
; Layer C00
G1Y4.44
G1X9.82Y4.37
G1X9.87Y4.34
G1X9.9
G1X9.92Y4.36
G1Y4.39
G1X9.91Y4.44
G1X9.89Y4.48
G1X9.87Y4.47
G1X9.86Y4.45
G1X9.84Y4.47
M5
G0X9.71Y4.12
M3 S30
; Layer C00
G1X9.67Y4.09
G1X9.65Y4.06
G1X9.61
G1X9.58Y4.05
G1X9.6Y4.03
G1Y4.02
G1X9.38
G1X9.34Y4
G1Y3.97
G1Y3.96
G1X9.36Y3.94
G1X9.4Y3.88
G1X9.41
G1X9.43
G1Y3.92
G1X9.46Y3.95
G1X9.58
G1X9.6Y3.97
G1X9.63Y3.99
G1X9.69Y3.95
G1X9.73Y3.91
G1X9.76Y3.96
G1X9.79Y4.03
G1X9.77Y4.06
G1X9.74
G1Y4.09
G1X9.71Y4.12
M5
G0X9.89Y4.08
M3 S30
; Layer C00
G1X9.86Y4.05
G1Y4.02
G1X9.9Y4
G1X9.95
G1X10.06Y4.02
G1X10.08
G1X10.11Y4.03
G1X10.12Y4.05
G1Y4.08
G1X10.08Y4.11
G1X9.94Y4.1
G1X9.89Y4.08
M5
G0X10.17Y4.04
M3 S30
; Layer C00
G1X10.16Y3.99
G1Y3.96
G1X10.17
G1X10.19Y4.01
G1X10.21Y4.03
G1X10.24Y4.08
G1X10.22Y4.11
G1X10.19Y4.09
G1X10.17Y4.04
M5
G0X10.62Y3.95
M3 S30
; Layer C00
G1X10.65Y3.97
G1X10.71
G1X10.8
G1X10.9Y3.94
G1X11Y3.92
G1X11.07Y3.91
G1X11.12Y3.9
G1X11.18Y3.85
G1X11.22
G1X11.31Y3.87
G1X11.34
G1X11.36Y3.86
G1X11.32Y3.82
G1X11.22
G1X11.14Y3.83
G1X11.08
G1X11.06Y3.81
G1X11.05
G1X10.95Y3.84
G1X10.86Y3.86
G1X10.83Y3.87
G1X10.8Y3.89
G1X10.63Y3.92
G1Y3.95
M5
G0X10.56Y4.06
M3 S30
; Layer C00
G1X10.42Y4
G1X10.34Y3.94
G1X10.37Y3.91
G1X10.45Y3.86
G1X10.57Y3.82
G1X10.71Y3.78
G1X11.07Y3.74
G1X11.36Y3.75
G1X11.42Y3.78
G1X11.45Y3.82
G1Y3.87
G1X11.41Y3.92
G1X11.36Y3.95
G1X11.33Y3.96
G1X11.31
G1X11.28Y3.97
G1X11.16Y4.01
G1X10.94Y4.05
G1X10.72Y4.07
G1X10.56Y4.06
M5
G0X10.64Y3.62
M3 S30
; Layer C00
G1X10.62Y3.59
G1Y3.56
G1Y3.54
G1X10.65
G1Y3.59
G1X10.64Y3.62
M5
G0X10.77Y3.55
M3 S30
; Layer C00
G1X10.82Y3.49
G1X10.9Y3.47
G1X10.92Y3.51
G1X10.91Y3.54
G1X10.82Y3.57
G1X10.77Y3.55
M5
G0X10.63Y3.24
M3 S30
; Layer C00
G1X10.45Y3.26
G1X10.28Y3.23
G1X10.18Y3.21
G1X10.1Y3.18
G1X10.05Y3.15
G1X10.03Y3.12
G1X10.07Y3.09
G1X10.17Y3.05
G1X10.29Y3
G1X10.41Y2.97
G1X10.58Y2.95
G1X10.79Y2.94
G1X10.91
G1X10.98
G1X11.03Y2.95
G1X11.07Y2.97
G1X11.11Y3.02
G1Y3.07
G1X11Y3.15
G1X10.84Y3.21
G1X10.63Y3.24
M5
G0X11.26Y3.14
M3 S30
; Layer C00
G1Y3.1
G1X11.3
G1X11.31Y3.12
G1Y3.15
G1X11.28
G1X11.26Y3.14
M5
G0X11.18Y2.91
M3 S30
; Layer C00
G1X11.16
G1Y2.89
G1Y2.87
G1X11.19
G1X11.2Y2.89
G1Y2.9
G1X11.18
M5
G0X11.6Y2.96
M3 S30
; Layer C00
G1X11.62Y2.91
G1X11.68Y2.88
G1X11.75
G1X11.85Y2.87
G1X11.98
G1X12.65
G1X12.6Y2.92
G1X12.57Y2.95
G1X12.5Y2.97
G1X12.4Y3
G1X12.25Y3.04
G1X12.03Y3.06
G1X11.78Y3.04
G1X11.69Y3.03
G1X11.64Y3.01
G1X11.61Y2.99
G1Y2.96
M5
G0X11.46Y3.42
M3 S30
; Layer C00
G1X11.52
G1X11.48Y3.46
G1X11.45
G1X11.42Y3.45
G1X11.41Y3.42
G1X11.46
M5
G0X11.69Y3.47
M3 S30
; Layer C00
G1X11.7Y3.5
G1X11.73
G1X11.71Y3.47
G1X11.69
M5
G0X11.67Y3.49
M3 S30
; Layer C00
G1X11.66Y3.45
G1X11.68
G1X11.69Y3.43
G1X11.71Y3.41
G1X11.73
G1X11.76Y3.42
G1X11.8Y3.47
G1X11.85Y3.54
G1X11.77
G1X11.7Y3.53
G1X11.67Y3.49
M5
G0X11.89Y3.53
M3 S30
; Layer C00
G1X11.91Y3.49
G1X11.93Y3.51
G1Y3.54
G1X11.9Y3.57
G1Y3.6
G1Y3.64
G1X11.85Y3.67
G1X11.79Y3.7
G1X11.72Y3.74
G1X11.7
G1X11.72Y3.68
G1X11.8Y3.62
G1X11.86Y3.59
G1X11.89Y3.53
M5
G0X12.15Y3.46
M3 S30
; Layer C00
G1Y3.43
G1Y3.4
G1Y3.38
G1X12.17
G1X12.21Y3.4
G1X12.24Y3.43
G1X12.21Y3.45
G1X12.18Y3.47
G1X12.16
G1X12.15
M5
G0X12.3Y3.46
M3 S30
; Layer C00
G1Y3.44
G1X12.31Y3.42
G1X12.37Y3.39
G1X12.39Y3.4
G1X12.35Y3.45
G1X12.3Y3.46
M5
G0X12.37Y3.31
M3 S30
; Layer C00
G1X12.33Y3.29
G1X12.3Y3.26
G1X12.29Y3.24
G1X12.31Y3.23
G1X12.36
G1X12.42
G1Y3.27
G1Y3.3
G1X12.4Y3.31
G1X12.37
M5
G0X12.59Y3.25
M3 S30
; Layer C00
G1Y3.22
G1X12.62Y3.18
G1X12.69Y3.15
G1X12.93Y3.07
G1X13.18Y3.02
G1X13.41
G1X13.57Y3.05
G1X13.63Y3.09
G1X13.65Y3.13
G1X13.57Y3.21
G1X13.4Y3.28
G1X13.17Y3.32
G1X12.9Y3.34
G1X12.77
G1X12.69
G1X12.65Y3.32
G1X12.62Y3.29
G1X12.59Y3.25
M5
G0X12.79Y2.91
M3 S30
; Layer C00
G1X12.77Y2.89
G1Y2.87
G1X12.79
G1X12.81
G1Y2.89
G1Y2.9
G1X12.79
M5
G0X12.98Y2.87
M3 S30
; Layer C00
G1X13.02
G1X13.05
G1X13.06Y2.89
G1X13.03Y2.91
G1X12.99Y2.89
G1X12.98Y2.87
M5
G0X13.68Y3.29
M3 S30
; Layer C00
G1X13.7Y3.28
G1X13.71Y3.3
G1X13.69Y3.32
G1X13.68
G1Y3.3
G1Y3.29
M5
G0X14Y3.32
M3 S30
; Layer C00
G1X14.01Y3.36
G1X14.03Y3.35
G1X14.04Y3.32
G1X14.07Y3.28
G1X14.12Y3.31
G1X14.14
G1Y3.29
G1X14.13
G1X14.11Y3.27
G1Y3.24
G1Y3.2
G1X14.05Y3.24
G1X14Y3.32
M5
G0X14.42Y3.22
M3 S30
; Layer C00
G1Y3.2
G1Y3.17
G1X14.41Y3.12
G1X14.33Y3.03
G1X14.27Y2.97
G1X14.24Y2.93
G1Y2.91
G1X14.26
G1X14.34Y2.93
G1X14.39Y2.97
G1X14.4Y2.98
G1X14.43
G1X14.47Y2.95
G1X14.46Y2.9
G1X14.44Y2.87
G1X14.47
G1X14.51
G1X14.52Y2.9
G1Y3.03
G1Y3.11
G1Y3.17
G1X14.5Y3.2
G1X14.46Y3.24
G1X14.42Y3.22
M5
G0X14.61Y3.12
M3 S30
; Layer C00
G1X14.58Y3.08
G1X14.62Y3.04
G1X14.66Y2.97
G1X14.63Y2.96
G1X14.61
G1Y2.95
G1X14.6Y2.93
G1X14.59Y2.9
G1X14.61Y2.88
G1X14.7
G1X14.78
G1X14.82
G1X14.83Y2.92
G1Y2.98
G1Y3.02
G1X14.85Y3.08
G1X14.88Y3.14
G1X15
G1X15.06Y3.25
G1X15.1
G1X15.13
G1X15.11Y3.28
G1X15.1Y3.32
G1Y3.35
G1X15.14Y3.39
G1X15.16
G1X15.17Y3.37
G1X15.19Y3.26
G1X15.22Y3.23
G1X15.25Y3.21
G1X15.26Y3.17
G1X15.24Y3.12
G1X15.18Y3.13
G1X15.05
G1X14.97Y3.06
G1X14.98Y3.03
G1X15.08
G1X15.1Y3.01
G1X15.09Y2.98
G1X15.07Y2.96
G1X15.08Y2.91
G1X15.17Y2.87
G1X15.21
G1X15.23Y2.9
G1X15.25Y2.92
G1X15.28
G1X15.31Y2.94
G1X15.32Y2.97
G1Y2.99
G1X15.3Y3
G1X15.28
G1X15.26Y2.97
G1X15.19Y2.92
G1X15.15Y2.95
G1X15.23Y3.06
G1X15.32Y3.13
G1X15.34Y3.11
G1Y3.04
G1X15.36
G1X15.37Y3.14
G1X15.33Y3.27
G1X15.29Y3.29
G1X15.23Y3.31
G1X15.24Y3.39
G1Y3.48
G1Y3.58
G1X15.3Y3.61
G1X15.36Y3.63
G1X15.43Y3.6
G1X15.45Y3.62
G1X15.47Y3.66
G1Y3.73
G1X15.49Y3.82
G1X15.52Y3.9
G1X15.54Y3.95
G1Y3.98
G1X15.52
G1X15.48
G1X15.43Y3.96
G1X15.39Y3.97
G1X15.34Y3.99
G1X15.3Y3.97
G1X15.25Y3.96
G1X15.21
G1X15.16
G1X15.14
G1Y3.94
G1X15.2Y3.9
G1X15.23Y3.86
G1X15.26Y3.83
G1X15.39Y3.91
G1X15.43
G1Y3.89
G1Y3.85
G1X15.41Y3.79
G1Y3.7
G1X15.34Y3.73
G1X15.25
G1X15.23Y3.74
G1X15.17Y3.77
G1X15.12Y3.76
G1X15.09Y3.73
G1X15.03Y3.7
G1X14.97Y3.65
G1X14.95Y3.6
G1Y3.54
G1Y3.5
G1Y3.49
G1X14.89Y3.51
G1X14.86
G1X14.84Y3.49
G1X14.88Y3.48
G1X14.99
G1X15.05Y3.56
G1X15.09Y3.64
G1X15.14Y3.68
G1Y3.57
G1Y3.48
G1X15.11Y3.42
G1X15.07Y3.38
G1X15.05Y3.35
G1X15.04Y3.33
G1X14.99Y3.31
G1X14.93
G1X14.89Y3.34
G1X14.86Y3.37
G1X14.84
G1X14.82Y3.28
G1X14.84Y3.21
G1X14.81Y3.11
G1X14.73Y3.04
G1X14.69Y3.06
G1X14.66Y3.1
G1X14.64Y3.14
G1X14.61Y3.12
M5
G0X14.92Y3
M3 S30
; Layer C00
G1Y2.99
G1Y2.97
G1X14.93
G1X14.95
G1Y2.99
G1X14.93Y3.01
G1X14.92Y3
M5
G0X14.96Y2.9
M3 S30
; Layer C00
G1X14.9Y2.87
G1X14.97
G1X15.02
G1X15.04Y2.89
G1Y2.91
G1X14.96Y2.9
M5
G0X15.52Y3.04
M3 S30
; Layer C00
G1X15.5Y3.07
G1X15.55Y3.12
G1X15.59Y3.14
G1X15.62Y3.16
G1X15.66Y3.18
G1Y3.16
G1Y3.14
G1X15.62Y3.11
G1X15.58Y3.09
G1X15.55Y3.04
G1X15.52
M5
G0X15.45Y3.03
M3 S30
; Layer C00
G1X15.42Y2.97
G1X15.4Y2.94
G1Y2.92
G1X15.42
G1X15.46Y2.94
G1X15.52Y2.95
G1X15.54Y2.97
G1X15.56Y2.93
G1X15.57Y2.89
G1X15.59Y2.88
G1X15.62Y2.87
G1X15.69
G1X15.78
G1X15.8Y2.91
G1X15.79Y2.94
G1X15.73Y2.95
G1X15.72Y2.97
G1Y3
G1X15.79Y3.05
G1Y3.09
G1X15.78Y3.13
G1X15.69Y3.22
G1X15.68Y3.26
G1X15.65Y3.28
G1X15.6Y3.26
G1X15.58Y3.25
G1X15.53
G1X15.48Y3.23
G1X15.47Y3.19
G1X15.45Y3.03
M5
G0X15.87Y3.01
M3 S30
; Layer C00
G1X15.93Y2.99
G1X15.96
G1Y3.03
G1X15.93Y3.08
G1X15.88Y3.06
G1Y3.01
M5
G0X16Y2.98
M3 S30
; Layer C00
G1X15.99Y2.92
G1X16Y2.88
G1X16.07Y2.87
G1X16.14Y2.88
G1X16.21Y2.93
G1X16.25Y2.99
G1Y3.02
G1X16.22Y3.03
G1X16.2Y3.02
G1X16.19Y2.99
G1X16.17
G1X16.15Y3.01
G1Y3.05
G1Y3.13
G1X16.19Y3.19
G1X16.25Y3.2
G1X16.29Y3.17
G1X16.31Y3.15
G1X16.32Y3.17
G1X16.34Y3.19
G1X16.37Y3.2
G1X16.4Y3.25
G1X16.36Y3.32
G1X16.31Y3.34
G1X16.26Y3.33
G1X16.24Y3.31
G1Y3.28
G1X16.21Y3.24
G1X16.08Y3.14
G1X16.06Y3.11
G1Y3.07
G1X16.03Y3.03
G1X16Y2.98
M5
G0X16.27Y2.91
M3 S30
; Layer C00
G1X16.25Y2.88
G1X16.31
G1X16.38Y2.91
G1X16.39Y2.92
G1Y2.9
G1Y2.88
G1X16.42Y2.87
G1X16.47Y2.88
G1X16.46Y2.92
G1Y3.07
G1X16.53Y3.2
G1X16.54Y3.22
G1Y3.24
G1X16.52
G1X16.51
G1Y3.22
G1X16.48Y3.19
G1X16.42Y3.13
G1X16.37Y3.07
G1X16.35Y3.03
G1Y3
G1X16.31Y2.95
G1X16.27Y2.91
M5
G0X16.52Y2.93
M3 S30
; Layer C00
G1X16.54Y2.9
G1X16.73Y2.87
G1X16.92Y2.89
G1X16.96Y2.9
G1X16.99Y2.89
G1X17.01Y2.87
G1X17.03
G1Y2.9
G1Y2.94
G1X17.01Y2.98
G1X17Y3
G1X16.98
G1X16.95Y2.97
G1X16.92Y2.94
G1X16.89Y2.93
G1X16.86Y2.92
G1X16.84Y2.9
G1X16.81
G1X16.75Y2.93
G1X16.71Y2.89
G1X16.69Y2.92
G1X16.71Y2.98
G1X16.77Y3.04
G1X16.83Y3.06
G1X16.87Y3.04
G1X16.95Y3.06
G1X17.01Y3.13
G1X17Y3.16
G1X16.97
G1X16.91
G1X16.84
G1X16.76Y3.14
G1X16.71Y3.1
G1X16.68Y3.08
G1X16.67
G1Y3.1
G1X16.65Y3.13
G1X16.66Y3.17
G1X16.74Y3.28
G1X16.73Y3.32
G1X16.71Y3.35
G1X16.68
G1X16.66
G1X16.65Y3.31
G1X16.63Y3.26
G1Y3.2
G1X16.61Y3.11
G1X16.55Y3.09
G1X16.53
G1Y3.08
G1X16.55Y3.06
G1X16.58Y3.05
G1X16.62Y3.01
G1X16.61Y2.93
G1X16.58Y2.91
G1X16.55Y2.92
G1X16.52Y2.93
M5
G0X17.08Y2.94
M3 S30
; Layer C00
G1X17.09Y2.93
G1X17.15Y2.9
G1Y2.88
G1X17.18Y2.87
G1X17.21
G1X17.23Y2.9
G1Y2.95
G1Y3.04
G1Y3.14
G1Y3.2
G1X17.21Y3.22
G1X17.18Y3.17
G1X17.16
G1X17.14Y3.2
G1X17.17Y3.25
G1Y3.28
G1X17.14Y3.3
G1X17.12Y3.29
G1X17.09Y3.26
G1X17.07Y3.22
G1Y3.18
G1X17.1Y3.14
G1X17.13Y3.12
G1X17.17Y3.08
G1Y3.01
G1X17.15Y2.99
G1X17.09Y2.96
G1Y2.94
M5
G0X17.41Y3
M3 S30
; Layer C00
G1X17.43Y2.98
G1X17.44Y2.95
G1X17.45Y2.91
G1X17.47Y2.87
G1X17.5Y2.89
G1X17.48Y2.96
G1X17.43Y3.01
G1X17.41Y3
M5
G0X17.64Y2.98
M3 S30
; Layer C00
G1Y2.96
G1X17.67Y2.94
G1X17.7Y2.96
G1Y2.97
G1X17.67Y2.98
G1X17.64
M5
G0X17.67Y2.88
M3 S30
; Layer C00
G1X17.7Y2.87
G1X17.73
G1Y2.88
G1X17.7
G1X17.67
M5
G0X18.08Y3.04
M3 S30
; Layer C00
G1X18.12
G1X18.16
G1X18.2Y2.89
G1X18.24Y2.87
G1X18.27Y2.88
G1Y2.94
G1Y2.98
G1X18.24Y3.03
G1X18.27Y3.08
G1X18.3Y3.13
G1X18.26Y3.14
G1X18.23Y3.15
G1Y3.17
G1X18.24Y3.18
G1X18.28
G1X18.33Y3.19
G1X18.36Y3.23
G1Y3.27
G1Y3.29
G1Y3.32
G1X18.38Y3.37
G1X18.42Y3.44
G1X18.39Y3.46
G1X18.36Y3.44
G1X18.33Y3.39
G1X18.28Y3.33
G1X18.23
G1X18.13Y3.29
G1X18.09Y3.22
G1X18.1Y3.21
G1X18.17
G1Y3.19
G1X18.16Y3.16
G1X18.08Y3.08
G1Y3.05
G1Y3.04
M5
G0X18.3Y3.06
M3 S30
; Layer C00
G1X18.32Y3.04
G1X18.37Y3.03
G1X18.43
G1X18.51Y3.07
G1X18.59Y3.13
G1X18.57Y3.37
G1X18.56Y3.46
G1Y3.5
G1X18.54Y3.53
G1X18.51
G1X18.49Y3.51
G1X18.48Y3.44
G1X18.52Y3.34
G1X18.48Y3.28
G1X18.45Y3.24
G1Y3.16
G1Y3.11
G1Y3.09
G1X18.42
G1X18.38Y3.11
G1X18.34Y3.12
G1X18.32Y3.1
G1X18.3Y3.07
G1Y3.06
M5
G0X18.4Y2.96
M3 S30
; Layer C00
G1X18.38Y2.95
G1X18.36Y2.92
G1Y2.88
G1Y2.87
G1X18.39Y2.91
G1Y2.96
M5
G0X18.48Y2.92
M3 S30
; Layer C00
G1X18.46Y2.89
G1X18.49
G1X18.56Y2.87
G1X18.62
G1X18.65Y2.88
G1Y2.9
G1X18.61Y2.93
G1X18.58Y2.95
G1X18.55Y3.01
G1X18.51Y2.97
G1X18.48Y2.92
M5
G0X18.6Y3.05
M3 S30
; Layer C00
G1X18.62
G1Y3.09
G1Y3.1
G1X18.6Y3.09
G1Y3.07
G1Y3.05
M5
G0X18.74Y2.96
M3 S30
; Layer C00
G1X18.71Y2.92
G1X18.75Y2.91
G1X18.78
G1X18.79Y2.93
G1X18.78Y2.97
G1X18.74
M5
G0X18.96Y3.31
M3 S30
; Layer C00
G1X18.93Y3.32
G1X18.91Y3.36
G1X18.9Y3.41
G1Y3.47
G1X18.94Y3.46
G1X18.97Y3.45
G1X18.99Y3.47
G1X19.01Y3.49
G1X19.1
G1X19.14Y3.54
G1X19.1Y3.56
G1X18.87Y3.57
G1X18.83Y3.62
G1Y3.66
G1Y3.68
G1X18.93Y3.69
G1X19.09Y3.67
G1X19.07Y3.78
G1X19.12Y3.87
G1X19.21Y3.94
G1X19.3Y3.96
G1X19.35Y3.94
G1X19.41Y3.92
G1X19.45Y3.9
G1X19.47Y3.86
G1Y3.82
G1X19.44Y3.77
G1X19.41Y3.72
G1X19.4Y3.6
G1X19.36Y3.58
G1X19.32
G1X19.29Y3.6
G1Y3.63
G1X19.3Y3.73
G1X19.29Y3.77
G1X19.27Y3.79
G1X19.29Y3.82
G1X19.3Y3.85
G1X19.28
G1X19.27Y3.83
G1X19.26Y3.82
G1X19.16Y3.8
G1X19.12Y3.77
G1X19.14Y3.74
G1X19.22Y3.64
G1X19.24Y3.6
G1X19.23Y3.58
G1X19.17
G1Y3.56
G1X19.18Y3.5
G1X19.25Y3.46
G1X19.21Y3.41
G1X19.17Y3.39
G1X19.11
G1X19.05Y3.41
G1X19.02
G1Y3.39
G1Y3.36
G1Y3.33
G1X18.99Y3.31
G1X18.96
M5
G0X19.37Y3.26
M3 S30
; Layer C00
G1Y3.23
G1X19.4Y3.24
G1X19.43Y3.26
G1Y3.28
G1Y3.3
G1X19.4
G1X19.38Y3.29
G1Y3.26
M5
G0X19.31Y3.27
M3 S30
; Layer C00
G1Y3.29
G1Y3.31
G1X19.3Y3.36
G1Y3.41
G1X19.33
G1X19.36
G1X19.38
G1Y3.39
G1X19.37Y3.37
G1Y3.34
G1X19.41Y3.33
G1X19.46Y3.31
G1Y3.24
G1X19.45Y3.16
G1X19.51Y3.17
G1X19.57
G1Y3.16
G1X19.54Y3.12
G1X19.45
G1X19.41Y3.1
G1X19.36Y3.07
G1X19.3
G1X19.26Y3.08
G1X19.24
G1X19.23Y3.05
G1Y3
G1X19.21Y2.93
G1X19.17
G1X19.12
G1X19.1Y2.94
G1Y3.01
G1X19.15Y3.05
G1X19.17Y3.07
G1X19.12Y3.13
G1X19.09Y3.16
G1X19.11Y3.2
G1X19.16Y3.24
G1X19.23Y3.22
G1X19.26
G1X19.3Y3.24
G1X19.31Y3.27
M5
G0X19.56Y3.26
M3 S30
; Layer C00
G1Y3.3
G1Y3.34
G1X19.52Y3.36
G1X19.45Y3.4
G1X19.44Y3.48
G1X19.49Y3.52
G1X19.57Y3.49
G1X19.61Y3.47
G1X19.68
G1X19.7Y3.45
G1X19.72Y3.43
G1X19.71Y3.42
G1X19.69Y3.41
G1Y3.38
G1X19.64Y3.3
G1X19.57Y3.24
G1Y3.26
M5
G0X19.68Y3.24
M3 S30
; Layer C00
G1X19.74Y3.22
G1X19.76Y3.15
G1Y3.12
G1Y3.1
G1X19.8Y3.09
G1X19.84
G1X19.88Y3.11
G1Y3.15
G1X19.9Y3.23
G1X19.93Y3.26
G1X19.95
G1X19.99Y3.23
G1X20.02Y3.18
G1X20Y3.09
G1X19.97Y3.01
G1X19.9Y2.99
G1X19.84
G1X19.75Y3.01
G1X19.7Y2.99
G1X19.67Y3
G1X19.65Y3.13
G1X19.68Y3.24
M5
G0X19.75Y3.38
M3 S30
; Layer C00
G1X19.8Y3.42
G1X19.87Y3.46
G1X19.91Y3.42
G1X19.96Y3.36
G1Y3.31
G1X19.93
G1X19.91Y3.33
G1X19.88Y3.35
G1X19.82Y3.37
G1X19.75Y3.38
M5
G0X19.79Y3.54
M3 S30
; Layer C00
G1X19.75Y3.56
G1X19.71Y3.57
G1X19.59
G1X19.58Y3.61
G1X19.57Y3.65
G1X19.52Y3.73
G1Y3.77
G1X19.53Y3.8
G1X19.56Y3.81
G1X19.61
G1X19.64Y3.79
G1X19.65Y3.76
G1X19.66Y3.72
G1X19.67Y3.68
G1X19.73
G1X19.79
G1X19.81Y3.7
G1Y3.71
G1X19.85
G1X19.88
G1X19.86Y3.66
G1X19.84Y3.57
G1X19.82Y3.55
G1X19.79
M5
G0X20.32Y3.46
M3 S30
; Layer C00
G1Y3.44
G1Y3.39
G1X20.34Y3.33
G1X20.38Y3.29
G1X20.42Y3.27
G1X20.45Y3.28
G1X20.46Y3.3
G1X20.43Y3.31
G1X20.39Y3.34
G1Y3.45
G1X20.36Y3.47
G1X20.33
G1X20.32
M5
G0X20.42Y3.57
M3 S30
; Layer C00
G1X20.46
G1X20.48
G1X20.53Y3.54
G1X20.55Y3.57
G1X20.49Y3.61
G1X20.42
G1Y3.57
M5
G0X20.65Y3.63
M3 S30
; Layer C00
G1X20.69Y3.56
G1X20.75Y3.52
G1X20.78Y3.55
G1X20.74Y3.59
G1X20.71Y3.6
G1X20.69Y3.62
G1Y3.63
G1X20.67
G1X20.66
M5
G0X20.89Y3.43
M3 S30
; Layer C00
G1Y3.41
G1Y3.39
G1X20.9Y3.38
G1X20.92
G1Y3.4
G1Y3.42
G1X20.9
G1X20.89
M5
G0X20.74Y3.3
M3 S30
; Layer C00
G1X20.72Y3.28
G1Y3.25
G1Y3.19
G1X20.75Y3.16
G1X20.78
G1X20.83Y3.19
G1X20.87Y3.23
G1Y3.25
G1X20.86
G1X20.84Y3.24
G1X20.82Y3.21
G1X20.8
G1X20.78
G1X20.76Y3.28
G1X20.74Y3.3
M5
G0X20.9Y3.14
M3 S30
; Layer C00
G1X20.85Y3.11
G1X20.87Y3.04
G1X20.93Y3.01
G1X20.97Y3.04
G1X20.96Y3.1
G1X20.9Y3.14
M5
G0X21.01Y3.13
M3 S30
; Layer C00
G1Y3.1
G1X21.03Y3.06
G1X21.08
G1X21.1Y3.07
G1X21.09Y3.1
G1X21.06Y3.13
G1X21.04Y3.14
G1X21.01
M5
G0X21.36Y3.21
M3 S30
; Layer C00
G1X21.38Y3.15
G1X21.42Y3.1
G1X21.44Y3.13
G1X21.41Y3.19
G1X21.37Y3.22
G1X21.36
M5
G0X21.44Y3.3
M3 S30
; Layer C00
G1X21.51Y3.26
G1X21.54Y3.29
G1Y3.31
G1X21.58Y3.33
G1Y3.34
G1X21.56Y3.35
G1X21.53
G1X21.5
G1X21.48Y3.39
G1X21.46Y3.42
G1X21.44Y3.44
G1X21.42
G1X21.41Y3.41
G1Y3.35
G1X21.44Y3.3
M5
G0X21.61Y3.3
M3 S30
; Layer C00
G1X21.62Y3.27
G1X21.65
G1X21.67Y3.29
G1X21.7Y3.31
G1X21.73Y3.29
G1X21.74Y3.26
G1X21.71Y3.25
G1X21.67Y3.21
G1X21.69Y3.15
G1X21.78Y3.12
G1X21.84
G1X21.86Y3.14
G1X21.94Y3.15
G1X21.97Y3.17
G1Y3.19
G1X21.95Y3.21
G1X21.92Y3.23
G1X21.85Y3.28
G1X21.86Y3.25
G1Y3.21
G1X21.82
G1X21.78
G1X21.77Y3.25
G1Y3.34
G1X21.72Y3.36
G1X21.64Y3.41
G1X21.6Y3.52
G1X21.58Y3.56
G1X21.56Y3.53
G1Y3.47
G1X21.6Y3.42
G1X21.62Y3.38
G1Y3.3
M5
G0X21.78Y3.39
M3 S30
; Layer C00
G1X21.81Y3.37
G1X21.85Y3.39
G1X21.83Y3.44
G1X21.78Y3.46
G1X21.77Y3.42
G1X21.78Y3.39
M5
G0X21.92Y3.33
M3 S30
; Layer C00
G1X21.94
G1X21.99Y3.35
G1X22.02Y3.37
G1Y3.38
G1X21.98
G1X21.94Y3.35
G1X21.92Y3.33
M5
G0X21.97Y3.29
M3 S30
; Layer C00
G1X22.02Y3.23
G1X22.07Y3.2
G1X22.09
G1Y3.24
G1X22.02Y3.28
G1X21.97
M5
G0X22.13Y3.33
M3 S30
; Layer C00
G1X22.16Y3.23
G1X22.2
G1X22.16Y3.32
G1X22.07Y3.4
G1Y3.39
G1X22.09Y3.37
G1X22.13Y3.33
M5
G0X21.99Y3.44
M3 S30
; Layer C00
G1X22.02Y3.47
G1X22.01Y3.49
G1X21.98
G1X21.96
G1Y3.47
G1X21.99Y3.44
M5
G0X22.11Y3.53
M3 S30
; Layer C00
G1X22.15Y3.54
G1X22.18Y3.59
G1X22.16Y3.63
G1X22.12Y3.59
G1Y3.56
G1Y3.53
M5
G0X22.07Y3.57
M3 S30
; Layer C00
G1Y3.62
G1Y3.66
G1X22.06Y3.7
G1X22.04Y3.72
G1X22.02Y3.7
G1X22Y3.67
G1Y3.64
G1X21.98Y3.62
G1X21.94Y3.67
G1X21.92Y3.71
G1Y3.75
G1X21.9Y3.82
G1X21.82Y3.88
G1X21.73Y3.92
G1X21.67Y3.9
G1Y3.87
G1Y3.83
G1Y3.79
G1X21.65Y3.75
G1X21.63Y3.73
G1Y3.71
G1X21.65Y3.7
G1X21.69Y3.69
G1X21.74
G1X21.76Y3.7
G1Y3.73
G1X21.71Y3.79
G1X21.72Y3.84
G1X21.74Y3.88
G1X21.8Y3.82
G1X21.84Y3.77
G1X21.87Y3.73
G1X21.89Y3.63
G1X21.91Y3.59
G1X21.94Y3.57
G1X21.99
G1X22.07
M5
G0X22.2Y3.83
M3 S30
; Layer C00
G1Y3.99
G1Y4.1
G1X22.18Y4.15
G1X22.17Y4.13
G1Y4.1
G1X22.15Y4.06
G1X22.13
G1X22.09Y3.99
G1Y3.89
G1Y3.88
G1X22.11
G1X22.15Y3.86
G1X22.2Y3.83
M5
G0X22.02Y3.89
M3 S30
; Layer C00
G1X22.04Y3.96
G1X22Y3.98
G1X21.97
G1X21.91Y4.01
G1X21.89Y3.98
G1X21.9Y3.95
G1X21.96Y3.92
G1X21.99Y3.9
G1Y3.88
G1X22.02Y3.89
M5
G0X21.9Y4.05
M3 S30
; Layer C00
G1X21.92Y4.07
G1X21.9Y4.11
G1X21.88
G1Y4.08
G1Y4.06
G1X21.9Y4.05
M5
G0X21.94Y4.2
M3 S30
; Layer C00
G1X21.99Y4.22
G1X22.04Y4.19
G1X22.06Y4.21
G1X22.05Y4.23
G1X22.02Y4.24
G1X21.98Y4.26
G1X21.96Y4.3
G1X21.94Y4.33
G1X21.92
G1X21.89Y4.26
G1X21.91Y4.2
G1X21.94
M5
G0X22.16Y4.32
M3 S30
; Layer C00
G1X22.19Y4.34
G1X22.2Y4.39
G1X22.17Y4.41
G1X22.15Y4.39
G1Y4.37
G1Y4.32
M5
G0X22.11Y4.46
M3 S30
; Layer C00
G1Y4.52
G1X22.07Y4.54
G1X22.04Y4.56
G1Y4.72
G1X22Y4.74
G1X21.95
G1X21.9Y4.71
G1X21.87Y4.68
G1X21.91Y4.67
G1X21.95Y4.65
G1X21.97Y4.61
G1X21.99Y4.51
G1X22.04Y4.45
G1X22.11
M5
G0X21.85Y4.51
M3 S30
; Layer C00
G1Y4.52
G1Y4.54
G1X21.83
G1X21.82
G1Y4.52
G1Y4.51
G1X21.83
G1X21.85
M5
G0X21.77Y4.41
M3 S30
; Layer C00
G1X21.75Y4.4
G1Y4.38
G1Y4.36
G1X21.77
G1X21.78Y4.37
G1Y4.39
G1Y4.4
G1X21.77
M5
G0X21.6Y4.39
M3 S30
; Layer C00
G1X21.58Y4.41
G1X21.55Y4.38
G1Y4.37
G1Y4.35
G1X21.58
G1X21.6Y4.39
M5
G0X21.45Y4.32
M3 S30
; Layer C00
G1X21.44
G1X21.42
G1Y4.3
G1Y4.28
G1X21.44Y4.27
G1X21.45
G1Y4.3
G1Y4.32
M5
G0X21.38Y4.43
M3 S30
; Layer C00
G1X21.39
G1Y4.44
G1Y4.46
G1X21.38Y4.47
G1X21.36
G1Y4.46
G1Y4.43
G1X21.38
M5
G0X21.56Y4.54
M3 S30
; Layer C00
G1X21.6Y4.52
G1X21.63Y4.55
G1X21.6Y4.61
G1X21.56Y4.67
G1X21.6Y4.7
G1X21.63
G1X21.66Y4.73
G1X21.69
G1X21.74Y4.7
G1X21.79Y4.65
G1Y4.72
G1X21.77Y4.78
G1X21.72Y4.8
G1X21.66
G1X21.62Y4.77
G1X21.58Y4.74
G1X21.48Y4.72
G1X21.45Y4.7
G1Y4.66
G1X21.5Y4.59
G1X21.56Y4.54
M5
G0X21.88Y4.83
M3 S30
; Layer C00
G1X21.9Y4.86
G1X21.92Y4.89
G1X21.96
G1X22.05
G1X22.1Y4.94
G1X22.09Y4.95
G1X22.06
G1X21.99
G1X21.96Y4.99
G1X21.95Y5.01
G1X21.93Y5.04
G1X21.91Y5.06
G1Y5.1
G1X21.9Y5.13
G1X21.86Y5.12
G1X21.88Y5.05
G1X21.92Y5
G1X21.93Y4.98
G1Y4.97
G1X21.92
G1X21.89Y4.96
G1X21.85Y4.93
G1X21.82Y4.88
G1X21.85Y4.85
G1X21.88Y4.83
M5
G0X21.68Y4.91
M3 S30
; Layer C00
G1Y5
G1Y5.02
G1X21.72Y5.07
G1X21.73Y5.12
G1X21.71Y5.13
G1X21.69
G1X21.66
G1Y5.1
G1Y5.07
G1X21.65Y5.06
G1X21.63Y5.03
G1Y4.98
G1Y4.92
G1X21.66Y4.9
G1X21.68Y4.91
M5
G0X21.98Y5.1
M3 S30
; Layer C00
G1X22Y5.12
G1X22.01Y5.15
G1Y5.17
G1X21.99Y5.14
G1X21.98Y5.1
M5
G0X22.14Y5.08
M3 S30
; Layer C00
G1Y5.05
G1X22.18Y5
G1Y4.97
G1X22.2
G1Y5.02
G1Y5.1
G1X22.17Y5.12
G1X22.15Y5.11
G1Y5.08
M5
G0X22.18Y5.25
M3 S30
; Layer C00
G1X22.2Y5.27
G1Y5.3
G1X22.19Y5.35
G1X22.15Y5.33
G1Y5.29
G1X22.18Y5.25
M5
G0X22.07Y5.3
M3 S30
; Layer C00
G1X22.01Y5.32
G1X21.94Y5.3
G1Y5.27
G1Y5.25
G1X22.01Y5.26
G1X22.07Y5.3
M5
G0X21.87Y5.41
M3 S30
; Layer C00
G1X21.89Y5.44
G1X21.86Y5.48
G1X21.81Y5.49
G1X21.79Y5.47
G1Y5.46
G1X21.84Y5.45
G1X21.85Y5.43
G1Y5.42
G1X21.87
M5
G0X21.67Y5.4
M3 S30
; Layer C00
G1X21.65Y5.43
G1X21.62Y5.42
G1X21.61Y5.39
G1X21.63Y5.37
G1X21.66Y5.38
G1Y5.4
M5
G0X21.47Y5.45
M3 S30
; Layer C00
G1X21.44Y5.49
G1X21.42
G1Y5.45
G1X21.43Y5.42
G1X21.45Y5.41
G1X21.47Y5.45
M5
G0X21.32Y5.35
M3 S30
; Layer C00
G1X21.29
G1X21.27Y5.36
G1X21.24
G1X21.22
G1X21.23Y5.3
G1X21.3Y5.27
G1X21.33Y5.28
G1Y5.31
G1Y5.34
G1X21.32Y5.35
M5
G0X21.53Y5.25
M3 S30
; Layer C00
G1Y5.22
G1X21.55Y5.18
G1X21.6
G1X21.58Y5.22
G1X21.54Y5.25
G1X21.53
M5
G0X21.39Y5.15
M3 S30
; Layer C00
G1X21.37
G1X21.34
G1X21.31Y5.17
G1X21.29
G1X21.27
G1X21.25Y5.14
G1Y5.12
G1X21.28Y5.1
G1X21.32
G1X21.38
G1X21.4Y5.13
G1X21.39Y5.15
M5
G0X21.13Y5.08
M3 S30
; Layer C00
G1X21.11
G1X21.1Y5.06
G1Y5.02
G1X21.13Y5.01
G1X21.15Y5.05
G1X21.13Y5.08
M5
G0X22.11Y4.79
M3 S30
; Layer C00
G1Y4.77
G1X22.12Y4.75
G1X22.16Y4.74
G1X22.2
G1Y4.79
G1Y4.84
G1Y4.86
G1X22.18Y4.85
G1X22.14Y4.82
G1X22.11Y4.79
M5
G0X22.11Y5.58
M3 S30
; Layer C00
G1X22.12Y5.62
G1X22.08Y5.68
G1X22.05Y5.7
G1X22.03
G1Y5.69
G1Y5.65
G1X22.06Y5.59
G1X22.11Y5.58
M5
G0X22.18Y5.64
M3 S30
; Layer C00
G1X22.2
G1Y5.68
G1Y5.71
G1X22.18Y5.73
G1X22.17Y5.72
G1Y5.69
G1Y5.66
G1X22.18Y5.64
M5
G0X21.98Y5.67
M3 S30
; Layer C00
G1X21.97Y5.68
G1X21.96
G1X21.94
G1Y5.67
G1Y5.65
G1X21.96
G1X21.98Y5.67
M5
G0X22.09Y5.83
M3 S30
; Layer C00
G1Y5.85
G1X22.03Y5.94
G1Y5.97
G1X22.04Y6.02
G1X21.99Y6.05
G1X21.96
G1X21.95Y6.08
G1X21.92
G1X21.9Y6.07
G1Y6.02
G1X21.93Y5.96
G1X21.99Y5.89
G1X22.05Y5.85
G1X22.09Y5.83
M5
G0X21.72Y5.83
M3 S30
; Layer C00
G1X21.71Y5.85
G1X21.68Y5.86
G1X21.65
G1Y5.83
G1X21.69Y5.8
G1X21.72Y5.83
M5
G0X21.61Y5.87
M3 S30
; Layer C00
G1X21.6Y5.9
G1X21.57Y5.92
G1X21.55Y5.91
G1Y5.89
G1X21.57Y5.87
G1X21.61
M5
G0X19.1Y6.07
M3 S30
; Layer C00
G1Y6.09
G1Y6.1
G1X19.09
G1X19.08Y6.07
G1Y6.05
G1X19.1
G1Y6.07
M5
G0X19Y6.03
M3 S30
; Layer C00
G1X19.06Y6.22
G1X19.08Y6.28
G1X19.1Y6.31
G1X19.12
G1X19.13Y6.29
G1X19.14
G1X19.16
G1Y6.3
G1X19.15Y6.32
G1X19.13Y6.34
G1Y6.39
G1X19.16Y6.47
G1X19.32Y6.95
G1X19.37Y7.07
G1X19.43Y7.14
G1Y7.17
G1X19.45Y7.35
G1X19.57Y7.71
G1X19.59Y7.83
G1X19.6Y7.93
G1X19.63Y8.14
G1X19.66Y8.26
G1X19.7Y8.43
G1X19.73Y8.58
G1Y8.67
G1Y8.7
G1X19.72Y8.67
G1X19.6Y8.23
G1X19.45Y7.67
G1X19.35Y7.35
G1X19.26Y7.02
G1X19.2Y6.84
G1X18.92Y5.96
G1X18.89Y5.86
G1Y5.81
G1X18.91
G1Y5.84
G1X18.92Y5.87
G1X19Y6.03
M5
G0X18.68Y5.88
M3 S30
; Layer C00
G1X18.67
G1X18.65Y5.87
G1Y5.82
G1X18.69Y5.75
G1X18.72Y5.73
G1X18.73Y5.75
G1X18.74Y5.79
G1Y5.83
G1X18.72Y5.85
G1X18.7
G1Y5.87
G1X18.68Y5.88
M5
G0X18.52Y5.91
M3 S30
; Layer C00
G1X18.58Y5.96
G1X18.61Y6.06
G1Y6.09
G1X18.59Y6.1
G1X18.57Y6.09
G1X18.55Y6.06
G1X18.52Y5.95
G1Y5.91
M5
G0X18.43Y5.85
M3 S30
; Layer C00
G1X18.41
G1X18.38Y5.84
G1X18.33Y5.71
G1X18.32Y5.6
G1X18.38Y5.65
G1X18.43Y5.78
G1Y5.82
G1Y5.85
M5
G0X18.36Y5.97
M3 S30
; Layer C00
G1X18.4Y5.99
G1X18.43Y6.06
G1X18.46Y6.16
G1Y6.23
G1X18.43Y6.25
G1X18.38Y6.14
G1X18.34Y6
G1X18.36Y5.97
M5
G0X17.94Y5.95
M3 S30
; Layer C00
G1Y5.97
G1X17.91Y5.94
G1X17.89Y5.91
G1Y5.89
G1X17.93Y5.9
G1X17.94Y5.95
M5
G0X17.96Y6.09
M3 S30
; Layer C00
G1X17.99Y6.12
G1X18Y6.16
G1Y6.2
G1Y6.22
G1X17.95
G1X17.91Y6.18
G1X17.94Y6.12
G1X17.96Y6.09
M5
G0X17.65Y6.11
M3 S30
; Layer C00
G1X17.63Y6.09
G1X17.61
G1X17.59
G1X17.6Y6.15
G1X17.62Y6.21
G1X17.64Y6.18
G1X17.65Y6.15
G1Y6.11
M5
G0X17.58Y6.13
M3 S30
; Layer C00
G1X17.56Y6.1
G1X17.52Y6.06
G1X17.48Y5.99
G1Y5.74
G1X17.45Y5.65
G1X17.43Y5.59
G1X17.42Y5.55
G1X17.39Y5.37
G1X17.38Y5.19
G1X17.36Y5.18
G1X17.34Y5.17
G1X17.33Y5.16
G1Y5.11
G1X17.3Y5.08
G1Y5.06
G1Y5.05
G1X17.31Y4.97
G1X17.3Y4.88
G1X17.28Y4.87
G1X17.26Y4.86
G1X17.23Y4.81
G1X17.25Y4.73
G1Y4.7
G1X17.23Y4.58
G1X17.24Y4.51
G1X17.26
G1X17.27Y4.5
G1X17.25Y4.4
G1X17.2Y4.33
G1Y4.31
G1X17.27Y4.21
G1Y4.17
G1X17.26Y4.14
G1X17.21Y4.12
G1X17.17Y4.1
G1Y4.12
G1Y4.14
G1X17.14Y4.08
G1X17.16Y4.02
G1X17.18Y3.99
G1Y3.92
G1X17.17Y3.86
G1X17.14Y3.83
G1X17.11Y3.82
G1X17.05Y3.84
G1X17.02Y3.88
G1Y4.01
G1X17.04Y4.11
G1Y4.17
G1X17.07Y4.35
G1X17.08Y4.6
G1X17.09Y4.69
G1X17.12Y4.74
G1X17.16Y4.8
G1X17.13Y4.84
G1X17.1Y4.88
G1X17.15Y4.93
G1X17.21
G1Y4.95
G1Y4.97
G1X17.17Y5.06
G1X17.2Y5.12
G1X17.22Y5.15
G1X17.23Y5.28
G1X17.27Y5.41
G1Y5.49
G1X17.28Y5.57
G1X17.3Y5.68
G1X17.33Y5.89
G1X17.34Y5.97
G1X17.37Y6.05
G1X17.43Y6.32
G1X17.46Y6.44
G1X17.49Y6.5
G1X17.51Y6.52
G1X17.54
G1Y6.55
G1Y6.56
G1X17.53
G1X17.52
G1Y6.6
G1X17.54Y6.66
G1X17.57Y6.81
G1X17.59Y6.88
G1X17.62Y7
G1X17.65Y7.09
G1Y7.14
G1X17.67Y7.2
G1X17.71Y7.3
G1Y7.36
G1X17.75Y7.5
G1X17.81Y7.69
G1X17.82Y7.75
G1X17.83Y7.82
G1X17.85Y7.89
G1X17.87Y7.95
G1X17.9Y8
G1Y8.04
G1X17.91Y8.09
G1X17.93Y8.14
G1X17.95Y8.24
G1X18.03Y8.52
G1X18.07Y8.65
G1X18.12Y8.78
G1X18.15Y8.9
G1X18.17Y8.99
G1Y9.03
G1X18.21Y9.1
G1X18.25Y9.16
G1X18.29Y9.22
G1X18.33Y9.36
G1X18.35Y9.42
G1X18.4Y9.5
G1X18.41Y9.54
G1X18.43Y9.6
G1X18.46Y9.69
G1X18.49Y9.76
G1Y9.8
G1X18.5Y9.83
G1X18.54Y9.87
G1X18.58Y9.92
G1X18.61Y10.04
G1X18.68Y10.12
G1X18.72Y10.28
G1X18.74Y10.33
G1X18.76Y10.35
G1Y10.42
G1X18.82Y10.45
G1X18.84Y10.48
G1Y10.52
G1X18.91Y10.65
G1Y10.7
G1X18.92Y10.74
G1X18.95Y10.79
G1X18.99Y10.87
G1X19.07Y10.99
G1X19.17Y11.11
G1X19.23Y11.17
G1X19.33Y11.19
G1X19.39Y11.16
G1Y11.07
G1X19.34Y11
G1X19.3Y10.96
G1X19.24Y10.87
G1X19.2Y10.86
G1X19.13Y10.83
G1X19.14Y10.8
G1X19.17Y10.78
G1X19.14Y10.76
G1X19.09Y10.74
G1X19.11Y10.7
G1X19.12Y10.68
G1X19.11Y10.66
G1X19.08Y10.64
G1X19.05Y10.67
G1X19.03Y10.65
G1Y10.61
G1X19.07Y10.57
G1X19.11Y10.54
G1X19.12Y10.52
G1X19.1Y10.5
G1X19.04Y10.49
G1X18.98Y10.47
G1X18.96Y10.45
G1Y10.43
G1X19Y10.41
G1X19.02Y10.38
G1X19.03Y10.33
G1X18.96Y10.22
G1X18.94Y10.17
G1X18.91Y10.15
G1X18.89Y10.13
G1X18.93Y10.12
G1X18.96Y10.1
G1Y10.07
G1X18.94Y10.06
G1X18.88Y10.03
G1X18.83Y9.98
G1X18.8Y9.91
G1X18.76Y9.76
G1X18.72Y9.67
G1X18.69Y9.59
G1Y9.55
G1Y9.53
G1X18.66Y9.5
G1X18.63Y9.45
G1Y9.38
G1Y9.31
G1X18.59Y9.23
G1X18.55Y9.19
G1X18.48Y9.16
G1X18.45Y9.07
G1Y9.01
G1X18.43Y8.96
G1X18.42Y8.92
G1X18.38Y8.93
G1Y8.86
G1Y8.83
G1X18.37Y8.82
G1Y8.8
G1X18.35Y8.79
G1X18.33
G1X18.32Y8.81
G1X18.3Y8.83
G1X18.28Y8.8
G1Y8.75
G1Y8.69
G1X18.3Y8.66
G1X18.31
G1X18.33Y8.75
G1X18.35Y8.77
G1X18.37Y8.73
G1X18.33Y8.65
G1Y8.63
G1Y8.62
G1X18.32Y8.6
G1X18.29Y8.58
G1X18.27Y8.57
G1X18.28Y8.6
G1X18.31Y8.63
G1X18.26
G1X18.22Y8.6
G1X18.23Y8.57
G1X18.31Y8.52
G1X18.35Y8.47
G1X18.28
G1X18.24Y8.49
G1X18.21Y8.52
G1X18.19
G1X18.18Y8.47
G1Y8.41
G1Y8.31
G1X18.12Y8.28
G1X18.11Y8.26
G1Y8.22
G1Y8.17
G1X18.12
G1X18.14
G1Y8.15
G1X18.15Y8.1
G1X18.16Y8.04
G1Y7.99
G1Y7.98
G1X18.14
G1Y7.99
G1X18.12Y8.04
G1X18.07
G1X18.06Y8.01
G1X18.04Y7.86
G1X18.02Y7.82
G1X18Y7.79
G1X18.03Y7.7
G1Y7.68
G1X18.01Y7.67
G1X17.98
G1X17.95
G1X17.93Y7.64
G1X17.91Y7.6
G1Y7.57
G1X17.93Y7.55
G1X18.01Y7.52
G1X18.03Y7.5
G1X18.01Y7.48
G1X17.98Y7.5
G1X17.96Y7.52
G1X17.94
G1Y7.49
G1X17.93Y7.47
G1X17.91Y7.43
G1X17.89Y7.26
G1Y7.23
G1X17.87
G1Y7.26
G1X17.84Y7.29
G1X17.8Y7.25
G1Y7.21
G1X17.81Y7.18
G1X17.83Y7.15
G1X17.85Y7.17
G1X17.9Y7.21
G1X17.93Y7.17
G1X17.92Y7.14
G1X17.88Y7.13
G1X17.85
G1X17.88Y7.09
G1X17.87
G1X17.85Y7.08
G1X17.84Y7.02
G1X17.8Y7.03
G1X17.76Y7.04
G1X17.78Y7.03
G1Y7
G1Y6.97
G1X17.77Y6.94
G1X17.78
G1X17.8
G1X17.78Y6.91
G1X17.75Y6.85
G1Y6.76
G1X17.73Y6.71
G1X17.71Y6.66
G1Y6.63
G1Y6.62
G1X17.68
G1X17.65Y6.61
G1X17.64Y6.59
G1Y6.56
G1X17.67
G1X17.7Y6.51
G1X17.72Y6.4
G1Y6.36
G1X17.7Y6.34
G1X17.68
G1X17.66Y6.38
G1X17.63Y6.4
G1X17.6Y6.37
G1X17.59Y6.35
G1X17.56
G1X17.54
G1X17.52Y6.29
G1Y6.27
G1X17.55Y6.22
G1X17.51Y6.21
G1X17.48
G1Y6.19
G1X17.51Y6.14
G1X17.56
G1X17.57
G1Y6.13
M5
G0X16.89Y6.19
M3 S30
; Layer C00
G1Y6.22
G1X16.88Y6.24
G1X16.86Y6.22
G1Y6.2
G1Y6.19
G1X16.89
M5
G0X16.84Y6.06
M3 S30
; Layer C00
G1X16.82
G1Y6.04
G1Y6.03
G1X16.84
G1X16.86
G1X16.87Y6.04
G1Y6.06
G1X16.84
M5
G0X15.94Y5.9
M3 S30
; Layer C00
G1X15.93Y5.91
G1X15.91
G1X15.89
G1Y5.87
G1X15.92Y5.88
G1X15.94Y5.9
M5
G0X15.88Y5.6
M3 S30
; Layer C00
G1X15.79Y5.58
G1X15.77Y5.56
G1X15.81
G1X15.88
G1X15.97
G1X15.98
G1X15.88Y5.6
M5
G0X15.58Y5.34
M3 S30
; Layer C00
G1X15.56
G1Y5.31
G1X15.59Y5.29
G1X15.63
G1X15.6Y5.33
G1X15.58Y5.34
M5
G0X15.42Y5.28
M3 S30
; Layer C00
G1X15.41Y5.29
G1X15.4
G1Y5.26
G1Y5.24
G1X15.42
G1Y5.26
G1Y5.28
M5
G0X15.35Y5.29
M3 S30
; Layer C00
G1X15.34Y5.27
G1X15.33Y5.2
G1Y5.13
G1X15.36
G1X15.38Y5.22
G1X15.35Y5.29
M5
G0X15.25Y5.25
M3 S30
; Layer C00
G1X15.22Y5.27
G1X15.21
G1Y5.25
G1X15.23Y5.22
G1X15.22
G1X15.2Y5.19
G1Y5.16
G1X15.23Y5.14
G1X15.24Y5.18
G1Y5.25
M5
G0X15.29Y5.42
M3 S30
; Layer C00
G1Y5.45
G1Y5.48
G1X15.34Y5.46
G1X15.35Y5.48
G1X15.38
G1X15.36Y5.5
G1X15.34
G1X15.31
G1X15.2Y5.56
G1X15.19
G1Y5.54
G1X15.17Y5.53
G1Y5.51
G1X15.23Y5.46
G1X15.29Y5.42
M5
G0X15.73Y5.26
M3 S30
; Layer C00
G1Y5.23
G1X15.71Y5.19
G1Y5.14
G1X15.74Y5.15
G1X15.8Y5.17
G1X15.85Y5.14
G1X15.86Y5.12
G1X15.89Y5.13
G1X15.92Y5.15
G1X15.95Y5.16
G1X15.99
G1X15.95Y5.18
G1X15.9Y5.2
G1X15.76Y5.27
G1X15.73
M5
G0X16.05Y5.22
M3 S30
; Layer C00
G1Y5.17
G1X16.07Y5.13
G1X16.1Y5.1
G1X16.12Y5.04
G1X16.15
G1X16.18Y5.07
G1X16.2Y5.13
G1Y5.21
G1X16.13Y5.25
G1X16.08
G1X16.05Y5.22
M5
G0X16.21Y4.95
M3 S30
; Layer C00
G1X16.19Y4.94
G1X16.21Y4.92
G1X16.26Y4.94
G1X16.29Y4.95
G1X16.25
G1X16.21
M5
G0X16.34Y4.85
M3 S30
; Layer C00
G1X16.33Y4.84
G1Y4.82
G1X16.38Y4.84
G1X16.4Y4.86
G1X16.37
G1X16.34
M5
G0X16.03Y4.8
M3 S30
; Layer C00
G1X16Y4.82
G1X15.84Y4.81
G1X15.83Y4.83
G1X15.81Y4.86
G1X15.77Y4.88
G1X15.7Y4.85
G1X15.65Y4.82
G1X15.64Y4.8
G1X15.72Y4.76
G1X15.89Y4.73
G1X15.95
G1X15.98Y4.7
G1X16.03Y4.66
G1X16.07Y4.69
G1Y4.71
G1X16.04Y4.75
G1X16.03Y4.8
M5
G0X15.57Y4.79
M3 S30
; Layer C00
G1X15.55Y4.81
G1X15.53Y4.85
G1X15.52Y4.94
G1X15.49Y4.96
G1X15.45
G1X15.48Y4.93
G1X15.51Y4.9
G1X15.43Y4.92
G1X15.45Y4.89
G1X15.47Y4.84
G1X15.49Y4.76
G1X15.5Y4.67
G1X15.52Y4.74
G1X15.54Y4.78
G1X15.56
M5
G0X15.47Y4.81
M3 S30
; Layer C00
G1X15.45Y4.84
G1X15.43Y4.82
G1Y4.78
G1Y4.73
G1X15.45Y4.74
G1X15.47Y4.81
M5
G0X15.38Y4.78
M3 S30
; Layer C00
G1X15.31Y4.83
G1X15.24Y4.88
G1X15.2
G1X15.23Y4.85
G1X15.29Y4.82
G1X15.38Y4.78
M5
G0X15.47Y4.65
M3 S30
; Layer C00
G1Y4.59
G1Y4.54
G1X15.44Y4.51
G1X15.43Y4.49
G1X15.44
G1X15.48Y4.52
G1Y4.6
G1Y4.65
M5
G0X15.21Y4.43
M3 S30
; Layer C00
G1X15.23Y4.41
G1X15.3Y4.35
G1X15.4Y4.33
G1X15.46
G1Y4.32
G1X15.44Y4.29
G1X15.39Y4.25
G1X15.3Y4.22
G1X15.09Y4.24
G1X14.96
G1X14.92
G1X14.89Y4.26
G1X14.78Y4.23
G1X14.75Y4.26
G1Y4.3
G1X14.74Y4.33
G1Y4.36
G1X14.76Y4.39
G1X14.79Y4.4
G1X14.85Y4.34
G1X14.87
G1X14.88Y4.35
G1Y4.39
G1X14.9Y4.41
G1X14.92Y4.43
G1X14.95
G1X14.98Y4.47
G1X15.01Y4.46
G1X15.03Y4.43
G1Y4.4
G1X15.05Y4.38
G1X15.08Y4.37
G1X15.1
G1X15.12Y4.38
G1X15.13Y4.4
G1X15.17Y4.42
G1X15.21Y4.43
M5
G0X15.54Y4.35
M3 S30
; Layer C00
G1X15.58Y4.37
G1X15.62Y4.35
G1Y4.32
G1X15.57Y4.3
G1X15.53Y4.32
G1X15.54Y4.35
M5
G0X15.98Y4.39
M3 S30
; Layer C00
G1X16.02Y4.4
G1X16.07
G1X16.09Y4.38
G1X16.06Y4.35
G1X16Y4.37
G1X15.98Y4.39
M5
G0X16.31Y4.39
M3 S30
; Layer C00
G1X16.37Y4.43
G1X16.4Y4.47
G1X16.38
G1X16.34Y4.43
G1X16.31Y4.4
G1Y4.39
M5
G0X16.36Y4.37
M3 S30
; Layer C00
G1Y4.35
G1Y4.33
G1X16.38Y4.34
G1X16.39Y4.36
G1Y4.39
G1X16.37
G1Y4.37
M5
G0X16.5Y3.91
M3 S30
; Layer C00
G1X16.53Y3.9
G1X16.57Y3.87
G1X16.61Y3.83
G1Y3.81
G1X16.59
G1X16.57Y3.82
G1X16.53Y3.84
G1X16.44
G1X16.42Y3.86
G1Y3.88
G1X16.44Y3.9
G1X16.5Y3.91
M5
G0X16.4Y3.7
M3 S30
; Layer C00
G1X16.37Y3.68
G1X16.34Y3.65
G1X16.32Y3.59
G1X16.31Y3.5
G1X16.29Y3.48
G1X16.27Y3.49
G1X16.25Y3.53
G1X16.19Y3.58
G1X16.15Y3.55
G1Y3.53
G1X16.09Y3.51
G1Y3.49
G1X16.1Y3.46
G1Y3.45
G1X16.12
G1X16.14Y3.44
G1X16.16
G1X16.17Y3.47
G1Y3.5
G1X16.2
G1X16.24Y3.49
G1X16.35Y3.4
G1X16.39Y3.38
G1X16.43
G1X16.47Y3.43
G1X16.49Y3.48
G1Y3.52
G1X16.46Y3.55
G1X16.44
G1X16.43Y3.58
G1Y3.68
G1X16.4Y3.7
M5
G0X16.31Y3.71
M3 S30
; Layer C00
G1X16.25Y3.76
G1X16.13
G1X16.1
G1X16.09Y3.77
G1X16.07Y3.79
G1X16.04
G1X16.03Y3.76
G1Y3.71
G1Y3.67
G1X16.07Y3.66
G1X16.11
G1X16.19Y3.71
G1X16.22Y3.7
G1X16.28Y3.68
G1X16.31Y3.71
M5
G0X15.98Y3.69
M3 S30
; Layer C00
G1Y3.75
G1X15.96Y3.78
G1X15.95Y3.79
G1X15.92
G1X15.89Y3.76
G1X15.84Y3.71
G1X15.76Y3.58
G1X15.73Y3.54
G1X15.7Y3.48
G1X15.71Y3.4
G1X15.76Y3.32
G1X15.79Y3.27
G1X15.81Y3.25
G1X15.83Y3.27
G1Y3.31
G1Y3.37
G1X15.8Y3.4
G1X15.76Y3.43
G1X15.78Y3.48
G1X15.8Y3.51
G1X15.82Y3.5
G1X15.84Y3.48
G1Y3.56
G1X15.88Y3.58
G1X15.91
G1Y3.65
G1X15.98Y3.69
M5
G0X15.99Y3.58
M3 S30
; Layer C00
G1X15.96Y3.55
G1Y3.53
G1X15.98Y3.5
G1X16.01
G1Y3.55
G1X15.99Y3.58
M5
G0X15.99Y3.45
M3 S30
; Layer C00
G1Y3.39
G1Y3.34
G1X16.01Y3.32
G1X16.04
G1X16.08Y3.27
G1X16.1
G1X16.08Y3.35
G1X16.02Y3.44
G1X15.99
M5
G0X16.17Y3.38
M3 S30
; Layer C00
G1X16.14Y3.34
G1Y3.32
G1X16.17
G1X16.21Y3.35
G1X16.23
G1X16.25
G1Y3.38
G1Y3.41
G1X16.23
G1X16.21
G1X16.17Y3.38
M5
G0X16Y3.22
M3 S30
; Layer C00
G1X15.95Y3.2
G1Y3.19
G1X15.96Y3.17
G1X16
G1X16.03Y3.2
G1X16Y3.22
M5
G0X15.69Y3.37
M3 S30
; Layer C00
G1X15.65Y3.41
G1X15.62
G1Y3.38
G1Y3.35
G1X15.65
G1X15.69Y3.37
M5
G0X15.54Y3.41
M3 S30
; Layer C00
G1X15.55Y3.45
G1X15.57Y3.53
G1X15.61Y3.56
G1X15.64Y3.57
G1X15.67Y3.61
G1X15.71Y3.65
G1X15.79Y3.71
G1Y3.74
G1Y3.77
G1X15.74Y3.79
G1X15.7Y3.81
G1X15.67
G1X15.65Y3.79
G1X15.62Y3.76
G1X15.58Y3.7
G1X15.56Y3.62
G1X15.53Y3.59
G1X15.5Y3.55
G1X15.49Y3.53
G1X15.48Y3.49
G1X15.43Y3.39
G1Y3.36
G1X15.45
G1X15.49Y3.37
G1X15.54Y3.41
M5
G0X15.72Y3.87
M3 S30
; Layer C00
G1Y3.91
G1X15.69Y3.96
G1X15.68
G1X15.66
G1X15.67Y3.9
G1X15.72Y3.87
M5
G0X15.11Y3.85
M3 S30
; Layer C00
G1Y3.89
G1X15.03Y3.92
G1X14.98
G1X14.96Y3.9
G1X14.94Y3.87
G1X14.93Y3.85
G1Y3.84
G1Y3.82
G1X15.02Y3.8
G1X15.11Y3.85
M5
G0X14.88Y3.9
M3 S30
; Layer C00
G1Y3.91
G1Y3.93
G1X14.81
G1X14.77Y3.95
G1X14.73
G1X14.69
G1X14.67Y3.93
G1X14.74Y3.9
G1X14.81Y3.87
G1X14.86
G1X14.88Y3.9
M5
G0X13.95Y3.76
M3 S30
; Layer C00
G1X13.9Y3.79
G1X13.85Y3.8
G1X13.88Y3.75
G1X13.94Y3.73
G1X13.95Y3.74
G1Y3.76
M5
G0X13.81Y3.8
M3 S30
; Layer C00
G1X13.76Y3.85
G1X13.69Y3.89
G1Y3.87
G1X13.74Y3.82
G1X13.81Y3.8
M5
G0X13.82Y3.64
M3 S30
; Layer C00
G1X13.84Y3.62
G1X13.81Y3.59
G1X13.77
G1Y3.6
G1Y3.62
G1X13.82Y3.64
M5
G0X13.17Y3.8
M3 S30
; Layer C00
G1Y3.82
G1Y3.85
G1X13.14Y3.84
G1Y3.82
G1X13.15Y3.8
G1X13.17
M5
G0X13.1Y3.82
M3 S30
; Layer C00
G1Y3.85
G1X13.07
G1X13.04
G1X13.01Y3.82
G1X13Y3.8
G1X13.04
G1X13.08
G1X13.1Y3.82
M5
G0X13.35Y4.1
M3 S30
; Layer C00
G1X13.39
G1Y4.11
G1X13.36Y4.13
G1X13.33Y4.14
G1X13.32Y4.13
G1X13.35Y4.1
M5
G0X13.22Y4.17
M3 S30
; Layer C00
G1Y4.19
G1X13.21Y4.2
G1X13.18
G1X13.16
G1X13.17Y4.19
G1X13.22Y4.17
M5
G0X13.06Y4.25
M3 S30
; Layer C00
G1Y4.27
G1X13.02Y4.3
G1X12.96
G1Y4.26
G1X13.02Y4.25
G1X13.06
M5
G0X12.9Y4.33
M3 S30
; Layer C00
G1Y4.35
G1X12.88Y4.36
G1X12.86
G1X12.85
G1Y4.35
G1Y4.33
G1X12.88
G1X12.9
M5
G0X12.81Y4.43
M3 S30
; Layer C00
G1X12.82Y4.44
G1X12.84Y4.46
G1X12.86Y4.47
G1X12.89Y4.49
G1X12.91Y4.52
G1X12.88Y4.56
G1X12.79Y4.58
G1X12.68Y4.6
G1X12.58Y4.61
G1X12.35Y4.63
G1X12.26
G1X12.21
G1Y4.58
G1X12.25Y4.56
G1X12.28
G1X12.31Y4.53
G1X12.36Y4.51
G1X12.53Y4.49
G1X12.58Y4.47
G1X12.6Y4.45
G1X12.63
G1X12.65Y4.44
G1X12.68Y4.41
G1X12.69Y4.39
G1Y4.41
G1X12.71Y4.43
G1X12.81
M5
G0X12.26Y4.34
M3 S30
; Layer C00
G1X12.23Y4.38
G1X12.15Y4.37
G1X12.09Y4.34
G1Y4.32
G1X12.13Y4.3
G1X12.21
G1X12.25Y4.32
G1X12.26Y4.34
M5
G0X11.99Y4.4
M3 S30
; Layer C00
G1X11.97Y4.46
G1X11.92Y4.5
G1X11.9
G1X11.87Y4.51
G1X11.83
G1X11.79Y4.48
G1X11.76Y4.43
G1X11.78Y4.4
G1X11.89Y4.37
G1X11.99Y4.4
M5
G0X11.68Y4.43
M3 S30
; Layer C00
G1Y4.44
G1X11.64
G1X11.6
G1X11.58Y4.43
G1X11.6Y4.41
G1X11.62
G1X11.66
G1X11.68Y4.43
M5
G0X11.44Y4.29
M3 S30
; Layer C00
G1X11.47Y4.27
G1X11.46Y4.22
G1X11.39Y4.19
G1X11.35Y4.2
G1X11.34Y4.22
G1Y4.25
G1X11.38Y4.27
G1X11.44Y4.29
M5
G0X11.48Y4.31
M3 S30
; Layer C00
G1X11.31Y4.34
G1X11.15Y4.31
G1X11.08Y4.29
G1X10.94Y4.28
G1X10.75Y4.27
G1X10.55
G1X10.47
G1X10.43Y4.25
G1X10.41Y4.24
G1X10.32
G1X10.28Y4.2
G1X10.24
G1X10.21
G1Y4.17
G1X10.25Y4.15
G1X10.34Y4.14
G1X10.42Y4.19
G1X10.44Y4.21
G1X10.46Y4.18
G1X10.51Y4.15
G1X10.55Y4.16
G1X10.58Y4.17
G1X10.64
G1X10.74
G1X10.98
G1X11.08Y4.18
G1X11.15
G1X11.18Y4.19
G1X11.26
G1X11.32Y4.16
G1X11.38Y4.12
G1X11.46
G1X11.56Y4.15
G1X11.68Y4.12
G1X11.7Y4.09
G1X11.68Y4.07
G1X11.65Y4.01
G1X11.66Y3.97
G1X11.69Y3.99
G1X11.73Y4.02
G1X11.76Y4.06
G1Y4.07
G1X11.74
G1X11.76Y4.1
G1X11.81Y4.13
G1X11.91Y4.12
G1X11.94
G1X11.96Y4.1
G1Y4.09
G1X11.93Y4.07
G1X11.91Y4.04
G1X11.89Y4
G1X11.87
G1X11.79Y3.94
G1X11.75Y3.88
G1X11.77
G1X11.79
G1X11.84Y3.93
G1X11.9Y3.95
G1X11.91
G1X11.92Y3.9
G1X11.93Y3.88
G1X11.96Y3.86
G1X11.99Y3.88
G1X12.03Y3.93
G1X12.01Y3.99
G1X11.98Y4.04
G1X12.01Y4.08
G1X12.04
G1X12.1Y4.04
G1X12.2Y4.06
G1X12.3
G1X12.42Y4.05
G1X12.48Y4.01
G1X12.51Y3.98
G1X12.54
G1Y3.96
G1Y3.95
G1Y3.93
G1X12.56Y3.95
G1X12.59Y3.96
G1X12.64
G1X12.77Y3.94
G1X12.86Y3.92
G1X12.92
G1X12.99Y3.96
G1X13.02
G1X13.06
G1X13.1Y3.97
G1X13.14
G1X13.18Y3.96
G1X13.21Y3.94
G1X13.16Y3.91
G1Y3.89
G1X13.23Y3.88
G1X13.31Y3.9
G1X13.35
G1X13.42Y3.91
G1X13.49Y3.92
G1X13.52Y3.95
G1X13.54Y3.98
G1X13.57
G1X13.6
G1Y3.99
G1Y4
G1X13.57
G1X13.56Y4.01
G1X13.51Y4.03
G1X13.48Y4
G1Y3.98
G1X13.43
G1X13.35
G1X13.22Y4.02
G1X13.05Y4.06
G1X12.91Y4.08
G1X12.68Y4.11
G1X12.47Y4.19
G1X12.4Y4.22
G1X12.36Y4.23
G1X12.32Y4.22
G1X12.26Y4.2
G1X12.23
G1X12.2
G1X12.15Y4.22
G1X11.92
G1X11.89Y4.23
G1Y4.25
G1X11.88Y4.23
G1X11.84Y4.21
G1X11.77
G1X11.66Y4.23
G1Y4.26
G1X11.67Y4.29
G1X11.65Y4.31
G1X11.61
G1X11.56
G1X11.52Y4.29
G1X11.48Y4.31
M5
G0X11.19Y4.49
M3 S30
; Layer C00
G1Y4.5
G1Y4.52
G1X11.17
G1X11.16
G1Y4.5
G1X11.17Y4.48
G1X11.19Y4.49
M5
G0X11.46Y4.7
M3 S30
; Layer C00
G1X11.54Y4.66
G1X11.58Y4.67
G1X11.61Y4.69
G1X11.64Y4.72
G1X11.63Y4.74
G1X11.58Y4.76
G1X11.5
G1X11.45
G1X11.43
G1X11.46Y4.7
M5
G0X11.79Y4.68
M3 S30
; Layer C00
G1X11.81Y4.64
G1X11.83Y4.61
G1X11.85Y4.6
G1X11.87
G1Y4.63
G1X11.84Y4.69
G1X11.8Y4.71
G1X11.79Y4.68
M5
G0X11.94Y4.65
M3 S30
; Layer C00
G1X11.97Y4.64
G1X11.99Y4.65
G1X12.01Y4.69
G1X12.03Y4.71
G1X12.06Y4.75
G1X12.04Y4.78
G1X12.01Y4.76
G1X11.98Y4.72
G1X11.94Y4.65
M5
G0X12.09Y4.9
M3 S30
; Layer C00
G1X12.14Y4.94
G1X12.16Y5.02
G1Y5.05
G1X12.11
G1X12.08
G1X12.05Y5.03
G1Y4.95
G1X12.09Y4.9
M5
G0X11.87Y4.98
M3 S30
; Layer C00
G1X11.89Y5
G1Y5.03
G1X11.87Y5.09
G1Y5.12
G1Y5.15
G1Y5.21
G1X11.83Y5.25
G1X11.82Y5.23
G1X11.8Y5.19
G1X11.79Y5.12
G1Y5.05
G1Y5
G1X11.84Y4.98
G1X11.87
M5
G0X11.56Y5.21
M3 S30
; Layer C00
G1X11.6Y5.25
G1X11.58Y5.3
G1X11.53Y5.33
G1X11.5Y5.31
G1X11.52Y5.24
G1X11.56Y5.21
M5
G0X11.67Y5.59
M3 S30
; Layer C00
G1X11.75
G1X11.77Y5.63
G1Y5.67
G1X11.61
G1X11.55Y5.68
G1X11.51Y5.7
G1X11.48Y5.68
G1X11.47Y5.66
G1Y5.65
G1X11.53Y5.61
G1X11.67Y5.59
M5
G0X11.4Y5.64
M3 S30
; Layer C00
G1X11.38Y5.66
G1X11.36
G1X11.32Y5.63
G1X11.29Y5.59
G1X11.36Y5.62
G1X11.38
G1X11.4Y5.64
M5
G0X11.32Y5.67
M3 S30
; Layer C00
G1X11.34Y5.71
G1X11.31Y5.77
G1X11.28Y5.78
G1X11.26Y5.76
G1X11.27Y5.7
G1X11.32Y5.67
M5
G0X11.08Y5.73
M3 S30
; Layer C00
G1X11.11Y5.78
G1X11.08Y5.81
G1X11.03Y5.78
G1X11.01Y5.75
G1X11.02Y5.72
G1X11.08
M5
G0X10.88Y5.67
M3 S30
; Layer C00
G1X10.86Y5.82
G1X10.83Y5.95
G1X10.81Y6.08
G1X10.8Y6.1
G1X10.79
G1Y6.14
G1X10.77Y6.17
G1X10.75Y6.19
G1X10.72Y6.18
G1X10.7Y6.14
G1X10.65Y5.97
G1X10.6Y5.92
G1X10.57
G1X10.6Y5.9
G1X10.64Y5.88
G1X10.67
G1X10.69
G1X10.7Y5.8
G1X10.72Y5.78
G1X10.73Y5.73
G1X10.74Y5.54
G1X10.76Y5.48
G1X10.79Y5.46
G1X10.87Y5.51
G1X10.9
G1X10.92Y5.55
G1X10.9Y5.62
G1X10.88Y5.67
M5
G0X10.99Y6.01
M3 S30
; Layer C00
G1X11.05Y6
G1Y6.01
G1X11.04Y6.07
G1Y6.1
G1Y6.11
G1Y6.12
G1X10.99Y6.1
G1X10.96Y6.07
G1X10.94Y6.05
G1X10.99Y6.01
M5
G0X10.9Y6.23
M3 S30
; Layer C00
G1X10.93Y6.24
G1X10.96Y6.27
G1X10.99Y6.32
G1X11.06Y6.39
G1X11.03Y6.47
G1X11.06Y6.56
G1X11.08Y6.58
G1Y6.61
G1Y6.63
G1X11.05Y6.57
G1X11.04Y6.56
G1Y6.62
G1X11Y6.6
G1X10.98Y6.63
G1Y6.65
G1X10.97Y6.63
G1X10.95Y6.6
G1X10.91Y6.7
G1X10.89Y6.72
G1X10.87
G1X10.84Y6.67
G1X10.83Y6.62
G1Y6.59
G1Y6.56
G1X10.73Y6.59
G1X10.66Y6.6
G1X10.64
G1X10.74Y6.56
G1X10.86Y6.53
G1X10.89
G1X10.88
G1X10.85Y6.48
G1X10.88Y6.44
G1X10.9Y6.4
G1X10.83Y6.32
G1X10.78Y6.27
G1X10.79Y6.25
G1X10.85Y6.23
G1X10.9
M5
G0X10.66Y6.35
M3 S30
; Layer C00
G1X10.68Y6.37
G1X10.66Y6.4
G1X10.6Y6.45
G1X10.59Y6.47
G1X10.57Y6.5
G1X10.53Y6.47
G1Y6.45
G1Y6.43
G1Y6.42
G1X10.48Y6.39
G1X10.47Y6.37
G1X10.49Y6.35
G1X10.57Y6.34
G1X10.66
M5
G0X10.33Y6.42
M3 S30
; Layer C00
G1Y6.5
G1X10.35Y6.55
G1X10.44Y6.59
G1Y6.63
G1Y6.68
G1X10.43Y6.7
G1X10.42
G1Y6.66
G1Y6.61
G1X10.34
G1X10.32Y6.59
G1Y6.56
G1X10.28Y6.58
G1X10.23Y6.6
G1X10.16Y6.57
G1X10.12Y6.55
G1X10.1Y6.53
G1Y6.51
G1X10.13Y6.49
G1X10.15Y6.46
G1X10.13
G1X10.11Y6.45
G1X10.13Y6.4
G1X10.15Y6.35
G1X10.1Y6.28
G1X10.11Y6.26
G1X10.14Y6.24
G1X10.18
G1X10.22Y6.26
G1X10.25Y6.36
G1X10.28Y6.38
G1X10.33Y6.42
M5
G0X10.54Y6.58
M3 S30
; Layer C00
G1X10.57
G1X10.6
G1X10.61Y6.6
G1X10.6Y6.61
G1X10.55Y6.6
G1X10.54Y6.58
M5
G0X10.28Y6.67
M3 S30
; Layer C00
G1X10.26Y6.69
G1X10.2Y6.67
G1X10.19Y6.66
G1X10.23
G1X10.27
G1X10.28Y6.67
M5
G0X9.93Y6.69
M3 S30
; Layer C00
G1Y6.71
G1X9.87Y6.73
G1X9.82
G1Y6.69
G1X9.88Y6.68
G1X9.93
M5
G0X9.88Y6.57
M3 S30
; Layer C00
G1X9.85
G1X9.8Y6.55
G1X9.77Y6.53
G1Y6.5
G1X9.79Y6.48
G1X9.84
G1X9.9
G1X9.91Y6.53
G1Y6.56
G1X9.88Y6.57
M5
G0X9.95Y6.46
M3 S30
; Layer C00
G1X9.89Y6.43
G1X9.86Y6.41
G1Y6.39
G1X9.88Y6.37
G1Y6.34
G1X9.9Y6.33
G1Y6.27
G1X9.91
G1X9.93
G1X9.99Y6.21
G1X10.02
G1Y6.26
G1Y6.34
G1X10.01
G1X9.96Y6.31
G1X9.94Y6.3
G1X9.92Y6.35
G1X9.94Y6.43
G1Y6.46
M5
G0X9.71Y6.41
M3 S30
; Layer C00
G1X9.68
G1X9.65
G1Y6.4
G1X9.63Y6.38
G1X9.61
G1X9.59Y6.37
G1Y6.35
G1X9.57Y6.33
G1X9.5Y6.31
G1Y6.27
G1Y6.25
G1X9.47Y6.24
G1Y6.23
G1X9.53
G1X9.59
G1X9.62Y6.25
G1X9.67
G1X9.72
G1X9.74Y6.28
G1Y6.3
G1X9.71
G1X9.68Y6.29
G1X9.71Y6.31
G1X9.73Y6.34
G1Y6.37
G1X9.71Y6.41
M5
G0X9.6Y6.51
M3 S30
; Layer C00
G1Y6.53
G1X9.58
G1X9.56Y6.54
G1X9.53
G1X9.51Y6.55
G1X9.49
G1Y6.53
G1Y6.51
G1X9.55Y6.48
G1X9.6Y6.51
M5
G0X9.41Y6.59
M3 S30
; Layer C00
G1X9.38Y6.63
G1X9.32Y6.65
G1X9.3
G1Y6.63
G1X9.34Y6.6
G1X9.41Y6.59
M5
G0X9.48Y6.69
M3 S30
; Layer C00
G1X9.49Y6.7
G1Y6.71
G1Y6.73
G1X9.48
G1X9.46
G1Y6.71
G1Y6.7
G1X9.48
M5
G0X9.87Y6.87
M3 S30
; Layer C00
G1X9.89Y6.85
G1X9.94Y6.83
G1Y6.85
G1X9.92Y6.87
G1X9.89
G1X9.87
M5
G0X9.79Y7.01
M3 S30
; Layer C00
G1X9.82Y7.02
G1Y7.06
G1Y7.1
G1X9.79
G1X9.75
G1Y7.06
G1Y7.02
G1X9.79Y7.01
M5
G0X10.06Y7.03
M3 S30
; Layer C00
G1X10.08Y7.05
G1X10.11Y7.09
G1Y7.14
G1Y7.19
G1X10.07Y7.21
G1X10.04
G1X10.05Y7.18
G1X10.07Y7.14
G1Y7.09
G1X10.06Y7.03
M5
G0X9.86Y7.23
M3 S30
; Layer C00
G1X9.84Y7.25
G1X9.8Y7.26
G1X9.78Y7.24
G1Y7.21
G1X9.81
G1X9.86Y7.23
M5
G0X9.8Y7.3
M3 S30
; Layer C00
G1X9.82
G1Y7.32
G1X9.8
G1X9.78
G1X9.77Y7.31
G1Y7.3
G1X9.8
M5
G0X9.86Y7.4
M3 S30
; Layer C00
G1X9.92
G1X9.98Y7.41
G1X10Y7.43
G1X10.06Y7.45
G1X10.04Y7.46
G1X9.98Y7.48
G1X9.91Y7.49
G1X9.81
G1X9.78Y7.47
G1X9.77Y7.43
G1X9.82Y7.42
G1Y7.41
G1X9.86
M5
G0X10.08Y7.46
M3 S30
; Layer C00
G1X10.12Y7.45
G1X10.21Y7.46
G1X10.22Y7.48
G1X10.16
G1X10.1
G1X10.08Y7.46
M5
G0X10.13Y7.63
M3 S30
; Layer C00
G1Y7.67
G1Y7.68
G1X10.15
G1Y7.7
G1X10.11Y7.72
G1X10.08Y7.71
G1Y7.68
G1X10.11Y7.65
G1X10.13Y7.63
M5
G0X9.93Y7.67
M3 S30
; Layer C00
G1X9.91Y7.72
G1X9.9Y7.73
G1X9.87Y7.72
G1X9.85Y7.68
G1X9.89Y7.66
G1X9.93Y7.67
M5
G0X9.69Y7.86
M3 S30
; Layer C00
G1X9.7Y7.9
G1Y7.93
G1X9.69Y7.9
G1Y7.86
M5
G0X9.92Y7.98
M3 S30
; Layer C00
G1X9.95
G1X9.98
G1X10Y8
G1Y8.01
G1X9.96
G1X9.93
G1X9.91Y8
G1X9.92Y7.98
M5
G0X9.93Y8.09
M3 S30
; Layer C00
G1X9.96Y8.1
G1X9.97Y8.12
G1X9.95Y8.13
G1X9.9
G1Y8.09
G1X9.93
M5
G0X9.72Y8.13
M3 S30
; Layer C00
G1X9.74Y8.16
G1Y8.23
G1Y8.3
G1X9.71Y8.24
G1X9.68Y8.19
G1X9.65
G1X9.62Y8.21
G1X9.6Y8.19
G1Y8.15
G1X9.65
G1X9.67
G1Y8.14
G1Y8.12
G1X9.72Y8.13
M5
G0X9.43Y8.17
M3 S30
; Layer C00
G1X9.42Y8.18
G1X9.4
G1X9.38
G1Y8.14
G1X9.42
G1Y8.17
M5
G0X9.42Y8.01
M3 S30
; Layer C00
G1X9.41
G1X9.4Y7.99
G1Y7.97
G1X9.42
G1X9.43Y7.99
G1Y8.01
M5
G0X9.14Y8.01
M3 S30
; Layer C00
G1X9.12Y8.05
G1X9.1
G1Y7.99
G1Y7.93
G1Y7.9
G1X9.12Y7.91
G1X9.14Y7.96
G1Y8.01
M5
G0X8.95Y8
M3 S30
; Layer C00
G1Y8.07
G1X8.93Y8.12
G1X8.92Y8.13
G1X8.9Y8.12
G1Y8.07
G1X8.88Y7.99
G1X8.91Y7.98
G1X8.95Y8
M5
G0X8.94Y8.25
M3 S30
; Layer C00
G1Y8.27
G1X8.95Y8.32
G1Y8.38
G1X8.91Y8.39
G1X8.89Y8.38
G1X8.88Y8.35
G1X8.9Y8.28
G1X8.94Y8.25
M5
G0X9.08Y8.44
M3 S30
; Layer C00
G1Y8.45
G1Y8.49
G1X9.05Y8.52
G1X9.03Y8.54
G1X9.04Y8.51
G1X9.06Y8.47
G1X9.08Y8.44
M5
G0X8.98Y8.57
M3 S30
; Layer C00
G1X8.96Y8.59
G1X8.9Y8.61
G1X8.89Y8.59
G1X8.91Y8.57
G1X8.95
G1X8.98
M5
G0X9.07Y8.75
M3 S30
; Layer C00
G1X9.09Y8.76
G1Y8.79
G1X9.08Y8.83
G1X9.01Y8.9
G1X8.95Y8.91
G1Y8.88
G1X8.94Y8.83
G1Y8.78
G1X8.97
G1X9
G1X9.07Y8.75
M5
G0X9.12Y8.87
M3 S30
; Layer C00
G1Y8.88
G1Y8.9
G1X9.09Y8.91
G1X9.07
G1X9.09Y8.88
G1X9.12
M5
G0X8.93Y9
M3 S30
; Layer C00
G1X8.95Y9.02
G1Y9.07
G1Y9.11
G1X8.93Y9.13
G1X8.9
G1X8.89Y9.09
G1Y9.03
G1X8.93Y9
M5
