; LightBurn 0.9.24
; GRBL device profile, absolute coords
; Bounds: X5 Y1 to X21.59 Y34
G00 G17 G40 G21 G54
G90
M4
; Cut @ 6000 mm/min, 20% power
M8
M5
G0X14.2Y0.95
M3 S30
; Layer C00
G1X14.21Y0.96S20F6000
G1X14.24Y1.01
G1X14.27Y1.08
G1X14.3Y1.19
G1X14.37Y1.46
G1X14.43Y1.77
G1X14.45Y1.94
G1X14.44Y2.04
G1X14.42Y2.06
G1X14.41
G1X14.38Y2.02
G1X14.36Y1.96
G1X14.3Y1.71
G1X14.24Y1.38
G1X14.22Y1.22
G1X14.2Y1.09
G1Y1
G1Y0.95
M5
G0X14.8Y4.43
M3 S30
; Layer C00
G1Y4.46
G1X14.83Y4.52
G1X14.88Y4.6
G1X14.92Y4.61
G1Y4.56
G1X14.87Y4.48
G1X14.83Y4.44
G1X14.8
M5
G0X14.85Y4.76
M3 S30
; Layer C00
G1X14.8
G1X14.75Y4.85
G1X14.73Y4.91
G1Y4.94
G1X14.75Y4.93
G1X14.79Y4.89
G1X14.85Y4.81
G1Y4.76
M5
G0X14.88Y5.77
M3 S30
; Layer C00
G1X14.89Y5.8
G1X14.94Y5.89
G1X14.97Y6
G1X15Y6.17
G1X15.02Y6.38
G1X15.05Y6.83
G1X15.07Y7.01
G1X15.09Y7.13
G1X15.11Y7.17
G1X15.15Y7.23
G1X15.17Y7.37
G1Y7.44
G1X15.18Y7.5
G1X15.2Y7.53
G1X15.21
G1Y7.51
G1X15.22Y7.45
G1Y7.38
G1Y7.28
G1X15.19Y7.03
G1X15.16Y6.74
G1X15.12Y6.43
G1X15.07Y6.17
G1X15.01Y5.96
G1X14.96Y5.85
G1X14.91Y5.79
G1X14.88Y5.77
M5
G0X14.81Y5.75
M3 S30
; Layer C00
G1X14.87Y5.66
G1X14.92Y5.6
G1X14.95Y5.53
G1X14.96Y5.43
G1Y5.3
G1X14.92Y5.02
G1X14.72Y5.2
G1X14.65Y5.28
G1X14.6Y5.35
G1X14.57Y5.4
G1Y5.43
G1X14.58Y5.53
G1X14.53Y5.69
G1X14.46Y5.84
G1X14.38Y5.91
G1X14.34Y5.93
G1X14.36Y5.98
G1Y6.04
G1X14.28Y6.06
G1X14.2Y6.05
G1X14.16Y6.02
G1X14.2Y5.9
G1X14.29Y5.74
G1X14.4Y5.59
G1X14.49Y5.51
G1X14.54Y5.48
G1X14.5Y5.47
G1X14.45Y5.42
G1Y5.32
G1X14.49Y5.21
G1X14.56Y5.17
G1X14.6Y5.15
G1Y5.05
G1Y4.94
G1X14.63Y4.79
G1X14.67Y4.62
G1X14.72Y4.37
G1Y4.13
G1Y3.98
G1X14.7Y3.82
G1X14.67Y3.61
G1X14.62Y3.36
G1X14.5Y2.71
G1X14.43Y2.32
G1X14.41Y2.24
G1Y2.18
G1X14.43Y2.15
G1X14.45
G1X14.49Y2.22
G1X14.53Y2.37
G1X14.58Y2.59
G1X14.63Y2.85
G1X14.67Y3.11
G1X14.72Y3.35
G1X14.76Y3.54
G1X14.79Y3.65
G1X14.83Y3.72
G1X14.85
G1X14.87Y3.66
G1X14.89Y3.52
G1X14.94Y3.43
G1X15.04Y3.4
G1X15.13Y3.43
G1X15.17Y3.51
G1Y3.56
G1X15.15Y3.58
G1X15.14
G1X15.12Y3.55
G1X15.07Y3.49
G1X15.01Y3.46
G1X14.97Y3.48
G1Y3.54
G1Y3.65
G1X14.9Y3.81
G1X14.83Y3.91
G1X14.81Y3.96
G1X14.83Y3.97
G1X14.89Y3.96
G1X14.98
G1X15.04Y4
G1X15.05Y4.02
G1Y4.01
G1Y3.96
G1Y3.89
G1Y3.74
G1X15.1Y3.68
G1X15.15Y3.73
G1X15.17Y3.84
G1Y4
G1X15.12Y4.19
G1X15.1Y4.26
G1X15.07Y4.3
G1X15.04
G1X14.99Y4.25
G1X14.97Y4.29
G1Y4.35
G1Y4.52
G1X14.99Y4.78
G1X15.02Y5.12
G1X15.07Y5.53
G1X15.13Y6
G1X15.29Y7.12
G1X15.36Y7.65
G1X15.39Y7.88
G1X15.43Y8.24
G1X15.46Y8.52
G1X15.48Y8.68
G1X15.5Y8.81
G1X15.53Y8.9
G1Y8.99
G1X15.5Y9.03
G1X15.46Y9
G1X15.42Y8.92
G1X15.37Y8.81
G1X15.33Y8.67
G1X15.26Y8.38
G1X15.2Y8.18
G1X15.18Y8.12
G1Y8.09
G1X15.21
G1X15.26Y8.1
G1X15.29Y8.11
G1Y8.1
G1X15.27Y8.06
G1X15.23Y8.01
G1X15.12Y7.81
G1X15.07Y7.57
G1X15.06Y7.45
G1X15.04Y7.35
G1X15.02Y7.28
G1X14.96Y7.19
G1X14.94Y7.11
G1X14.92Y7.01
G1X14.9Y6.78
G1X14.88Y6.69
G1X14.86Y6.64
G1X14.83
G1X14.81
G1X14.79Y6.6
G1Y6.54
G1X14.81Y6.45
G1Y6.27
G1X14.77Y6.15
G1X14.74Y6.11
G1Y6.08
G1Y6.05
G1X14.77Y6.03
G1X14.82Y5.96
G1X14.81Y5.86
G1Y5.75
M5
G0X14.53Y6.15
M3 S30
; Layer C00
G1X14.62Y6.21
G1Y6.3
G1X14.53Y6.41
G1X14.44Y6.48
G1X14.37Y6.5
G1X14.33Y6.47
G1X14.35Y6.39
G1Y6.35
G1Y6.31
G1X14.32Y6.29
G1X14.28Y6.28
G1X14.2
G1X14.16Y6.26
G1X14.13Y6.24
G1Y6.22
G1X14.21Y6.17
G1X14.36Y6.14
G1X14.53Y6.15
M5
G0X14.15Y6.3
M3 S30
; Layer C00
G1X14.2Y6.35
G1Y6.41
G1X14.13Y6.43
G1X14.04Y6.41
G1X14.01Y6.35
G1X14.03Y6.3
G1X14.08Y6.28
G1X14.15Y6.3
M5
G0X14.13Y6.53
M3 S30
; Layer C00
G1X14.15Y6.55
G1X14.13Y6.62
G1X14.06Y6.77
G1X13.98Y6.91
G1X13.88Y6.99
G1X13.81Y7.01
G1X13.77Y6.95
G1X13.8Y6.9
G1X13.86Y6.87
G1X13.9Y6.85
G1Y6.81
G1X13.87Y6.72
G1X13.9Y6.63
G1X13.96Y6.56
G1X14.05Y6.53
G1X14.13
M5
G0X14.28Y6.58
M3 S30
; Layer C00
G1X14.34Y6.55
G1X14.4Y6.53
G1X14.46Y6.54
G1X14.5Y6.56
G1X14.52Y6.59
G1Y6.64
G1X14.48Y6.73
G1Y6.8
G1X14.43Y6.84
G1X14.33Y6.85
G1X14.27
G1X14.23Y6.81
G1X14.21Y6.76
G1X14.22Y6.69
G1X14.24Y6.63
G1X14.28Y6.58
M5
G0X13.83Y7.12
M3 S30
; Layer C00
G1X13.89Y7.17
G1Y7.22
G1X13.82Y7.24
G1X13.73Y7.22
G1X13.7Y7.17
G1X13.72Y7.12
G1X13.77Y7.1
G1X13.83Y7.12
M5
G0X13.99Y7.5
M3 S30
; Layer C00
G1X13.95Y7.51
G1X13.89Y7.59
G1X13.87Y7.66
G1Y7.68
G1X13.89
G1X13.94Y7.64
G1X13.99Y7.56
G1Y7.5
M5
G0X13.75Y7.65
M3 S30
; Layer C00
G1X13.68Y7.62
G1X13.65Y7.65
G1X13.7Y7.73
G1X13.77Y7.81
G1X13.82Y7.84
G1Y7.81
G1X13.8Y7.73
G1X13.75Y7.65
M5
G0X13.27Y8.31
M3 S30
; Layer C00
G1X13.32Y8.33
G1X13.35Y8.35
G1X13.36Y8.38
G1X13.35Y8.4
G1X13.31Y8.43
G1X13.25Y8.49
G1X13.23Y8.55
G1X13.21Y8.6
G1X13.14Y8.64
G1X13.09Y8.65
G1X13.08
G1X13.09Y8.63
G1X13.14Y8.6
G1X13.21Y8.53
G1X13.24Y8.48
G1X13.23Y8.39
G1Y8.33
G1X13.27Y8.31
M5
G0X13.07Y8.73
M3 S30
; Layer C00
G1X13.13Y8.75
G1X13.15Y8.8
G1X13.13Y8.86
G1X13.07Y8.88
G1X13.02Y8.86
G1X13Y8.8
G1X13.02Y8.75
G1X13.07Y8.73
M5
G0X13.41Y8.88
M3 S30
; Layer C00
G1X13.39Y8.9
G1X13.41Y8.92
G1X13.45Y8.97
G1X13.52Y9.06
G1X13.54Y9.12
G1X13.51Y9.15
G1X13.43Y9.11
G1X13.38Y9.07
G1X13.34Y9.06
G1X13.3
G1X13.27Y9.1
G1Y9.14
G1X13.31Y9.17
G1X13.39
G1X13.51
G1X13.59Y9.2
G1X13.64Y9.29
G1X13.66Y9.4
G1X13.62Y9.47
G1X13.58Y9.53
G1X13.57Y9.65
G1Y9.8
G1X13.59Y9.96
G1X13.62Y10.13
G1X13.67Y10.27
G1X13.72Y10.36
G1X13.77Y10.4
G1X13.83Y10.41
G1X13.86Y10.46
G1X13.88Y10.53
G1Y10.73
G1X13.89Y10.8
G1X13.91Y10.84
G1X13.94
G1X13.99Y10.75
G1X14.01Y10.59
G1X14.02Y10.43
G1X14.06Y10.34
G1X14.08Y10.33
G1X14.03
G1X13.96Y10.3
G1X13.9Y10.21
G1Y10.15
G1Y10.12
G1X13.92Y10.1
G1X13.98Y10.12
G1X13.99
G1Y10.09
G1Y10.06
G1X13.94Y9.99
G1X13.87Y9.97
G1X13.83Y9.96
G1X13.79Y9.91
G1X13.74Y9.84
G1X13.7Y9.75
G1X13.66Y9.62
G1Y9.57
G1X13.67Y9.58
G1X13.79Y9.72
G1X13.83Y9.73
G1Y9.69
G1Y9.57
G1X13.79Y9.39
G1X13.72Y9.26
G1X13.65Y9.17
G1X13.62Y9.09
G1X13.64Y9.05
G1X13.7Y9.06
G1X13.73
G1X13.75Y9.05
G1X13.77Y9
G1Y8.94
G1Y8.85
G1X13.76Y8.82
G1X13.72Y8.84
G1X13.66Y8.92
G1X13.61Y8.97
G1X13.58Y8.99
G1X13.55
G1Y8.97
G1X13.51Y8.9
G1X13.45Y8.88
G1X13.41
M5
G0X13.21Y9.35
M3 S30
; Layer C00
G1X13.22Y9.37
G1Y9.42
G1Y9.51
G1X13.17Y9.58
G1X13.13Y9.64
G1X13.11Y9.72
G1X13.07Y9.78
G1X12.98Y9.83
G1X12.88
G1X12.84Y9.77
G1X12.86Y9.72
G1X12.92Y9.73
G1X12.97
G1X13Y9.66
G1X13.03Y9.54
G1X13.11Y9.42
G1X13.17Y9.37
G1X13.21Y9.35
M5
G0X13.48Y10.09
M3 S30
; Layer C00
G1Y10.12
G1X13.47Y10.17
G1Y10.26
G1X13.51
G1X13.53Y10.21
G1X13.52Y10.12
G1X13.5Y10.09
G1X13.48
M5
G0X13.83Y10.53
M3 S30
; Layer C00
G1X13.77Y10.58
G1X13.72Y10.68
G1X13.7Y10.77
G1X13.72Y10.79
G1X13.77Y10.73
G1X13.83Y10.63
G1X13.85Y10.55
G1X13.83Y10.53
M5
G0X13.58Y10.69
M3 S30
; Layer C00
G1X13.56Y10.7
G1Y10.74
G1Y10.81
G1Y10.87
G1Y10.91
G1X13.58Y10.92
G1X13.59Y10.9
G1X13.61Y10.81
G1X13.59Y10.71
G1X13.58Y10.69
M5
G0X13.95Y11.02
M3 S30
; Layer C00
G1X13.93Y11.04
G1X13.95Y11.19
G1X14.01Y11.37
G1X14.04Y11.44
G1X14.07Y11.5
G1X14.1Y11.53
G1X14.13
G1Y11.5
G1X14.12Y11.42
G1X14.09Y11.32
G1X14.05Y11.21
G1X14.01Y11.11
G1X13.97Y11.04
G1X13.95Y11.02
M5
G0X14.09Y11.02
M3 S30
; Layer C00
G1X14.12Y11.06
G1X14.19Y11.08
G1X14.26Y11.05
G1Y10.98
G1X14.21Y10.92
G1X14.15
G1X14.1Y10.97
G1X14.09Y11.02
M5
G0X13.84Y11.28
M3 S30
; Layer C00
G1X13.81Y11.27
G1X13.8Y11.31
G1Y11.39
G1Y11.49
G1X13.82Y11.62
G1X13.85Y11.76
G1X13.88Y11.84
G1X13.92Y11.87
G1X13.96Y11.85
G1X13.99Y11.8
G1X14Y11.75
G1X13.99Y11.69
G1X13.95Y11.62
G1X13.88Y11.48
G1X13.85Y11.35
G1X13.84Y11.28
M5
G0X14.42Y11.72
M3 S30
; Layer C00
G1X14.48Y11.7
G1X14.53Y11.73
G1X14.52Y11.9
G1X14.56Y11.96
G1X14.61Y12.04
G1X14.6Y12.25
G1X14.64Y12.29
G1X14.69Y12.33
G1Y12.44
G1X14.67Y12.54
G1X14.7Y12.59
G1X14.75Y12.65
G1X14.8Y12.78
G1X14.84Y12.93
G1Y13.01
G1X14.79
G1X14.72Y12.97
G1X14.65Y12.91
G1X14.64Y12.84
G1Y12.76
G1X14.48Y12.2
G1X14.4Y11.78
G1X14.42Y11.72
M5
G0X14.05Y12.17
M3 S30
; Layer C00
G1X13.97Y12.19
G1X13.89Y12.25
G1X13.85Y12.34
G1X13.83Y12.41
G1X13.78Y12.44
G1X13.74Y12.39
G1X13.73Y12.27
G1X13.71Y12.15
G1X13.64Y12.11
G1X13.59Y12.09
G1X13.52Y12.04
G1X13.44Y11.97
G1X13.27Y11.8
G1X13.21Y11.76
G1X13.17Y11.74
G1X13.15Y11.76
G1Y11.81
G1X13.13Y11.83
G1X13.09Y11.81
G1X12.96Y11.71
G1X12.93
G1X12.94Y11.75
G1X13Y11.85
G1X13.04Y11.92
G1X13.08Y11.96
G1X13.11
G1X13.13Y11.93
G1X13.16Y11.9
G1X13.2
G1X13.26Y11.92
G1X13.31Y11.96
G1X13.42Y12.07
G1X13.46Y12.2
G1Y12.25
G1X13.49Y12.27
G1X13.52Y12.26
G1X13.62Y12.19
G1X13.65
G1X13.66Y12.2
G1Y12.25
G1Y12.32
G1X13.61
G1X13.56
G1X13.54Y12.35
G1X13.58Y12.42
G1X13.72Y12.5
G1X13.75Y12.54
G1Y12.6
G1Y12.66
G1Y12.77
G1X13.78Y12.81
G1X13.83Y12.78
G1X13.85Y12.72
G1Y12.68
G1X13.87
G1X13.9Y12.69
G1X13.97Y12.79
G1X13.99Y12.8
G1X14Y12.78
G1Y12.72
G1X13.98Y12.63
G1X13.93Y12.59
G1X13.87Y12.57
G1X13.86Y12.51
G1X13.89Y12.43
G1X13.97Y12.34
G1X14.05Y12.25
G1X14.08Y12.19
G1X14.05Y12.17
M5
G0X13.4Y12.26
M3 S30
; Layer C00
G1X13.37Y12.19
G1X13.31
G1X13.2Y12.26
G1X13.11Y12.34
G1X13.07Y12.4
G1X13.08Y12.45
G1X13.14Y12.53
G1X13.24Y12.62
G1X13.28Y12.66
G1Y12.62
G1X13.23Y12.52
G1X13.2Y12.43
G1Y12.35
G1X13.24Y12.31
G1X13.32Y12.29
G1X13.36Y12.31
G1X13.34Y12.37
G1Y12.46
G1X13.39Y12.55
G1X13.49Y12.63
G1X13.61Y12.66
G1X13.66
G1X13.67Y12.64
G1X13.65Y12.62
G1X13.58Y12.59
G1X13.47Y12.52
G1X13.42Y12.43
G1X13.4Y12.26
M5
G0X13.15Y12.18
M3 S30
; Layer C00
G1X13.2Y12.12
G1Y12.09
G1X13.19
G1X13.12Y12.11
G1X13.07Y12.12
G1X13.03
G1X13.01Y12.1
G1X12.98Y12.01
G1X12.96
G1Y12.16
G1X13.03Y12.29
G1X13.08Y12.26
G1X13.15Y12.18
M5
G0X12.74Y11.97
M3 S30
; Layer C00
G1X12.69Y11.98
G1X12.7Y11.96
G1Y11.89
G1X12.64Y11.81
G1X12.57Y11.76
G1X12.55Y11.74
G1X12.57Y11.72
G1X12.63
G1X12.73Y11.75
G1X12.79Y11.82
G1Y11.9
G1X12.74Y11.97
M5
G0X12.25Y12.11
M3 S30
; Layer C00
G1X12.28Y12.21
G1X12.26Y12.27
G1X12.24
G1X12.19Y12.23
G1X12.14Y12.16
G1X12.07Y12.06
G1X12.01Y11.96
G1X11.97Y11.87
G1X11.95Y11.8
G1Y11.76
G1X11.96Y11.71
G1X11.92Y11.7
G1X11.85Y11.65
G1X11.8Y11.53
G1Y11.39
G1X11.84Y11.29
G1X11.88Y11.26
G1X11.9
G1Y11.28
G1Y11.33
G1Y11.43
G1X12.03Y11.64
G1Y11.74
G1Y11.82
G1X12.07Y11.85
G1X12.11Y11.87
G1X12.09Y11.97
G1X12.19Y12.03
G1X12.25Y12.11
M5
G0X12.02Y12.23
M3 S30
; Layer C00
G1X12.04Y12.26
G1Y12.31
G1X12.01Y12.43
G1Y12.48
G1Y12.49
G1X12.04
G1X12.08
G1X12.12Y12.53
G1X12.16Y12.61
G1X12.2Y12.7
G1X12.23Y12.8
G1X12.25Y12.88
G1X12.26Y12.94
G1Y12.96
G1X12.24Y12.93
G1X12.18Y12.85
G1X12.09Y12.73
G1X12Y12.58
G1X11.92Y12.46
G1X11.86Y12.35
G1X11.82Y12.26
G1X11.8Y12.19
G1Y12.14
G1X11.82Y12.1
G1X11.86Y12.08
G1X11.92Y12.07
G1X11.96Y12.09
G1X11.95Y12.14
G1X11.94Y12.19
G1X11.99Y12.22
G1X12.02
M5
G0X12.41Y11.47
M3 S30
; Layer C00
G1X12.44Y11.45
G1X12.48Y11.38
G1Y11.31
G1X12.41Y11.28
G1X12.35Y11.31
G1Y11.38
G1X12.39Y11.45
G1X12.41Y11.47
M5
G0X12.73Y11.34
M3 S30
; Layer C00
G1X12.83Y11.45
G1X12.91Y11.53
G1X12.97Y11.56
G1X13Y11.52
G1X12.98Y11.5
G1X12.94Y11.45
G1X12.87Y11.39
G1X12.79Y11.32
G1X12.58Y11.14
G1X12.73Y11.34
M5
G0X13.58Y12.96
M3 S30
; Layer C00
G1X13.61Y12.98
G1Y13.03
G1X13.59Y13.08
G1X13.54Y13.11
G1X13.49Y13.08
G1X13.5Y13.03
G1X13.55Y12.98
G1X13.58Y12.96
M5
G0X13.89Y12.96
M3 S30
; Layer C00
G1X13.95Y13.01
G1X14.02Y13.03
G1X14.06Y13.01
G1X14.05Y12.96
G1X13.99Y12.91
G1X13.92Y12.88
G1X13.88Y12.91
G1Y12.96
M5
G0X13.74Y13.33
M3 S30
; Layer C00
G1X13.7Y13.35
G1X13.66Y13.4
G1X13.65Y13.46
G1X13.69Y13.48
G1X13.75Y13.46
G1X13.77Y13.4
G1Y13.35
G1X13.74Y13.33
M5
G0X14.12Y13.58
M3 S30
; Layer C00
G1X14.08Y13.6
G1X14.05Y13.65
G1Y13.71
G1Y13.8
G1X14.09Y13.91
G1X14.13Y14
G1X14.15Y14.07
G1X14.18Y14.11
G1X14.19Y14.13
G1X14.23Y14.11
G1X14.26Y14
G1X14.27Y13.9
G1X14.23Y13.89
G1X14.21
G1X14.18Y13.86
G1X14.17Y13.8
G1X14.16Y13.64
G1X14.14Y13.59
G1X14.12Y13.58
M5
G0X14.4Y13.51
M3 S30
; Layer C00
G1X14.42Y13.59
G1X14.47Y13.63
G1X14.51Y13.59
G1Y13.51
G1X14.46Y13.44
G1X14.43Y13.4
G1X14.4Y13.44
G1Y13.51
M5
G0X14.81Y13.48
M3 S30
; Layer C00
G1X14.75Y13.3
G1X14.73Y13.19
G1Y13.14
G1X14.76
G1X14.82Y13.21
G1X14.9Y13.31
G1Y13.4
G1Y13.45
G1X14.95Y13.49
G1X15Y13.54
G1Y13.62
G1X14.99Y13.66
G1X14.96Y13.68
G1X14.93Y13.66
G1X14.89Y13.62
G1X14.81Y13.48
M5
G0X14.93Y13.78
M3 S30
; Layer C00
G1X14.97
G1X15.01Y13.81
G1X15.04Y13.86
G1X15.1Y14.01
G1X15.12Y14.21
G1X15.13Y14.32
G1X15.15Y14.41
G1X15.17Y14.46
G1X15.19
G1X15.23
G1X15.25Y14.51
G1X15.21Y14.57
G1X15.12Y14.59
G1X15.07
G1X15.04Y14.55
G1Y14.49
G1Y14.41
G1X15.06Y14.33
G1Y14.27
G1X15.04Y14.23
G1X15.01Y14.22
G1X14.96Y14.19
G1Y14.02
G1X14.92Y13.93
G1X14.87Y13.86
G1X14.89Y13.8
G1X14.93Y13.78
M5
G0X14.54Y13.88
M3 S30
; Layer C00
G1X14.49Y13.89
G1X14.44Y13.98
G1X14.42Y14.04
G1Y14.06
G1X14.44
G1X14.48Y14.02
G1X14.54Y13.94
G1Y13.88
M5
G0X14.48Y14.15
M3 S30
; Layer C00
G1Y14.18
G1X14.54Y14.37
G1X14.56Y14.47
G1X14.58Y14.49
G1X14.61Y14.42
G1Y14.29
G1X14.55Y14.19
G1X14.5Y14.16
G1X14.48
M5
G0X14.58Y14.62
M3 S30
; Layer C00
G1X14.55
G1X14.5Y14.69
G1X14.47Y14.78
G1X14.5Y14.86
G1X14.55Y14.89
G1X14.61Y14.84
G1X14.63Y14.73
G1Y14.68
G1X14.61Y14.64
G1X14.58Y14.62
M5
G0X14.81Y14.77
M3 S30
; Layer C00
G1X14.78Y14.81
G1X14.81Y14.86
G1X14.86Y14.89
G1X14.92Y14.88
G1X14.94Y14.85
G1X14.92Y14.82
G1X14.86Y14.78
G1X14.81Y14.77
M5
G0X14Y15.02
M3 S30
; Layer C00
G1Y15.07
G1X13.94
G1X13.85Y15.04
G1X13.79Y14.97
G1Y14.92
G1X13.86Y14.9
G1X13.94Y14.95
G1X14Y15.02
M5
G0X13.14Y14.97
M3 S30
; Layer C00
G1Y15.05
G1X13.12Y15.09
G1X13.1Y15.1
G1X13.07Y15.09
G1X13.04Y15.05
G1X13.01Y14.97
G1X13.03Y14.91
G1X13.08Y14.89
G1X13.12Y14.91
G1X13.14Y14.97
M5
G0X13Y14.81
M3 S30
; Layer C00
G1X12.94Y14.79
G1X12.92Y14.74
G1X12.94Y14.69
G1X13Y14.67
G1X13.05Y14.69
G1X13.07Y14.74
G1X13.05Y14.79
G1X13Y14.81
M5
G0X12.92Y14.59
M3 S30
; Layer C00
G1X12.86Y14.57
G1X12.84Y14.52
G1X12.86Y14.46
G1X12.92Y14.44
G1X12.97Y14.46
G1X13Y14.52
G1X12.97Y14.57
G1X12.92Y14.59
M5
G0X12.81Y14.2
M3 S30
; Layer C00
G1X12.79
G1X12.75Y14.14
G1X12.7Y14.06
G1X12.65Y13.95
G1X12.6Y13.84
G1X12.57Y13.73
G1X12.55Y13.65
G1Y13.6
G1X12.57
G1X12.61Y13.64
G1X12.66Y13.73
G1X12.71Y13.84
G1X12.76Y13.97
G1X12.8Y14.08
G1X12.81Y14.16
G1Y14.2
M5
G0X13.14Y15.18
M3 S30
; Layer C00
G1X13.18Y15.21
G1X13.22Y15.28
G1X13.26Y15.37
G1X13.3Y15.49
G1X13.33Y15.6
G1X13.36Y15.71
G1Y15.79
G1Y15.83
G1X13.31
G1X13.28Y15.77
G1X13.16Y15.43
G1X13.14Y15.33
G1X13.12Y15.26
G1Y15.2
G1X13.14Y15.18
M5
G0X13.38Y15.93
M3 S30
; Layer C00
G1X13.44Y15.95
G1X13.46Y16
G1Y16.05
G1X13.43Y16.07
G1X13.39Y16.05
G1X13.35Y16
G1X13.34Y15.95
G1X13.38Y15.93
M5
G0X13.4Y16.19
M3 S30
; Layer C00
G1X13.48
G1X13.53Y16.28
G1Y16.42
G1X13.51Y16.54
G1X13.44Y16.6
G1X13.41
G1X13.4Y16.61
G1X13.41Y16.63
G1X13.46Y16.66
G1X13.51Y16.71
G1X13.53Y16.76
G1Y16.82
G1X13.48Y16.91
G1X13.44Y17.07
G1X13.47Y17.17
G1X13.49Y17.21
G1Y17.28
G1X13.47Y17.36
G1X13.34Y17.63
G1X13.31Y17.76
G1X13.29Y17.83
G1X13.24Y17.85
G1X13.18Y17.83
G1X13.13Y17.75
G1Y17.66
G1X13.17Y17.57
G1X13.25Y17.41
G1X13.28Y17.17
G1Y16.92
G1X13.21Y16.76
G1X13.17Y16.7
G1Y16.66
G1X13.19Y16.62
G1X13.32Y16.54
G1X13.35Y16.5
G1X13.34Y16.46
G1X13.25Y16.34
G1Y16.3
G1Y16.26
G1X13.31Y16.22
G1X13.4Y16.19
M5
G0X13.8Y16.2
M3 S30
; Layer C00
G1X13.85Y16.22
G1X13.9Y16.2
G1X13.93Y16.15
G1X13.92Y16.1
G1X13.89Y16.07
G1X13.86Y16.1
G1X13.81Y16.15
G1Y16.2
M5
G0X14.26Y16.27
M3 S30
; Layer C00
G1X14.25Y16.35
G1X14.28Y16.34
G1X14.31Y16.3
G1X14.35Y16.23
G1X14.46Y16.04
G1X14.49Y16.23
G1X14.51Y16.31
G1X14.52Y16.33
G1X14.53Y16.28
G1Y16.17
G1Y16.07
G1Y16
G1X14.51Y15.96
G1X14.49Y15.94
G1X14.45
G1X14.42Y15.97
G1X14.38Y16.03
G1X14.33Y16.12
G1X14.26Y16.27
M5
G0X14.7Y16.07
M3 S30
; Layer C00
G1X14.82Y16.22
G1Y16.17
G1X14.77Y16.04
G1X14.7Y15.92
G1X14.65Y15.88
G1X14.7Y16.07
M5
G0X14.9Y15.83
M3 S30
; Layer C00
G1X14.97Y15.85
G1X15.06
G1X15.09Y15.82
G1X15.07Y15.77
G1X15.01Y15.74
G1X14.95
G1X14.9Y15.78
G1Y15.83
M5
G0X15.43Y16.2
M3 S30
; Layer C00
G1X15.35Y16.29
G1X15.3Y16.37
G1Y16.4
G1X15.31Y16.41
G1X15.36Y16.4
G1X15.45Y16.34
G1X15.51Y16.25
G1X15.53Y16.17
G1X15.5Y16.15
G1X15.43Y16.2
M5
G0X15.62Y16.3
M3 S30
; Layer C00
G1X15.56Y16.38
G1X15.29Y16.69
G1X15.46Y16.6
G1X15.59Y16.51
G1X15.64Y16.39
G1Y16.32
G1X15.62Y16.3
M5
G0X15.09Y16.56
M3 S30
; Layer C00
G1X15.04Y16.55
G1X15.02Y16.6
G1X15.06Y16.67
G1X15.12Y16.72
G1X15.19Y16.74
G1X15.21
G1X15.22Y16.71
G1X15.21Y16.68
G1X15.17Y16.63
G1X15.09Y16.56
M5
G0X15.03Y16.85
M3 S30
; Layer C00
G1X14.99Y16.88
G1Y16.92
G1X15.06Y16.94
G1X15.14
G1X15.17Y16.92
G1X15.15Y16.88
G1X15.09Y16.86
G1X15.03
M5
G0X14.43Y17.14
M3 S30
; Layer C00
G1X14.42
G1X14.41Y17.17
G1Y17.22
G1Y17.31
G1X14.44
G1X14.46Y17.26
G1X14.45Y17.17
G1X14.43Y17.14
M5
G0X14.65Y17.45
M3 S30
; Layer C00
G1X14.71
G1X14.76Y17.5
G1X14.78Y17.56
G1X14.76Y17.61
G1X14.71Y17.63
G1X14.65Y17.6
G1X14.63Y17.52
G1X14.65Y17.45
M5
G0X14.83Y17.73
M3 S30
; Layer C00
G1X14.84Y17.74
G1Y17.78
G1X14.8Y17.93
G1Y17.97
G1X14.82Y17.98
G1X14.85
G1X14.91Y17.96
G1X14.94Y18
G1X14.92Y18.06
G1X14.87Y18.11
G1X14.81Y18.12
G1X14.76Y18.1
G1X14.71Y18.02
G1Y17.91
G1X14.74Y17.81
G1X14.79Y17.74
G1X14.83Y17.73
M5
G0X14.62Y17.73
M3 S30
; Layer C00
G1Y17.76
G1X14.6Y17.82
G1Y17.97
G1X14.67Y18.13
G1X14.72Y18.2
G1X14.78Y18.24
G1X14.84Y18.25
G1X14.89Y18.24
G1X14.95Y18.21
G1X15.06Y18.18
G1X15.2Y18.16
G1X15.35Y18.14
G1X15.61Y18.11
G1X15.81Y18.07
G1X15.86Y18.05
G1X15.88Y18.03
G1X15.86Y18.01
G1X15.77
G1X15.68Y17.98
G1X15.64Y17.93
G1X15.66Y17.88
G1X15.77Y17.83
G1X15.79Y17.78
G1X15.76Y17.73
G1X15.67Y17.71
G1X15.61
G1X15.58Y17.69
G1X15.6Y17.65
G1X15.64Y17.59
G1X15.69Y17.5
G1Y17.43
G1X15.65
G1X15.64Y17.47
G1X15.61Y17.5
G1X15.53Y17.53
G1X15.41Y17.55
G1X15.26Y17.57
G1X14.88Y17.6
G1X14.91Y17.34
G1X14.93Y17.22
G1Y17.16
G1X14.91Y17.15
G1X14.87Y17.19
G1X14.83Y17.24
G1X14.8Y17.26
G1X14.79Y17.23
G1Y17.16
G1X14.76Y17.08
G1X14.71
G1X14.65
G1X14.63Y17.04
G1X14.6Y16.99
G1X14.55Y16.97
G1X14.52
G1X14.51Y17
G1Y17.05
G1X14.55Y17.12
G1X14.6Y17.24
G1X14.59Y17.34
G1X14.54Y17.45
G1X14.5Y17.6
G1Y17.69
G1Y17.74
G1X14.52Y17.75
G1X14.56Y17.74
G1X14.6Y17.72
G1X14.62
M5
G0X14.05Y17.62
M3 S30
; Layer C00
G1X14.07Y17.57
G1X14.02Y17.59
G1X13.94
G1X13.86Y17.5
G1X13.8Y17.43
G1X13.78Y17.45
G1X13.86Y17.6
G1X13.98Y17.71
G1X14.01Y17.68
G1X14.05Y17.62
M5
G0X13.59Y17.09
M3 S30
; Layer C00
G1X13.54Y17.11
G1X13.49Y17.09
G1X13.5Y17.04
G1X13.55Y16.99
G1X13.58Y16.97
G1X13.61Y16.99
G1Y17.04
G1X13.59Y17.09
M5
G0X12.96Y17.72
M3 S30
; Layer C00
G1X12.9
G1X12.82Y17.77
G1X12.78Y17.82
G1Y17.84
G1X12.8
G1X12.86Y17.81
G1X12.95Y17.77
G1Y17.72
M5
G0X14.34Y18.77
M3 S30
; Layer C00
G1Y18.84
G1X14.41Y18.96
G1X14.49Y19.06
G1X14.53Y19.08
G1Y19.02
G1X14.47Y18.89
G1X14.4Y18.79
G1X14.34Y18.77
M5
G0X14.6Y18.72
M3 S30
; Layer C00
G1Y18.83
G1X14.64Y18.92
G1X14.66Y18.95
G1X14.68Y18.93
G1X14.71Y18.85
G1X14.74Y18.73
G1X14.73Y18.65
G1X14.68Y18.61
G1X14.63Y18.64
G1X14.6Y18.72
M5
G0X14.71Y19.05
M3 S30
; Layer C00
G1Y19.08
G1X14.77Y19.26
G1X14.79Y19.36
G1X14.81Y19.39
G1X14.84Y19.31
G1Y19.19
G1X14.78Y19.09
G1X14.74Y19.06
G1X14.71
M5
G0X14.68Y19.35
M3 S30
; Layer C00
G1X14.66Y19.37
G1X14.59Y19.45
G1X14.51Y19.57
G1X14.47Y19.66
G1X14.48Y19.71
G1X14.5Y19.7
G1X14.55Y19.62
G1X14.62Y19.49
G1X14.67Y19.39
G1X14.68Y19.35
M5
G0X14.83Y19.56
M3 S30
; Layer C00
G1X14.72Y19.59
G1X14.66Y19.68
G1Y19.76
G1X14.67Y19.85
G1X14.7Y19.97
G1X14.74Y20.12
G1X14.8Y20.3
G1X14.87Y20.43
G1X14.93Y20.5
G1X14.99Y20.53
G1X15.04
G1X15.07Y20.51
G1Y20.48
G1X15.03Y20.43
G1X14.97Y20.33
G1X14.93Y20.19
G1X14.89Y20.08
G1X14.85Y20.01
G1X14.79Y19.92
G1X14.75Y19.79
G1X14.73Y19.69
G1X14.77Y19.67
G1X14.84
G1X14.9Y19.64
G1Y19.58
G1X14.83Y19.56
M5
G0X15.24Y19.97
M3 S30
; Layer C00
G1X15.21
G1X15.3Y20.03
G1X15.33Y20.1
G1X15.29Y20.14
G1X15.2Y20.13
G1X15.14Y20.11
G1X15.11
G1X15.13Y20.14
G1X15.17Y20.2
G1X15.23Y20.26
G1X15.27Y20.28
G1X15.3Y20.26
G1X15.34Y20.2
G1X15.43Y20.1
G1X15.53Y20.02
G1X15.57Y19.99
G1Y19.97
G1X15.5
G1X15.39Y19.96
G1X15.3
G1X15.24
M5
G0X15.68Y19.86
M3 S30
; Layer C00
G1X15.73Y19.91
G1X15.8Y19.93
G1X15.85
G1Y19.88
G1X15.87Y19.77
G1X15.94Y19.65
G1X16.04Y19.55
G1X16.13Y19.52
G1X16.18
G1X16.16Y19.51
G1X16.13Y19.46
G1X16.15Y19.41
G1X16.2Y19.36
G1X16.26Y19.34
G1X16.32Y19.39
G1X16.34Y19.5
G1X16.35Y19.6
G1X16.39Y19.62
G1X16.4Y19.56
G1Y19.45
G1Y19.31
G1X16.38Y19.15
G1X16.35Y19
G1X16.32Y18.87
G1X16.29Y18.78
G1X16.25Y18.75
G1X16.23Y18.76
G1X16.2Y18.81
G1X16.19Y18.88
G1X16.18Y19.06
G1X16.16Y19.12
G1X16.14Y19.16
G1X16.11
G1X16.05
G1X15.99Y19.25
G1X15.96Y19.31
G1X15.94Y19.33
G1X15.91Y19.32
G1X15.87Y19.26
G1X15.82Y19.21
G1X15.79Y19.23
G1X15.81Y19.32
G1X15.86Y19.37
G1X15.92
G1X16.08Y19.29
G1X16.1Y19.32
G1X16.07Y19.4
G1X15.99Y19.49
G1X15.92Y19.53
G1X15.86
G1X15.8Y19.49
G1X15.71Y19.4
G1X15.55Y19.23
G1X15.67Y19.41
G1X15.72Y19.5
G1X15.74Y19.57
G1Y19.63
G1X15.71Y19.68
G1X15.66Y19.77
G1X15.68Y19.86
M5
G0X16.28Y20.18
M3 S30
; Layer C00
G1Y20.21
G1X16.27Y20.26
G1Y20.35
G1X16.31
G1X16.33Y20.3
G1X16.31Y20.22
G1X16.3Y20.19
G1X16.28
M5
G0X16.24Y20.7
M3 S30
; Layer C00
G1X16.22
G1X16.19Y20.75
G1X16.15Y20.84
G1Y20.91
G1X16.2Y20.96
G1X16.23
G1X16.25Y20.91
G1Y20.81
G1Y20.73
G1Y20.7
M5
G0X15.53Y20.62
M3 S30
; Layer C00
G1X15.5Y20.57
G1X15.45
G1X15.43Y20.64
G1Y20.71
G1X15.45Y20.74
G1X15.48
G1X15.52Y20.68
G1X15.53Y20.62
M5
G0X15.22Y20.62
M3 S30
; Layer C00
G1X15.24Y20.53
G1X15.22Y20.43
G1X15.21Y20.41
G1X15.2Y20.42
G1X15.19Y20.46
G1Y20.53
G1Y20.59
G1Y20.63
G1X15.21Y20.64
G1X15.22Y20.62
M5
G0X15.11Y20.93
M3 S30
; Layer C00
G1Y20.99
G1X15.12Y21.08
G1X15.16Y21.16
G1X15.2Y21.19
G1X15.21Y21.15
G1X15.19Y21.04
G1X15.15Y20.95
G1X15.11Y20.93
M5
G0X14.75Y20.52
M3 S30
; Layer C00
G1Y20.49
G1X14.73Y20.41
G1X14.69Y20.34
G1X14.65
G1X14.64Y20.38
G1X14.66Y20.45
G1X14.71Y20.51
G1X14.75Y20.52
M5
G0X15.34Y21.46
M3 S30
; Layer C00
G1X15.39
G1Y21.51
G1X15.34Y21.59
G1X15.29Y21.62
G1X15.27Y21.63
G1Y21.61
G1X15.29Y21.54
G1X15.34Y21.46
M5
G0X15.22Y21.46
M3 S30
; Layer C00
G1Y21.57
G1X15.2Y21.63
G1Y21.68
G1X15.22Y21.7
G1X15.31Y21.73
G1Y21.76
G1Y21.82
G1X15.35Y21.9
G1X15.43Y21.97
G1X15.47
G1Y21.91
G1X15.41Y21.79
G1X15.37Y21.71
G1Y21.65
G1X15.42Y21.63
G1X15.51
G1X15.52Y21.59
G1X15.48Y21.49
G1X15.44Y21.4
G1Y21.33
G1X15.46Y21.25
G1X15.61Y21
G1X15.63Y20.9
G1X15.59Y20.85
G1X15.48Y20.86
G1X15.42Y20.87
G1X15.37
G1X15.34Y20.85
G1X15.31Y20.77
G1X15.28
G1Y20.84
G1X15.33Y20.93
G1X15.38Y21.07
G1Y21.24
G1X15.34Y21.33
G1X15.31Y21.38
G1X15.27
G1X15.21Y21.34
G1X15.16Y21.3
G1X15.12
G1X15.1
G1Y21.33
G1X15.12Y21.39
G1X15.18Y21.42
G1X15.22Y21.46
M5
G0X15.62Y21.81
M3 S30
; Layer C00
G1X15.6Y21.87
G1X15.56Y21.95
G1X15.46Y22.05
G1X15.38Y22.1
G1X15.36Y22.14
G1X15.38Y22.16
G1X15.46Y22.17
G1X15.61Y22.2
G1X15.74
G1X15.82Y22.19
G1Y22.15
G1Y22.05
G1X15.87Y21.87
G1X15.9Y21.76
G1Y21.69
G1Y21.68
G1X15.76Y21.76
G1X15.68Y21.78
G1X15.62Y21.81
M5
G0X15.98Y21.83
M3 S30
; Layer C00
G1Y21.84
G1X16Y21.85
G1X16.06
G1X16.15
G1X16.16Y21.82
G1X16.1Y21.8
G1X16.01Y21.81
G1X15.98Y21.83
M5
G0X16.03Y22.01
M3 S30
; Layer C00
G1X15.96Y22.03
G1X15.92Y22.08
G1X15.91Y22.13
G1X15.95Y22.17
G1X15.97Y22.24
G1X15.91Y22.36
G1X15.8Y22.48
G1X15.7Y22.53
G1X15.67
G1Y22.5
G1X15.68Y22.46
G1X15.72Y22.42
G1X15.77Y22.32
G1Y22.26
G1X15.72Y22.23
G1X15.68Y22.25
G1X15.65Y22.31
G1X15.63Y22.42
G1X15.58Y22.54
G1X15.52Y22.62
G1X15.5Y22.65
G1X15.49Y22.66
G1X15.5Y22.67
G1X15.54
G1X15.66Y22.63
G1X15.83Y22.51
G1X15.96Y22.36
G1X16.05Y22.2
G1X16.08Y22.13
G1Y22.07
G1X16.06Y22.03
G1X16.03Y22.01
M5
G0X17.5Y22.68
M3 S30
; Layer C00
G1X17.55Y22.71
G1X17.6Y22.78
G1X17.64Y22.88
G1X17.66Y22.98
G1X17.63Y23.03
G1X17.58Y23.05
G1X17.53Y23.04
G1X17.5Y22.99
G1X17.49Y22.92
G1X17.47Y22.81
G1Y22.72
G1X17.5Y22.68
M5
G0X17.3Y23.56
M3 S30
; Layer C00
G1X17.27Y23.6
G1X17.29Y23.69
G1X17.33Y23.76
G1X17.39Y23.82
G1X17.46Y23.84
G1X17.51
G1X17.53Y23.81
G1Y23.77
G1X17.5Y23.71
G1X17.43Y23.63
G1X17.36Y23.58
G1X17.3Y23.56
M5
G0X17.99Y24.03
M3 S30
; Layer C00
G1X18.04Y24.01
G1X18.12Y24.07
G1X18.22Y24.19
G1X18.32Y24.34
G1X18.38Y24.47
G1X18.42Y24.57
G1X18.51Y24.66
G1X18.57Y24.71
G1X18.59Y24.75
G1X18.57Y24.79
G1X18.52Y24.84
G1X18.48Y24.88
G1X18.46
G1Y24.86
G1X18.48Y24.79
G1X18.44Y24.74
G1X18.38Y24.69
G1X18.34Y24.61
G1X18.32Y24.54
G1X18.28Y24.46
G1X18.2Y24.36
G1X18.07Y24.21
G1X18Y24.12
G1X17.97Y24.06
G1X17.99Y24.03
M5
G0X17.99Y24.25
M3 S30
; Layer C00
G1X18.06Y24.3
G1X18.11Y24.37
G1Y24.42
G1X18.07Y24.43
G1X18.02Y24.41
G1X17.98Y24.35
G1X17.97Y24.28
G1X17.99Y24.25
M5
G0X16.86Y24.57
M3 S30
; Layer C00
G1X16.85Y24.66
G1X16.8Y24.82
G1X16.75Y25
G1X16.71Y25.12
G1X16.65Y25.19
G1X16.59Y25.21
G1X16.57Y25.15
G1X16.6Y24.99
G1X16.67Y24.79
G1X16.72Y24.69
G1X16.76Y24.61
G1X16.8Y24.55
G1X16.82Y24.53
G1X16.86Y24.57
M5
G0X16.58Y25.27
M3 S30
; Layer C00
G1X16.62Y25.3
G1X16.64Y25.36
G1Y25.43
G1X16.61Y25.48
G1X16.59Y25.49
G1X16.57Y25.48
G1X16.54Y25.43
G1X16.51Y25.35
G1X16.52Y25.3
G1X16.58Y25.27
M5
G0X16.49Y25.57
M3 S30
; Layer C00
G1X16.55Y25.62
G1X16.57Y25.72
G1X16.55Y25.83
G1X16.49Y25.87
G1X16.44Y25.83
G1X16.42Y25.72
G1X16.44Y25.62
G1X16.49Y25.57
M5
G0X16.97Y25.53
M3 S30
; Layer C00
G1Y25.62
G1X17.01
G1X17.03Y25.57
G1X17.01Y25.48
G1X17Y25.45
G1X16.98
G1Y25.48
G1X16.97Y25.53
M5
G0X17.14Y25.73
M3 S30
; Layer C00
G1X17.12Y25.75
G1X17.1Y25.93
G1X17.07Y26.09
G1X17.02Y26.28
G1X17.15Y26.11
G1X17.21Y26.03
G1X17.23Y25.95
G1Y25.88
G1X17.2Y25.81
G1X17.16Y25.76
G1X17.14Y25.73
M5
G0X16.92Y25.93
M3 S30
; Layer C00
G1X16.91
G1Y25.98
G1X16.9Y26.06
G1Y26.13
G1Y26.19
G1X16.92Y26.2
G1X16.93Y26.19
G1X16.95Y26.08
G1X16.94Y25.96
G1X16.92Y25.93
M5
G0X16.47Y25.97
M3 S30
; Layer C00
G1X16.49Y26.03
G1X16.47Y26.12
G1X16.38Y26.31
G1Y26.35
G1Y26.38
G1X16.41
G1X16.48Y26.41
G1Y26.47
G1X16.45Y26.56
G1X16.25Y26.8
G1X16.2Y26.91
G1X16.16Y27
G1X16.1Y27.04
G1X16.06Y27.08
G1Y27.14
G1X16.09Y27.19
G1X16.07Y27.21
G1X16.03Y27.19
G1X15.99Y27.14
G1Y27.06
G1X16.06Y26.96
G1X16.12Y26.9
G1X16.14Y26.85
G1X16.12Y26.81
G1X16.07Y26.76
G1X16.02Y26.71
G1Y26.65
G1X16.05Y26.58
G1X16.15Y26.48
G1X16.28Y26.29
G1X16.34Y26.11
G1X16.36Y25.99
G1X16.42Y25.94
G1X16.47Y25.97
M5
G0X15.95Y26.76
M3 S30
; Layer C00
G1X16.01Y26.78
G1Y26.84
G1X15.96Y26.93
G1X15.85Y27.04
G1X15.72Y27.15
G1X15.63Y27.2
G1X15.58
G1X15.56Y27.14
G1X15.59Y27.06
G1X15.67Y26.99
G1X15.75Y26.95
G1X15.82
G1X15.86
G1X15.87Y26.88
G1X15.89Y26.8
G1X15.95Y26.76
M5
G0X15.22Y26.62
M3 S30
; Layer C00
G1X15.1Y26.78
G1X14.88Y26.94
G1X14.84Y26.95
G1X14.82
G1Y26.92
G1X14.83Y26.88
G1X14.88Y26.79
G1X14.95Y26.76
G1X14.99Y26.74
G1X15.01Y26.7
G1Y26.6
G1X15.02Y26.53
G1X15.07Y26.48
G1X15.13Y26.46
G1X15.2Y26.47
G1X15.24Y26.51
G1Y26.56
G1X15.22Y26.62
M5
G0X14Y26.49
M3 S30
; Layer C00
G1X13.96Y26.52
G1X13.86Y26.59
G1X13.71Y26.72
G1X13.55Y26.87
G1X13.43Y26.99
G1X13.34Y27.08
G1X13.31Y27.12
G1X13.33
G1X13.4Y27.07
G1X13.49Y27
G1X13.6Y26.91
G1X13.83Y26.7
G1X13.98Y26.54
G1X14Y26.49
M5
G0X14.04Y26.56
M3 S30
; Layer C00
G1X14.01Y26.59
G1Y26.64
G1X13.96Y26.71
G1X13.84Y26.82
G1X13.66Y26.96
G1X13.45Y27.11
G1X13.24Y27.26
G1X13.04Y27.38
G1X12.89Y27.47
G1X12.79Y27.5
G1Y27.49
G1X12.81Y27.45
G1X12.85Y27.39
G1X12.92Y27.32
G1X12.99Y27.25
G1X13.05Y27.19
G1X13.1Y27.16
G1X13.13
G1X13.14Y27.15
G1X13.19Y27.12
G1X13.25Y27.07
G1X13.32Y27
G1X13.52Y26.82
G1X13.96Y26.41
G1X14.13Y26.26
G1X14.27Y26.15
G1X14.38Y26.07
G1X14.46Y26.03
G1X14.51
G1X14.54Y26.05
G1Y26.11
G1X14.51Y26.23
G1X14.43Y26.35
G1X14.33Y26.43
G1X14.26
G1Y26.37
G1X14.34Y26.31
G1X14.43Y26.23
G1X14.47Y26.15
G1Y26.13
G1X14.43
G1X14.38Y26.16
G1X14.32Y26.2
G1X14.25Y26.27
G1X14.21Y26.34
G1X14.2Y26.41
G1Y26.48
G1X14.22Y26.54
G1Y26.57
G1X14.18Y26.58
G1X14.08Y26.55
G1X14.04Y26.56
M5
G0X13.79Y26.09
M3 S30
; Layer C00
G1X13.86Y26.05
G1X13.97Y25.94
G1X14.06Y25.84
G1Y25.8
G1X14Y25.84
G1X13.89Y25.94
G1X13.8Y26.05
G1X13.79Y26.09
M5
G0X13.88Y25.72
M3 S30
; Layer C00
G1X13.97Y25.71
G1X13.99Y25.68
G1X13.92Y25.66
G1X13.84Y25.67
G1X13.81Y25.69
G1Y25.7
G1X13.83Y25.71
G1X13.88
M5
G0X14.01Y25.54
M3 S30
; Layer C00
G1X14.05
G1X14.11Y25.52
G1Y25.44
G1X14.09Y25.39
G1Y25.37
G1X14.14Y25.39
G1X14.22Y25.43
G1X14.33Y25.52
G1X14.35Y25.59
G1X14.32Y25.65
G1X14.35Y25.64
G1X14.44Y25.57
G1X14.56Y25.44
G1X14.64Y25.35
G1X14.67Y25.31
G1X14.65
G1X14.58Y25.37
G1X14.51Y25.42
G1X14.45Y25.45
G1X14.41
G1X14.38Y25.44
G1X14.32Y25.38
G1X14.19Y25.32
G1X14.11Y25.31
G1X14.05
G1X14.01Y25.35
G1X13.99Y25.41
G1X13.98Y25.47
G1Y25.51
G1X14.01Y25.54
M5
G0X14.33Y25.28
M3 S30
; Layer C00
G1X14.41Y25.32
G1X14.45
G1X14.47Y25.27
G1X14.44Y25.21
G1X14.38Y25.16
G1X14.3Y25.17
G1X14.28Y25.2
G1Y25.22
G1Y25.25
G1X14.33Y25.28
M5
G0X14.22Y25.1
M3 S30
; Layer C00
G1X14.26Y25.03
G1X14.29Y24.93
G1Y24.86
G1X14.26
G1X14.22Y24.93
G1X14.19Y25.03
G1Y25.09
G1X14.22
M5
G0X14.71Y25.17
M3 S30
; Layer C00
G1Y25.2
G1X14.75
G1X14.8Y25.15
G1X14.87Y25.07
G1X14.92Y25
G1X14.94Y24.98
G1X14.91Y24.99
G1X14.84Y25.04
G1X14.75Y25.12
G1X14.71Y25.17
M5
G0X15.07Y24.43
M3 S30
; Layer C00
G1X15.11Y24.4
G1X15.16Y24.32
G1Y24.23
G1X15.14Y24.2
G1X15.12
G1X15.1Y24.24
G1X15.07Y24.31
G1X15.06Y24.38
G1Y24.42
G1X15.07
M5
G0X14.75Y24.29
M3 S30
; Layer C00
G1X14.72
G1Y24.19
G1Y24.14
G1Y24.12
G1X14.74
G1X14.76Y24.15
G1X14.77Y24.23
G1X14.75Y24.29
M5
G0X14.52Y24.21
M3 S30
; Layer C00
G1X14.47Y24.24
G1X14.36Y24.29
G1X14.29
G1X14.23Y24.22
G1X14.17Y24.08
G1X14.11Y23.91
G1X14.09Y23.82
G1X14.11Y23.81
G1X14.17Y23.84
G1X14.22Y23.85
G1X14.21Y23.8
G1X14.17Y23.76
G1X14.14
G1X14.1
G1X14.01Y23.81
G1X13.98
G1X13.96Y23.78
G1Y23.72
G1Y23.66
G1Y23.62
G1X14Y23.61
G1X14.1Y23.63
G1X14.13Y23.61
G1X14.15Y23.58
G1X14.17Y23.45
G1X14.2Y23.41
G1X14.26Y23.39
G1X14.34
G1X14.47Y23.43
G1X14.59Y23.55
G1X14.67Y23.7
G1X14.7Y23.87
G1Y23.89
G1X14.67
G1X14.65Y23.86
G1X14.62Y23.79
G1X14.55Y23.67
G1X14.48Y23.58
G1X14.39Y23.52
G1X14.3Y23.5
G1X14.28Y23.55
G1X14.35Y23.81
G1X14.34Y23.9
G1Y23.93
G1X14.42Y23.94
G1X14.51Y23.96
G1X14.55Y24.02
G1X14.53Y24.06
G1X14.42Y24.04
G1X14.4Y24.08
G1X14.42Y24.14
G1X14.49Y24.16
G1X14.53
G1Y24.18
G1X14.52Y24.21
M5
G0X13.84Y24.07
M3 S30
; Layer C00
G1X13.85Y24.01
G1X13.83Y23.96
G1X13.77Y23.94
G1X13.72Y23.96
G1X13.73Y24.01
G1X13.78Y24.07
G1X13.82Y24.09
G1X13.84Y24.07
M5
G0X13.52Y23.34
M3 S30
; Layer C00
G1X13.54Y23.27
G1X13.34Y22.86
G1X13.1Y22.53
G1X13.08Y22.55
G1Y22.61
G1X13.1Y22.69
G1X13.12Y22.79
G1X13.19Y23.01
G1X13.28Y23.18
G1X13.37Y23.29
G1X13.45Y23.34
G1X13.52
M5
G0X13.05Y23.11
M3 S30
; Layer C00
G1X13.07Y23
G1Y22.94
G1X13.05Y22.92
G1X13.01Y22.93
G1X12.95Y22.98
G1X12.89Y23.02
G1X12.84Y23.03
G1X12.79
G1X12.74Y22.99
G1X12.66Y22.93
G1X12.57Y22.9
G1X12.56Y22.91
G1X12.58Y22.94
G1X12.64Y22.99
G1X12.72Y23.05
G1X12.88Y23.13
G1X12.99Y23.15
G1X13.05Y23.11
M5
G0X12.66Y22.72
M3 S30
; Layer C00
G1X12.64Y22.65
G1X12.57Y22.57
G1X12.45Y22.51
G1X12.29Y22.47
G1X12.1
G1X12.05
G1X12.06Y22.5
G1X12.13Y22.54
G1X12.26Y22.6
G1X12.39Y22.66
G1X12.49Y22.7
G1X12.56Y22.73
G1X12.61Y22.74
G1X12.66Y22.72
M5
G0X12.89Y22.45
M3 S30
; Layer C00
G1X12.91Y22.44
G1X12.95Y22.39
G1X12.97Y22.33
G1X12.93Y22.28
G1X12.89
G1X12.87Y22.35
G1Y22.42
G1X12.89Y22.45
M5
G0X12.7Y22.23
M3 S30
; Layer C00
G1X12.73Y22.22
G1X12.74Y22.18
G1Y22.12
G1X12.73Y22.04
G1X12.66Y21.83
G1X12.57Y21.61
G1X12.51Y21.48
G1X12.48Y21.43
G1X12.46Y21.47
G1Y21.57
G1X12.48Y21.78
G1X12.54Y22
G1X12.58Y22.09
G1X12.62Y22.17
G1X12.66Y22.22
G1X12.7Y22.23
M5
G0X12.97Y22.1
M3 S30
; Layer C00
G1X13.03Y22.15
G1X13.07
G1Y22.09
G1X13.02Y22.01
G1X12.9Y21.93
G1X12.8Y21.88
G1X12.77
G1X12.79Y21.91
G1X12.87Y22
G1X12.97Y22.1
M5
G0X13.17Y22.13
M3 S30
; Layer C00
G1X13.2
G1X13.22Y22.08
G1X13.2Y22
G1X13.19Y21.97
G1X13.17
G1Y21.99
G1X13.16Y22.04
G1Y22.13
M5
G0X12.96Y21.86
M3 S30
; Layer C00
G1X12.99Y21.83
G1X13.03Y21.75
G1X13.04Y21.7
G1Y21.68
G1X13.02Y21.67
G1X12.95Y21.7
G1X12.93
G1Y21.66
G1X12.97Y21.54
G1Y21.51
G1X12.96
G1X12.92Y21.53
G1X12.88Y21.63
G1Y21.74
G1X12.93Y21.83
G1X12.96Y21.86
M5
G0X12.49Y21.32
M3 S30
; Layer C00
G1X12.57Y21.29
G1X12.61Y21.22
G1X12.6Y21.19
G1X12.57Y21.16
G1X12.54
G1X12.49
G1X12.41Y21.21
G1X12.37Y21.26
G1X12.41Y21.3
G1X12.49Y21.32
M5
G0X12.5Y20.95
M3 S30
; Layer C00
G1X12.52Y20.89
G1X12.51Y20.81
G1X12.49Y20.78
G1X12.47
G1Y20.8
G1X12.46Y20.85
G1Y20.94
G1X12.5Y20.95
M5
G0X12.57Y20.34
M3 S30
; Layer C00
G1X12.58Y20.32
G1X12.6Y20.23
G1X12.58Y20.14
G1X12.57Y20.12
G1X12.55
G1Y20.17
G1Y20.23
G1Y20.29
G1Y20.33
G1X12.57Y20.34
M5
G0X12.42Y19.71
M3 S30
; Layer C00
G1Y19.67
G1Y19.57
G1Y19.5
G1X12.4Y19.47
G1X12.37
G1X12.32Y19.5
G1X12.27Y19.56
G1Y19.61
G1X12.32Y19.66
G1X12.42Y19.71
M5
G0X12.07Y19.6
M3 S30
; Layer C00
G1X12.14Y19.53
G1X12.19Y19.45
G1X12.16Y19.41
G1X12.09Y19.45
G1X12.04Y19.53
G1X12.01Y19.6
G1Y19.64
G1X12.07Y19.6
M5
G0X10.65Y20.11
M3 S30
; Layer C00
G1X10.62Y20.08
G1X10.6Y20.11
G1X10.59Y20.19
G1X10.61Y20.27
G1X10.66Y20.3
G1X10.7Y20.27
G1Y20.19
G1X10.65Y20.11
M5
G0X10.43Y20.16
M3 S30
; Layer C00
G1X10.41Y20.1
G1X10.35Y20.08
G1X10.3Y20.1
G1X10.28Y20.16
G1X10.3Y20.21
G1X10.35Y20.23
G1X10.41Y20.21
G1X10.43Y20.16
M5
G0X10.2Y20.11
M3 S30
; Layer C00
G1Y20
G1X10.18Y19.93
G1X10.17Y19.89
G1X10.15
G1X10.1Y19.99
G1X10.08Y20.16
G1Y20.31
G1X10.13Y20.38
G1X10.16Y20.36
G1X10.18Y20.3
G1X10.19Y20.21
G1Y20.11
M5
G0X9.85Y20.11
M3 S30
; Layer C00
G1Y20.06
G1Y19.99
G1X9.77Y19.82
G1X9.63Y19.6
G1X9.54Y19.48
G1X9.47Y19.41
G1X9.43
G1X9.4Y19.45
G1X9.38Y19.53
G1X9.42Y19.56
G1X9.48Y19.62
G1X9.53Y19.75
G1X9.6Y19.88
G1X9.69Y19.93
G1X9.74Y19.94
G1X9.76Y19.96
G1X9.77Y20
G1Y20.05
G1X9.73Y20.1
G1X9.7Y20.12
G1X9.65Y20.11
G1X9.59Y20.07
G1X9.55Y20.05
G1Y20.06
G1X9.59Y20.11
G1X9.65Y20.18
G1X9.81Y20.32
G1X9.92Y20.38
G1X9.94Y20.37
G1X9.93Y20.35
G1X9.9Y20.31
G1X9.84Y20.27
G1X9.79Y20.23
G1X9.77Y20.19
G1Y20.17
G1X9.79Y20.16
G1X9.83Y20.15
G1X9.85Y20.11
M5
G0X9.96Y19.75
M3 S30
; Layer C00
G1X10.03
G1X10.06Y19.73
G1Y19.7
G1X10.03Y19.66
G1X10Y19.61
G1Y19.58
G1X10.05Y19.56
G1X10.2
G1X10.23Y19.54
G1X10.24Y19.53
G1X10.22Y19.51
G1X10.15Y19.43
G1X10.13Y19.28
G1Y19.08
G1X10.2Y19.27
G1X10.23Y19.35
G1X10.25Y19.39
G1X10.26Y19.37
G1Y19.3
G1Y19.17
G1X10.2Y19.04
G1X10.17Y19
G1X10.14Y18.99
G1X10.13
G1Y19.02
G1X10.11Y19.06
G1X10.07
G1X10.01Y19.05
G1X9.91Y19
G1X9.76Y18.96
G1X9.66Y18.97
G1X9.64Y19
G1Y19.03
G1X9.67Y19.07
G1X9.73Y19.12
G1X9.79Y19.18
G1X9.78Y19.26
G1X9.77Y19.29
G1Y19.32
G1X9.8Y19.33
G1X9.84Y19.34
G1X9.89
G1X9.92Y19.31
G1Y19.27
G1Y19.23
G1X9.91Y19.15
G1X9.96Y19.12
G1X10.01Y19.17
G1X10.03Y19.29
G1X10.01Y19.37
G1X9.99Y19.42
G1X9.95Y19.44
G1X9.91
G1X9.87Y19.43
G1X9.85
G1Y19.47
G1Y19.52
G1X9.88Y19.6
G1X9.85Y19.64
G1X9.79Y19.57
G1X9.72Y19.41
G1X9.64Y19.26
G1X9.57Y19.19
G1X9.54Y19.23
G1X9.55Y19.32
G1X9.64Y19.5
G1X9.74Y19.64
G1X9.85Y19.72
G1X9.96Y19.75
M5
G0X10.26Y20.42
M3 S30
; Layer C00
G1Y20.49
G1X10.33Y20.58
G1X10.4Y20.63
G1X10.42Y20.66
G1X10.38
G1X10.19Y20.62
G1X10.15
G1Y20.63
G1X10.2Y20.67
G1X10.3Y20.73
G1X10.37Y20.74
G1X10.42Y20.73
G1X10.47Y20.67
G1X10.48Y20.58
G1X10.43Y20.49
G1X10.35Y20.42
G1X10.26
M5
G0X10.7Y21.17
M3 S30
; Layer C00
G1X10.85Y21.33
G1X10.95Y21.42
G1X11.04Y21.48
G1X11.11Y21.5
G1X11.13Y21.46
G1X11.07Y21.4
G1X10.92Y21.3
G1X10.7Y21.17
M5
G0X10.16Y21.83
M3 S30
; Layer C00
G1X10.32Y21.88
G1X10.45Y21.95
G1X10.51Y22.02
G1X10.45Y22.07
G1X10.3Y22.09
G1X10.09Y22.1
G1X9.81Y22.14
G1X9.76
G1Y22.11
G1X9.85Y22
G1Y21.97
G1Y21.94
G1X9.82
G1X9.74Y21.97
G1X9.66Y22.07
G1X9.62Y22.13
G1X9.59Y22.16
G1Y22.14
G1X9.58Y22.07
G1X9.61Y21.99
G1X9.7Y21.92
G1X9.84Y21.86
G1X10.03Y21.82
G1X10.16
M5
G0X8.45Y20.82
M3 S30
; Layer C00
G1X8.1
G1X7.91Y20.81
G1X7.65Y20.77
G1X7.35Y20.73
G1X7.05Y20.67
G1X6.76Y20.61
G1X6.47Y20.54
G1X6.22Y20.47
G1X6.04Y20.42
G1X5.94Y20.38
G1X5.88Y20.35
G1Y20.34
G1X5.93
G1X6.4Y20.45
G1X6.8Y20.53
G1X7.11Y20.59
G1X7.35Y20.63
G1X7.54Y20.65
G1X7.67
G1X7.76Y20.64
G1X7.81Y20.61
G1X7.85Y20.56
G1X7.86Y20.54
G1X7.85
G1X7.81Y20.56
G1X7.7
G1X7.56Y20.53
G1X7.46Y20.45
G1X7.44Y20.38
G1X7.5Y20.34
G1X7.6Y20.35
G1X7.66Y20.41
G1Y20.47
G1X7.65Y20.5
G1Y20.52
G1X7.68
G1X7.72Y20.51
G1X7.79
G1X7.89Y20.53
G1X8.02Y20.58
G1X8.14Y20.65
G1X8.45Y20.82
M5
G0X7.31Y20.3
M3 S30
; Layer C00
G1Y20.28
G1X7.29Y20.23
G1X7.22Y20.18
G1X7.14Y20.16
G1X7.12
G1X7.11Y20.18
G1X7.13Y20.2
G1X7.17Y20.23
G1X7.26Y20.28
G1X7.31Y20.3
M5
G0X7.36Y20.32
M3 S30
; Layer C00
G1X7.25
G1X7.17Y20.29
G1X7.08Y20.22
G1X6.93Y20.12
G1X6.78Y20.08
G1X6.67Y20.06
G1X6.59Y20.01
G1X6.54Y19.99
G1X6.45Y19.98
G1X6.31
G1X5.99Y19.99
G1X5.87
G1X5.79Y19.97
G1X5.77Y19.94
G1X5.81Y19.9
G1X5.95Y19.88
G1X6.17Y19.87
G1X6.47
G1X6.64
G1X6.79Y19.88
G1X6.91
G1X7Y19.9
G1X7.12Y19.93
G1X7.14Y19.97
G1X7.16Y20.03
G1X7.25Y20.05
G1X7.34Y20.03
G1Y19.94
G1X7.43Y19.96
G1X7.55Y19.99
G1X7.65Y20.01
G1X7.69Y20.03
G1X7.68Y20.08
G1X7.67Y20.13
G1X7.71Y20.17
G1X7.72Y20.18
G1X7.69Y20.21
G1X7.61Y20.24
G1X7.51Y20.28
G1X7.36Y20.32
M5
G0X5.46Y20.17
M3 S30
; Layer C00
G1X5.45Y20.24
G1X5.41Y20.28
G1X5.36Y20.31
G1X5.3
G1X5.17Y20.25
G1X5.07Y20.11
G1X5.01Y19.96
G1Y19.86
G1X5.03Y19.8
G1X5.12Y19.76
G1X5.26Y19.74
G1X5.42Y19.76
G1X5.55Y19.81
G1X5.57Y19.87
G1X5.51Y19.9
G1X5.43Y19.88
G1X5.33Y19.83
G1X5.24Y19.81
G1X5.19Y19.82
G1Y19.87
G1X5.25Y19.9
G1X5.32Y19.89
G1X5.36Y19.87
G1X5.37Y19.88
G1Y19.91
G1X5.36Y19.96
G1X5.32Y20.07
G1X5.3Y20.13
G1X5.28
G1X5.21Y20.11
G1X5.17Y20.09
G1X5.15
G1X5.17Y20.12
G1X5.21Y20.16
G1X5.26Y20.21
G1X5.31Y20.23
G1X5.34Y20.21
G1X5.38Y20.16
G1X5.42Y20.1
G1X5.44Y20.09
G1X5.45Y20.11
G1Y20.17
M5
G0X6.41Y22.78
M3 S30
; Layer C00
G1X6.44
G1Y22.81
G1X6.43Y22.86
G1X6.39Y22.94
G1X6.34Y23.02
G1X6.28Y23.13
G1X6.24Y23.28
G1X6.21Y23.45
G1X6.2Y23.65
G1Y23.82
G1Y23.96
G1X6.19Y24.05
G1X6.18Y24.09
G1X6.15Y24.03
G1X6.11Y23.9
G1X6.09Y23.69
G1X6.12Y23.44
G1X6.19Y23.2
G1X6.28Y22.97
G1X6.33Y22.88
G1X6.37Y22.81
G1X6.41Y22.78
M5
G0X6.18Y24.19
M3 S30
; Layer C00
G1X6.24Y24.2
G1X6.29Y24.24
G1X6.31Y24.28
G1X6.29Y24.3
G1X6.24Y24.31
G1X6.18Y24.29
G1X6.16Y24.23
G1X6.18Y24.19
M5
G0X6.26Y24.39
M3 S30
; Layer C00
G1X6.32
G1X6.36Y24.41
G1X6.34Y24.51
G1X6.38Y24.53
G1X6.45Y24.58
G1X6.51Y24.69
G1X6.56Y24.82
G1Y24.92
G1X6.57Y24.96
G1X6.65Y25
G1X6.71Y25.04
G1X6.77Y25.12
G1X6.85Y25.2
G1X6.91Y25.29
G1X6.95Y25.35
G1X6.98Y25.39
G1Y25.41
G1X6.97
G1X6.93Y25.4
G1X6.88Y25.36
G1X6.8Y25.31
G1X6.68Y25.21
G1X6.66Y25.13
G1Y25.07
G1X6.58Y25.02
G1X6.51Y24.97
G1Y24.91
G1X6.52Y24.85
G1X6.49Y24.83
G1X6.41Y24.78
G1X6.33Y24.64
G1X6.26Y24.5
G1X6.24Y24.43
G1X6.26Y24.39
M5
G0X9.15Y23.79
M3 S30
; Layer C00
G1X9.19Y23.85
G1X9.22
G1Y23.82
G1X9.23Y23.72
G1Y23.66
G1X9.21Y23.63
G1X9.19
G1X9.16
G1X9.13Y23.71
G1X9.15Y23.79
M5
G0X8.99Y23.73
M3 S30
; Layer C00
G1X9.21Y23.53
G1X9.29Y23.45
G1X9.35Y23.38
G1X9.38Y23.31
G1Y23.27
G1X9.4Y23.2
G1X9.51Y23.12
G1X9.58Y23.09
G1X9.62Y23.08
G1X9.63
G1X9.61Y23.15
G1Y23.16
G1X9.64
G1X9.69
G1X9.76Y23.1
G1Y23.04
G1X9.77Y23.01
G1X9.84Y23.02
G1X9.92Y23.08
G1Y23.15
G1X9.9Y23.18
G1X9.93
G1X9.97Y23.14
G1X10.09Y23.08
G1X10.22Y23.05
G1X10.28
G1X10.32Y23.08
G1X10.34Y23.11
G1Y23.14
G1X10.29Y23.18
G1X10.21Y23.22
G1X10.09Y23.25
G1X9.96Y23.28
G1X9.83Y23.29
G1X9.7
G1X9.6
G1X9.53Y23.26
G1X9.5Y23.24
G1X9.47
G1X9.45Y23.27
G1Y23.31
G1X9.47Y23.37
G1X9.51
G1X9.56Y23.4
G1X9.58Y23.5
G1X9.56Y23.59
G1X9.51Y23.61
G1X9.44
G1X9.38Y23.65
G1X9.36Y23.69
G1Y23.7
G1X9.38
G1X9.47Y23.66
G1X9.49
G1Y23.68
G1Y23.73
G1X9.47Y23.84
G1X9.51Y23.95
G1X9.55Y23.99
G1X9.57Y24.01
G1Y23.99
G1X9.55Y23.93
G1X9.54Y23.8
G1X9.58Y23.71
G1X9.68Y23.68
G1X9.81Y23.72
G1X10Y23.79
G1X10.21Y23.82
G1X10.37
G1X10.46Y23.76
G1X10.5Y23.72
G1X10.55Y23.73
G1X10.58Y23.8
G1X10.54Y23.87
G1X10.45Y23.91
G1X10.34Y23.9
G1X10.27Y23.88
G1X10.23
G1X10.22Y23.9
G1Y23.93
G1X10.24Y24
G1X10.19Y24.06
G1X10.14Y24.07
G1Y24.03
G1Y23.97
G1X10.08Y23.91
G1X10.04
G1X10.01
G1X9.99Y23.93
G1Y23.96
G1X9.97Y24
G1X9.92Y24.03
G1X9.84Y24.06
G1X9.73Y24.07
G1X9.59
G1X9.47Y24.05
G1X9.35Y23.99
G1X9.23Y23.91
G1X8.99Y23.73
M5
G0X9.57Y24.55
M3 S30
; Layer C00
G1X9.61
G1X9.58Y24.61
G1X9.49Y24.7
G1X9.42Y24.76
G1X9.37Y24.78
G1X9.35Y24.77
G1Y24.73
G1X9.38Y24.64
G1X9.47Y24.58
G1X9.57Y24.55
M5
G0X9.66Y24.62
M3 S30
; Layer C00
G1X9.74Y24.58
G1X9.83
G1X9.92Y24.59
G1X10.05Y24.65
G1X10.17Y24.7
G1X10.25Y24.72
G1X10.29Y24.71
G1X10.33Y24.65
G1X10.38Y24.58
G1X10.44
G1X10.46Y24.61
G1X10.44Y24.65
G1X10.39Y24.7
G1X10.33Y24.76
G1X10.19Y24.85
G1X10.07Y24.9
G1X9.99
G1X9.96Y24.85
G1Y24.79
G1Y24.74
G1X9.94Y24.72
G1X9.9
G1X9.84Y24.73
G1X9.77Y24.76
G1X9.62Y24.81
G1X9.54Y24.83
G1X9.51Y24.81
G1X9.5Y24.77
G1X9.55Y24.71
G1X9.66Y24.62
M5
G0X10.71Y23.75
M3 S30
; Layer C00
G1X10.67Y23.73
G1X10.72Y23.66
G1X10.83Y23.58
G1X10.95Y23.53
G1X11.03
G1X11.04Y23.57
G1X11.02Y23.63
G1X10.94Y23.69
G1X10.82Y23.74
G1X10.71Y23.75
M5
G0X12.04Y25.97
M3 S30
; Layer C00
G1X11.96Y25.98
G1X11.87Y26.04
G1X11.83Y26.1
G1X11.85Y26.14
G1X11.9
G1X11.96
G1X12.01Y26.2
G1X12.06Y26.28
G1X12.1Y26.31
G1X12.11Y26.27
G1X12.07Y26.18
G1X12.03Y26.06
G1X12.04Y25.99
G1Y25.97
M5
G0X11.6Y26.21
M3 S30
; Layer C00
G1X11.54
G1X11.47Y26.25
G1X11.46Y26.29
G1Y26.3
G1X11.48
G1X11.57Y26.26
G1X11.59
G1Y26.29
G1X11.57Y26.34
G1Y26.43
G1X11.6Y26.46
G1X11.65Y26.43
G1X11.68Y26.36
G1X11.65Y26.26
G1X11.6Y26.21
M5
G0X11.4Y26.57
M3 S30
; Layer C00
G1X11.42
G1Y26.59
G1X11.33Y26.63
G1X11.19Y26.66
G1X11.09Y26.67
G1X11.07Y26.65
G1X11.15Y26.61
G1X11.29Y26.57
G1X11.35
G1X11.4
M5
G0X10.79Y26.83
M3 S30
; Layer C00
G1X10.75Y26.86
G1X10.7Y26.91
G1Y26.96
G1X10.74Y26.98
G1X10.8Y26.96
G1X10.82Y26.91
G1Y26.86
G1X10.79Y26.83
M5
G0X10.8Y27.09
M3 S30
; Layer C00
G1X10.72
G1X10.7Y27.1
G1X10.72Y27.13
G1X10.79Y27.18
G1X10.89Y27.25
G1X10.94Y27.28
G1Y27.25
G1X10.95Y27.18
G1X10.91Y27.12
G1X10.8Y27.09
M5
G0X11.4Y27.17
M3 S30
; Layer C00
G1Y27.18
G1X11.42Y27.19
G1X11.47
G1X11.57
G1Y27.16
G1X11.51Y27.14
G1X11.43Y27.15
G1X11.4Y27.17
M5
G0X11.44Y27.29
M3 S30
; Layer C00
G1X11.35Y27.3
G1X11.32Y27.32
G1X11.33Y27.33
G1X11.37
G1X11.44Y27.34
G1X11.51
G1X11.55
G1X11.56Y27.32
G1X11.54Y27.3
G1X11.44Y27.29
M5
G0X11.7Y27.26
M3 S30
; Layer C00
G1X11.73
G1X11.79Y27.27
G1X11.88
G1Y27.23
G1X11.82Y27.21
G1X11.74Y27.23
G1X11.71Y27.25
M5
G0X11.7Y27.39
M3 S30
; Layer C00
G1X11.42Y27.42
G1X11.31
G1X11.23Y27.4
G1X11.21Y27.37
G1X11.15Y27.33
G1X11.02
G1X10.88
G1X10.79Y27.29
G1X10.69Y27.23
G1X10.52Y27.2
G1X10.44
G1X10.4Y27.18
G1Y27.17
G1X10.46Y27.15
G1X10.51Y27.13
G1X10.55Y27.1
G1X10.56Y27.06
G1Y27.02
G1Y26.92
G1X10.64Y26.83
G1X10.7Y26.78
G1X10.76Y26.77
G1X10.83Y26.78
G1X10.97Y26.86
G1X11.01
G1X11.03
G1X11.01Y26.81
G1Y26.78
G1X11.04Y26.77
G1X11.08Y26.76
G1X11.18Y26.8
G1X11.24Y26.89
G1X11.3Y26.96
G1X11.41Y27.03
G1X11.6Y27.09
G1X11.87Y27.16
G1X12.07Y27.21
G1X12.24Y27.25
G1X12.36Y27.29
G1X12.44Y27.33
G1X12.49Y27.36
G1Y27.4
G1X12.47Y27.43
G1X12.41Y27.46
G1X12.36
G1X12.34
G1X12.33
G1Y27.43
G1X12.35Y27.38
G1X12.3Y27.35
G1X12.24Y27.37
G1X12.19Y27.48
G1X12.12Y27.52
G1X12.03Y27.54
G1X11.93Y27.52
G1X11.87Y27.48
G1Y27.42
G1Y27.4
G1X11.8Y27.39
G1X11.7
M5
G0X12.6Y28.21
M3 S30
; Layer C00
G1X12.57Y28.27
G1X12.58Y28.36
G1X12.62Y28.44
G1X12.65Y28.46
G1X12.67Y28.42
G1Y28.32
G1X12.64Y28.23
G1X12.6Y28.21
M5
G0X12.85Y28.35
M3 S30
; Layer C00
G1Y28.38
G1X12.87Y28.44
G1X12.94Y28.49
G1X13.05Y28.53
G1X13.08Y28.51
G1X13.12Y28.45
G1X13.14Y28.4
G1X13.11Y28.41
G1X13.04Y28.42
G1X12.95Y28.38
G1X12.9Y28.35
G1X12.87
G1X12.85
M5
G0X13.26Y28.3
M3 S30
; Layer C00
G1X13.3Y28.32
G1X13.36Y28.3
G1X13.38Y28.24
G1Y28.19
G1X13.35Y28.17
G1X13.31Y28.19
G1X13.27Y28.24
G1X13.26Y28.3
M5
G0X13.38Y28.43
M3 S30
; Layer C00
G1X13.28Y28.5
G1X13.18Y28.61
G1X13.1Y28.72
G1Y28.76
G1X13.12Y28.75
G1X13.17Y28.71
G1X13.24Y28.65
G1X13.31Y28.57
G1X13.37Y28.5
G1X13.41Y28.45
G1Y28.43
G1X13.38
M5
G0X13.7Y28.48
M3 S30
; Layer C00
G1X13.72Y28.51
G1X13.77
G1X13.83Y28.45
G1X13.85Y28.38
G1X13.83Y28.34
G1X13.77Y28.36
G1X13.72Y28.41
G1X13.7Y28.48
M5
G0X13.5Y28.17
M3 S30
; Layer C00
G1X13.59Y28.15
G1X13.7Y28.1
G1X13.76Y28.04
G1X13.73Y28.02
G1X13.65Y28.04
G1X13.54Y28.1
G1X13.48Y28.15
G1X13.5Y28.17
M5
G0X12.71Y29.02
M3 S30
; Layer C00
G1X12.68
G1X12.65Y29.09
G1X12.66Y29.19
G1X12.68Y29.24
G1Y29.27
G1X12.64
G1X12.57Y29.26
G1X12.5Y29.23
G1X12.47
G1X12.48Y29.26
G1X12.53Y29.32
G1X12.61Y29.39
G1X12.66
G1X12.7Y29.32
G1X12.73Y29.17
G1Y29.1
G1Y29.05
G1X12.71Y29.02
M5
G0X13.93Y29.35
M3 S30
; Layer C00
G1X13.96Y29.3
G1X14.01Y29.28
G1X14.07Y29.3
G1Y29.39
G1X14.03Y29.46
G1X13.98Y29.56
G1X13.91Y29.68
G1X13.81Y29.83
G1X13.7Y30.03
G1X13.62Y30.19
G1X13.59Y30.3
G1X13.61Y30.38
G1X13.64Y30.42
G1X13.67Y30.44
G1X13.7
G1X13.73Y30.41
G1Y30.35
G1X13.69Y30.32
G1X13.66
G1Y30.29
G1X13.67Y30.24
G1X13.72Y30.19
G1X13.83Y30.1
G1X13.96Y30.05
G1X14.05
G1X14.07Y30.09
G1X13.91Y30.32
G1X13.68Y30.58
G1X13.56Y30.7
G1X13.45Y30.8
G1X13.37Y30.86
G1X13.32Y30.87
G1X13.27Y30.86
G1X13.25
G1X13.26Y30.9
G1X13.35Y31
G1X13.36Y31.04
G1X13.35Y31.06
G1X13.31
G1X13.26Y31.08
G1Y31.12
G1Y31.19
G1X13.23Y31.28
G1X13.18Y31.33
G1X13.13Y31.31
G1X13.12Y31.17
G1X13.16Y30.96
G1X13.24Y30.76
G1X13.32Y30.65
G1X13.36Y30.63
G1X13.37
G1Y30.65
G1X13.32Y30.73
G1Y30.75
G1X13.34
G1X13.38Y30.73
G1X13.43Y30.7
G1Y30.66
G1X13.41Y30.62
G1X13.34Y30.57
G1X13.26Y30.5
G1Y30.46
G1X13.38Y30.44
G1X13.45Y30.42
G1X13.51Y30.37
G1X13.53Y30.33
G1X13.47Y30.36
G1X13.41Y30.39
G1X13.4Y30.36
G1X13.42Y30.31
G1X13.45Y30.24
G1X13.58Y30.01
G1X13.64Y29.9
G1X13.7Y29.81
G1X13.75Y29.75
G1X13.79Y29.73
G1X13.83Y29.71
G1X13.81Y29.65
G1Y29.6
G1X13.85Y29.58
G1X13.9Y29.56
G1X13.92Y29.52
G1Y29.43
G1Y29.35
M5
G0X14.25Y29.39
M3 S30
; Layer C00
G1Y29.48
G1X14.29
G1X14.31Y29.43
G1X14.29Y29.34
G1X14.28Y29.31
G1X14.26
G1Y29.34
G1X14.25Y29.39
M5
G0X14.14Y29.37
M3 S30
; Layer C00
G1X14.07Y29.22
G1X14.02Y29.17
G1Y29.14
G1X14.05
G1X14.13
G1X14.2Y29.16
G1X14.25
G1X14.28Y29.13
G1X14.29Y29.09
G1X14.26Y29.04
G1X14.19
G1X14.12
G1X14.09Y29.02
G1X14.1Y28.95
G1X14.15Y28.85
G1X14.19Y28.81
G1X14.23Y28.8
G1X14.28Y28.82
G1X14.35Y28.88
G1X14.43Y28.99
G1X14.45Y29.09
G1Y29.16
G1X14.52Y29.18
G1X14.6Y29.17
G1X14.62Y29.12
G1X14.56Y29.02
G1X14.42Y28.87
G1X14.31Y28.76
G1X14.24Y28.71
G1X14.18Y28.72
G1X14.13Y28.79
G1X14.04Y28.86
G1X13.93
G1X13.83Y29.02
G1X13.76Y29.06
G1X13.72
G1Y29.03
G1X13.75Y28.98
G1X13.8Y28.93
G1X13.97Y28.79
G1X14.22Y28.62
G1X14.38Y28.53
G1X14.52Y28.46
G1X14.64Y28.43
G1X14.72
G1X14.82Y28.44
G1X14.86Y28.4
G1X14.9Y28.34
G1X14.98Y28.32
G1X15.06Y28.34
G1X15.09Y28.4
G1X15.07Y28.44
G1X15.02Y28.43
G1X14.96Y28.42
G1X14.94Y28.45
G1X14.89Y28.51
G1X14.78Y28.56
G1X14.71Y28.59
G1X14.67Y28.64
G1X14.66Y28.71
G1X14.68Y28.82
G1Y29.04
G1X14.64Y29.28
G1X14.56Y29.5
G1X14.46Y29.62
G1X14.43Y29.63
G1Y29.62
G1Y29.58
G1X14.5Y29.45
G1X14.51Y29.4
G1Y29.37
G1X14.48Y29.36
G1X14.42Y29.4
G1X14.39Y29.49
G1X14.35Y29.72
G1X14.29Y29.88
G1X14.2Y29.98
G1X14.08Y30
G1X13.97Y29.98
G1X13.93Y29.94
G1X13.97Y29.88
G1X14.06Y29.79
G1X14.13Y29.74
G1X14.16Y29.73
G1Y29.75
G1X14.1Y29.84
G1Y29.86
G1X14.11
G1X14.14
G1X14.19Y29.75
G1Y29.57
G1X14.14Y29.37
M5
G0X15.3Y28.36
M3 S30
; Layer C00
G1X15.2Y28.31
G1Y28.28
G1Y28.26
G1X15.22
G1X15.26
G1X15.37Y28.24
G1X15.5Y28.14
G1X15.57Y28.06
G1X15.62Y28.03
G1X15.65Y28.05
G1X15.68Y28.12
G1X15.71Y28.21
G1X15.7Y28.27
G1X15.62Y28.31
G1X15.47Y28.35
G1X15.3
M5
G0X15.72Y27.98
M3 S30
; Layer C00
G1X15.68Y27.96
G1Y27.86
G1X15.73Y27.75
G1X15.8Y27.66
G1X15.81Y27.6
G1X15.8Y27.55
G1Y27.45
G1Y27.4
G1X15.81Y27.37
G1X15.84
G1X15.87Y27.4
G1X15.9Y27.45
G1Y27.53
G1X15.89Y27.63
G1X15.85Y27.76
G1X15.8Y27.88
G1X15.75Y27.95
G1X15.72Y27.98
M5
G0X16.96Y27.81
M3 S30
; Layer C00
G1X16.98Y27.74
G1X17.04Y27.69
G1X17.09Y27.68
G1X17.11Y27.72
G1X17.09Y27.78
G1X17.04Y27.84
G1X16.98
G1X16.96Y27.81
M5
G0X17.78Y27.9
M3 S30
; Layer C00
G1X17.84Y27.72
G1X17.91Y27.55
G1X17.98Y27.41
G1X18.03Y27.31
G1X18.07Y27.28
G1X18.11Y27.3
G1Y27.34
G1X17.93Y27.78
G1X17.87Y27.93
G1X17.81Y28.06
G1X17.76Y28.14
G1X17.73Y28.17
G1X17.72Y28.13
G1X17.74Y28.04
G1X17.78Y27.9
M5
G0X17.64Y28.29
M3 S30
; Layer C00
G1X17.66
G1X17.61Y28.43
G1X17.5Y28.63
G1X17.44Y28.72
G1X17.39Y28.78
G1X17.36Y28.81
G1X17.4Y28.66
G1X17.5Y28.47
G1X17.56Y28.38
G1X17.61Y28.32
G1X17.64Y28.29
M5
G0X18.12Y27.21
M3 S30
; Layer C00
G1X18.07Y27.18
G1X18.05Y27.13
G1X18.07Y27.08
G1X18.12Y27.06
G1X18.18Y27.08
G1X18.2Y27.13
G1X18.18Y27.18
G1X18.12Y27.21
M5
G0X18.51Y26.17
M3 S30
; Layer C00
G1X18.46Y26.14
G1X18.44Y26.09
G1X18.46Y26.04
G1X18.51Y26.02
G1X18.57Y26.04
G1X18.59Y26.09
G1X18.57Y26.14
G1X18.51Y26.17
M5
G0X18.25Y26
M3 S30
; Layer C00
G1X18.27Y25.94
G1X18.26Y25.86
G1X18.24Y25.83
G1X18.22
G1Y25.85
G1X18.21Y25.9
G1Y25.99
G1X18.25
M5
G0X18.17Y26
M3 S30
; Layer C00
G1X18.15Y25.78
G1Y25.69
G1X18.13Y25.63
G1X18.12Y25.59
G1X18.1Y25.57
G1X18.06Y25.52
G1Y25.39
G1X18.08Y25.26
G1X18.05Y25.2
G1X18.01Y25.18
G1X17.98Y25.11
G1X17.94Y25.01
G1X17.91Y24.89
G1X17.88Y24.77
G1X17.86Y24.66
G1Y24.57
G1Y24.48
G1X17.83Y24.46
G1X17.8Y24.44
G1X17.76Y24.39
G1X17.71Y24.31
G1X17.68Y24.22
G1X17.65Y24.15
G1X17.64Y24.12
G1X17.62Y24.11
G1X17.61Y24.13
G1Y24.2
G1X17.6Y24.3
G1Y24.44
G1X17.59Y24.63
G1X17.58Y24.88
G1X17.56Y25.09
G1X17.54Y25.23
G1X17.51Y25.28
G1X17.47Y25.24
G1Y25.15
G1X17.49Y25.09
G1Y25.06
G1X17.48Y25.08
G1X17.44Y25.12
G1X17.41Y25.18
G1X17.4Y25.24
G1Y25.3
G1X17.44Y25.37
G1X17.46Y25.46
G1X17.48Y25.6
G1Y25.76
G1X17.46Y25.94
G1X17.44Y26.11
G1X17.41Y26.26
G1X17.38Y26.37
G1X17.34Y26.43
G1X17.31
G1X17.3Y26.4
G1Y26.35
G1X17.31Y26.27
G1X17.33Y26.17
G1Y26.12
G1X17.31
G1X17.28Y26.17
G1X17.22Y26.28
G1X17.19Y26.41
G1X17.17Y26.49
G1X17.12Y26.5
G1X17.06
G1X17Y26.53
G1Y26.59
G1X17.08Y26.64
G1X17.16
G1X17.19Y26.61
G1X17.22Y26.56
G1X17.27Y26.54
G1X17.32Y26.59
G1X17.35Y26.73
G1Y26.8
G1X17.33Y26.85
G1X17.31Y26.88
G1X17.29
G1X17.26Y26.89
G1X17.24Y26.94
G1X17.23Y27.03
G1Y27.14
G1X17.19Y27.38
G1X17.12Y27.53
G1X17.08Y27.55
G1X17.06Y27.54
G1Y27.46
G1X17.08Y27.33
G1X17.1Y27.2
G1Y27.1
G1X17.08Y27.03
G1X17.01Y26.94
G1X16.96Y26.84
G1X16.92Y26.7
G1X16.88Y26.54
G1X16.81Y25.95
G1Y25.4
G1X16.84Y25.21
G1X16.87Y25.08
G1X16.9Y25.06
G1X16.92
G1X16.95Y25.08
G1X17Y25.18
G1X17.02
G1Y25.16
G1X17.03Y25.11
G1X17.01Y25.01
G1X16.91Y24.87
G1X16.88Y24.77
G1Y24.71
G1X16.9Y24.69
G1X16.92Y24.71
G1X16.97Y24.78
G1X17.01Y24.84
G1X17.05Y24.87
G1X17.09
G1X17.12Y24.85
G1X17.17Y24.74
G1X17.19Y24.55
G1Y24.41
G1X17.17Y24.35
G1X17.15Y24.36
G1X17.07Y24.53
G1X17.03Y24.57
G1X16.99
G1X16.93Y24.52
G1X16.87Y24.42
G1X16.89Y24.3
G1X16.96Y24.19
G1X17.16Y24.06
G1X17.19Y24
G1X17.17Y23.97
G1X17.12
G1X17.09Y23.99
G1X17.07Y23.97
G1Y23.95
G1X17.09Y23.9
G1X17.12Y23.84
G1X17.15Y23.83
G1X17.18Y23.86
G1X17.23Y23.94
G1X17.27Y24.04
G1X17.29Y24.19
G1X17.3Y24.37
G1Y24.56
G1Y24.75
G1X17.27Y24.93
G1X17.24Y25.08
G1X17.2Y25.19
G1X17.17Y25.25
G1X17.16Y25.3
G1Y25.34
G1X17.18Y25.35
G1X17.25Y25.28
G1X17.31Y25.13
G1X17.33Y25.04
G1X17.36Y24.98
G1X17.4Y24.95
G1X17.45Y24.94
G1X17.47Y24.91
G1X17.48Y24.84
G1Y24.76
G1Y24.68
G1X17.46Y24.62
G1X17.44Y24.58
G1X17.36
G1X17.35Y24.51
G1X17.37Y24.43
G1X17.42Y24.34
G1X17.44Y24.29
G1Y24.21
G1X17.4Y24.11
G1X17.35Y23.98
G1X17.26Y23.76
G1X17.25Y23.57
G1X17.3Y23.4
G1X17.44Y23.25
G1X17.52Y23.18
G1X17.56Y23.16
G1Y23.19
G1X17.54Y23.3
G1X17.53Y23.39
G1X17.55Y23.51
G1X17.59Y23.64
G1X17.65Y23.78
G1X17.71Y23.9
G1X17.76Y24
G1X17.78Y24.06
G1Y24.09
G1X17.77Y24.1
G1X17.78Y24.14
G1X17.81Y24.2
G1X17.86Y24.27
G1X17.93Y24.42
G1Y24.53
G1Y24.59
G1X17.97Y24.61
G1X18
G1X18.02Y24.65
G1Y24.7
G1X18.01Y24.77
G1X17.99Y24.84
G1Y24.88
G1X18.01
G1X18.09Y24.85
G1X18.12
G1Y24.88
G1X18.1Y24.93
G1Y25.03
G1X18.13Y25.1
G1X18.18Y25.16
G1Y25.24
G1X18.16Y25.33
G1X18.2Y25.38
G1X18.23Y25.43
G1X18.26Y25.51
G1X18.29Y25.64
G1X18.34Y25.92
G1X18.38Y26.05
G1X18.41Y26.15
G1X18.44Y26.21
G1X18.47Y26.31
G1Y26.44
G1X18.42Y26.56
G1X18.35Y26.61
G1X18.3Y26.63
G1X18.29Y26.67
G1Y26.78
G1Y26.88
G1X18.26Y26.95
G1X18.22Y26.98
G1Y26.97
G1X18.2Y26.93
G1Y26.86
G1X18.18Y26.78
G1Y26.55
G1X18.17Y26
M5
G0X18.58Y25.91
M3 S30
; Layer C00
G1Y25.87
G1X18.57Y25.78
G1Y25.67
G1X18.59Y25.54
G1X18.61Y25.4
G1Y25.28
G1X18.59Y25.19
G1X18.56Y25.13
G1X18.53Y25.09
G1Y25.05
G1Y25.01
G1X18.57Y24.97
G1X18.61Y24.94
G1X18.65Y24.96
G1X18.68Y25.03
G1X18.71Y25.15
G1X18.73Y25.4
G1X18.7Y25.66
G1X18.68Y25.78
G1X18.65Y25.87
G1X18.62Y25.91
G1X18.58
M5
G0X15.33Y23.46
M3 S30
; Layer C00
G1X15.27Y23.47
G1X15.25Y23.44
G1X15.27Y23.37
G1X15.33Y23.27
G1X15.37Y23.22
G1X15.39Y23.2
G1X15.4Y23.23
G1Y23.29
G1X15.38Y23.39
G1X15.33Y23.46
M5
G0X20.33Y20.65
M3 S30
; Layer C00
G1X20.37Y20.68
G1X20.43Y20.65
G1X20.46Y20.6
G1X20.45Y20.55
G1X20.42Y20.53
G1X20.38Y20.55
G1X20.34Y20.6
G1X20.33Y20.65
M5
G0X20.47Y20.42
M3 S30
; Layer C00
G1X20.53
G1X20.6
G1X20.63Y20.4
G1Y20.38
G1X20.61Y20.35
G1X20.57Y20.32
G1X20.53
G1X20.5
G1X20.46Y20.35
G1X20.43Y20.38
G1Y20.4
G1X20.47Y20.42
M5
G0X20.57Y20.48
M3 S30
; Layer C00
G1X20.55Y20.49
G1Y20.52
G1Y20.57
G1Y20.64
G1X20.5Y20.69
G1X20.39Y20.73
G1X20.22Y20.77
G1X19.92Y20.8
G1X19.69Y20.79
G1X19.62Y20.77
G1X19.57
G1X19.55Y20.79
G1X19.56Y20.82
G1Y20.86
G1X19.5Y20.89
G1X19.43Y20.9
G1X19.32Y20.91
G1X19Y20.93
G1X18.87Y20.96
G1X18.76Y21.03
G1X18.66Y21.09
G1X18.57Y21.12
G1X18.55Y21.11
G1Y21.08
G1X18.6Y21.03
G1X18.67Y20.97
G1X18.83Y20.88
G1X18.96Y20.86
G1X19.03
G1X19.06Y20.81
G1X19.07Y20.76
G1X19.11Y20.77
G1X19.18Y20.78
G1X19.33Y20.71
G1X19.43Y20.69
G1X19.55
G1X19.7Y20.71
G1X19.82Y20.72
G1X19.91
G1X19.97
G1Y20.71
G1Y20.64
G1X20.06Y20.54
G1X20.21Y20.42
G1X20.41Y20.31
G1X20.52Y20.26
G1X20.59Y20.24
G1X20.65Y20.25
G1X20.69Y20.3
G1X20.72Y20.39
G1Y20.46
G1X20.67Y20.5
G1X20.57Y20.48
M5
G0X18.3Y18.82
M3 S30
; Layer C00
G1X18.29Y18.81
G1X18.31Y18.57
G1X18.38Y18.29
G1X18.42Y18.16
G1X18.46Y18.06
G1X18.5Y17.99
G1X18.53Y17.98
G1X18.56
G1X18.57Y17.96
G1Y17.92
G1X18.53Y17.77
G1Y17.73
G1X18.57Y17.72
G1X18.64Y17.74
G1X18.71Y17.76
G1X18.74
G1X18.73Y17.74
G1X18.69Y17.7
G1X18.62Y17.6
G1X18.59Y17.5
G1X18.62Y17.44
G1X18.69
G1X18.75Y17.48
G1X18.76Y17.56
G1Y17.59
G1X18.78Y17.6
G1X18.8
G1X18.84Y17.59
G1X18.88Y17.57
G1Y17.59
G1X18.86Y17.64
G1X18.82Y17.71
G1X18.62Y18
G1X18.59Y18.08
G1X18.54Y18.2
G1X18.48Y18.36
G1X18.37Y18.67
G1X18.33Y18.78
G1X18.3Y18.82
M5
G0X18.92Y17.48
M3 S30
; Layer C00
G1X18.86Y17.47
G1X18.76Y17.4
G1X18.7Y17.32
G1X18.67Y17.25
G1X18.69Y17.19
G1X18.74
G1X18.81Y17.24
G1X18.88Y17.34
G1X18.93Y17.43
G1X18.92Y17.48
M5
G0X18.99Y17.33
M3 S30
; Layer C00
G1X18.93
G1X18.9Y17.26
G1X18.93Y17.22
G1X19Y17.23
G1X19.05Y17.25
G1X19.03Y17.22
G1X18.96Y17.17
G1X18.88Y17.15
G1X18.81Y17.12
G1X18.77Y17.06
G1Y16.99
G1X18.84Y16.97
G1X18.93Y16.98
G1X19.06Y17.06
G1X19.09
G1X19.11Y17.02
G1Y16.96
G1X19.14Y16.69
G1X19.18Y16.56
G1X19.24Y16.46
G1X19.34Y16.41
G1X19.46Y16.39
G1X19.53Y16.4
G1X19.56Y16.42
G1X19.55Y16.44
G1X19.49Y16.49
G1X19.42Y16.57
G1Y16.64
G1X19.44Y16.65
G1X19.42
G1X19.39Y16.63
G1X19.26Y16.54
G1X19.22Y16.52
G1X19.23Y16.56
G1X19.28Y16.64
G1X19.32Y16.73
G1Y16.8
G1X19.3Y16.86
G1X19.17Y17.01
G1Y17.04
G1Y17.08
G1X19.14Y17.19
G1X19.06Y17.28
G1X18.99Y17.33
M5
G0X18.94Y16.89
M3 S30
; Layer C00
G1X18.86Y16.86
G1X18.82Y16.78
G1X18.85Y16.7
G1X18.91Y16.67
G1X18.95Y16.65
G1Y16.6
G1Y16.48
G1X19.01Y16.3
G1X19.05Y16.21
G1X19.1Y16.15
G1X19.14Y16.12
G1X19.16Y16.13
G1X19.18Y16.2
G1X19.14Y16.26
G1X19.1Y16.35
G1X19.09Y16.52
G1Y16.6
G1X19.08Y16.66
G1X19.06Y16.69
G1X19.03
G1X18.99
G1X19Y16.77
G1X19.02Y16.82
G1Y16.86
G1X18.98Y16.88
G1X18.94Y16.89
M5
G0X19.38Y16.3
M3 S30
; Layer C00
G1X19.33Y16.23
G1Y16.13
G1X19.39Y16.05
G1X19.46
G1X19.49Y16.1
G1X19.47Y16.17
G1Y16.21
G1X19.51Y16.2
G1X19.58Y16.18
G1X19.63Y16.21
G1Y16.28
G1X19.57Y16.32
G1X19.48Y16.33
G1X19.38Y16.3
M5
G0X19.26Y16.07
M3 S30
; Layer C00
G1X19.22Y16.06
G1X19.19Y16.02
G1X19.18Y15.97
G1X19.19Y15.88
G1X19.23Y15.79
G1X19.27Y15.68
G1X19.32Y15.59
G1X19.38Y15.51
G1X19.42Y15.46
G1X19.46
G1X19.49
G1X19.51Y15.45
G1Y15.4
G1X19.49Y15.34
G1X19.47Y15.23
G1X19.5Y15.18
G1X19.52Y15.17
G1X19.55Y15.12
G1X19.57Y15.04
G1Y14.95
G1X19.62Y14.76
G1X19.69Y14.63
G1X19.72Y14.61
G1X19.74
G1Y14.65
G1X19.72Y14.73
G1X19.67Y14.93
G1X19.64Y15.14
G1X19.59Y15.37
G1X19.49Y15.63
G1X19.43Y15.75
G1X19.37Y15.84
G1X19.32Y15.9
G1X19.27Y15.93
G1X19.24Y15.95
G1X19.25Y16
G1X19.27Y16.05
G1Y16.07
M5
G0X19.66Y15.98
M3 S30
; Layer C00
G1X19.69Y16.05
G1X19.72Y16.07
G1X19.75Y16.05
G1X19.78Y15.98
G1Y15.91
G1X19.72Y15.88
G1X19.66Y15.91
G1Y15.98
M5
G0X19.86Y15.26
M3 S30
; Layer C00
G1X19.9Y15.23
G1X19.94Y15.15
G1Y15.07
G1X19.91Y15.04
G1X19.86Y15.07
G1X19.83Y15.15
G1X19.84Y15.23
G1X19.86Y15.26
M5
G0X20.26Y15.09
M3 S30
; Layer C00
G1X20.29
G1X20.3Y15.04
G1X20.32Y14.99
G1X20.37
G1X20.41Y15.07
G1Y15.17
G1X20.39Y15.23
G1Y15.25
G1X20.41Y15.24
G1X20.45Y15.19
G1X20.49Y15.08
G1X20.45Y15
G1X20.39Y14.93
G1Y14.87
G1X20.45Y14.85
G1X20.57
G1X20.66
G1X20.71Y14.84
G1Y14.81
G1X20.69Y14.75
G1X20.67Y14.62
G1X20.7Y14.5
G1X20.77Y14.41
G1X20.85
G1X20.9
G1X20.92Y14.37
G1X20.9Y14.32
G1X20.86Y14.29
G1X20.76Y14.34
G1X20.65Y14.44
G1X20.57Y14.57
G1X20.55Y14.67
G1X20.54Y14.74
G1X20.48Y14.76
G1X20.39Y14.79
G1X20.3Y14.89
G1X20.25Y15.01
G1Y15.09
M5
G0X20.8Y15.43
M3 S30
; Layer C00
G1X20.84Y15.41
G1X20.9Y15.43
G1X20.92Y15.48
G1Y15.53
G1X20.89Y15.56
G1X20.85Y15.53
G1X20.81Y15.48
G1X20.8Y15.43
M5
G0X21.35Y15.59
M3 S30
; Layer C00
G1X21.36Y15.67
G1X21.4Y15.75
G1X21.44Y15.78
G1X21.46Y15.75
G1Y15.67
G1X21.44Y15.59
G1X21.39Y15.56
G1X21.35Y15.59
M5
G0X21.25Y15.8
M3 S30
; Layer C00
G1Y15.82
G1X21.26Y15.89
G1X21.21Y15.99
G1X21.17Y16.04
G1Y16.06
G1X21.2
G1X21.29Y16.01
G1X21.41Y15.94
G1X21.47Y15.89
G1X21.43Y15.86
G1X21.33Y15.82
G1X21.25Y15.8
M5
G0X20.69Y17.11
M3 S30
; Layer C00
G1X20.64Y17.14
G1X20.61Y17.19
G1X20.62Y17.24
G1X20.65Y17.26
G1X20.68Y17.24
G1X20.73Y17.19
G1Y17.14
G1X20.69Y17.11
M5
G0X20.7Y17.53
M3 S30
; Layer C00
G1X20.66Y17.55
G1X20.63Y17.64
G1Y17.74
G1X20.65Y17.78
G1X20.68Y17.75
G1X20.72Y17.67
G1X20.73Y17.59
G1X20.7Y17.53
M5
G0X20.56Y17.63
M3 S30
; Layer C00
G1X20.55Y17.37
G1Y17.09
G1Y16.88
G1Y16.72
G1X20.56Y16.58
G1X20.58Y16.47
G1X20.63Y16.31
G1X20.71Y16.18
G1X20.77Y16.11
G1X20.84Y16.06
G1X20.9Y16.03
G1X20.95
G1X21.02
G1X21.08Y16.01
G1X21.13Y15.95
G1X21.17Y15.89
G1X21.19Y15.74
G1X21.12Y15.61
G1X21.1Y15.59
G1Y15.57
G1X21.14Y15.56
G1X21.19Y15.55
G1X21.27
G1X21.28Y15.53
G1X21.25Y15.51
G1X21.05Y15.45
G1X21.01Y15.43
G1X21.04Y15.42
G1X21.14
G1X21.31Y15.45
G1X21.47Y15.56
G1X21.55Y15.65
G1X21.59Y15.72
G1X21.58Y15.79
G1X21.52Y15.88
G1X21.38Y16.01
G1X21.19Y16.11
G1X20.97Y16.19
G1X20.84Y16.27
G1X20.79Y16.35
G1Y16.45
G1Y16.54
G1X20.76Y16.55
G1X20.71Y16.54
G1X20.69Y16.58
G1X20.72Y16.65
G1X20.78Y16.72
G1X20.81Y16.79
G1X20.83Y16.91
G1Y17.09
G1X20.78Y17.83
G1X20.76Y18.61
G1X20.75Y18.83
G1X20.73Y19.02
G1X20.7Y19.15
G1X20.63Y19.38
G1X20.6Y19.08
G1Y18.76
G1X20.62Y18.41
G1X20.63Y18.26
G1Y18.12
G1Y18
G1X20.6Y17.92
G1X20.58Y17.82
G1X20.56Y17.63
M5
G0X16.56Y17.26
M3 S30
; Layer C00
G1X16.55Y17.17
G1X16.53Y17.14
G1X16.51
G1Y17.17
G1X16.5Y17.22
G1Y17.31
G1X16.54
G1X16.56Y17.26
M5
G0X16.54Y16.95
M3 S30
; Layer C00
G1X16.56Y16.88
G1X16.55Y16.8
G1X16.53Y16.77
G1X16.51
G1Y16.8
G1X16.5Y16.85
G1Y16.94
G1X16.54
M5
G0X15.8Y18.15
M3 S30
; Layer C00
G1Y18.18
G1X15.83Y18.25
G1Y18.4
G1X15.75Y18.56
G1X15.7Y18.64
G1X15.67Y18.69
G1X15.66Y18.73
G1Y18.75
G1X15.74Y18.69
G1X15.84Y18.56
G1X15.89Y18.47
G1X15.92Y18.39
G1X15.91Y18.32
G1X15.87Y18.25
G1X15.82Y18.18
G1X15.8Y18.15
M5
G0X15.64Y18.19
M3 S30
; Layer C00
G1X15.58
G1X15.56Y18.26
G1X15.58Y18.34
G1X15.64Y18.38
G1X15.69Y18.35
G1X15.72Y18.31
G1X15.69Y18.24
G1X15.64Y18.19
M5
G0X16.05Y18.63
M3 S30
; Layer C00
G1X16.04Y18.65
G1Y18.7
G1Y18.79
G1X16.07Y18.8
G1X16.09Y18.74
G1X16.08Y18.66
G1X16.06Y18.63
G1X16.05
M5
G0X15.87Y18.79
M3 S30
; Layer C00
G1X15.8
G1X15.76Y18.82
G1Y18.87
G1X15.83Y18.89
G1X15.91
G1X15.95Y18.86
G1X15.93Y18.81
G1X15.87Y18.79
M5
G0X13.73Y19.02
M3 S30
; Layer C00
G1X13.68
G1X13.65Y19.06
G1X13.66Y19.12
G1X13.7Y19.17
G1X13.73Y19.19
G1X13.74Y19.16
G1Y19.08
G1X13.73Y19.02
M5
G0X13.85Y18.99
M3 S30
; Layer C00
G1Y19.15
G1X13.83Y19.26
G1X13.8Y19.32
G1X13.76Y19.34
G1X13.62Y19.33
G1X13.54Y19.34
G1X13.5Y19.39
G1X13.52Y19.47
G1X13.53Y19.53
G1Y19.55
G1X13.51
G1X13.47Y19.52
G1X13.43Y19.46
G1Y19.38
G1X13.46Y19.26
G1X13.59Y18.96
G1X13.63Y18.85
G1X13.64Y18.77
G1Y18.74
G1X13.63Y18.72
G1X13.7Y18.67
G1X13.76Y18.62
G1X13.73Y18.6
G1X13.7Y18.54
G1X13.69Y18.4
G1X13.68Y18.19
G1Y17.95
G1X13.7Y17.71
G1X13.72Y17.48
G1X13.74Y17.31
G1X13.78Y17.22
G1X13.81Y17.15
G1X13.8Y17.09
G1X13.75Y16.98
G1X13.73Y16.82
G1Y16.64
G1X13.79Y16.5
G1X13.82Y16.42
G1Y16.39
G1X13.8Y16.38
G1X13.68Y16.41
G1X13.64
G1Y16.37
G1X13.66Y16.3
G1Y16.19
G1X13.62Y16.15
G1X13.56Y16.11
G1X13.54Y16.03
G1X13.6Y15.88
G1X13.75Y15.73
G1X13.83Y15.66
G1X13.92Y15.61
G1X14Y15.58
G1X14.06
G1X14.1Y15.6
G1X14.12
G1X14.13Y15.58
G1X14.12Y15.55
G1X14.05Y15.51
G1X13.94Y15.52
G1X13.76Y15.58
G1X13.6Y15.6
G1X13.49Y15.59
G1X13.42Y15.54
G1X13.4Y15.5
G1X13.44
G1X13.51
G1X13.56Y15.41
G1X13.57Y15.31
G1X13.54Y15.26
G1X13.49Y15.27
G1X13.44Y15.35
G1X13.42Y15.38
G1X13.41
G1X13.4Y15.36
G1Y15.31
G1X13.41Y15.22
G1X13.47Y15.18
G1X13.51Y15.16
G1Y15.12
G1X13.49Y15.06
G1Y14.97
G1Y14.84
G1X13.51Y14.7
G1X13.53Y14.59
G1X13.54Y14.52
G1X13.56Y14.46
G1Y14.43
G1X13.6
G1X13.63Y14.52
G1X13.66Y14.66
G1X13.62Y14.77
G1X13.56Y14.85
G1X13.54Y14.96
G1X13.55Y15
G1X13.57
G1X13.6Y14.97
G1X13.65Y14.9
G1X13.7Y14.8
G1X13.73Y14.78
G1X13.75Y14.82
G1Y14.95
G1Y15.04
G1X13.73Y15.1
G1X13.71Y15.14
G1X13.69
G1X13.67
G1X13.65Y15.18
G1Y15.24
G1X13.64Y15.31
G1Y15.51
G1X13.75Y15.31
G1X13.83Y15.17
G1X13.89Y15.12
G1X13.91
G1Y15.15
G1Y15.2
G1X13.88Y15.33
G1Y15.37
G1X13.9Y15.35
G1X13.97Y15.28
G1X14.07Y15.25
G1X14.12
G1X14.14Y15.24
G1Y15.23
G1X14.1Y15.21
G1X14.06Y15.18
G1Y15.13
G1X14.07Y15.06
G1X14.13Y14.96
G1X14.21Y14.81
G1X14.26Y14.75
G1X14.28Y14.78
G1Y14.89
G1X14.27Y14.99
G1X14.24Y15.04
G1X14.2Y15.1
G1X14.19Y15.26
G1X14.21Y15.42
G1X14.25Y15.48
G1X14.3Y15.45
G1X14.32Y15.39
G1Y15.37
G1X14.35
G1X14.39Y15.41
G1X14.44Y15.46
G1X14.51Y15.6
G1Y15.7
G1Y15.73
G1X14.52Y15.74
G1X14.57
G1X14.64Y15.71
G1X14.76Y15.65
G1X14.84Y15.57
G1X14.85Y15.51
G1X14.79Y15.48
G1X14.75Y15.45
G1Y15.37
G1Y15.29
G1X14.71Y15.26
G1X14.67Y15.27
G1X14.65Y15.31
G1Y15.37
G1X14.66Y15.46
G1X14.69Y15.56
G1Y15.61
G1X14.67
G1X14.62Y15.58
G1X14.55Y15.47
G1X14.51Y15.35
G1X14.48Y15.18
G1X14.44Y14.94
G1X14.4Y14.8
G1X14.36Y14.72
G1X14.3Y14.68
G1X14.23
G1X14.11Y14.69
G1X14.04Y14.66
G1X14.06Y14.61
G1X14.18Y14.59
G1X14.26
G1X14.3Y14.57
G1X14.29Y14.55
G1X14.24Y14.52
G1X14.14Y14.49
G1X14.04Y14.52
G1X13.96Y14.55
G1X13.9
G1X13.87Y14.52
G1X13.85Y14.55
G1X13.89Y14.62
G1X13.99Y14.71
G1X14.07Y14.79
G1Y14.84
G1X13.99Y14.85
G1X13.89Y14.77
G1X13.8Y14.63
G1X13.75Y14.47
G1Y14.38
G1X13.72Y14.31
G1X13.7Y14.27
G1X13.65
G1X13.64Y14.23
G1X13.62Y14.16
G1Y14.08
G1X13.64Y13.91
G1X13.7Y13.81
G1X13.79Y13.8
G1X13.86Y13.86
G1X13.9Y13.96
G1X13.89Y14.07
G1Y14.18
G1X13.93Y14.29
G1X13.97Y14.34
G1X13.99Y14.36
G1X14Y14.35
G1X14.01Y14.25
G1X14.03Y14.24
G1X14.07Y14.25
G1X14.21Y14.36
G1X14.23
G1X14.21Y14.32
G1X14.14Y14.22
G1X14.05Y14.05
G1X13.98Y13.81
G1X13.92Y13.77
G1X13.88Y13.73
G1Y13.61
G1X13.91Y13.52
G1Y13.49
G1X13.89Y13.5
G1X13.82Y13.57
G1X13.73Y13.65
G1X13.68
G1X13.43Y13.24
G1X13.34Y13.08
G1X13.29Y12.96
G1Y12.89
G1X13.32Y12.84
G1X13.35Y12.82
G1X13.37
G1Y12.85
G1X13.31Y12.94
G1Y12.96
G1X13.34Y12.94
G1X13.41Y12.89
G1X13.46Y12.86
G1X13.5Y12.84
G1X13.53
G1X13.54Y12.87
G1X13.52Y12.94
G1X13.47Y12.99
G1X13.43Y13.06
G1Y13.15
G1X13.49Y13.21
G1X13.56
G1X13.59Y13.19
G1X13.6
G1Y13.22
G1X13.58Y13.26
G1X13.55Y13.32
G1X13.58Y13.31
G1X13.64Y13.21
G1X13.67Y13.08
G1Y12.95
G1X13.61Y12.84
G1X13.5Y12.78
G1X13.35
G1X13.26
G1X13.17Y12.73
G1X13.08Y12.63
G1X12.97Y12.45
G1X12.89Y12.29
G1X12.84Y12.16
G1X12.82Y12.06
G1X12.84Y12
G1X12.86Y11.89
G1X12.83Y11.75
G1X12.77Y11.66
G1X12.71
G1X12.67Y11.67
G1X12.61
G1X12.55Y11.63
G1X12.47Y11.57
G1X12.3Y11.4
G1X12.1Y11.14
G1X11.99Y10.98
G1X11.89Y10.85
G1X11.81Y10.76
G1X11.77Y10.73
G1Y10.75
G1X11.76Y10.8
G1Y10.87
G1X11.78Y10.95
G1X11.79Y11.04
G1Y11.11
G1X11.78Y11.16
G1X11.75Y11.18
G1X11.72Y11.15
G1X11.7Y11.07
G1X11.69Y10.95
G1Y10.81
G1Y10.66
G1X11.7Y10.54
G1X11.71Y10.46
G1X11.72Y10.44
G1X11.75Y10.46
G1X11.81Y10.53
G1X11.89Y10.64
G1X11.98Y10.77
G1X12.12Y10.94
G1X12.22Y11.03
G1X12.32Y11.07
G1X12.44Y11.06
G1X12.57
G1X12.7Y11.11
G1X12.78Y11.16
G1X12.87Y11.25
G1X12.98Y11.36
G1X13.11Y11.51
G1X13.32Y11.72
G1X13.47Y11.86
G1X13.58Y11.93
G1X13.64
G1X13.67Y11.89
G1Y11.84
G1X13.66Y11.79
G1X13.62Y11.74
G1X13.58Y11.67
G1X13.56Y11.57
G1Y11.46
G1X13.57Y11.21
G1Y11.13
G1X13.56Y11.08
G1X13.53
G1X13.5Y11.07
G1X13.48Y11.03
G1X13.47Y10.96
G1Y10.88
G1X13.49Y10.68
G1X13.54Y10.51
G1X13.58Y10.44
G1Y10.4
G1X13.55
G1X13.49Y10.41
G1X13.42Y10.43
G1X13.39Y10.39
G1Y10.3
G1X13.41Y10.13
G1X13.42Y9.98
G1Y9.86
G1X13.4Y9.76
G1X13.37Y9.71
G1X13.33Y9.66
G1X13.32Y9.64
G1Y9.62
G1X13.37
G1X13.44Y9.6
G1X13.46Y9.54
G1X13.42Y9.46
G1X13.34Y9.37
G1X13.21Y9.3
G1X13.07Y9.32
G1X12.96Y9.4
G1X12.92Y9.52
G1X12.91Y9.6
G1X12.87
G1X12.86Y9.56
G1Y9.48
G1Y9.37
G1X12.88Y9.25
G1X12.91Y9.11
G1X12.95Y9.02
G1X12.99Y8.98
G1X13.04
G1X13.12
G1X13.18Y8.91
G1X13.24Y8.92
G1X13.28Y8.94
G1X13.3
G1Y8.9
G1X13.28Y8.85
G1X13.25Y8.72
G1X13.28Y8.64
G1X13.35
G1X13.44Y8.71
G1X13.49Y8.77
G1X13.52Y8.79
G1X13.51Y8.76
G1X13.46Y8.67
G1X13.42Y8.58
G1Y8.51
G1X13.43Y8.44
G1X13.48Y8.38
G1X13.51Y8.33
G1X13.52Y8.31
G1Y8.3
G1X13.49
G1X13.41
G1X13.36Y8.25
G1X13.35Y8.2
G1Y8.17
G1X13.38Y8.14
G1X13.43
G1X13.47Y8.13
G1X13.5Y8.1
G1X13.52Y8.06
G1X13.53Y7.83
G1X13.57Y7.59
G1X13.61Y7.44
G1X13.66Y7.36
G1X13.72Y7.33
G1X13.94Y7.35
G1X13.99Y7.33
G1X14.01Y7.16
G1X14.11Y7
G1X14.18Y6.95
G1X14.25Y6.91
G1X14.31
G1X14.35Y6.94
G1X14.37Y7.03
G1X14.35Y7.13
G1X14.29Y7.19
G1X14.22
G1X14.18
G1X14.19Y7.23
G1Y7.28
G1X14.16Y7.37
G1X14.11Y7.48
G1X14.05Y7.6
G1X13.89Y7.84
G1X13.75Y8
G1X13.7Y8.11
G1X13.67Y8.31
G1Y8.41
G1X13.65Y8.48
G1X13.63Y8.53
G1X13.6
G1X13.56
G1X13.54Y8.58
G1X13.56Y8.63
G1X13.6Y8.65
G1X13.67Y8.63
G1X13.75Y8.57
G1X13.79Y8.55
G1X13.81Y8.59
G1X13.83Y8.7
G1Y9.02
G1Y9.14
G1X13.85Y9.23
G1X13.87Y9.27
G1X13.9Y9.3
G1X13.92Y9.37
G1X13.94Y9.48
G1X13.96Y9.72
G1X13.97Y9.82
G1X13.99Y9.89
G1X14.01Y9.92
G1X14.06Y9.95
G1X14.1Y10.06
G1X14.16Y10.22
G1X14.2Y10.41
G1X14.43Y11.37
G1X14.45Y11.48
G1X14.46Y11.55
G1X14.45Y11.62
G1X14.39
G1X14.34Y11.59
G1Y11.51
G1X14.35Y11.42
G1X14.31Y11.36
G1X14.26Y11.37
G1X14.24Y11.47
G1X14.22Y11.58
G1X14.18Y11.62
G1X14.16Y11.67
G1X14.14Y11.8
G1X14.13Y11.98
G1Y12.21
G1Y12.43
G1Y12.6
G1X14.16Y12.7
G1X14.18Y12.71
G1X14.21Y12.68
G1X14.24Y12.66
G1X14.28Y12.68
G1X14.33Y12.72
G1X14.37Y12.76
G1X14.39Y12.79
G1X14.37Y12.81
G1X14.33
G1X14.27Y12.85
G1X14.24Y12.94
G1Y13
G1X14.26Y13.02
G1X14.28
G1X14.31Y12.97
G1X14.38Y12.91
G1X14.43Y12.95
G1X14.45Y13.06
G1X14.43Y13.2
G1X14.42Y13.27
G1Y13.3
G1X14.46Y13.27
G1X14.49Y13.24
G1X14.53Y13.27
G1X14.56Y13.35
G1X14.59Y13.49
G1X14.62Y13.62
G1X14.64Y13.74
G1Y13.84
G1X14.65Y13.9
G1X14.67Y13.97
G1X14.72Y14
G1X14.75Y14.02
G1X14.76Y14.07
G1Y14.14
G1X14.75Y14.24
G1X14.73Y14.35
G1Y14.4
G1X14.74
G1X14.78Y14.37
G1X14.82Y14.31
G1X14.85Y14.3
G1Y14.31
G1X14.86Y14.37
G1X14.83Y14.48
G1X14.76Y14.58
G1X14.72Y14.62
G1Y14.65
G1X14.74
G1X14.8Y14.63
G1X14.86Y14.62
G1X14.91Y14.64
G1X14.95Y14.7
G1X14.98Y14.81
G1X15Y14.99
G1X14.97Y15.12
G1X14.95Y15.17
G1X15Y15.15
G1X15.07Y15.14
G1X15.09Y15.17
G1X15.11Y15.26
G1X15.16Y15.43
G1Y15.46
G1X15.14
G1X15.11
G1X15.04Y15.44
G1X15.02Y15.47
G1X15.05Y15.54
G1X15.12Y15.61
G1X15.21Y15.7
G1X15.28Y15.83
G1X15.3Y15.9
G1X15.31Y15.95
G1Y15.98
G1X15.28
G1X15.23
G1X15.2Y16.01
G1X15.18Y16.07
G1Y16.15
G1X15.2Y16.18
G1X15.27Y16.13
G1X15.36Y16.03
G1X15.42Y15.91
G1X15.44Y15.82
G1X15.39Y15.76
G1X15.36Y15.73
G1X15.33Y15.65
G1X15.31Y15.55
G1X15.29Y15.32
G1X15.27Y15.23
G1X15.25Y15.17
G1X15.22
G1X15.18Y15.15
G1X15.2Y14.93
G1X15.16Y14.89
G1X15.12Y14.85
G1X15.09Y14.77
G1X15.12Y14.7
G1X15.19Y14.68
G1X15.26Y14.75
G1X15.28Y14.88
G1X15.3Y14.99
G1X15.35Y15.04
G1X15.39Y15.09
G1Y15.22
G1X15.38Y15.29
G1Y15.34
G1X15.4Y15.36
G1X15.46Y15.35
G1X15.47Y15.37
G1Y15.41
G1Y15.47
G1X15.45Y15.58
G1X15.48Y15.63
G1X15.51Y15.68
G1X15.56Y15.8
G1X15.61Y15.98
G1X15.66Y16.19
G1X15.7Y16.41
G1X15.73Y16.62
G1X15.75Y16.79
G1Y16.9
G1X15.73Y16.99
G1Y17.02
G1X15.75
G1X15.84Y16.92
G1X15.86
G1Y16.96
G1X15.84Y17.13
G1Y17.19
G1X15.85Y17.22
G1X15.87
G1X15.9Y17.25
G1X15.94Y17.35
G1X15.98Y17.5
G1X16.02Y17.69
G1X16.1Y18.09
G1X16.13Y18.22
G1X16.16Y18.32
G1X16.21Y18.42
G1X16.26Y18.45
G1X16.29Y18.42
G1X16.32Y18.33
G1X16.34Y18.19
G1X16.37Y18.01
G1X16.4Y17.57
G1X16.42Y16.86
G1X16.43Y16.65
G1X16.45Y16.48
G1X16.48Y16.37
G1X16.56Y16.19
G1Y16.4
G1X16.57Y16.48
G1X16.59Y16.54
G1X16.61Y16.57
G1X16.63
G1X16.64Y16.53
G1X16.66Y16.45
G1X16.67Y16.33
G1X16.69Y16.17
G1X16.73Y15.78
G1X16.81Y14.87
G1X16.82Y14.7
G1X16.84Y14.59
G1X16.85Y14.51
G1X16.86Y14.49
G1Y14.51
G1X16.87Y14.59
G1Y14.73
G1Y14.91
G1X16.86Y15.12
G1X16.84Y15.36
G1X16.81Y15.9
G1X16.76Y16.48
G1X16.71Y17.03
G1X16.66Y17.51
G1X16.63Y17.7
G1X16.61Y17.86
G1X16.59Y17.98
G1X16.57Y18.04
G1X16.55Y18.09
G1X16.53Y18.07
G1Y17.99
G1Y17.86
G1X16.57Y17.52
G1X16.5Y17.82
G1X16.48Y17.94
G1X16.47Y18.05
G1Y18.14
G1X16.53Y18.25
G1X16.55Y18.36
G1X16.56Y18.5
G1Y18.67
G1Y18.86
G1X16.54Y18.95
G1X16.52Y18.96
G1X16.48Y18.87
G1X16.46Y18.9
G1Y18.95
G1Y19.12
G1Y19.38
G1X16.47Y19.56
G1Y19.7
G1Y19.81
G1Y19.88
G1Y19.92
G1X16.45Y19.93
G1X16.43Y19.92
G1X16.35Y19.79
G1X16.28Y19.72
G1X16.22Y19.69
G1X16.16
G1X16.1Y19.71
G1X16.04Y19.77
G1X15.99Y19.85
G1X15.94Y19.97
G1X15.9Y20.02
G1X15.85
G1X15.79Y20.05
G1X15.74Y20.12
G1X15.72Y20.18
G1X15.69Y20.2
G1X15.66Y20.19
G1X15.63Y20.14
G1X15.61Y20.13
G1X15.59Y20.17
G1Y20.25
G1Y20.37
G1X15.61Y20.49
G1X15.63Y20.6
G1X15.65Y20.67
G1X15.67Y20.72
G1X15.69Y20.74
G1X15.71Y20.73
G1Y20.68
G1X15.73Y20.59
G1X15.74Y20.45
G1X15.76Y20.34
G1X15.77Y20.26
G1X15.79Y20.16
G1Y20.11
G1X15.81Y20.09
G1X15.83
G1X15.86Y20.14
G1X15.9Y20.19
G1X15.93
G1X15.96Y20.17
G1X15.99Y20.11
G1X16.07Y19.92
G1X16.09Y19.77
G1X16.11Y19.72
G1X16.14
G1X16.19Y19.75
G1X16.24Y19.81
G1X16.33Y20
G1X16.39Y20.23
G1X16.41Y20.4
G1Y20.49
G1X16.37Y20.52
G1X16.29Y20.5
G1X16.22Y20.48
G1X16.19
G1Y20.49
G1X16.24Y20.54
G1X16.33Y20.69
G1Y20.88
G1Y20.97
G1X16.29Y21.05
G1X16.24Y21.11
G1X16.18Y21.14
G1X16.12Y21.15
G1X16.07
G1X16.05Y21.12
G1X16.03Y21.06
G1Y20.97
G1X16.06Y20.85
G1X16.09Y20.68
G1X16.15Y20.46
G1X16.19Y20.27
G1X16.22Y20.12
G1X16.23Y20
G1Y19.95
G1X16.18
G1X16.11Y20.04
G1X16.03Y20.17
G1X15.94Y20.34
G1X15.86Y20.52
G1X15.79Y20.71
G1X15.74Y20.89
G1X15.72Y21.03
G1X15.69Y21.15
G1X15.63Y21.19
G1X15.59Y21.22
G1Y21.27
G1X15.67Y21.3
G1X15.77Y21.29
G1X15.83Y21.27
G1X15.85
G1Y21.3
G1X15.81Y21.38
G1Y21.4
G1X15.82
G1X15.86Y21.39
G1X15.91Y21.33
G1Y21.26
G1X15.9Y21.22
G1X15.94Y21.19
G1X16Y21.22
G1X16.05Y21.29
G1X16.07Y21.33
G1X16.09Y21.34
G1Y21.33
G1Y21.29
G1X16.13Y21.22
G1X16.18Y21.19
G1X16.21Y21.23
G1X16.24Y21.34
G1X16.25Y21.49
G1Y21.69
G1Y21.85
G1Y21.98
G1X16.24Y22.08
G1X16.21Y22.16
G1X16.17Y22.24
G1X16.1Y22.32
G1X16.01Y22.42
G1X15.88Y22.54
G1X15.73Y22.67
G1X15.6Y22.77
G1X15.5Y22.83
G1X15.44Y22.84
G1X15.43
G1X15.42Y22.86
G1Y22.91
G1X15.44Y22.98
G1X15.46Y23.07
G1Y23.11
G1X15.44Y23.1
G1X15.32Y22.96
G1X15.28Y22.94
G1X15.27Y22.97
G1X15.26Y23.06
G1Y23.38
G1Y23.77
G1Y24.07
G1X15.22Y24.34
G1X15.16Y24.6
G1X15.06Y24.84
G1X14.93Y25.07
G1X14.76Y25.29
G1X14.55Y25.51
G1X14.29Y25.74
G1X14.06Y25.94
G1X13.84Y26.13
G1X13.64Y26.3
G1X13.51Y26.42
G1X13.41Y26.51
G1X13.32Y26.57
G1X13.25Y26.62
G1X13.21
G1X13.17Y26.63
G1Y26.67
G1Y26.77
G1X13.14Y26.85
G1X13.09Y26.92
G1X13Y26.98
G1X12.92Y27.02
G1X12.87
G1X12.85Y27
G1Y26.95
G1X12.86Y26.87
G1X12.97Y26.79
G1X13.02Y26.69
G1Y26.62
G1X13Y26.57
G1X12.94Y26.53
G1X12.74Y26.47
G1X12.68Y26.44
G1X12.65Y26.41
G1Y26.37
G1X12.67Y26.33
G1X12.62Y26.35
G1X12.57Y26.4
G1Y26.46
G1X12.54Y26.53
G1X12.41Y26.61
G1X12.26Y26.66
G1X12.14Y26.65
G1X12.1Y26.63
G1X12.08
G1Y26.66
G1Y26.69
G1X12.05Y26.71
G1X11.98Y26.73
G1X11.89
G1X11.66Y26.75
G1X11.48Y26.8
G1X11.4Y26.83
G1X11.37
G1X11.38Y26.8
G1X11.43Y26.73
G1X11.49Y26.63
G1Y26.56
G1X11.38Y26.52
G1X11.2Y26.5
G1X11.05Y26.51
G1X10.98Y26.55
G1X10.95Y26.59
G1X10.89Y26.61
G1X10.84Y26.58
G1X10.85Y26.5
G1X10.86Y26.45
G1Y26.43
G1X10.85Y26.42
G1X10.82
G1X10.76Y26.5
G1X10.74Y26.6
G1Y26.65
G1X10.71
G1X10.68Y26.62
G1X10.63Y26.54
G1X10.54Y26.38
G1X10.52Y26.29
G1X10.55Y26.27
G1X10.64Y26.32
G1X10.71Y26.37
G1X10.74Y26.39
G1Y26.37
G1X10.71Y26.32
G1X10.68Y26.27
G1Y26.25
G1X10.72
G1X10.93Y26.32
G1X11.04Y26.36
G1X11.13
G1X11.19
G1X11.22Y26.34
G1Y26.31
G1X11.18Y26.25
G1X11.11Y26.18
G1X11.08Y26.13
G1X11.07Y26.09
G1X11.09Y26.05
G1X11.14Y26.01
G1X11.31Y25.96
G1X11.57Y25.94
G1X11.83
G1X12.01Y25.9
G1X12.07
G1X12.11Y25.92
G1X12.15Y25.99
G1X12.18Y26.1
G1X12.2Y26.2
G1Y26.28
G1X12.17Y26.35
G1X12.14Y26.39
G1X12.09Y26.41
G1X12.03
G1X11.95Y26.38
G1X11.87Y26.33
G1X11.78Y26.26
G1X11.75Y26.24
G1X11.78Y26.28
G1X11.86Y26.37
G1X11.94Y26.44
G1X12.01Y26.48
G1X12.07
G1X12.15Y26.46
G1X12.25Y26.38
G1X12.3Y26.29
G1X12.36Y26.19
G1X12.5Y26.1
G1X12.61Y26.06
G1X12.71Y26.07
G1X12.81Y26.14
G1X13.13Y26.43
G1X13.25Y26.52
G1X13.28Y26.54
G1X13.3
G1Y26.52
G1X13.28Y26.47
G1X13.3Y26.38
G1X13.41Y26.25
G1X13.55Y26.15
G1X13.64Y26.14
G1X13.66Y26.12
G1Y26.05
G1Y25.93
G1Y25.78
G1X13.63Y25.54
G1X13.55Y25.35
G1X13.47Y25.25
G1X13.35Y25.13
G1X13.19Y24.97
G1X12.98Y24.78
G1X12.74Y24.54
G1X12.55Y24.33
G1X12.47Y24.25
G1X12.43Y24.19
G1X12.4Y24.14
G1Y24.12
G1X12.44
G1X12.5Y24.14
G1X12.58Y24.19
G1X12.67Y24.26
G1X12.76Y24.34
G1X12.84Y24.4
G1X12.91Y24.44
G1X12.95Y24.46
G1X13Y24.47
G1X13.07Y24.51
G1X13.17Y24.57
G1X13.27Y24.64
G1X13.37Y24.71
G1X13.46Y24.76
G1X13.53Y24.78
G1X13.57
G1X13.61
G1X13.67Y24.81
G1X13.76Y24.86
G1X13.85Y24.94
G1X13.94Y25.02
G1X14.02Y25.08
G1X14.07Y25.11
G1X14.08
G1X14.06Y25.02
G1X14.01Y24.89
G1X13.93Y24.74
G1X13.83Y24.57
G1X13.73Y24.42
G1X13.63Y24.29
G1X13.55Y24.2
G1X13.5Y24.16
G1X13.38Y24.11
G1X13.25Y23.97
G1X13.18Y23.86
G1X13.16Y23.78
G1X13.2Y23.72
G1X13.29Y23.64
G1X13.46Y23.55
G1X13.62Y23.53
G1X13.72
G1X13.74Y23.5
G1X13.67Y23.46
G1X13.57
G1X13.43Y23.43
G1X13.29Y23.33
G1X13.17Y23.24
G1X13.05Y23.2
G1X13.03
G1Y23.22
G1X13.05Y23.25
G1X13.1Y23.28
G1X13.18Y23.36
G1Y23.44
G1X13.17Y23.48
G1X13.22Y23.47
G1X13.28Y23.45
G1X13.31Y23.48
G1X13.27Y23.55
G1X13.19Y23.6
G1X13.14
G1X13.1
G1X13.08Y23.55
G1Y23.49
G1X13.03Y23.4
G1X12.91Y23.27
G1X12.81Y23.2
G1X12.69Y23.11
G1X12.54Y23.01
G1X12.37Y22.9
G1X12.08Y22.73
G1X11.83Y22.59
G1X11.73Y22.53
G1X11.65Y22.49
G1X11.59Y22.47
G1X11.47Y22.44
G1X11.41Y22.35
G1X11.35Y22.33
G1X11.17Y22.31
G1X10.91Y22.24
G1X10.79Y22.19
G1X10.69Y22.15
G1X10.61Y22.11
G1X10.59Y22.09
G1X10.63Y22.05
G1X10.73
G1X10.85Y22.07
G1X10.97Y22.12
G1X11.11Y22.17
G1X11.28Y22.2
G1X11.4Y22.22
G1X11.57Y22.25
G1X11.77Y22.29
G1X11.99Y22.33
G1X12.19Y22.37
G1X12.35Y22.39
G1X12.46
G1X12.53
G1X12.55Y22.36
G1X12.52Y22.31
G1X12.43Y22.25
G1X12.3Y22.17
G1X11.99Y22.01
G1X12.1Y21.73
G1X12.19Y21.4
G1X12.26Y20.99
G1X12.28Y20.81
G1X12.31Y20.66
G1X12.34Y20.56
G1X12.4Y20.46
G1X12.43Y20.3
G1Y20.22
G1X12.42Y20.15
G1X12.4Y20.1
G1X12.37Y20.08
G1X12.32Y20.03
G1X12.3Y19.9
G1X12.29Y19.81
G1X12.26Y19.76
G1X12.21Y19.74
G1X12.13Y19.75
G1X12Y19.79
G1X11.92Y19.83
G1Y19.85
G1X12.03Y19.83
G1X12.11Y19.81
G1X12.14
G1X12.11Y19.83
G1X12.03Y19.9
G1X11.98Y19.94
G1X11.95Y19.97
G1X11.94Y20
G1X11.96
G1X11.99Y20.03
G1X12.02Y20.08
G1X12.04Y20.17
G1Y20.27
G1Y20.37
G1Y20.45
G1X12.01Y20.51
G1X11.99Y20.53
G1X11.95Y20.56
G1Y20.64
G1Y20.74
G1X11.91Y20.9
G1X11.82Y21.1
G1X11.71Y21.32
G1X11.59Y21.54
G1X11.46Y21.74
G1X11.34Y21.89
G1X11.24Y21.99
G1X11.09Y22.06
G1X11.01
G1Y22.04
G1X11.04Y22.01
G1X11.09Y21.96
G1X11.17Y21.91
G1X11.27Y21.83
G1X11.37Y21.71
G1X11.47Y21.56
G1X11.56Y21.4
G1X11.72Y21.03
G1X11.81Y20.67
G1X11.83Y20.53
G1X11.86Y20.43
G1X11.89Y20.36
G1X11.92Y20.35
G1X11.97
G1X11.98Y20.32
G1X11.97Y20.26
G1X11.92Y20.19
G1X11.85Y20.05
G1X11.81Y19.87
G1Y19.69
G1X11.85Y19.57
G1X11.88Y19.52
G1Y19.47
G1X11.84Y19.4
G1X11.75Y19.3
G1X11.57Y19.12
G1X11.73Y18.91
G1X11.88Y18.77
G1X12.03Y18.71
G1X12.11Y18.72
G1X12.15Y18.76
G1X12.17Y18.85
G1X12.18Y18.98
G1Y19.13
G1X12.2Y19.23
G1X12.21Y19.28
G1X12.23
G1X12.25Y19.25
G1X12.28Y19.16
G1X12.3Y19.04
G1X12.34Y18.67
G1X12.38Y18.49
G1X12.41Y18.34
G1X12.46Y18.22
G1X12.5Y18.13
G1X12.56Y18.07
G1X12.61Y18.04
G1X12.67
G1X12.72Y18.06
G1X12.74
G1Y18.03
G1X12.69Y17.98
G1X12.66Y17.92
G1Y17.86
G1X12.71Y17.8
G1X12.8Y17.72
G1X12.94Y17.6
G1X13Y17.5
G1X13.03Y17.42
G1X13.11Y17.34
G1X13.15Y17.31
G1X13.18
G1X13.2Y17.32
G1Y17.36
G1X13.17Y17.46
G1X13.08Y17.59
G1X13.03Y17.67
G1X13.05Y17.71
G1Y17.72
G1Y17.75
G1X13.01Y17.79
G1X12.83Y17.95
G1X12.76Y18.04
G1X12.72Y18.09
G1X12.66
G1X12.63Y18.13
G1X12.65Y18.24
G1X12.67Y18.32
G1Y18.36
G1X12.65Y18.35
G1X12.56Y18.25
G1X12.54
G1Y18.3
G1X12.56Y18.39
G1X12.58Y18.54
G1X12.55Y18.6
G1X12.53Y18.64
G1X12.52Y18.74
G1Y18.9
G1Y19.09
G1X12.53Y19.25
G1X12.55Y19.38
G1X12.57Y19.46
G1X12.59Y19.51
G1X12.61
G1X12.63Y19.48
G1X12.64Y19.4
G1X12.66Y19.26
G1X12.68Y19.07
G1X12.73Y18.92
G1X12.78Y18.8
G1X12.87Y18.48
G1X12.98Y18.23
G1X13.03Y18.11
G1X13.08Y18.02
G1X13.13Y17.95
G1X13.16Y17.93
G1X13.17Y17.95
G1Y18.01
G1X13.16Y18.09
G1X13.13Y18.19
G1X13.1Y18.29
G1X13.06Y18.37
G1X13.03Y18.43
G1X13Y18.45
G1X12.97Y18.51
G1X12.95Y18.65
G1X12.91Y18.8
G1X12.86Y18.88
G1X12.81Y18.94
G1Y19.05
G1X12.83Y19.15
G1X12.74Y19.25
G1X12.71Y19.4
G1X12.69Y19.75
G1X12.66Y20.1
G1X12.64Y20.25
G1X12.63Y20.37
G1X12.61Y20.47
G1X12.6Y20.53
G1X12.58Y20.59
G1X12.65Y20.52
G1X12.71Y20.53
G1X12.74Y20.62
G1Y20.75
G1X12.72Y20.84
G1Y20.91
G1X12.74Y20.94
G1X12.76
G1X12.82Y20.92
G1X12.84Y20.96
G1X12.82Y21.02
G1X12.72Y21.14
G1Y21.17
G1Y21.2
G1X12.77Y21.23
G1X12.81Y21.25
G1X12.83
G1X12.81Y21.21
G1X12.8Y21.15
G1X12.84Y21.11
G1X12.87Y21.05
G1X12.92Y20.93
G1X12.98Y20.75
G1X13.08Y20.31
G1X13.14Y20.13
G1X13.19Y20
G1X13.23Y19.95
G1X13.27Y19.91
G1X13.25Y19.77
G1X13.29Y19.66
G1X13.33Y19.62
G1X13.36Y19.59
G1X13.39
G1X13.42Y19.63
G1X13.43Y19.69
G1X13.38Y19.71
G1X13.33Y19.73
G1Y19.84
G1X13.3Y19.99
G1X13.25Y20.21
G1X13.18Y20.45
G1X13.1Y20.74
G1X13.05Y20.99
G1X13.02Y21.19
G1X13.03Y21.34
G1X13.09Y21.7
G1X13.11Y21.76
G1X13.15Y21.79
G1X13.2Y21.83
G1X13.27Y21.94
G1X13.36Y22.11
G1X13.45Y22.31
G1X13.55Y22.52
G1X13.63Y22.73
G1X13.7Y22.91
G1X13.74Y23.05
G1X13.78Y23.3
G1X13.81Y23.55
G1X13.89Y23.89
G1X14.02Y24.28
G1X14.1Y24.47
G1X14.18Y24.62
G1X14.24Y24.72
G1X14.29Y24.76
G1X14.37Y24.78
G1X14.42Y24.85
G1X14.43Y24.87
G1X14.44
G1Y24.84
G1Y24.78
G1X14.42Y24.68
G1X14.37Y24.66
G1X14.33
G1Y24.59
G1X14.35Y24.49
G1X14.29Y24.43
G1X14.27Y24.42
G1Y24.41
G1X14.29Y24.4
G1X14.34
G1X14.43Y24.41
G1X14.47Y24.48
G1X14.51Y24.6
G1X14.64Y24.9
G1Y24.97
G1X14.57Y25
G1X14.45Y24.99
G1X14.42Y25
G1X14.43Y25.05
G1X14.48Y25.11
G1X14.54
G1X14.59Y25.08
G1X14.65Y25.03
G1X14.72Y24.97
G1X14.82Y24.87
G1X14.94Y24.75
G1X15.01Y24.66
G1Y24.61
G1X14.97Y24.58
G1X14.9Y24.56
G1X14.89Y24.59
G1X14.88Y24.67
G1X14.81Y24.79
G1X14.74Y24.87
G1X14.71Y24.89
G1Y24.87
G1X14.73Y24.81
G1X14.77Y24.67
G1X14.78Y24.52
G1X14.8Y24.43
G1X14.92Y24.41
G1X14.98Y24.31
G1X15.03Y24.16
G1X15.05Y23.98
G1X15.08Y23.7
G1X15.11Y23.46
G1X15.13Y23.25
G1X15.16Y23.08
G1X15.19Y22.95
G1X15.22Y22.86
G1X15.24Y22.81
G1X15.27
G1X15.3
G1X15.32
G1Y22.77
G1X15.3Y22.72
G1X15.29Y22.59
G1X15.33Y22.45
G1X15.37Y22.35
G1X15.34Y22.31
G1X15.28Y22.28
G1X15.23Y22.22
G1X14.98Y21.69
G1X14.91Y21.53
G1X14.86Y21.4
G1X14.84Y21.32
G1X14.85Y21.3
G1X14.92Y21.31
G1X14.98Y21.27
G1Y21.22
G1X14.93Y21.19
G1X14.89
G1X14.87Y21.18
G1X14.88Y21.15
G1X14.92Y21.11
G1X14.99Y21.02
G1X15.01Y20.95
G1X14.99Y20.93
G1X14.91Y20.96
G1X14.82Y20.99
G1X14.76Y20.94
G1X14.73Y20.84
G1X14.76Y20.7
G1X14.78Y20.65
G1Y20.62
G1X14.76
G1X14.73
G1X14.69Y20.63
G1X14.66Y20.61
G1X14.63Y20.57
G1X14.6Y20.51
G1X14.58Y20.34
G1X14.6Y20.16
G1X14.62Y20.07
G1Y20.03
G1X14.6
G1X14.56Y20.08
G1X14.52Y20.13
G1X14.49
G1X14.47Y20.08
G1Y19.97
G1X14.45Y19.82
G1X14.43Y19.6
G1Y19.53
G1X14.41Y19.42
G1X14.38Y19.34
G1X14.21Y18.77
G1X14.08Y18.26
G1X14.11Y18.24
G1X14.16Y18.26
G1X14.22Y18.27
G1X14.24Y18.23
G1X14.27Y18.18
G1X14.36Y18.15
G1X14.44Y18.19
G1X14.47Y18.26
G1X14.5Y18.34
G1X14.55Y18.38
G1X14.61Y18.37
G1X14.62Y18.33
G1X14.61Y18.27
G1X14.55Y18.17
G1X14.51Y18.06
G1X14.46Y17.89
G1X14.41Y17.67
G1X14.36Y17.43
G1X14.32Y17.18
G1X14.29Y16.96
G1X14.27Y16.77
G1Y16.64
G1Y16.57
G1Y16.52
G1X14.25Y16.49
G1X14.23
G1X14.18
G1X14.16Y16.42
G1X14.15Y16.28
G1X14.11Y16.08
G1X14.1Y15.98
G1Y15.91
G1X14.12Y15.87
G1X14.16Y15.85
G1X14.2Y15.86
G1X14.22Y15.89
G1Y15.93
G1X14.2Y15.98
G1X14.19Y16.03
G1Y16.06
G1X14.23Y16.04
G1X14.31Y15.92
G1X14.35Y15.79
G1X14.36Y15.68
G1X14.32Y15.63
G1X14.27Y15.65
G1X14.29Y15.72
G1X14.3Y15.75
G1X14.29Y15.77
G1X14.25
G1X14.17Y15.76
G1X14.08Y15.75
G1X14.03Y15.77
G1X14.01Y15.86
G1Y16.03
G1X14Y16.16
G1X13.98Y16.27
G1X13.95Y16.37
G1X13.92Y16.42
G1X13.89Y16.47
G1X13.88Y16.52
G1X13.89Y16.59
G1X13.97Y16.76
G1X13.99Y16.81
G1X13.98Y16.85
G1X13.88Y16.91
G1X13.85Y16.97
G1X13.89Y17
G1X13.97
G1X14.04
G1X14.08Y17.07
G1X14.1Y17.21
G1Y17.39
G1Y17.46
G1X14.15Y17.48
G1X14.22Y17.54
G1X14.27Y17.66
G1Y17.8
G1X14.23Y17.91
G1X14.19Y17.95
G1Y17.98
G1X14.21
G1X14.27Y17.96
G1X14.36Y17.95
G1X14.4Y17.99
G1X14.36Y18.05
G1X14.29Y18.1
G1X14.18Y18.14
G1X14.07Y18.15
G1X14.02Y18.11
G1Y18
G1X14.04Y17.9
G1X14.01Y17.86
G1X13.98Y17.89
G1X13.95Y17.97
G1X13.92Y18.09
G1X13.9Y18.25
G1X13.86Y18.62
G1X13.85Y18.99
M5
G0X9.88Y18.43
M3 S30
; Layer C00
G1Y18.38
G1X9.86Y18.32
G1X9.81Y18.3
G1X9.76Y18.32
G1X9.77Y18.38
G1X9.82Y18.43
G1X9.85Y18.45
G1X9.88Y18.43
M5
G0X9.64Y18.52
M3 S30
; Layer C00
G1X9.62Y18.54
G1X9.58Y18.6
G1X9.52Y18.71
G1X9.5Y18.82
G1Y18.88
G1X9.51Y18.89
G1X9.54Y18.88
G1X9.58Y18.82
G1X9.63Y18.71
G1X9.65Y18.6
G1Y18.54
G1Y18.52
M5
G0X9.16Y18.13
M3 S30
; Layer C00
G1Y18.06
G1X9.12Y17.92
G1X9.09Y17.86
G1X9.06Y17.82
G1X9.05
G1X9.04Y17.83
G1Y17.93
G1X9.08Y18.04
G1X9.12Y18.11
G1X9.16Y18.13
M5
G0X8.94Y17.71
M3 S30
; Layer C00
G1X9Y17.66
G1X9.06Y17.56
G1Y17.46
G1X9.03Y17.45
G1X9
G1X8.96Y17.41
G1X8.93Y17.36
G1X8.89Y17.28
G1X8.85Y17.18
G1X8.82Y17.14
G1Y17.16
G1X8.81Y17.24
G1X8.82Y17.37
G1X8.91Y17.51
G1X8.9Y17.68
G1X8.94Y17.71
M5
G0X9.2Y17.4
M3 S30
; Layer C00
G1X9.23
G1X9.26Y17.35
G1X9.29Y17.31
G1X9.34Y17.29
G1X9.38
G1X9.43Y17.3
G1X9.47Y17.32
G1X9.49
G1Y17.29
G1X9.44Y17.13
G1X9.42Y17.06
G1X9.39
G1X9.31Y17.11
G1X9.22Y17.21
G1X9.19Y17.33
G1Y17.38
G1X9.2Y17.4
M5
G0X9.15Y17.07
M3 S30
; Layer C00
G1X9.23Y17.03
G1X9.27Y16.99
G1X9.23Y16.97
G1X9.15
G1X9.07Y16.99
G1X9.03Y17.04
G1X9.07Y17.08
G1X9.15Y17.07
M5
G0X9.29Y16.59
M3 S30
; Layer C00
G1X9.27Y16.57
G1X9.23Y16.53
G1X9.2Y16.45
G1X9.22Y16.39
G1X9.27Y16.37
G1X9.31Y16.4
G1X9.34Y16.45
G1X9.33Y16.53
G1X9.31Y16.57
G1X9.29Y16.59
M5
G0X9.62Y16.18
M3 S30
; Layer C00
G1X9.59Y16.16
G1X9.55Y16.11
G1X9.51Y16.04
G1X9.46Y15.88
G1Y15.8
G1X9.51Y15.82
G1X9.58Y15.93
G1X9.63Y16.06
G1Y16.16
G1X9.62Y16.18
M5
G0X8.91Y15.91
M3 S30
; Layer C00
G1X8.93Y15.85
G1Y15.7
G1Y15.6
G1X8.91Y15.55
G1X8.89
G1X8.87Y15.58
G1X8.83Y15.69
G1X8.85Y15.81
G1X8.89Y15.9
G1X8.91Y15.91
M5
G0X9.28Y15.53
M3 S30
; Layer C00
G1X9.22Y15.48
G1X9.2Y15.41
G1X9.22Y15.35
G1Y15.29
G1X9.13Y15.12
G1Y15.06
G1X9.19Y15.03
G1X9.23Y15.06
G1X9.27Y15.13
G1X9.29Y15.25
G1X9.31Y15.36
G1X9.36Y15.41
G1X9.4Y15.43
G1X9.42Y15.48
G1X9.4Y15.54
G1X9.35Y15.55
G1X9.28Y15.53
M5
G0X9.05Y14.81
M3 S30
; Layer C00
G1X8.98Y14.77
G1X8.93Y14.67
G1Y14.56
G1X8.96Y14.52
G1X9.01
G1X9.03Y14.55
G1X9.05Y14.6
G1X9.08Y14.7
G1X9.09Y14.78
G1X9.05Y14.81
M5
G0X7.92Y14.57
M3 S30
; Layer C00
G1Y14.5
G1X7.86Y14.44
G1X7.75Y14.4
G1X7.67Y14.39
G1X7.64
G1X7.66Y14.42
G1X7.73Y14.47
G1X7.81Y14.56
G1Y14.63
G1X7.8Y14.65
G1X7.85Y14.63
G1X7.92Y14.57
M5
G0X7.36Y13.76
M3 S30
; Layer C00
G1X7.37Y13.73
G1X7.35Y13.62
G1X7.27Y13.49
G1X7.15Y13.39
G1X7.07Y13.36
G1X7.05
G1X7.08Y13.42
G1X7.18Y13.55
G1X7.3Y13.7
G1X7.34Y13.74
G1X7.36Y13.76
M5
G0X6.66Y12.81
M3 S30
; Layer C00
G1X6.63Y12.79
G1Y12.74
G1X6.65Y12.68
G1X6.71Y12.66
G1X6.75Y12.68
G1Y12.74
G1X6.7Y12.79
G1X6.66Y12.81
M5
G0X8.37Y12.46
M3 S30
; Layer C00
G1X8.39Y12.48
G1X8.44
G1X8.48
G1X8.51Y12.46
G1Y12.43
G1Y12.39
G1Y12.35
G1Y12.32
G1X8.53Y12.31
G1X8.57
G1X8.65Y12.29
G1X8.7Y12.23
G1X8.71Y12.18
G1Y12.15
G1X8.68
G1X8.64
G1X8.54Y12.22
G1X8.44Y12.34
G1X8.39Y12.42
G1X8.37Y12.46
M5
G0X8.26Y12.47
M3 S30
; Layer C00
G1X8.37Y12.34
G1X8.53Y12.17
G1X8.68Y12.04
G1X8.81Y11.95
G1X8.91Y11.89
G1X8.97
G1X9.01Y11.91
G1X9.03
G1Y11.88
G1X9.01Y11.83
G1Y11.77
G1X9.05Y11.68
G1X9.11Y11.57
G1X9.19Y11.47
G1X9.27Y11.37
G1X9.35Y11.3
G1X9.41Y11.26
G1X9.46
G1X9.45Y11.34
G1X9.35Y11.47
G1X9.29Y11.53
G1X9.25Y11.58
G1X9.23Y11.61
G1Y11.64
G1Y11.68
G1X9.19Y11.74
G1X9.14Y11.81
G1X9.09Y11.88
G1X9.03Y11.93
G1X8.98Y11.95
G1X8.95
G1X8.9
G1X8.87Y11.99
G1X8.85Y12.09
G1X8.83Y12.17
G1X8.77Y12.26
G1X8.69Y12.39
G1X8.62Y12.47
G1X8.55Y12.53
G1X8.48Y12.56
G1X8.41
G1X8.35
G1X8.32Y12.58
G1X8.3Y12.62
G1Y12.69
G1X8.32Y12.83
G1X8.34Y12.88
G1X8.37Y12.86
G1X8.42Y12.77
G1X8.45Y12.72
G1X8.47Y12.75
G1Y12.84
G1Y13.17
G1Y13.29
G1X8.48Y13.37
G1X8.63Y13.62
G1X8.72Y13.91
G1X8.69Y13.9
G1X8.56Y13.76
G1X8.53Y13.73
G1X8.5
G1Y13.75
G1X8.54Y13.85
G1X8.65Y13.95
G1X8.72Y14
G1X8.76Y14.05
G1X8.77Y14.11
G1X8.76Y14.15
G1X8.74Y14.19
G1Y14.2
G1X8.75
G1X8.78
G1X8.83Y14.18
G1X8.87Y14.19
G1X8.89Y14.22
G1X8.91Y14.28
G1X8.9Y14.4
G1X8.83Y14.53
G1X8.72Y14.61
G1X8.63Y14.63
G1X8.62Y14.66
G1Y14.72
G1X8.63Y14.8
G1X8.66Y14.89
G1X8.67Y14.93
G1X8.69Y14.92
G1X8.71Y14.85
G1X8.75Y14.7
G1X8.81Y14.63
G1X8.86Y14.64
G1X8.89Y14.74
G1Y14.9
G1Y15.03
G1X8.91Y15.13
G1X8.96Y15.19
G1X9.02Y15.28
G1X9.06Y15.45
G1X9.09Y15.63
G1X9.12Y15.74
G1X9.2Y15.92
G1X9.22Y16.1
G1X9.2Y16.29
G1X9.11Y16.46
G1X9Y16.67
G1X8.96Y16.82
G1X8.97Y16.84
G1X8.99
G1X9.02Y16.8
G1X9.11Y16.63
G1X9.16Y16.58
G1X9.22
G1X9.3Y16.63
G1X9.39Y16.74
G1Y16.85
G1Y16.93
G1X9.44Y16.98
G1X9.5Y17.07
G1X9.53Y17.24
G1Y17.34
G1X9.55Y17.4
G1X9.57Y17.43
G1X9.61
G1X9.63
G1Y17.46
G1X9.59Y17.51
G1X9.54Y17.57
G1X9.52Y17.63
G1X9.53Y17.68
G1X9.62Y17.8
G1X9.63Y17.83
G1Y17.85
G1X9.6
G1X9.49Y17.8
G1X9.35Y17.7
G1X9.18Y17.54
G1X9.2Y17.72
G1X9.25Y17.84
G1X9.33Y17.87
G1X9.39Y17.91
G1X9.42Y18.01
G1Y18.07
G1X9.4Y18.11
G1X9.37Y18.12
G1X9.33Y18.11
G1X9.3Y18.09
G1X9.28
G1Y18.11
G1X9.3Y18.15
G1X9.32Y18.23
G1X9.27Y18.3
G1X9.22Y18.39
G1X9.23Y18.55
G1X9.28Y18.68
G1X9.36Y18.75
G1X9.4Y18.72
G1X9.41Y18.65
G1Y18.49
G1X9.47Y18.27
G1X9.54Y18.06
G1X9.64Y17.91
G1X9.69Y17.84
G1X9.71Y17.79
G1Y17.73
G1X9.66Y17.67
G1X9.61Y17.59
G1X9.64Y17.56
G1X9.68Y17.58
G1X9.72Y17.63
G1X9.76Y17.7
G1X9.8Y17.79
G1X9.86Y17.97
G1X9.88Y18.06
G1X9.87Y18.07
G1X9.81Y18
G1X9.76Y17.95
G1X9.73Y17.97
G1X9.78Y18.06
G1X9.89Y18.18
G1X9.96Y18.24
G1X10Y18.31
G1X10.01Y18.38
G1Y18.46
G1X9.98Y18.53
G1Y18.57
G1X10
G1X10.09Y18.54
G1X10.11
G1Y18.57
G1X10.1Y18.62
G1X10.08Y18.71
G1X10.12Y18.75
G1X10.16Y18.78
G1X10.21Y18.86
G1X10.27Y18.98
G1X10.32Y19.14
G1X10.39Y19.31
G1X10.43Y19.44
G1X10.46Y19.55
G1X10.47Y19.62
G1X10.46Y19.69
G1X10.39Y19.71
G1X10.31Y19.74
G1X10.28Y19.82
G1X10.3Y19.9
G1X10.36Y19.93
G1X10.4Y19.91
G1Y19.87
G1Y19.81
G1X10.47Y19.76
G1X10.55Y19.71
G1X10.58Y19.66
G1Y19.56
G1Y19.48
G1X10.62Y19.44
G1X10.72Y19.46
G1X10.74Y19.42
G1X10.81Y19.36
G1X10.96Y19.34
G1X11.17
G1X10.77Y19.67
G1X10.7Y19.73
G1X10.65Y19.78
G1X10.62Y19.83
G1Y19.92
G1X10.68Y20.05
G1X10.77Y20.27
G1X10.8Y20.49
G1Y20.6
G1X10.79Y20.69
G1X10.76Y20.76
G1X10.72Y20.8
G1X10.69Y20.81
G1X10.67
G1Y20.78
G1X10.68Y20.74
G1X10.69Y20.63
G1X10.65Y20.52
G1X10.61Y20.47
G1X10.6Y20.46
G1Y20.47
G1Y20.53
G1Y20.67
G1X10.53Y20.85
G1X10.49Y20.94
G1X10.47Y21
G1Y21.02
G1X10.52Y21.01
G1X10.55Y20.99
G1X10.57
G1Y21
G1X10.56Y21.03
G1X10.54Y21.1
G1X10.58Y21.15
G1X10.61
G1X10.62Y21.13
G1Y21.09
G1Y20.94
G1Y20.89
G1X10.64Y20.86
G1X10.68
G1X10.8Y20.88
G1X10.89Y20.94
G1X10.93Y21
G1Y21.08
G1Y21.17
G1X10.98Y21.24
G1X11.02Y21.25
G1X11.04
G1Y21.23
G1X11.02Y21.19
G1Y21.16
G1X11.07Y21.2
G1X11.13Y21.26
G1X11.24Y21.39
G1X11.28Y21.48
G1X11.25Y21.52
G1X11.15Y21.54
G1X11.06Y21.52
G1X10.93Y21.45
G1X10.76Y21.35
G1X10.59Y21.22
G1X10.42Y21.08
G1X10.29Y20.96
G1X10.21Y20.86
G1X10.18Y20.81
G1X10.16Y20.77
G1X10.1
G1X10.04Y20.75
G1X10.03Y20.69
G1Y20.65
G1X10.02Y20.63
G1X10
G1X9.96
G1X9.87Y20.65
G1X9.77Y20.6
G1X9.7Y20.52
G1Y20.45
G1Y20.39
G1X9.64Y20.34
G1X9.59Y20.32
G1X9.61Y20.37
G1X9.62Y20.43
G1X9.58Y20.45
G1X9.53Y20.44
G1X9.5Y20.39
G1X9.48Y20.28
G1Y20.1
G1X9.46Y19.98
G1X9.4Y19.93
G1X9.36Y19.9
G1X9.38Y19.74
G1X9.35Y19.71
G1X9.28Y19.66
G1X9.25Y19.52
G1X9.26Y19.35
G1X9.32Y19.18
G1X9.36Y19.09
G1X9.38Y19.02
G1Y18.96
G1X9.34Y18.93
G1X9.31
G1X9.29Y18.95
G1X9.27Y18.99
G1Y19.05
G1Y19.13
G1X9.25Y19.17
G1X9.22
G1X9.17Y19.13
G1X9.13Y19.08
G1X9.12Y19.03
G1Y18.98
G1X9.16Y18.91
G1X9.2Y18.78
G1X9.19Y18.63
G1X9.16Y18.57
G1X9.14Y18.54
G1X9.11Y18.55
G1X9.08Y18.62
G1Y18.57
G1X9.09Y18.41
G1Y18.35
G1X9.08Y18.32
G1X9.06
G1X9.04
G1X9.02Y18.28
G1X8.99Y18.21
G1X8.96Y18.12
G1X8.88Y17.86
G1X8.79Y17.54
G1X8.57Y16.69
G1X8.6Y16.68
G1X8.68Y16.64
G1X8.74
G1X8.76Y16.66
G1X8.77Y16.72
G1X8.76Y16.84
G1X8.72Y17.08
G1X8.85Y16.82
G1X8.9Y16.7
G1X8.92Y16.62
G1Y16.56
G1X8.89Y16.53
G1X8.83Y16.48
G1X8.8Y16.4
G1X8.82Y16.33
G1X8.87Y16.3
G1X8.93Y16.32
G1X9Y16.41
G1X9.01
G1X9.02Y16.37
G1Y16.31
G1X9.04Y16.25
G1X9.05Y16.2
G1X9.08Y16.18
G1X9.11
G1X9.16Y16.2
G1X9.18Y16.17
G1X9.17Y16.1
G1X9.12Y15.97
G1X9.08Y15.89
G1X9.06Y15.88
G1X9.04Y15.92
G1X9.01Y16.02
G1X8.98Y16.11
G1X8.95Y16.17
G1X8.91Y16.2
G1X8.87Y16.21
G1X8.83Y16.19
G1X8.79Y16.15
G1X8.74Y16.08
G1X8.68Y15.98
G1X8.56Y15.74
G1X8.72Y15.93
G1X8.81Y16.02
G1X8.85Y16.05
G1Y16.03
G1X8.81Y15.95
G1X8.72Y15.81
G1X8.63Y15.74
G1X8.54
G1X8.43Y15.79
G1X8.39Y15.82
G1X8.36Y15.84
G1X8.34
G1X8.35Y15.81
G1Y15.71
G1X8.28Y15.55
G1X8.24Y15.48
G1X8.21Y15.45
G1Y15.46
G1X8.26Y15.66
G1X8.29Y15.78
G1X8.33Y15.86
G1X8.46Y15.91
G1X8.51Y15.97
G1X8.57Y16.05
G1X8.61Y16.15
G1X8.66Y16.27
G1X8.69Y16.36
G1X8.7Y16.44
G1X8.71Y16.49
G1X8.68Y16.55
G1X8.6Y16.57
G1X8.56
G1X8.53Y16.54
G1X8.52Y16.51
G1X8.53Y16.4
G1X8.5Y16.36
G1X8.47Y16.31
G1X8.4Y16.21
G1X8.32Y16.07
G1X8.23Y15.89
G1X8.16Y15.75
G1X8.11Y15.64
G1X8.08Y15.56
G1X8.06Y15.5
G1X8.08Y15.41
G1X8.15Y15.35
G1X8.23Y15.29
G1X8.25Y15.26
G1X8.21
G1X8.12Y15.28
G1X8.01
G1X7.98Y15.26
G1Y15.21
G1X7.93Y15.17
G1X7.88Y15.14
G1Y15.12
G1Y15.07
G1X7.93Y15.01
G1X8Y14.9
G1Y14.8
G1X7.98Y14.77
G1X7.97
G1X7.96Y14.78
G1X7.94Y14.9
G1X7.92Y14.95
G1X7.9
G1X7.86
G1X7.82Y14.9
G1X7.77Y14.83
G1X7.72Y14.73
G1X7.67Y14.61
G1X7.61Y14.47
G1X7.56Y14.34
G1X7.53Y14.24
G1X7.51Y14.12
G1X7.47Y14.07
G1X7.1Y13.57
G1X6.78Y13.09
G1X6.82Y13.07
G1X6.9Y13.06
G1X6.97Y13.08
G1X6.99Y13.14
G1Y13.21
G1X7.06Y13.23
G1X7.1
G1X7.12Y13.2
G1Y13.16
G1X7.08Y13.09
G1X7.01Y13.01
G1X6.93Y13
G1X6.88
G1X6.86Y12.96
G1X6.83Y12.92
G1X6.77
G1X6.73Y12.94
G1X6.72
G1Y12.93
G1X6.74Y12.89
G1X6.79Y12.76
G1X6.81Y12.61
G1Y12.47
G1X6.72Y12.3
G1X6.7Y12.14
G1X6.73Y11.99
G1X6.78Y11.92
G1X6.83Y11.94
G1X6.81Y12.05
G1X6.85Y12.07
G1X6.89Y12.09
G1X6.91Y12.16
G1X6.93Y12.26
G1Y12.39
G1X6.95Y12.56
G1X7Y12.74
G1X7.08Y12.95
G1X7.31Y13.39
G1X7.39Y13.57
G1X7.43Y13.71
G1Y13.8
G1X7.41Y13.86
G1Y13.9
G1X7.44
G1X7.48Y13.88
G1X7.52Y13.86
G1X7.54
G1Y13.88
G1X7.53Y13.91
G1X7.51Y13.97
G1X7.54Y14
G1X7.61Y14.05
G1X7.67Y14.18
G1X7.73Y14.31
G1X7.8Y14.35
G1X7.88Y14.38
G1X7.97Y14.48
G1X8.08Y14.62
G1X8.28Y14.86
G1X8.32Y14.94
G1X8.33Y15.01
G1X8.31Y15.07
G1X8.34Y15.12
G1X8.51Y15.26
G1X8.54Y15.32
G1Y15.38
G1X8.5Y15.46
G1X8.44Y15.59
G1X8.42Y15.66
G1X8.45Y15.68
G1X8.53Y15.66
G1X8.6Y15.61
G1X8.61Y15.45
G1X8.69Y15.29
G1X8.75Y15.21
G1X8.77Y15.15
G1Y15.12
G1X8.72
G1X8.69
G1X8.67Y15.07
G1X8.64Y15
G1X8.6Y14.9
G1X8.54Y14.65
G1X8.48Y14.35
G1X8.42Y14.04
G1X8.38Y13.74
G1X8.36Y13.48
G1X8.37Y13.31
G1X8.38Y13.22
G1Y13.17
G1X8.36Y13.14
G1X8.33
G1X8.28Y13.13
G1X8.25Y13.02
G1X8.24Y12.85
G1X8.21Y12.68
G1Y12.58
G1X8.26Y12.47
M5
G0X16.88Y12.9
M3 S30
; Layer C00
G1X16.91Y12.74
G1X16.98Y12.53
G1X17.02Y12.44
G1X17.05Y12.36
G1X17.09Y12.31
G1X17.12Y12.29
G1X17.17Y12.31
G1X17.19Y12.36
G1X17.17Y12.42
G1X17.12Y12.44
G1X17.08Y12.47
G1X17.06Y12.53
G1Y12.71
G1X17.04Y12.84
G1X17.01Y12.93
G1X16.96Y12.96
G1X16.9Y12.94
G1X16.88Y12.9
M5
G0X17.19Y12.22
M3 S30
; Layer C00
G1X17.14Y12.19
G1X17.15Y12.14
G1X17.2Y12.09
G1X17.24Y12.07
G1X17.26Y12.09
G1X17.27Y12.14
G1X17.25Y12.19
G1X17.19Y12.22
M5
G0X18.45Y10.71
M3 S30
; Layer C00
G1X18.5Y10.72
G1Y10.7
G1X18.45Y10.63
G1X18.4Y10.54
G1X18.42Y10.47
G1Y10.45
G1X18.38Y10.47
G1X18.33Y10.51
G1X18.25Y10.57
G1X18.23Y10.61
G1X18.25Y10.64
G1X18.33Y10.67
G1X18.45Y10.71
M5
G0X18.64Y10.34
M3 S30
; Layer C00
G1X18.57Y10.31
G1X18.55Y10.25
G1X18.56Y10.15
G1X18.58Y10.09
G1Y10.07
G1X18.56Y10.09
G1X18.53Y10.13
G1X18.43Y10.22
G1X18.32Y10.25
G1X18.24Y10.24
G1X18.2Y10.16
G1X18.22Y10.1
G1X18.27
G1X18.34
G1X18.4Y10.07
G1X18.41Y10.02
G1X18.4Y10
G1X18.36
G1X18.3
G1X18.13Y10.05
G1X17.94Y10.15
G1X17.7Y10.3
G1X18.21Y9.84
G1X18.51Y9.99
G1X18.72Y10.11
G1X18.83Y10.22
G1X18.85Y10.27
G1Y10.3
G1X18.81Y10.33
G1X18.75Y10.34
G1X18.64
M5
G0X19.86Y10.27
M3 S30
; Layer C00
G1X19.91Y10.29
G1X19.97Y10.27
G1X19.99Y10.21
G1X19.98Y10.16
G1X19.96Y10.14
G1X19.92Y10.16
G1X19.87Y10.21
G1Y10.27
M5
G0X20.25Y10.38
M3 S30
; Layer C00
G1X20.22Y10.44
G1X20.25Y10.47
G1X20.33Y10.42
G1X20.4Y10.34
G1X20.41Y10.3
G1X20.37
G1X20.3Y10.33
G1X20.25Y10.38
M5
G0X20.72Y10.75
M3 S30
; Layer C00
G1X20.71Y10.77
G1Y10.81
G1X20.74Y10.94
G1Y10.99
G1X20.69Y11
G1X20.61
G1X20.52Y10.98
G1X20.49Y11
G1X20.51Y11.06
G1X20.59Y11.18
G1X20.64Y11.26
G1X20.69Y11.32
G1X20.73Y11.34
G1X20.76Y11.32
G1X20.77Y11.29
G1X20.79Y11.27
G1X20.81Y11.29
G1X20.84Y11.32
G1X20.87Y11.36
G1X20.9
G1X20.92Y11.35
G1X20.95Y11.3
G1Y11.25
G1Y11.22
G1X20.9Y11.21
G1X20.77Y11.22
G1X20.73
G1X20.71Y11.19
G1Y11.16
G1X20.76Y11.1
G1X20.83Y11.08
G1X20.87Y11.05
G1Y10.95
G1X20.82Y10.84
G1X20.75Y10.76
G1X20.72
M5
G0X20.76Y11.48
M3 S30
; Layer C00
G1X20.67Y11.5
G1X20.64Y11.51
G1Y11.53
G1X20.67
G1X20.72Y11.54
G1X20.81
G1X20.82Y11.5
G1X20.76Y11.48
M5
G0X20.92Y11.59
M3 S30
; Layer C00
G1X20.87Y11.64
G1X20.84Y11.7
G1X20.85Y11.76
G1X20.88
G1X20.91Y11.73
G1X20.95Y11.66
G1X20.96Y11.61
G1Y11.59
G1X20.95Y11.58
G1X20.92
M5
G0X21.05Y11.8
M3 S30
; Layer C00
G1X21.02Y11.82
G1X20.96Y11.87
G1X20.88Y11.97
G1X20.85Y12.03
G1X20.88Y12.05
G1X20.96Y11.99
G1X21.02Y11.95
G1X21.06
G1X21.1Y11.97
G1X21.12Y12.02
G1X21.14Y12.14
G1X21.13Y12.25
G1X21.12Y12.33
G1X21.16Y12.36
G1X21.19Y12.34
G1X21.21Y12.28
G1Y12.18
G1Y12.06
G1Y11.95
G1X21.19Y11.87
G1X21.17Y11.84
G1X21.14Y11.86
G1X21.11Y11.9
G1X21.09Y11.92
G1Y11.9
G1X21.08Y11.86
G1Y11.82
G1X21.05Y11.8
M5
G0X20.68Y11.83
M3 S30
; Layer C00
G1Y11.79
G1X20.62Y11.77
G1X20.56Y11.82
G1X20.51Y11.93
G1X20.49Y11.99
G1X20.45Y12.03
G1X20.42Y12.04
G1X20.38Y12.03
G1X20.34Y12.01
G1X20.32Y12.02
G1X20.33Y12.06
G1X20.37Y12.12
G1X20.41Y12.24
G1X20.4Y12.32
G1Y12.34
G1X20.49Y12.32
G1X20.55Y12.3
G1X20.59
G1Y12.32
G1X20.56Y12.39
G1X20.57Y12.4
G1X20.6
G1X20.71Y12.37
G1X20.74
G1X20.75Y12.39
G1Y12.42
G1X20.73Y12.49
G1X20.79Y12.54
G1X20.9Y12.58
G1X20.92Y12.56
G1X20.97Y12.5
G1X20.99Y12.45
G1X20.93Y12.47
G1X20.86Y12.49
G1X20.85Y12.46
G1X20.89Y12.38
G1X20.98Y12.26
G1X21.05Y12.18
G1X21.08Y12.14
G1X21.05Y12.16
G1X20.98Y12.21
G1X20.92Y12.25
G1X20.88Y12.26
G1X20.85
G1Y12.23
G1X20.82Y12.17
G1X20.76Y12.14
G1X20.72Y12.16
G1Y12.22
G1X20.74Y12.27
G1X20.71Y12.29
G1X20.64Y12.27
G1X20.54Y12.22
G1X20.48Y12.18
G1X20.47Y12.14
G1X20.49Y12.09
G1X20.64Y11.91
G1X20.68Y11.83
M5
G0X20.45Y11.85
M3 S30
; Layer C00
G1X20.51Y11.69
G1Y11.47
G1X20.48Y11.24
G1X20.4Y11.03
G1X20.33Y10.86
G1X20.3Y10.73
G1Y10.69
G1X20.31Y10.67
G1X20.34Y10.68
G1X20.38Y10.73
G1X20.43Y10.79
G1X20.45Y10.76
G1X20.4Y10.66
G1X20.25Y10.55
G1X20.05Y10.42
G1X20.1Y10.61
G1X20.11Y10.69
G1Y10.75
G1X20.1Y10.79
G1X20.07Y10.81
G1X20.01Y10.78
G1X19.99Y10.73
G1X19.96Y10.69
G1X19.9Y10.7
G1X19.87Y10.73
G1Y10.75
G1Y10.78
G1X19.91Y10.81
G1X19.96Y10.87
G1Y10.94
G1X19.9Y11
G1X19.8Y11.03
G1X19.76Y11.05
G1X19.73Y11.09
G1X19.71Y11.16
G1Y11.25
G1Y11.33
G1X19.72Y11.39
G1X19.74Y11.43
G1X19.76
G1X19.81Y11.45
G1X19.86Y11.55
G1X19.9Y11.71
G1X19.93Y11.91
G1X19.94Y12.12
G1Y12.32
G1X19.93Y12.48
G1X19.89Y12.59
G1X19.85Y12.67
G1X19.84Y12.72
G1X19.86Y12.77
G1X19.9Y12.83
G1X19.95Y12.87
G1X19.98
G1Y12.83
G1X19.95Y12.75
G1X19.94Y12.63
G1X19.98Y12.59
G1X20.03Y12.62
G1X20.05Y12.71
G1X20.07Y12.84
G1Y12.99
G1X20.06Y13.15
G1X20.03Y13.29
G1X20Y13.41
G1X19.95Y13.48
G1X19.87Y13.57
G1X19.84Y13.67
G1X19.87Y13.76
G1X19.96Y13.84
G1X20.03Y13.9
G1X20.05Y14
G1X20.04Y14.15
G1X19.97Y14.37
G1X19.96Y14.43
G1X19.97
G1X20.02Y14.38
G1X20.08Y14.37
G1X20.13Y14.42
G1Y14.53
G1X20.09Y14.66
G1X20.03Y14.76
G1X20Y14.78
G1Y14.8
G1X20.02
G1X20.05Y14.81
G1X20.11Y14.83
G1Y14.89
G1X20.08Y14.94
G1X20.09Y14.96
G1X20.14Y14.92
G1X20.24Y14.82
G1X20.37Y14.67
G1X20.53Y14.48
G1X20.66Y14.32
G1X20.78Y14.2
G1X20.88Y14.11
G1X20.95Y14.06
G1X21.01Y14.04
G1X21.04Y14.06
G1X21.05Y14.11
G1X21.02Y14.24
G1X21.03
G1X21.06Y14.21
G1X21.1Y14.15
G1X21.17Y14
G1X21.18Y13.91
G1Y13.87
G1X21.23Y13.85
G1X21.29Y13.89
G1X21.33Y13.99
G1X21.36Y14.16
G1X21.37Y14.39
G1Y14.46
G1X21.35Y14.52
G1X21.33Y14.55
G1X21.3
G1X21.25Y14.54
G1X21.23Y14.57
G1X21.28Y14.64
G1X21.39Y14.72
G1X21.51Y14.82
G1X21.53Y14.93
G1X21.47Y15.02
G1X21.31Y15.11
G1X21.15Y15.19
G1X21.08Y15.27
G1X21.05Y15.31
G1X20.98Y15.33
G1X20.96Y15.31
G1X20.99Y15.26
G1X21.05Y15.19
G1X21.26Y14.99
G1X21.33Y14.91
G1X21.35Y14.84
G1X21.32Y14.79
G1X21.27Y14.76
G1X21.22
G1X21.16Y14.79
G1X21.09Y14.84
G1X20.97Y14.92
G1X20.9
G1X20.89Y14.89
G1Y14.94
G1X20.87Y15.03
G1X20.8Y15.11
G1X20.72Y15.16
G1X20.69Y15.14
G1X20.66Y15.13
G1X20.61Y15.2
G1X20.52Y15.29
G1X20.43Y15.33
G1X20.32Y15.3
G1X20.22Y15.22
G1X20.13Y15.16
G1X20.05
G1X20.03Y15.21
G1X20.07Y15.3
G1X20.1Y15.36
G1Y15.46
G1X20.04Y15.59
G1X19.95Y15.77
G1X19.87Y15.92
G1X19.81Y16.04
G1X19.76Y16.12
G1X19.73Y16.15
G1X19.68Y16.12
G1X19.57Y16.05
G1X19.49Y15.95
G1Y15.83
G1X19.55Y15.74
G1X19.66
G1X19.71Y15.75
G1X19.74
G1X19.73Y15.73
G1X19.69Y15.68
G1X19.65Y15.62
G1Y15.59
G1X19.66Y15.55
G1X19.72Y15.53
G1X19.77Y15.5
G1X19.8Y15.47
G1Y15.42
G1X19.77Y15.36
G1X19.74Y15.19
G1X19.8Y14.7
G1X19.77Y14.53
G1X19.74Y14.43
G1X19.72Y14.26
G1X19.7Y14.03
G1Y13.77
G1Y13.51
G1Y13.34
G1X19.72Y13.29
G1Y13.27
G1X19.74
G1X19.76Y13.29
G1X19.78Y13.32
G1Y13.27
G1X19.79Y13.17
G1Y13.01
G1X19.78Y12.8
G1X19.76Y12.55
G1X19.73Y12.25
G1X19.68Y11.72
G1X19.67Y11.54
G1Y11.39
G1Y11.29
G1Y11.21
G1X19.63
G1X19.6
G1X19.56Y11.18
G1X19.52Y11.12
G1X19.48Y11.04
G1X19.42Y10.94
G1X19.35Y10.87
G1X19.27Y10.81
G1X19.18Y10.78
G1X19.09Y10.77
G1X18.99
G1X18.9Y10.82
G1X18.69Y10.96
G1X18.58Y11.01
G1X18.46Y11.02
G1X18.36
G1X18.26Y10.97
G1X18.19Y10.91
G1X18.14Y10.81
G1X18.13Y10.7
G1X18.18Y10.56
G1X18.31Y10.42
G1X18.39Y10.37
G1X18.45Y10.34
G1X18.51
G1X18.55Y10.36
G1X18.65Y10.4
G1X18.83
G1X18.93Y10.39
G1X19
G1X19.04Y10.41
G1X19.06Y10.45
G1X19.07Y10.49
G1X19.12Y10.48
G1Y10.41
G1X19.06Y10.34
G1X18.94Y10.23
G1X18.82Y10.11
G1X18.76Y10.03
G1X18.75Y9.99
G1X18.78
G1X18.94Y10.04
G1X18.97
G1X18.94Y10
G1X18.68Y9.69
G1X18.67Y9.72
G1X18.69Y9.82
G1X18.71Y9.94
G1X18.68Y9.98
G1X18.6Y9.95
G1X18.45Y9.85
G1X18.36Y9.78
G1X18.32Y9.71
G1X18.3Y9.63
G1X18.32Y9.52
G1X18.38Y9.37
G1X18.45Y9.28
G1X18.52Y9.27
G1X18.59Y9.32
G1X18.66Y9.37
G1X18.75Y9.36
G1X18.79Y9.34
G1X18.81
G1Y9.36
G1Y9.4
G1X18.73Y9.47
G1X18.6Y9.49
G1X18.52
G1X18.47Y9.51
G1X18.45Y9.56
G1Y9.64
G1Y9.7
G1Y9.73
G1X18.47
G1X18.49Y9.68
G1X18.52Y9.62
G1X18.57Y9.59
G1X18.63
G1X18.7Y9.62
G1X18.78Y9.67
G1X18.87Y9.75
G1X18.96Y9.86
G1X19.05Y9.99
G1X19.14Y10.13
G1X19.2Y10.26
G1X19.23Y10.35
G1Y10.39
G1Y10.42
G1X19.26Y10.44
G1X19.37Y10.48
G1X19.52Y10.59
G1X19.72Y10.75
G1X19.5Y10.62
G1X19.41Y10.58
G1X19.33Y10.55
G1X19.27Y10.53
G1X19.24
G1Y10.56
G1X19.28Y10.6
G1X19.35Y10.64
G1X19.44Y10.69
G1X19.57Y10.75
G1X19.65Y10.77
G1X19.71Y10.74
G1X19.76Y10.65
G1X19.8Y10.58
G1X19.81Y10.54
G1X19.8Y10.53
G1X19.75Y10.55
G1X19.71Y10.57
G1X19.69Y10.54
G1Y10.48
G1X19.7Y10.37
G1X19.72Y10.28
G1Y10.2
G1X19.7Y10.16
G1X19.67Y10.14
G1X19.63Y10.16
G1X19.65Y10.22
G1X19.66Y10.25
G1Y10.27
G1X19.63
G1X19.59
G1X19.52Y10.22
G1X19.51Y10.14
G1X19.5Y10.09
G1X19.45Y10.1
G1X19.35Y10.13
G1X19.28Y10.1
G1X19.26Y10.02
G1X19.31Y9.93
G1X19.35Y9.88
G1X19.36Y9.85
G1X19.31Y9.87
G1X19.24Y9.88
G1X19.21Y9.84
G1X19.23Y9.81
G1X19.27Y9.79
G1X19.34
G1X19.43
G1X19.63Y9.83
G1X19.78Y9.88
G1X19.88Y9.94
G1X19.91Y10
G1X19.95Y10.03
G1X20.04Y10.01
G1X20.09Y10
G1X20.12
G1X20.13Y10.02
G1X20.1Y10.09
G1Y10.1
G1X20.13
G1X20.18
G1X20.27Y10.09
G1X20.3Y10.13
G1X20.32Y10.19
G1X20.38Y10.21
G1X20.43Y10.19
G1X20.41Y10.12
G1Y10.1
G1X20.43
G1X20.47Y10.15
G1X20.52Y10.21
G1X20.63Y10.38
G1X20.64Y10.53
G1X20.62Y10.62
G1X20.64Y10.65
G1X20.68Y10.63
G1X20.76Y10.55
G1X20.8Y10.5
G1Y10.45
G1X20.78Y10.39
G1X20.73Y10.33
G1X20.66Y10.25
G1X20.67Y10.21
G1X20.77Y10.25
G1X20.85Y10.34
G1X20.89Y10.45
G1Y10.66
G1X20.91Y10.79
G1X20.97Y10.96
G1X21.05Y11.15
G1X21.2Y11.57
G1X21.29Y12.05
G1X21.31Y12.26
G1Y12.43
G1X21.29Y12.55
G1X21.24Y12.6
G1X21.12Y12.61
G1X21.04Y12.63
G1X20.99Y12.65
G1X20.95Y12.69
G1X20.93Y12.72
G1X20.99Y12.7
G1X21.05Y12.68
G1X21.07Y12.7
G1Y12.75
G1X21.03Y12.83
G1X20.9Y13.02
G1X20.71Y13.24
G1X20.61Y13.33
G1X20.51Y13.39
G1X20.43Y13.43
G1X20.37
G1X20.33Y13.41
G1X20.32Y13.35
G1X20.33Y13.28
G1X20.38Y13.17
G1X20.42Y13.08
G1X20.43Y13.04
G1X20.41Y13.06
G1X20.34Y13.14
G1X20.26Y13.26
G1X20.22Y13.36
G1X20.21Y13.39
G1X20.18
G1Y13.35
G1Y13.29
G1X20.21Y13.21
G1X20.25Y13.12
G1X20.32Y13.01
G1X20.4Y12.95
G1X20.5Y12.93
G1X20.75
G1X20.84
G1X20.9Y12.91
G1X20.92Y12.89
G1X20.88Y12.85
G1X20.79Y12.86
G1X20.72Y12.89
G1X20.69
G1X20.71Y12.85
G1X20.82Y12.71
G1X20.84Y12.67
G1X20.82
G1X20.77Y12.7
G1X20.72Y12.71
G1X20.67
G1X20.61Y12.68
G1X20.56Y12.62
G1X20.48Y12.54
G1X20.41Y12.53
G1Y12.59
G1X20.49Y12.68
G1X20.57Y12.77
G1X20.61Y12.83
G1X20.6Y12.87
G1X20.54Y12.88
G1X20.49Y12.84
G1X20.42Y12.72
G1X20.35Y12.54
G1X20.28Y12.34
G1X20.23Y12.13
G1X20.19Y11.94
G1X20.17Y11.78
G1X20.19Y11.64
G1X20.09Y11.6
G1X20.07Y11.54
G1Y11.51
G1X20.09Y11.49
G1X20.13Y11.51
G1X20.18Y11.54
G1X20.24Y11.65
G1X20.25Y11.79
G1X20.24Y11.88
G1Y11.91
G1X20.25Y11.89
G1X20.29Y11.81
G1X20.33Y11.68
G1X20.31Y11.57
G1X20.25Y11.49
G1X20.12Y11.43
G1X20.04Y11.4
G1X20.01Y11.37
G1X20.02Y11.34
G1X20.09Y11.29
G1X20.18Y11.21
G1X20.22Y11.14
G1X20.19Y11.13
G1X20.11Y11.17
G1X20.02Y11.22
G1X19.97Y11.19
G1Y11.11
G1X20.03Y11
G1X20.11Y10.91
G1X20.17
G1X20.2Y10.94
G1X20.23Y11.01
G1X20.27Y11.12
G1X20.33Y11.27
G1X20.38Y11.42
G1X20.41Y11.57
G1X20.43Y11.69
G1X20.42Y11.79
G1X20.4Y11.87
G1Y11.9
G1X20.41
G1X20.45Y11.85
M5
G0X20.23Y13.4
M3 S30
; Layer C00
G1X20.25Y13.42
G1X20.31Y13.46
G1X20.41Y13.51
G1X20.49Y13.5
G1X20.51Y13.49
G1Y13.51
G1X20.49Y13.55
G1X20.46Y13.61
G1X20.39Y13.71
G1X20.3Y13.76
G1X20.2Y13.77
G1X20.12Y13.73
G1X20.08Y13.65
G1X20.07Y13.53
G1Y13.46
G1X20.09Y13.43
G1X20.13
G1X20.2Y13.49
G1X20.26Y13.54
G1X20.3Y13.55
G1Y13.53
G1X20.23Y13.43
G1Y13.4
M5
G0X9.2Y26.24
M3 S30
; Layer C00
G1X9.14Y26.26
G1X9.11Y26.31
G1X9.08Y26.35
G1X8.96
G1X8.93Y26.37
G1X8.9Y26.44
G1Y26.54
G1Y26.63
G1Y26.7
G1X8.91Y26.73
G1X8.93
G1X8.95Y26.7
G1Y26.66
G1Y26.63
G1X8.98Y26.58
G1X9.03Y26.51
G1X9.17Y26.36
G1X9.21Y26.3
G1X9.22Y26.26
G1X9.2Y26.24
M5
G0X8.55Y26.56
M3 S30
; Layer C00
G1X8.49Y26.53
G1X8.45Y26.51
G1X8.42Y26.53
G1X8.38Y26.55
G1X8.29Y26.57
G1X8.18Y26.58
G1X8.06
G1X7.74
G1X7.85Y26.78
G1X7.94Y26.9
G1X8.05Y26.97
G1X8.14Y26.99
G1X8.18Y26.92
G1X8.24Y26.84
G1X8.39Y26.77
G1X8.55Y26.73
G1X8.67
G1X8.69Y26.74
G1Y26.72
G1X8.66Y26.68
G1X8.61Y26.62
G1X8.55Y26.56
M5
G0X8.52Y26.8
M3 S30
; Layer C00
G1X8.4Y26.84
G1X8.32Y26.88
G1X8.29Y26.92
G1Y26.95
G1X8.4Y27.04
G1X8.39Y27.06
G1X8.36Y27.08
G1X8.37Y27.13
G1X8.41Y27.18
G1X8.46Y27.21
G1X8.55Y27.16
G1X8.7Y27.06
G1X8.86Y26.97
G1X8.98Y26.96
G1X9.02
G1X9Y26.92
G1X8.96Y26.88
G1X8.91
G1X8.85Y26.89
G1X8.75Y26.94
G1X8.64Y27
G1X8.58
G1X8.55Y26.94
G1Y26.81
G1X8.52Y26.8
M5
G0X8.19Y27.13
M3 S30
; Layer C00
G1X8.11Y27.1
G1X8.07
G1X8.06Y27.13
G1Y27.19
G1X8.1Y27.33
G1X8.22Y27.31
