; LightBurn 0.9.24
; GRBL device profile, absolute coords
; Bounds: X3 Y3 to X33.13 Y34
G00 G17 G40 G21 G54
G90
M4
; Cut @ 6000 mm/min, 20% power
M8
M5
G0X4.06Y12.81
M3 S30
; Layer C00
G1X3.73Y12.86S20F6000
G1X3.47Y12.93
G1X3.33Y13.01
G1X3.27Y13.09
G1Y13.15
G1X3.31Y13.21
G1X3.36Y13.3
G1X3.5Y13.54
G1X3.57Y13.65
G1X3.61Y13.73
G1X3.62Y13.78
G1X3.64Y13.79
G1X3.68
G1X3.73Y13.75
G1X4.05Y13.55
G1X4.31Y13.43
G1X4.42Y13.38
G1X4.51Y13.36
G1X4.57
G1X4.61
G1X4.63Y13.39
G1X4.64
G1X4.66Y13.36
G1Y13.31
G1X4.73Y13.2
G1X4.86Y13.16
G1X5.02Y13.19
G1X5.19Y13.28
G1X5.38Y13.47
G1X5.58Y13.71
G1X5.77Y13.98
G1X5.94Y14.27
G1X6.08Y14.55
G1X6.19Y14.81
G1X6.24Y15.02
G1Y15.17
G1X6.2Y15.26
G1X6.19Y15.39
G1X6.18Y15.53
G1Y15.7
G1X6.21Y16.08
G1X6.26Y16.48
G1X6.32Y16.86
G1X6.35Y17.16
G1Y17.29
G1X6.38Y17.37
G1X6.43Y17.44
G1X6.53Y17.51
G1X6.68Y17.64
G1X6.78Y17.81
G1X6.87Y18.06
G1X6.95Y18.39
G1X6.98Y18.54
G1X7.01Y18.66
G1X7.04Y18.74
G1X7.06Y18.77
G1X7.1Y18.79
G1Y18.84
G1X7.12Y18.91
G1X7.15Y19.03
G1X7.2Y19.19
G1X7.26Y19.35
G1X7.31Y19.5
G1X7.36Y19.62
G1X7.4Y19.7
G1X7.42Y19.72
G1X7.44Y19.71
G1X7.48
G1X7.53Y19.76
G1X7.58Y19.81
G1X7.64Y19.88
G1X7.69Y19.92
G1X7.72Y19.94
G1X7.74Y19.92
G1Y19.87
G1X7.73Y19.77
G1X7.71Y19.63
G1X7.68Y19.44
G1X7.65Y19.23
G1X7.63Y18.98
G1Y18.71
G1Y18.43
G1Y18.16
G1X7.65Y17.92
G1X7.68Y17.73
G1X7.71Y17.6
G1X7.74Y17.57
G1X7.77Y17.6
G1X7.81Y17.68
G1X7.84Y17.81
G1X7.91Y18.16
G1X7.95Y18.59
G1X8Y19.12
G1X8.08Y19.63
G1X8.17Y20.09
G1X8.29Y20.51
G1X8.43Y20.89
G1X8.59Y21.23
G1X8.77Y21.52
G1X8.97Y21.77
G1X9.06Y21.86
G1X9.13Y21.92
G1X9.18Y21.96
G1X9.22Y21.98
G1X9.24
G1X9.25Y21.95
G1Y21.9
G1X9.18Y21.58
G1X9.13Y21.3
G1X9.11Y21.18
G1X9.1Y21.07
G1Y21
G1Y20.96
G1X9.11
G1X9.14Y21
G1X9.17Y21.06
G1X9.21Y21.14
G1X9.29Y21.35
G1X9.37Y21.59
G1X9.45Y21.82
G1X9.56Y22
G1X9.68Y22.13
G1X9.82Y22.22
G1X9.89Y22.25
G1Y22.27
G1X9.8Y22.29
G1X9.62
G1X9.43
G1X9.28
G1X9.14Y22.23
G1X8.97Y22.15
G1X8.82Y22.07
G1X8.74Y22.03
G1X8.73Y22.04
G1X8.77Y22.1
G1X8.83Y22.16
G1X8.84Y22.19
G1X8.81
G1X8.73Y22.17
G1X8.62Y22.16
G1X8.58Y22.2
G1X8.59Y22.23
G1X8.63
G1X8.67
G1X8.7Y22.25
G1X8.75Y22.27
G1X8.86Y22.31
G1X9.03Y22.36
G1X9.22Y22.4
G1X9.43Y22.45
G1X9.62Y22.48
G1X9.8Y22.51
G1X9.92
G1X10.02Y22.52
G1X10.07Y22.53
G1Y22.54
G1X10.02Y22.57
G1X9.84Y22.61
G1X9.61
G1X9.33Y22.57
G1X9.04Y22.49
G1X8.85Y22.48
G1X8.66Y22.53
G1X8.49Y22.64
G1X8.36Y22.79
G1X8.27Y22.95
G1X8.24Y23.11
G1X8.28Y23.25
G1X8.42Y23.35
G1X8.49Y23.38
G1X8.52Y23.41
G1X8.53Y23.44
G1X8.51Y23.46
G1X8.46Y23.48
G1X8.39Y23.49
G1X8.29
G1X8.16Y23.5
G1X7.95Y23.52
G1X7.81Y23.6
G1X7.72Y23.74
G1X7.67Y23.97
G1Y24.11
G1X7.69Y24.17
G1X7.74Y24.15
G1X7.8Y24.03
G1X7.84Y23.94
G1X7.9Y23.87
G1X7.99Y23.81
G1X8.09Y23.76
G1X8.23Y23.73
G1X8.4Y23.7
G1X8.6Y23.68
G1X8.84Y23.67
G1X9.19Y23.65
G1X9.29
G1X9.35Y23.63
G1X9.36Y23.62
G1X9.34Y23.6
G1X9.28Y23.57
G1X9.19Y23.53
G1X9.01Y23.43
G1X8.85Y23.32
G1X8.72Y23.21
G1X8.62Y23.11
G1X8.56Y23
G1X8.53Y22.92
G1X8.55Y22.85
G1X8.63Y22.8
G1X8.67Y22.78
G1X8.7Y22.75
G1Y22.7
G1Y22.56
G1X8.73Y22.52
G1X8.82Y22.53
G1X8.98Y22.59
G1X9.09Y22.62
G1X9.23Y22.65
G1X9.4Y22.66
G1X9.59Y22.67
G1X9.72
G1X9.82
G1X9.89
G1X9.94Y22.69
G1X10.01Y22.73
G1X10.05Y22.8
G1X10.11Y22.89
G1X10.18Y22.94
G1X10.16Y22.95
G1X10.1Y22.96
G1X9.9Y23
G1X9.87Y23.02
G1X9.89Y23.03
G1X9.94Y23.05
G1X10.11Y23.12
G1X10.27Y23.17
G1X10.36Y23.19
G1X10.4
G1Y23.14
G1X10.38Y23.1
G1X10.4
G1X10.42Y23.13
G1X10.58Y23.34
G1X10.61Y23.38
G1X10.66Y23.39
G1X10.71Y23.37
G1X10.8Y23.31
G1X10.93Y23.22
G1X11.01Y23.19
G1X11.06Y23.17
G1X11.13Y23.12
G1X11.23Y23.02
G1X11.35Y22.88
G1X11.51Y22.69
G1X11.7Y22.46
G1X11.93Y22.18
G1X12.2Y21.84
G1Y21.83
G1X12.14
G1X12.05Y21.88
G1X11.6Y22.11
G1X11.27Y22.27
G1X10.98Y22.43
G1X10.74Y22.59
G1X10.56Y22.75
G1X10.45Y22.9
G1X10.43Y22.96
G1X10.4Y22.99
G1X10.38Y23
G1X10.36Y22.99
G1X10.34Y22.95
G1X10.33Y22.88
G1X10.31Y22.78
G1Y22.65
G1X10.3Y22.51
G1X10.32Y22.4
G1X10.39Y22.29
G1X10.73Y21.85
G1X10.96Y21.54
G1X11.19Y21.2
G1X11.42Y20.84
G1X11.85Y20.1
G1X12.24Y19.37
G1X12.4Y19.02
G1X12.55Y18.69
G1X12.67Y18.39
G1X12.76Y18.12
G1X12.82Y17.89
G1X12.84Y17.71
G1Y17.58
G1X12.78Y17.5
G1X12.75Y17.52
G1X12.69Y17.58
G1X12.61Y17.68
G1X12.51Y17.82
G1X12.28Y18.18
G1X12.01Y18.62
G1X11.74Y19.09
G1X11.49Y19.55
G1X11.38Y19.76
G1X11.29Y19.95
G1X11.22Y20.12
G1X11.17Y20.25
G1X11.11Y20.41
G1X11.06Y20.51
G1X11.02Y20.56
G1X10.99
G1X10.97Y20.52
G1Y20.43
G1X10.96Y20.31
G1Y20.15
G1X10.98Y19.97
G1X11Y19.75
G1X11.03Y19.51
G1X11.07Y19.26
G1X11.17Y18.71
G1X11.3Y18.12
G1X11.37Y17.8
G1X11.44Y17.49
G1X11.5Y17.21
G1X11.55Y16.96
G1X11.59Y16.72
G1X11.63Y16.51
G1X11.66Y16.33
G1X11.67Y16.17
G1X11.69Y16.03
G1Y15.92
G1Y15.84
G1X11.67Y15.78
G1X11.64Y15.75
G1X11.61Y15.74
G1X11.57Y15.76
G1X11.52Y15.81
G1X11.42Y15.94
G1X11.34Y16.1
G1X11.3Y16.2
G1X11.25Y16.34
G1X11.09Y16.86
G1X11.04Y16.98
G1X11.01Y17.06
G1X10.98Y17.12
G1X10.95Y17.14
G1X10.93Y17.12
G1Y17.08
G1X10.91Y16.88
G1X10.9Y16.8
G1X10.88Y16.74
G1X10.87Y16.71
G1X10.85
G1X10.83Y16.74
G1X10.81Y16.8
G1X10.79Y16.9
G1X10.77Y17.04
G1X10.75Y17.16
G1X10.72Y17.25
G1X10.7Y17.32
G1X10.68Y17.36
G1X10.66
G1X10.64
G1X10.62Y17.32
G1X10.6Y17.26
G1X10.58Y17.18
G1X10.56Y17.07
G1X10.54Y16.94
G1X10.51Y16.6
G1X10.46Y15.83
G1X10.44Y15.53
G1X10.41Y15.26
G1X10.38Y15.04
G1X10.34Y14.86
G1X10.31Y14.73
G1X10.27Y14.64
G1X10.24Y14.59
G1X10.2
G1X10.17Y14.63
G1X10.15Y14.72
G1X10.13Y14.86
G1X10.11Y15.04
G1X10.1Y15.27
G1Y15.55
G1Y15.89
G1X10.12Y16.61
G1X10.13Y17.27
G1Y17.86
G1Y18.38
G1X10.12Y18.82
G1X10.1Y19.17
G1X10.09Y19.32
G1X10.07Y19.44
G1X10.06Y19.53
G1X10.04Y19.6
G1X9.97Y19.8
G1X9.9Y19.94
G1X9.84Y20.02
G1X9.78Y20.06
G1X9.73Y20.04
G1X9.68Y19.97
G1X9.65Y19.85
G1X9.63Y19.67
G1X9.58Y19
G1X9.52Y18.37
G1X9.44Y17.79
G1X9.36Y17.26
G1X9.24Y16.48
G1X9.15Y15.65
G1X9.12Y15.35
G1X9.09Y15.08
G1X9.05Y14.85
G1X9.01Y14.65
G1X8.97Y14.48
G1X8.93Y14.35
G1X8.89Y14.26
G1X8.84Y14.22
G1X8.81
G1Y14.28
G1X8.84Y14.42
G1X8.85Y14.63
G1X8.86Y14.89
G1Y15.14
G1X8.84Y15.28
G1X8.81Y15.33
G1X8.77Y15.32
G1X8.73Y15.24
G1X8.68Y15.1
G1X8.62Y14.92
G1X8.57Y14.7
G1X8.53Y14.44
G1X8.5Y14.22
G1X8.46Y14.04
G1X8.44Y13.9
G1X8.41Y13.8
G1X8.39Y13.74
G1X8.38Y13.73
G1X8.36Y13.76
G1Y13.83
G1X8.34Y13.94
G1Y14.09
G1Y14.28
G1Y14.52
G1X8.35Y14.79
G1X8.36Y15.11
G1X8.39Y15.87
G1X8.4Y16.14
G1Y16.38
G1Y16.6
G1Y16.79
G1X8.38Y16.93
G1X8.36Y17.03
G1X8.34Y17.08
G1X8.31
G1X8.24Y16.94
G1X8.18Y16.72
G1X8.16Y16.57
G1X8.14Y16.4
G1X8.12Y16.2
G1X8.1Y15.68
G1X8.08Y15.41
G1X8.05Y15.19
G1X7.98Y14.74
G1Y14.43
G1X8.02Y14.15
G1X8.11Y13.92
G1X8.18Y13.78
G1X8.2Y13.71
G1X8.19Y13.67
G1X8.14Y13.65
G1X8.06Y13.61
G1X8.03Y13.57
G1X8.01Y13.55
G1X7.96Y13.53
G1X7.88
G1X7.78Y13.52
G1X7.51Y13.5
G1X7.23Y13.45
G1X7.09Y13.41
G1X7.01
G1X6.96
G1X6.95Y13.44
G1Y13.51
G1X6.96Y13.63
G1X6.98Y13.78
G1X7.01Y13.96
G1X7.07Y14.4
G1X7.16Y14.91
G1X7.25Y15.46
G1X7.35Y16.01
G1X7.45Y16.52
G1X7.62Y17.35
G1X7.64Y17.48
G1X7.65Y17.54
G1Y17.56
G1X7.62
G1X7.58Y17.53
G1X7.53Y17.48
G1X7.43Y17.34
G1X7.35Y17.18
G1X7.3Y17.08
G1X7.27Y17.02
G1X7.24Y17
G1X7.21Y17.01
G1X7.19Y17.04
G1X7.18
G1X7.16Y17.02
G1X7.13Y16.95
G1X7.09Y16.82
G1X7.03Y16.61
G1X6.02Y12.85
G1X6Y12.81
G1X5.96
G1X5.84Y12.84
G1X5.48Y12.92
G1X5.13Y12.99
G1X4.85Y13.04
G1X4.62Y13.07
G1X4.46
G1X4.35Y13.05
G1X4.31Y13.01
G1X4.33Y12.94
G1X4.4Y12.85
G1Y12.82
G1X4.33Y12.81
G1X4.21
G1X4.06
M5
G0X4.5Y13.54
M3 S30
; Layer C00
G1X4.41Y13.57
G1X4.29Y13.62
G1X4.01Y13.76
G1X3.78Y13.92
G1X3.61Y14.09
G1X3.49Y14.28
G1X3.43Y14.48
G1Y14.69
G1X3.47Y14.92
G1X3.57Y15.15
G1X3.74Y15.45
G1X3.89Y15.68
G1X4.04Y15.86
G1X4.18Y15.99
G1X4.32Y16.06
G1X4.45
G1X4.58Y16.03
G1X4.72Y15.94
G1X4.98Y15.74
G1X5.3Y15.53
G1X5.46Y15.43
G1X5.59Y15.36
G1X5.69Y15.31
G1X5.76Y15.29
G1X5.77
G1X5.75Y15.32
G1X5.71Y15.36
G1X5.55Y15.46
G1X5.51Y15.5
G1Y15.52
G1X5.54Y15.54
G1X5.61Y15.56
G1X5.63Y15.59
G1Y15.64
G1X5.57Y15.7
G1X5.54Y15.73
G1Y15.75
G1X5.55
G1X5.6Y15.74
G1X5.66Y15.73
G1X5.69Y15.75
G1Y15.8
G1X5.66Y15.88
G1X5.61Y15.94
G1X5.53Y15.96
G1X5.44Y15.99
G1X5.29Y16.1
G1X5.19Y16.12
G1X5.1Y16.09
G1X5.02Y16.02
G1X4.98Y15.96
G1X4.94Y15.94
G1X4.9Y15.97
G1X4.82Y16.04
G1X4.75Y16.12
G1Y16.2
G1X4.76Y16.25
G1X4.8Y16.32
G1X4.86Y16.41
G1X5.05Y16.67
G1X5.14Y16.82
G1X5.23Y16.94
G1X5.31Y17.08
G1X5.34Y17.12
G1X5.35
G1X5.37Y17.11
G1Y17.07
G1Y17
G1Y16.91
G1Y16.78
G1Y16.66
G1X5.39Y16.6
G1X5.43Y16.58
G1X5.49Y16.62
G1X5.55Y16.7
G1X5.62Y16.82
G1X5.7Y16.98
G1X5.85Y17.34
G1X5.9Y17.44
G1X5.94Y17.47
G1X5.97Y17.43
G1X6Y17.32
G1X6.02Y17.14
G1Y16.88
G1X6.03Y16.54
G1Y16.25
G1X6.01Y16
G1X5.99Y15.77
G1X5.95Y15.58
G1X5.9Y15.4
G1X5.89Y15.28
G1Y15.21
G1X5.94Y15.15
G1Y15.12
G1X5.9Y15.07
G1X5.66Y14.88
G1X5.47Y14.7
G1X5.36Y14.59
G1X5.31Y14.56
G1X5.3Y14.61
G1X5.31Y14.88
G1X5.29Y14.95
G1X5.22Y14.97
G1X5.08
G1X4.97Y14.98
G1X4.87Y15
G1X4.8Y15.03
G1X4.64Y15.16
G1X4.54Y15.21
G1X4.47Y15.27
G1X4.44Y15.36
G1X4.42Y15.48
G1X4.35Y15.59
G1X4.27Y15.67
G1X4.17Y15.7
G1X4.04Y15.64
G1X3.87Y15.49
G1X3.74Y15.32
G1X3.68Y15.17
G1Y15.11
G1X3.69Y15.1
G1X3.72Y15.13
G1X3.78Y15.21
G1X3.89Y15.37
G1X3.98Y15.44
G1X4.06Y15.45
G1X4.14Y15.39
G1X4.2Y15.33
G1X4.21Y15.28
G1X4.19Y15.24
G1X4.12Y15.18
G1X4.06Y15.11
G1X4.02Y15.04
G1Y14.96
G1Y14.75
G1Y14.68
G1Y14.63
G1X4Y14.61
G1X3.95
G1X3.88Y14.58
G1X3.83
G1X3.79Y14.61
G1X3.76Y14.69
G1X3.71Y14.8
G1X3.67Y14.94
G1X3.64Y14.99
G1Y14.96
G1X3.63Y14.83
G1X3.65Y14.67
G1X3.73Y14.56
G1X3.84Y14.51
G1X3.98Y14.55
G1X4.1
G1X4.23Y14.51
G1X4.34Y14.45
G1X4.36Y14.39
G1X4.31Y14.32
G1X4.32Y14.25
G1X4.38Y14.19
G1X4.47Y14.15
G1X4.58Y14.12
G1X4.7
G1X4.82
G1X4.93Y14.18
G1X5.01Y14.22
G1X5.03
G1X4.79Y13.73
G1X4.73Y13.64
G1X4.68Y13.58
G1X4.63Y13.55
G1X4.57Y13.53
G1X4.5Y13.54
M5
G0X5.15Y13.63
M3 S30
; Layer C00
G1X5.16Y13.72
G1X5.21Y13.83
G1X5.27Y13.96
G1X5.36Y14.11
G1X5.57Y14.42
G1X5.81Y14.7
G1X5.93Y14.83
G1X6.03Y14.93
G1X6.1Y15
G1X6.15Y15.03
G1X6.17
G1Y15.01
G1Y14.95
G1X6.14Y14.87
G1X6.06Y14.72
G1X5.93Y14.52
G1X5.77Y14.3
G1X5.6Y14.07
G1X5.43Y13.87
G1X5.29Y13.71
G1X5.23Y13.66
G1X5.19Y13.62
G1X5.16
G1X5.15Y13.63
M5
G0X4.74Y14.23
M3 S30
; Layer C00
G1X4.66
G1X4.56Y14.25
G1X4.48Y14.3
G1X4.44Y14.35
G1X4.46Y14.38
G1X4.52
G1X4.58
G1X4.63Y14.45
G1X4.68Y14.56
G1X4.75Y14.64
G1X4.84Y14.7
G1X4.93Y14.72
G1X4.99
G1X5.01Y14.68
G1X4.98Y14.61
G1X4.92Y14.48
G1X4.82Y14.31
G1X4.74Y14.23
M5
G0X4.38Y14.57
M3 S30
; Layer C00
G1X4.3
G1X4.24Y14.64
G1X4.23Y14.73
G1X4.26Y14.82
G1X4.34Y14.89
G1X4.44Y14.95
G1X4.51Y14.97
G1X4.55Y14.95
G1X4.58Y14.9
G1Y14.79
G1X4.49Y14.66
G1X4.38Y14.57
M5
G0X6.36Y17.75
M3 S30
; Layer C00
G1X6.33Y17.77
G1X6.31Y17.83
G1X6.33Y17.91
G1X6.36Y17.97
G1X6.41Y17.99
G1X6.44Y17.98
G1X6.45Y17.93
G1Y17.86
G1X6.41Y17.79
G1X6.36Y17.75
M5
G0X5.38Y18.18
M3 S30
; Layer C00
G1X5.36Y18.16
G1X5.31Y18.15
G1X5.16Y18.12
G1X4.99Y18.11
G1X4.88
G1X4.85
G1X4.89Y18.13
G1X5.01Y18.15
G1X5.22Y18.18
G1X5.35
G1X5.38
M5
G0X5.5Y18.33
M3 S30
; Layer C00
G1X5.46Y18.43
G1X5.36Y18.49
G1X5.22Y18.54
G1X5.07Y18.57
G1X4.98
G1X4.94
G1X4.97Y18.59
G1X5.04Y18.62
G1X5.19Y18.65
G1X5.33
G1X5.46Y18.64
G1X5.59Y18.59
G1X5.7Y18.52
G1X5.73Y18.48
G1X5.67
G1X5.58Y18.51
G1X5.5Y18.55
G1X5.48
G1X5.49Y18.53
G1X5.59Y18.42
G1X5.61Y18.38
G1Y18.36
G1X5.56Y18.34
G1X5.5
M5
G0X5.01Y18.44
M3 S30
; Layer C00
G1X4.97Y18.4
G1X4.92Y18.36
G1X4.84Y18.33
G1X4.65Y18.28
G1X4.46Y18.26
G1X4.34Y18.28
G1X4.31Y18.29
G1X4.36Y18.33
G1X4.5Y18.4
G1X4.67Y18.47
G1X4.83Y18.5
G1X4.94
G1X5.01Y18.47
G1Y18.44
M5
G0X6.94Y21.08
M3 S30
; Layer C00
G1X6.97Y21.6
G1X6.99Y21.93
G1Y22.25
G1Y22.43
G1Y22.63
G1Y23.14
G1Y23.39
G1X7Y23.63
G1X7.03Y23.85
G1X7.06Y24.03
G1X7.1Y24.17
G1X7.15Y24.25
G1X7.2Y24.28
G1X7.25Y24.23
G1X7.32Y24.11
G1X7.43Y23.95
G1X7.56Y23.76
G1X7.7Y23.57
G1X7.96Y23.2
G1X8.15Y22.91
G1X8.29Y22.69
G1X8.38Y22.54
G1X8.42Y22.43
G1Y22.35
G1X8.37Y22.31
G1X8.3Y22.28
G1X8.27Y22.26
G1X8.21Y22.22
G1X8.13Y22.16
G1X8.04Y22.08
G1X7.81Y21.89
G1X7.56Y21.66
G1X6.94Y21.08
M5
G0X6.86Y21.07
M3 S30
; Layer C00
G1Y20.42
G1Y19.98
G1X6.87Y19.85
G1Y19.79
G1X6.88Y19.81
G1X6.9Y19.97
G1X6.91Y20.01
G1Y20.02
G1X6.93Y20
G1Y19.95
G1X6.96Y19.76
G1X6.99Y19.44
G1Y19.2
G1Y19.13
G1X6.98Y19.11
G1X6.96Y19.14
G1X6.93Y19.3
G1Y19.34
G1X6.92Y19.36
G1X6.91Y19.32
G1Y19.25
G1X6.9Y19.03
G1X6.89Y18.76
G1X6.87Y18.51
G1X6.84Y18.29
G1X6.8Y18.1
G1X6.75Y17.94
G1X6.69Y17.81
G1X6.63Y17.7
G1X6.55Y17.63
G1X6.43Y17.53
G1X6.37Y17.51
G1Y17.55
G1X6.42Y17.67
G1X6.48Y17.82
G1X6.51Y17.97
G1Y18.1
G1X6.46Y18.15
G1X6.38Y18.12
G1X6.29Y18.05
G1X6.18Y17.95
G1X6.06Y17.81
G1X5.84Y17.5
G1X5.69Y17.19
G1X5.63Y17.04
G1X5.57Y16.91
G1X5.53Y16.81
G1X5.48Y16.73
G1X5.46Y16.69
G1X5.44
G1X5.45Y16.75
G1X5.48Y16.85
G1X5.53Y17.02
G1X5.58Y17.16
G1X5.61Y17.28
G1X5.63Y17.37
G1X5.65Y17.51
G1X5.63Y17.6
G1X5.61Y17.66
G1X5.6Y17.68
G1X5.59Y17.66
G1X5.58Y17.55
G1X5.57Y17.54
G1X5.55Y17.56
G1X5.53Y17.63
G1X5.51Y17.67
G1X5.49Y17.66
G1Y17.57
G1X5.47Y17.23
G1Y17.18
G1X5.46Y17.16
G1X5.45
G1X5.44Y17.2
G1X5.37Y17.43
G1X5.35Y17.48
G1X5.33Y17.5
G1X5.3Y17.49
G1X5.25Y17.43
G1X5.19Y17.32
G1X5.1Y17.16
G1X4.88Y16.74
G1X4.79Y16.57
G1X4.72Y16.44
G1X4.66Y16.34
G1X4.61Y16.27
G1X4.58Y16.23
G1X4.56Y16.22
G1X4.55Y16.24
G1X4.57Y16.29
G1X4.63Y16.41
G1X4.72Y16.58
G1X5.17Y17.39
G1X5.36Y17.76
G1X5.42Y17.87
G1X5.45Y17.95
G1X5.47Y17.99
G1Y18.02
G1X5.51Y18.08
G1X5.6Y18.2
G1X5.73Y18.36
G1X5.89Y18.54
G1X6.04Y18.73
G1X6.16Y18.92
G1X6.24Y19.13
G1X6.28Y19.38
G1Y19.69
G1X6.25Y20.08
G1X6.23Y20.31
G1X6.19Y20.57
G1X6.15Y20.86
G1X6.05Y21.55
G1X6.01Y21.84
G1X5.99Y22.07
G1X5.98Y22.25
G1X6Y22.57
G1X6.08Y22.93
G1X6.12Y23.15
G1X6.16Y23.42
G1X6.18Y23.73
G1X6.19Y24.05
G1Y24.37
G1Y24.68
G1X6.17Y24.94
G1X6.13Y25.16
G1X6.08Y25.49
G1X6.05Y25.82
G1Y26.16
G1X6.08Y26.48
G1X6.12Y26.77
G1X6.19Y27.03
G1X6.28Y27.23
G1X6.38Y27.37
G1X6.44Y27.42
G1X6.47Y27.47
G1X6.48Y27.49
G1Y27.5
G1X6.39Y27.48
G1X6.23Y27.39
G1X6.1Y27.28
G1X6Y27.14
G1X5.93Y26.97
G1X5.89Y26.74
G1Y26.45
G1Y26.09
G1X5.92Y25.88
G1X5.94Y25.65
G1X5.97Y25.39
G1X6.06Y24.77
G1X6.09Y24.47
G1X6.11Y24.22
G1Y23.98
G1X6.07Y23.55
G1X5.96Y23.05
G1X5.89Y22.75
G1X5.87Y22.47
G1X5.89Y22.28
G1X5.91Y22.02
G1X5.93Y21.86
G1X6.09Y20.66
G1X6.1Y20.52
G1X6.11Y20.3
G1X6.09Y20.13
G1X6.04Y19.98
G1X5.94Y19.83
G1X5.8Y19.65
G1X5.43Y19.2
G1X5.3Y19.04
G1X5.2Y18.93
G1X5.11Y18.85
G1X4.97Y18.78
G1X4.57Y18.75
G1X4.36Y18.71
G1X4.17Y18.65
G1X4.01Y18.57
G1X3.9Y18.48
G1X3.83Y18.38
G1Y18.29
G1X3.89Y18.2
G1X4.01Y18.13
G1X4.08Y18.15
G1X4.17Y18.16
G1X4.31Y18.12
G1X4.46Y18.06
G1X4.61
G1X4.69
G1X4.72
G1X4.7Y18.01
G1X4.63Y17.92
G1X4.52Y17.74
G1X4.42Y17.51
G1X4.37Y17.38
G1X4.32Y17.22
G1X4.28Y17.04
G1X4.23Y16.83
G1X4.16Y16.56
G1X4.09Y16.37
G1X4.01Y16.22
G1X3.74Y15.87
G1X3.59Y15.65
G1X3.47Y15.42
G1X3.38Y15.18
G1X3.31Y14.95
G1X3.28Y14.73
G1X3.27Y14.52
G1X3.3Y14.33
G1X3.32Y14.07
G1X3.27Y13.75
G1X3.18Y13.43
G1X3.05Y13.17
G1X3Y13.07
G1Y12.97
G1X3.04Y12.88
G1X3.13Y12.79
G1X3.26Y12.7
G1X3.43Y12.62
G1X3.64Y12.55
G1X3.9Y12.48
G1X4.38Y12.36
G1X5.17Y12.13
G1X5.42Y12.07
G1X5.63Y12.03
G1X5.79Y12.02
G1X5.9
G1X5.96Y12.05
G1Y12.09
G1X5.88Y12.17
G1X5.74Y12.28
G1X5.65Y12.37
G1X5.61Y12.44
G1Y12.47
G1X5.67
G1X5.77Y12.45
G1X5.92Y12.39
G1X6.1Y12.3
G1X6.58Y12.1
G1X7.13Y11.93
G1X7.37Y11.87
G1X7.58Y11.83
G1X7.71
G1X7.76Y11.85
G1X7.73Y11.91
G1X7.65Y11.99
G1X7.58Y12.05
G1X7.56Y12.08
G1X7.59Y12.1
G1X7.66Y12.12
G1X7.84Y12.16
G1X7.96
G1X8.01Y12.13
G1Y12.05
G1Y12.01
G1X7.97Y11.84
G1X7.82Y11.06
G1X7.69Y10.28
G1X7.57Y9.59
G1X7.5Y9.17
G1X7.42Y8.79
G1X7.33Y8.45
G1X7.23Y8.16
G1X7.12Y7.9
G1X7Y7.68
G1X6.86Y7.48
G1X6.7Y7.31
G1X6.52Y7.1
G1X6.39Y6.91
G1X6.32Y6.73
G1X6.28Y6.44
G1X6.24Y6.42
G1X6.2
G1X6.18Y6.35
G1Y6.31
G1X6.16Y6.15
G1X6.08Y5.77
G1X5.96Y5.17
G1X5.91Y4.94
G1X5.88Y4.77
G1X5.87Y4.64
G1Y4.56
G1Y4.51
G1X5.89Y4.48
G1X5.92
G1X5.95
G1X5.98Y4.53
G1X6Y4.6
G1Y4.69
G1X6.03Y4.8
G1X6.07Y4.95
G1X6.12Y5.12
G1X6.18Y5.29
G1X6.25Y5.46
G1X6.31Y5.59
G1X6.36Y5.69
G1X6.4Y5.72
G1X6.43Y5.7
G1X6.45Y5.63
G1X6.46Y5.53
G1Y5.4
G1Y5.1
G1X6.41Y4.8
G1X6.39Y4.57
G1X6.43Y4.36
G1X6.51Y4.17
G1X6.64Y4.02
G1X6.81Y3.9
G1X7Y3.82
G1X7.22Y3.8
G1X7.46Y3.83
G1X7.53Y3.88
G1X7.56Y3.99
G1Y4.14
G1X7.55Y4.3
G1X7.51Y4.46
G1X7.45Y4.6
G1X7.37Y4.7
G1X7.29Y4.73
G1X7.23Y4.77
G1X7.2Y4.86
G1Y5.01
G1X7.21Y5.21
G1X7.25Y5.45
G1X7.31Y5.74
G1X7.38Y6.06
G1X7.47Y6.4
G1X7.69Y7.16
G1X7.97Y7.97
G1X8.27Y8.79
G1X8.61Y9.57
G1X8.84Y10.1
G1X9.05Y10.59
G1X9.24Y11.04
G1X9.38Y11.43
G1X9.5Y11.75
G1X9.57Y12.01
G1X9.59Y12.1
G1X9.6Y12.18
G1Y12.23
G1X9.59Y12.26
G1X9.55Y12.28
G1X9.48
G1X9.39Y12.3
G1X9.11Y12.34
G1X9.07
G1Y12.35
G1X9.12Y12.36
G1X9.3Y12.38
G1X9.42
G1X9.51Y12.4
G1X9.57Y12.42
G1X9.61Y12.45
G1X9.62Y12.47
G1X9.61Y12.5
G1X9.56Y12.52
G1X9.49Y12.55
G1X9.4Y12.57
G1X9.27
G1X9.1
G1X8.89Y12.53
G1X8.36Y12.46
G1X7.8Y12.4
G1X7.59
G1X7.34Y12.43
G1X7.05Y12.48
G1X6.77Y12.55
G1X6.5Y12.62
G1X6.28Y12.71
G1X6.13Y12.78
G1X6.08Y12.85
G1X6.1Y12.98
G1X6.17Y13.04
G1X6.25
G1X6.32Y12.97
G1X6.36Y12.88
G1X6.39Y12.86
G1X6.42Y12.9
G1X6.48Y13.01
G1X6.55Y13.14
G1X6.63Y13.2
G1X6.71Y13.18
G1X6.86Y13.04
G1X6.9Y13.05
G1X6.93Y13.07
G1X7
G1X7.11Y13.02
G1X7.26Y12.95
G1X7.5Y12.85
G1X7.68Y12.8
G1X7.83Y12.81
G1X7.99Y12.88
G1X8.19Y12.94
G1X8.43Y12.96
G1X8.58
G1X8.68Y12.98
G1X8.76Y13.02
G1X8.83Y13.08
G1X8.96Y13.17
G1X9.11Y13.19
G1X9.3Y13.16
G1X9.53Y13.07
G1X9.6Y13.03
G1X9.63Y12.99
G1Y12.96
G1X9.61Y12.94
G1X9.48Y12.92
G1X9.26Y12.95
G1X9.09Y12.98
G1X8.96
G1X8.88Y12.96
G1X8.85Y12.9
G1X8.86Y12.87
G1X8.9Y12.84
G1X8.97Y12.81
G1X9.06Y12.79
G1X9.3Y12.73
G1X9.63Y12.69
G1X9.81Y12.67
G1X9.95Y12.65
G1X10.06Y12.62
G1X10.15Y12.59
G1X10.24Y12.52
G1Y12.42
G1Y12.37
G1X10.25Y12.34
G1X10.29Y12.33
G1X10.34
G1X10.5Y12.3
G1X10.73Y12.25
G1X10.83Y12.22
G1X10.86Y12.19
G1X10.84Y12.18
G1X10.77Y12.17
G1X10.65
G1X10.5
G1X10.3Y12.19
G1X9.93Y12.23
G1X9.8Y12.25
G1X9.71
G1X9.68
G1Y12.2
G1X9.69Y12.11
G1X9.73Y11.98
G1X9.78Y11.8
G1X9.86Y11.59
G1X9.94Y11.35
G1X10.04Y11.08
G1X10.15Y10.79
G1X10.66Y9.53
G1X11.19Y8.32
G1X11.48Y7.68
G1X11.72Y7.11
G1X11.9Y6.59
G1X12.03Y6.08
G1X12.13Y5.57
G1X12.2Y5.03
G1X12.23Y4.42
G1X12.26Y3.44
G1X12.28Y3.22
G1X12.3Y3.06
G1X12.35Y2.95
G1X12.41Y2.89
G1X12.48Y2.86
G1X12.59Y2.88
G1X12.71Y2.94
G1X12.85Y3.02
G1X12.97Y3.14
G1X13.06Y3.27
G1X13.14Y3.42
G1X13.18Y3.58
G1X13.2Y3.74
G1X13.19Y3.91
G1X13.14Y4.07
G1X13.08Y4.3
G1X13.05Y4.58
G1Y4.77
G1X13.07Y5
G1X13.1Y5.3
G1X13.13Y5.65
G1X13.15Y5.96
G1X13.11Y6.21
G1X12.99Y6.44
G1X12.65Y6.92
G1X12.52Y7.14
G1X12.41Y7.4
G1X12.29Y7.74
G1X12.23Y7.95
G1X12.17Y8.18
G1X12.11Y8.44
G1X12.04Y8.74
G1X11.97Y9.08
G1X11.89Y9.46
G1X11.63Y10.75
G1X11.51Y11.31
G1X11.44Y11.59
G1X11.38Y11.82
G1X11.36Y11.91
G1Y11.98
G1Y12.02
G1X11.39Y12.04
G1X11.44Y12.05
G1X11.51
G1X11.61Y12.04
G1X11.8Y12.02
G1X11.97
G1X12.11
G1X12.2Y12.04
G1X12.26Y12.07
G1X12.28Y12.11
G1X12.26Y12.16
G1X11.99Y12.38
G1X11.86Y12.56
G1X11.83Y12.64
G1Y12.71
G1Y12.77
G1X11.87Y12.82
G1X12.12Y12.98
G1X12.36Y13.1
G1X12.59Y13.18
G1X12.78Y13.21
G1X12.97Y13.19
G1X13.09Y13.16
G1X13.11Y13.14
G1Y13.12
G1X13.09Y13.1
G1X13.03Y13.09
G1X12.88Y13.01
G1X12.69Y12.87
G1X12.59Y12.8
G1X12.52Y12.73
G1X12.46Y12.67
G1X12.44Y12.63
G1X12.47Y12.61
G1X12.54Y12.63
G1X12.75Y12.7
G1X13.03
G1X13.23Y12.69
G1X13.48Y12.65
G1X13.81Y12.59
G1X14.21Y12.51
G1X14.44Y12.47
G1X14.62Y12.45
G1X14.76
G1X14.91Y12.48
G1X15.08Y12.53
G1X15.16Y12.58
G1Y12.6
G1X15.14Y12.62
G1X15.09Y12.63
G1X14.87Y12.65
G1X14.76Y12.66
G1X14.68Y12.69
G1X14.65Y12.73
G1Y12.77
G1X14.7Y12.82
G1X14.78Y12.89
G1X14.9Y12.96
G1X15.19Y13.1
G1X15.44Y13.2
G1X15.63Y13.25
G1X15.77
G1X15.83Y13.24
G1X15.86Y13.27
G1Y13.36
G1Y13.54
G1X15.81Y13.8
G1X15.73Y14.08
G1X15.69Y14.19
G1X15.64Y14.28
G1X15.6Y14.34
G1X15.57
G1Y14.31
G1X15.59Y14.23
G1X15.63Y14.13
G1X15.75Y13.86
G1X15.79Y13.76
G1X15.8Y13.71
G1X15.75Y13.75
G1X15.7Y13.85
G1X15.62Y13.99
G1X15.52Y14.17
G1X15.42Y14.36
G1X15.34Y14.53
G1X15.3Y14.64
G1X15.29Y14.69
G1X15.34Y14.67
G1X15.41Y14.56
G1X15.48Y14.45
G1X15.52Y14.41
G1Y14.44
G1X15.49Y14.55
G1X14.84Y16.17
G1X14.59Y16.8
G1X14.45Y17.12
G1X14.32Y17.4
G1X14.27Y17.54
G1X14.23Y17.63
G1X14.22Y17.69
G1Y17.71
G1X14.25Y17.7
G1X14.29Y17.65
G1X14.53Y17.33
G1X14.67Y17.15
G1X14.77Y17.05
G1X14.83Y17.01
G1Y17.04
G1X14.81Y17.13
G1X14.74Y17.29
G1X14.54Y17.68
G1X14.48Y17.81
G1X14.44Y17.91
G1X14.41Y17.99
G1Y18.03
G1Y18.06
G1X14.43
G1X14.46Y18.03
G1X14.56Y17.92
G1X14.7Y17.72
G1X14.87Y17.46
G1X15.18Y16.91
G1X15.29Y16.73
G1X15.38Y16.6
G1X15.43Y16.55
G1X15.44
G1X15.43Y16.6
G1X15.4Y16.67
G1X15.35Y16.77
G1X15.21Y17.02
G1X15.03Y17.33
G1X14.83Y17.66
G1X14.62Y18
G1X14.41Y18.3
G1X14.24Y18.54
G1X13.52Y19.4
G1X12.72Y20.25
G1X12.27Y20.72
G1X11.84Y21.19
G1X11.55Y21.53
G1X11.3Y21.79
G1X11.09Y21.99
G1X10.9Y22.14
G1X10.82Y22.2
G1X10.78Y22.24
G1X10.77Y22.26
G1X10.78
G1X10.83Y22.25
G1X10.89Y22.22
G1X10.98Y22.18
G1X11.08Y22.13
G1X11.34Y21.99
G1X11.64Y21.82
G1X11.96Y21.63
G1X12.28Y21.42
G1X12.63Y21.19
G1X13Y20.91
G1X13.37Y20.62
G1X13.76Y20.3
G1X14.53Y19.61
G1X15.28Y18.87
G1X15.97Y18.12
G1X16.59Y17.39
G1X16.87Y17.04
G1X17.11Y16.7
G1X17.31Y16.39
G1X17.48Y16.09
G1X17.73Y15.63
G1X18.14Y14.94
G1X18.24Y14.75
G1X18.28Y14.6
G1X18.27Y14.48
G1X18.2Y14.4
G1X18.07Y14.33
G1X17.87Y14.29
G1X17.61Y14.25
G1X17.32Y14.22
G1X17.1Y14.18
G1X16.95Y14.15
G1X16.87Y14.12
G1X16.85Y14.09
G1X16.9Y14.07
G1X17.01Y14.04
G1X17.18Y14.01
G1X17.38Y13.98
G1X17.56Y13.97
G1X17.71
G1X17.85
G1X18.1Y14.04
G1X18.35Y14.17
G1X18.59Y14.3
G1X18.77Y14.38
G1X18.85Y14.4
G1X18.87Y14.45
G1Y14.49
G1X18.84Y14.55
G1X18.8Y14.63
G1X18.56Y15.08
G1X18.37Y15.47
G1X18.2Y15.77
G1X17.99Y16.11
G1X17.73Y16.48
G1X17.44Y16.87
G1X16.76Y17.7
G1X15.99Y18.56
G1X15.17Y19.41
G1X14.35Y20.2
G1X13.94Y20.56
G1X13.55Y20.89
G1X13.18Y21.18
G1X12.83Y21.44
G1X12.56Y21.64
G1X12.29Y21.89
G1X12.16Y22.03
G1X12.01Y22.21
G1X11.84Y22.4
G1X11.54Y22.79
G1X11.43Y22.92
G1X11.35Y23
G1X11.31Y23.03
G1X11.21Y23.06
G1X11.11Y23.12
G1X11.02Y23.22
G1X10.93Y23.34
G1X10.87Y23.46
G1X10.83Y23.59
G1X10.82Y23.7
G1X10.84Y23.79
G1X10.9Y23.9
G1X10.94Y23.99
G1X10.95Y24.07
G1Y24.14
G1X10.93Y24.19
G1Y24.21
G1X10.94
G1X11.02Y24.13
G1X11.06Y24.1
G1X11.09
G1X11.12Y24.11
G1X11.15Y24.21
G1X11.16Y24.37
G1X11.14Y24.57
G1X11.1Y24.79
G1X11.03Y25.01
G1X10.93Y25.2
G1X10.75Y25.54
G1X10.62Y25.87
G1X10.55Y26.11
G1X10.51Y26.26
G1X10.48
G1X10.43Y26.22
G1X10.37Y26.15
G1X10.3Y26.06
G1X10.16Y25.85
G1X10.09Y25.66
G1X10.05Y25.59
G1X9.99Y25.5
G1X9.91Y25.4
G1X9.66Y25.02
G1X9.48Y24.62
G1X9.45Y24.57
G1X9.42
G1X9.4Y24.6
G1X9.38Y24.66
G1X9.34Y24.89
G1X9.33Y25.19
G1Y25.34
G1Y25.42
G1X9.31Y25.43
G1Y25.37
G1X9.29Y25.21
G1X9.28Y25.09
G1X9.26Y25.01
G1X9.23Y24.97
G1X9.2
G1X9.15Y25
G1X9.09Y25.06
G1X9.01Y25.15
G1X8.74Y25.42
G1X8.41Y25.71
G1X8.25Y25.84
G1X8.1Y25.97
G1X7.98Y26.09
G1X7.89Y26.17
G1X7.82Y26.25
G1X7.78Y26.28
G1X7.77Y26.26
G1Y26.19
G1Y26.06
G1X7.72Y25.92
G1X7.68Y25.8
G1X7.64Y25.64
G1X7.6Y25.46
G1X7.57Y25.25
G1X7.51Y24.82
G1X7.49Y24.44
G1Y24.31
G1Y24.22
G1X7.48Y24.16
G1X7.46Y24.14
G1X7.44Y24.15
G1X7.41Y24.2
G1X7.36Y24.28
G1X7.3Y24.39
G1X7.07Y24.88
G1X6.92Y25.4
G1Y25.37
G1Y25.3
G1X6.95Y24.86
G1X6.97Y24.58
G1X6.98Y24.35
G1Y24.16
G1Y23.87
G1X6.93Y23.56
G1X6.92Y23.41
G1X6.9Y23.21
G1Y22.95
G1X6.88Y22.65
G1Y22.3
G1X6.87Y21.9
G1Y21.07
M5
G0X11.04Y25.1
M3 S30
; Layer C00
G1X11.06
G1X11.08Y25.15
G1X11.11Y25.23
G1X11.13Y25.34
G1X11.17Y25.58
G1X11.18Y25.75
G1X11.17Y25.77
G1X11.15Y25.74
G1X11.12Y25.65
G1X11.09Y25.52
G1X11.06Y25.38
G1X11.05Y25.25
G1X11.04Y25.16
G1Y25.1
M5
G0X11.23Y25.98
M3 S30
; Layer C00
G1X11.25Y26.02
G1X11.26Y26.08
G1X11.33Y26.43
G1X11.35Y26.74
G1X11.32Y27
G1X11.24Y27.21
G1X11.11Y27.37
G1X10.93Y27.49
G1X10.69Y27.56
G1X10.41Y27.59
G1X10.07
G1X9.97Y27.6
G1X9.91
G1X9.85Y27.64
G1X9.87Y27.69
G1Y27.74
G1X9.84Y27.76
G1X9.8
G1X9.75Y27.71
G1X9.68Y27.66
G1X9.59
G1X9.48Y27.72
G1X9.36Y27.81
G1X9.23Y27.94
G1X9.1Y28.11
G1X8.98Y28.3
G1X8.87Y28.52
G1X8.82Y28.61
G1X8.78Y28.68
G1X8.76Y28.71
G1X8.75
G1X8.78Y28.58
G1X8.85Y28.4
G1X8.93Y28.14
G1X8.97Y27.83
G1Y27.63
G1Y27.58
G1Y27.55
G1X8.99
G1Y27.58
G1X9.03Y27.7
G1X9.07Y27.83
G1X9.1Y27.88
G1X9.17Y27.85
G1X9.28Y27.74
G1X9.43Y27.63
G1X9.6Y27.55
G1X9.71Y27.53
G1X9.86Y27.5
G1X10.05Y27.48
G1X10.3Y27.46
G1X10.55Y27.42
G1X10.76Y27.37
G1X10.92Y27.29
G1X11.04Y27.19
G1X11.13Y27.05
G1X11.18Y26.87
G1X11.21Y26.64
G1Y26.36
G1Y26.12
G1Y26.04
G1Y26
G1X11.23Y25.98
M5
G0X12.92Y25.71
M3 S30
; Layer C00
G1X12.77Y25.45
G1X12.66Y25.2
G1X12.62Y24.96
G1Y24.74
G1X12.7Y24.54
G1X12.84Y24.36
G1X13.05Y24.22
G1X13.21Y24.16
G1X13.39Y24.13
G1X13.58
G1X13.78Y24.15
G1X14.18Y24.26
G1X14.56Y24.45
G1X14.89Y24.7
G1X15.14Y24.97
G1X15.22Y25.12
G1X15.27Y25.27
G1Y25.41
G1X15.24Y25.55
G1X15.19Y25.62
G1X15.13Y25.63
G1X15.08Y25.6
G1X15.06Y25.53
G1X15.04Y25.36
G1X14.99Y25.21
G1X14.9Y25.06
G1X14.79Y24.92
G1X14.51Y24.67
G1X14.18Y24.48
G1X13.84Y24.36
G1X13.51Y24.34
G1X13.37Y24.36
G1X13.24Y24.42
G1X13.14Y24.51
G1X13.07Y24.62
G1X13.01Y24.82
G1X13.02Y25.04
G1X13.09Y25.27
G1X13.21Y25.51
G1X13.37Y25.75
G1X13.57Y26
G1X13.81Y26.24
G1X14.08Y26.47
G1X14.38Y26.7
G1X14.7Y26.91
G1X15.04Y27.1
G1X15.39Y27.27
G1X15.75Y27.41
G1X16.11Y27.52
G1X16.47Y27.6
G1X16.82Y27.64
G1X17.02Y27.65
G1X17.2
G1X17.35Y27.62
G1X17.48Y27.59
G1X17.58Y27.54
G1X17.65Y27.48
G1X17.69Y27.4
G1X17.71Y27.3
G1Y27.18
G1X17.67Y27.04
G1X17.61Y26.89
G1X17.53Y26.71
G1X17.41Y26.51
G1X17.27Y26.29
G1X17.11Y26.05
G1X16.92Y25.78
G1X16.69Y25.47
G1X16.51Y25.24
G1X16.37Y25.07
G1X16.25Y24.96
G1X16.13Y24.9
G1X16.01Y24.87
G1X15.85Y24.86
G1X15.65
G1X15.53Y24.85
G1X15.44Y24.83
G1X15.36Y24.8
G1X15.3Y24.75
G1X15.26Y24.7
G1X15.25Y24.66
G1X15.26Y24.63
G1X15.3Y24.62
G1X15.36Y24.61
G1X15.45
G1X15.56
G1X15.89Y24.66
G1X15.98
G1X16Y24.64
G1X15.97Y24.59
G1X15.31Y23.76
G1X15.14Y23.54
G1X14.98Y23.33
G1X14.85Y23.15
G1X14.74Y22.99
G1X14.65Y22.84
G1X14.59Y22.72
G1X14.54Y22.62
G1X14.52Y22.53
G1Y22.47
G1X14.54Y22.43
G1X14.58Y22.41
G1X14.65
G1X14.73Y22.42
G1X14.84Y22.46
G1X14.97Y22.52
G1X15.13Y22.59
G1X15.29Y22.69
G1X15.38Y22.77
G1Y22.8
G1Y22.81
G1X15.33
G1X15.27Y22.8
G1X15.22
G1Y22.84
G1X15.25Y22.92
G1X15.32Y23.04
G1X15.43Y23.21
G1X15.58Y23.42
G1X15.77Y23.68
G1X16.01Y23.98
G1X16.19Y24.21
G1X16.33Y24.38
G1X16.45Y24.5
G1X16.55Y24.59
G1X16.65Y24.64
G1X16.77Y24.67
G1X16.9Y24.68
G1X17.07
G1X17.35Y24.7
G1X17.55Y24.72
G1X17.69Y24.74
G1X17.74Y24.77
G1X17.72Y24.8
G1X17.63Y24.83
G1X17.45Y24.85
G1X17.2Y24.86
G1X16.75Y24.88
G1X17.28Y25.57
G1X17.59Y25.97
G1X17.83Y26.31
G1X18.01Y26.58
G1X18.13Y26.81
G1X18.19Y27
G1X18.21Y27.16
G1X18.18Y27.3
G1X18.12Y27.43
G1X17.99Y27.56
G1X17.8Y27.66
G1X17.56Y27.74
G1X17.28Y27.8
G1X16.98Y27.82
G1X16.65
G1X16.31Y27.78
G1X15.98Y27.71
G1X15.54Y27.57
G1X15.11Y27.41
G1X14.71Y27.21
G1X14.33Y26.99
G1X13.97Y26.76
G1X13.65Y26.51
G1X13.37Y26.24
G1X13.12Y25.98
G1X12.92Y25.71
M5
G0X9.29Y25.7
M3 S30
; Layer C00
G1X9.26Y25.77
G1X9.21Y25.84
G1X9.15Y25.87
G1X9.13
G1X9.15Y25.78
G1X9.21Y25.71
G1X9.26Y25.67
G1X9.29Y25.7
M5
G0X9.98Y27.74
M3 S30
; Layer C00
G1X10.12
G1X10.23Y27.83
G1X10.27Y27.88
G1X10.28Y27.93
G1X10.27Y27.98
G1X10.23Y28.02
G1X10.1Y28.06
G1X9.96Y28.09
G1X9.83Y28.11
G1X9.76Y28.09
G1Y28.03
G1X9.82Y27.92
G1X9.9Y27.81
G1X9.98Y27.74
M5
G0X10.38Y28.6
M3 S30
; Layer C00
G1X10.4Y28.63
G1X10.35Y28.7
G1X10.3Y28.76
G1X10.28Y28.8
G1X10.29Y28.85
G1X10.39Y28.96
G1Y29
G1X10.37Y29.04
G1X10.29Y29.09
G1X10.11Y29.16
G1X9.89Y29.21
G1X9.79
G1X9.73
G1X9.7
G1X9.72Y29.17
G1X9.81Y29.14
G1X9.89Y29.12
G1X9.99Y29.09
G1X10.11Y29.02
G1X10.18Y28.95
G1X10.17Y28.91
G1X10.07
G1X9.77Y28.99
G1X9.7
G1X9.68Y28.97
G1Y28.94
G1X9.74Y28.89
G1X9.83Y28.83
G1X9.94Y28.77
G1X10.09Y28.7
G1X10.28Y28.63
G1X10.38Y28.6
M5
G0X9.28Y28.62
M3 S30
; Layer C00
G1X9.27Y28.66
G1X9.24Y28.73
G1X9.2Y28.81
G1X9.13Y29.01
G1X9.07Y29.25
G1X9.05Y29.37
G1X9.04Y29.43
G1X9.02
G1X9Y29.38
G1X8.97Y29.2
G1Y29.04
G1X9.02Y28.89
G1X9.11Y28.74
G1X9.17Y28.66
G1X9.21Y28.62
G1X9.25Y28.59
G1X9.27
G1Y28.62
M5
G0X8.73Y29.22
M3 S30
; Layer C00
G1X8.75Y29.25
G1X8.78Y29.32
G1X8.81Y29.44
G1X8.79Y29.48
G1X8.75Y29.46
G1X8.71Y29.41
G1X8.69Y29.33
G1Y29.25
G1X8.71Y29.22
G1X8.73
M5
G0X10.03Y29.99
M3 S30
; Layer C00
G1X10Y30.01
G1X9.96Y30.06
G1X9.91Y30.13
G1X9.84Y30.23
G1X9.77Y30.34
G1X9.73Y30.41
G1Y30.42
G1X9.78Y30.39
G1X9.89Y30.27
G1X9.98Y30.14
G1X10.02Y30.06
G1X10.04Y30.01
G1Y29.99
M5
G0X10.84Y30.26
M3 S30
; Layer C00
G1X10.82Y30.31
G1X10.8Y30.42
G1Y30.53
G1X10.82Y30.57
G1X10.85Y30.53
G1X10.87Y30.42
G1X10.86Y30.31
G1X10.84Y30.26
M5
G0X9.78Y31.19
M3 S30
; Layer C00
G1X9.76
G1X9.7Y31.23
G1X9.63Y31.31
G1X9.53Y31.41
G1X9.39Y31.59
G1X9.3Y31.72
G1X9.28Y31.76
G1Y31.78
G1X9.3
G1X9.35Y31.73
G1X9.43Y31.68
G1X9.54Y31.67
G1X9.64Y31.65
G1X9.7Y31.61
G1Y31.57
G1X9.62Y31.59
G1X9.56Y31.57
G1Y31.48
G1X9.63Y31.37
G1X9.76Y31.24
G1X9.78Y31.19
M5
G0X9Y31.6
M3 S30
; Layer C00
G1X8.96Y31.57
G1X8.92
G1X8.91Y31.6
G1X8.97Y31.71
G1X9.08Y31.77
G1X9.09Y31.74
G1X9.06Y31.67
G1X9Y31.6
M5
G0X8.72Y31.37
M3 S30
; Layer C00
G1X8.77Y31.33
G1Y31.26
G1X8.75Y31.18
G1Y31.09
G1X8.73Y31.02
G1X8.69Y30.99
G1X8.65Y31.05
G1X8.63Y31.2
G1Y31.3
G1X8.65Y31.36
G1X8.68Y31.38
G1X8.72
M5
G0X8.41Y31.57
M3 S30
; Layer C00
G1X8.35
G1X8.31Y31.62
G1X8.27Y31.68
G1X8.25Y31.76
G1X8.28Y31.78
G1X8.36Y31.71
G1X8.42Y31.62
G1X8.41Y31.57
M5
G0X8.28Y31.13
M3 S30
; Layer C00
G1Y31.1
G1Y31.02
G1X8.27Y30.91
G1X8.25Y30.78
G1X8.22Y30.65
G1X8.2Y30.54
G1X8.18Y30.47
G1X8.16Y30.43
G1X8.15Y30.46
G1Y30.53
G1X8.17Y30.65
G1X8.2Y30.87
G1X8.23Y31.02
G1X8.26Y31.11
G1X8.28Y31.13
M5
G0X8.47Y32.13
M3 S30
; Layer C00
G1X8.53Y32.21
G1X8.68Y32.25
G1X8.85Y32.23
G1X9.01Y32.17
G1X9.05Y32.14
G1X9.07
G1Y32.17
G1X9.06Y32.22
G1Y32.3
G1X9.14Y32.34
G1X9.26
G1X9.4Y32.29
G1X9.53Y32.17
G1X9.59Y32.01
G1Y31.94
G1X9.58Y31.88
G1X9.54Y31.84
G1X9.48Y31.82
G1X9.44Y31.83
G1X9.43Y31.86
G1Y31.92
G1Y32
G1Y32.12
G1X9.4Y32.18
G1X9.34Y32.19
G1X9.26Y32.15
G1X8.85Y32.11
G1X8.47Y32.13
M5
G0X8.26Y32.23
M3 S30
; Layer C00
G1X8.14Y32.11
G1X8.06Y31.98
G1X8.01Y31.85
G1X8Y31.73
G1X8.04Y31.61
G1X8.07Y31.53
G1X8.04Y31.46
G1X7.93Y31.4
G1X7.74Y31.32
G1X7.65Y31.28
G1X7.61Y31.27
G1X7.63Y31.26
G1X7.78Y31.25
G1X7.8Y31.23
G1X7.76Y31.18
G1X7.57Y31.03
G1X7.53Y30.98
G1X7.51Y30.95
G1X7.52
G1X7.57Y30.96
G1X7.64Y30.99
G1X7.74Y31.05
G1X8.01Y31.19
G1X8.1Y31.24
G1X8.16Y31.25
G1X8.18
G1X8.16Y31.2
G1X8.1Y31.13
G1X8.01Y31.03
G1X7.75Y30.77
G1X7.66Y30.67
G1X7.61Y30.6
G1Y30.57
G1X7.65Y30.59
G1X7.71Y30.64
G1X7.8Y30.72
G1X7.89Y30.81
G1X7.97Y30.88
G1X8.02Y30.93
G1X8.06Y30.95
G1X8.09Y30.94
G1X8.11Y30.89
G1Y30.79
G1Y30.65
G1Y30.46
G1X8.13Y30.17
G1X8.14Y29.95
G1X8.18Y29.78
G1X8.22Y29.64
G1X8.28Y29.38
G1X8.25Y29.09
G1X8.15Y28.79
G1X7.98Y28.49
G1X7.77Y28.21
G1X7.5Y27.96
G1X7.21Y27.77
G1X6.9Y27.64
G1X6.77Y27.6
G1X6.67Y27.56
G1X6.61Y27.53
G1Y27.52
G1X6.75
G1X6.98Y27.56
G1X7.21Y27.62
G1X7.34Y27.68
G1X7.45Y27.77
G1X7.61Y27.89
G1X7.71Y27.97
G1X7.82Y28.09
G1X7.94Y28.24
G1X8.07Y28.4
G1X8.18Y28.56
G1X8.28Y28.72
G1X8.36Y28.85
G1X8.4Y28.95
G1X8.42Y29.02
G1X8.44Y29.04
G1X8.49Y29.01
G1X8.66Y28.86
G1X8.71Y28.83
G1X8.74
G1Y28.88
G1X8.72Y28.95
G1X8.61Y29.04
G1X8.58Y29.12
G1Y29.23
G1X8.61Y29.34
G1X8.65Y29.45
G1X8.71Y29.55
G1X8.78Y29.61
G1X8.86Y29.64
G1X8.9Y29.65
G1Y29.7
G1X8.84Y29.79
G1X8.71Y29.95
G1X8.56Y30.17
G1X8.45Y30.36
G1X8.38Y30.54
G1X8.36Y30.7
G1X8.37Y30.72
G1X8.39Y30.69
G1X8.43Y30.63
G1X8.47Y30.53
G1X8.53Y30.39
G1X8.6Y30.26
G1X8.7Y30.14
G1X8.81Y30.03
G1X8.97Y29.87
G1X9.08Y29.69
G1X9.15Y29.5
G1X9.18Y29.27
G1X9.21Y29.25
G1X9.26
G1X9.35Y29.28
G1X9.5Y29.34
G1X9.6Y29.4
G1X9.66Y29.48
G1X9.68Y29.56
G1X9.65Y29.66
G1X9.58Y29.78
G1X9.46Y29.91
G1X9.19Y30.18
G1X9.11Y30.27
G1X9.06Y30.34
G1X9.05Y30.37
G1Y30.44
G1X8.93Y30.64
G1X8.91Y30.75
G1Y30.76
G1X8.95Y30.74
G1X8.99Y30.68
G1X9.04Y30.6
G1X9.14Y30.43
G1X9.2Y30.28
G1X9.26Y30.2
G1X9.4Y30.07
G1X9.55Y29.95
G1X9.65Y29.84
G1X9.7Y29.76
G1X9.72Y29.68
G1X9.74Y29.59
G1X9.8Y29.56
G1X9.89Y29.58
G1X10Y29.67
G1X10.08Y29.75
G1X10.13Y29.84
G1X10.15Y29.93
G1X10.12Y30.05
G1X10.05Y30.19
G1X9.92Y30.38
G1X9.75Y30.62
G1X9.41Y31.07
G1X9.31Y31.2
G1X9.24Y31.31
G1X9.19Y31.4
G1X9.13Y31.53
G1X9.14Y31.6
G1X9.19Y31.57
G1X9.25Y31.45
G1X9.36Y31.26
G1X9.53Y31.04
G1X9.63Y30.92
G1X9.76Y30.74
G1X9.9Y30.53
G1X10.04Y30.32
G1X10.21Y30.03
G1X10.27Y29.95
G1X10.31Y29.91
G1X10.36Y29.9
G1X10.39Y29.99
G1X10.45Y30.12
G1X10.54Y30.21
G1X10.63Y30.24
G1X10.72Y30.21
G1X10.74Y30.19
G1Y30.17
G1X10.69Y30.16
G1X10.62Y30.13
G1X10.53Y30.07
G1X10.46Y30
G1X10.43Y29.93
G1X10.47
G1X10.55Y29.96
G1X10.73Y30.01
G1X10.88Y29.99
G1X10.98Y29.91
G1X11.05Y29.77
G1X11.06Y29.61
G1X11.03Y29.43
G1X10.94Y29.25
G1X10.79Y29.09
G1X10.68Y29
G1X10.61Y28.91
G1X10.58Y28.81
G1X10.56Y28.67
G1X10.54Y28.52
G1X10.53Y28.4
G1X10.51Y28.31
G1X10.49Y28.25
G1X10.43Y28.19
G1X10.25
G1X10.23Y28.16
G1X10.29Y28.09
G1X10.39
G1X10.49Y28.17
G1X10.56Y28.29
G1X10.63Y28.44
G1X10.71Y28.57
G1X10.78Y28.65
G1X10.81Y28.71
G1X10.86Y28.73
G1X10.96
G1X11.04Y28.71
G1X11.07
G1Y28.73
G1X11Y28.77
G1X10.94Y28.82
G1X10.93Y28.87
G1X10.95Y28.95
G1X11.02Y29.1
G1X11.13Y29.41
G1X11.18Y29.73
G1X11.17Y30.06
G1X11.1Y30.37
G1X10.97Y30.68
G1X10.79Y30.96
G1X10.55Y31.2
G1X10.27Y31.41
G1X10.13Y31.51
G1X10.03Y31.58
G1X9.97Y31.63
G1Y31.65
G1X10
G1X10.08
G1X10.21Y31.6
G1X10.52Y31.49
G1X10.63Y31.45
G1X10.71Y31.43
G1X10.74
G1Y31.45
G1X10.72Y31.48
G1X10.66Y31.51
G1X10.59Y31.55
G1X10.4Y31.64
G1X10.18Y31.71
G1X10.08Y31.74
G1X10.01Y31.77
G1X9.97Y31.79
G1X9.94Y31.8
G1X9.97Y31.84
G1X10.07Y31.9
G1X10.21Y31.98
G1X10.27Y32.04
G1X10.23Y32.05
G1X10.15Y32.01
G1X10.04Y31.95
G1X9.98Y31.93
G1X9.96Y31.96
G1X9.99Y32.03
G1X10.03Y32.14
G1X10.05Y32.26
G1X10.03Y32.35
G1X9.99Y32.37
G1X9.96Y32.31
G1X9.94Y32.22
G1X9.91Y32.06
G1X9.86Y31.96
G1X9.83Y31.94
G1X9.79
G1X9.76Y31.97
G1X9.66Y32.15
G1X9.57Y32.25
G1X9.46Y32.33
G1X9.34Y32.4
G1X9.2Y32.44
G1X9.05Y32.47
G1X8.89
G1X8.71Y32.45
G1X8.55Y32.41
G1X8.39Y32.33
G1X8.26Y32.23
M5
G0X19.18Y25.06
M3 S30
; Layer C00
G1X19.46Y25.19
G1X19.58Y25.23
G1X19.68
G1X19.76
G1X19.82Y25.17
G1Y25.15
G1X19.79Y25.1
G1X19.75Y25.04
G1X19.69Y24.95
G1X19.54Y24.75
G1X19.36Y24.5
G1X19.16Y24.25
G1X18.95Y24
G1X18.77Y23.79
G1X18.62Y23.64
G1X18.4Y23.45
G1X18.2Y23.32
G1X18.03Y23.25
G1X17.89Y23.24
G1X17.8Y23.28
G1X17.75Y23.38
G1Y23.53
G1X17.83Y23.74
G1X18Y24.02
G1X18.25Y24.32
G1X18.55Y24.6
G1X18.87Y24.86
G1X19.18Y25.06
M5
G0X21.29Y24.5
M3 S30
; Layer C00
G1X21.51Y24.74
G1X21.73Y24.98
G1X21.94Y25.18
G1X22.03Y25.26
G1X22.11Y25.32
G1X22.18Y25.36
G1X22.22Y25.37
G1Y25.35
G1Y25.29
G1Y25.19
G1X22.21Y25.08
G1X22.16Y24.72
G1X22.07Y24.31
G1X22.02Y24.11
G1X21.97Y23.93
G1X21.92Y23.79
G1X21.88Y23.7
G1X21.78Y23.56
G1X21.64Y23.49
G1X21.48Y23.46
G1X21.32Y23.48
G1X21.18Y23.54
G1X21.05Y23.64
G1X20.97Y23.78
G1X20.94Y23.95
G1X20.95Y24
G1X20.99Y24.07
G1X21.04Y24.16
G1X21.11Y24.26
G1X21.29Y24.5
M5
G0X21.19Y21.99
M3 S30
; Layer C00
G1X21.05
G1X20.99
G1X20.98Y21.96
G1X21.02Y21.91
G1X21.06Y21.85
G1X21.08Y21.74
G1X21.1Y21.56
G1Y21.29
G1X21.11Y21.08
G1X21.14Y20.9
G1X21.19Y20.74
G1X21.26Y20.62
G1X21.33Y20.52
G1X21.42Y20.45
G1X21.51Y20.41
G1X21.6Y20.4
G1X21.69Y20.41
G1X21.79Y20.46
G1X21.87Y20.53
G1X21.95Y20.63
G1X22.02Y20.75
G1X22.07Y20.91
G1X22.11Y21.09
G1X22.13Y21.3
G1Y21.45
G1Y21.58
G1X22.15Y21.68
G1Y21.76
G1X22.19Y21.87
G1X22.23Y21.93
G1X22.27Y21.96
G1Y21.98
G1X22.2Y21.99
G1X22.08
G1X21.96
G1X21.91
G1X21.9Y21.96
G1X21.93Y21.94
G1X22.02Y21.83
G1X22.06Y21.66
G1Y21.44
G1X22.03Y21.2
G1X21.97Y20.97
G1X21.89Y20.78
G1X21.78Y20.64
G1X21.66Y20.59
G1X21.55Y20.65
G1X21.45Y20.79
G1X21.37Y21
G1X21.31Y21.24
G1X21.27Y21.48
G1Y21.7
G1X21.31Y21.87
G1X21.39Y21.96
G1Y21.97
G1X21.36Y21.98
G1X21.29
G1X21.19Y21.99
M5
G0X20.4Y21.85
M3 S30
; Layer C00
G1X20.5Y21.71
G1X20.57Y21.49
G1X20.59Y21.23
G1X20.56Y20.98
G1X20.49Y20.77
G1X20.38Y20.62
G1X20.26Y20.55
G1X20.13Y20.54
G1X20.01Y20.59
G1X19.89Y20.71
G1X19.81Y20.88
G1X19.76Y21.12
G1Y21.34
G1X19.78Y21.54
G1X19.84Y21.7
G1X19.92Y21.83
G1X20.02Y21.91
G1X20.14Y21.95
G1X20.27Y21.93
G1X20.4Y21.85
M5
G0X20.49Y21.94
M3 S30
; Layer C00
G1X20.3Y22.02
G1X20.09
G1X19.87Y21.94
G1X19.72Y21.83
G1X19.62Y21.68
G1X19.55Y21.51
G1X19.51Y21.32
G1X19.52Y21.12
G1X19.57Y20.93
G1X19.65Y20.76
G1X19.78Y20.61
G1X19.9Y20.53
G1X20.03Y20.49
G1X20.17
G1X20.31Y20.5
G1X20.45Y20.56
G1X20.57Y20.64
G1X20.68Y20.75
G1X20.75Y20.88
G1X20.83Y21.14
G1Y21.39
G1X20.76Y21.62
G1X20.65Y21.8
G1X20.49Y21.94
M5
G0X19.02Y21.72
M3 S30
; Layer C00
G1Y21.59
G1X18.97Y21.47
G1X18.86Y21.38
G1X18.73Y21.34
G1X18.66Y21.36
G1X18.65Y21.39
G1X18.64Y21.46
G1Y21.54
G1Y21.65
G1X18.65Y21.76
G1X18.67Y21.84
G1X18.7Y21.9
G1X18.73Y21.94
G1X18.78Y21.95
G1X18.83Y21.94
G1X18.88Y21.9
G1X18.95Y21.84
G1X19.02Y21.72
M5
G0X18.84Y21.3
M3 S30
; Layer C00
G1X18.91Y21.28
G1X18.98Y21.24
G1X19.06Y21.15
G1X19.11Y21.05
G1X19.14Y20.96
G1Y20.86
G1X19.12Y20.77
G1X19.07Y20.7
G1X19Y20.64
G1X18.92Y20.6
G1X18.81
G1X18.72
G1X18.67Y20.63
G1Y20.67
G1X18.65Y20.73
G1Y20.82
G1Y20.93
G1X18.66Y21.06
G1X18.69Y21.16
G1X18.73Y21.24
G1X18.78Y21.28
G1X18.84Y21.3
M5
G0X19.07Y21.33
M3 S30
; Layer C00
G1X19.09Y21.37
G1X19.14Y21.41
G1X19.21Y21.48
G1X19.24Y21.58
G1Y21.69
G1X19.22Y21.81
G1X19.17Y21.88
G1X19.09Y21.95
G1X18.98Y21.99
G1X18.87Y22.02
G1X18.61Y22.03
G1X18.37Y21.97
G1X18.26Y21.89
G1X18.22Y21.83
G1X18.23Y21.79
G1X18.28Y21.83
G1X18.34Y21.87
G1X18.39Y21.89
G1X18.41Y21.84
G1X18.43Y21.7
G1Y21.5
G1Y21.27
G1Y21.04
G1X18.42Y20.83
G1X18.4Y20.68
G1X18.38Y20.62
G1X18.34Y20.57
G1X18.37Y20.54
G1X18.45Y20.51
G1X18.57Y20.49
G1X18.86
G1X19.1Y20.55
G1X19.21Y20.61
G1X19.28Y20.69
G1X19.34Y20.78
G1X19.36Y20.87
G1Y20.97
G1X19.33Y21.06
G1X19.28Y21.15
G1X19.2Y21.22
G1X19.11Y21.29
G1X19.07Y21.33
M5
G0X22.37Y21.64
M3 S30
; Layer C00
G1X22.39Y21.61
G1X22.41
G1X22.45Y21.65
G1X22.46Y21.7
G1X22.5Y21.79
G1X22.58Y21.87
G1X22.67Y21.92
G1X22.76
G1X22.8Y21.86
G1X22.83Y21.7
G1X22.85Y21.5
G1Y21.26
G1Y21.02
G1X22.83Y20.81
G1X22.79Y20.64
G1X22.75Y20.56
G1X22.71Y20.52
G1X22.72Y20.5
G1X22.8
G1X22.95Y20.49
G1X23.11
G1X23.18Y20.5
G1X23.2Y20.52
G1X23.16Y20.56
G1X23.11Y20.64
G1X23.08Y20.8
G1X23.06Y21.02
G1Y21.25
G1Y21.49
G1X23.07Y21.69
G1X23.1Y21.84
G1X23.14Y21.91
G1X23.23Y21.92
G1X23.32Y21.9
G1X23.39Y21.84
G1X23.44Y21.73
G1X23.5Y21.63
G1X23.56Y21.58
G1X23.6
G1X23.59Y21.66
G1X23.56Y21.76
G1Y21.87
G1X23.54Y21.94
G1X23.48Y21.98
G1X23.41
G1X23.3Y21.99
G1X23.15
G1X22.76
G1X22.61
G1X22.5
G1X22.43Y21.97
G1X22.36Y21.91
G1Y21.78
G1Y21.7
G1Y21.64
M5
G0X23.81Y21.71
M3 S30
; Layer C00
G1Y21.54
G1Y21.31
G1Y21.01
G1Y20.78
G1X23.79Y20.63
G1X23.77Y20.56
G1X23.74Y20.52
G1X23.76Y20.5
G1X23.82Y20.49
G1X23.94
G1X24.05
G1X24.11Y20.5
G1X24.13Y20.52
G1X24.11Y20.55
G1X24.08Y20.63
G1X24.06Y20.79
G1X24.04Y21
G1Y21.24
G1Y21.48
G1X24.06Y21.69
G1X24.08Y21.85
G1X24.11Y21.93
G1X24.13Y21.96
G1Y21.98
G1X24.07Y21.99
G1X23.99
G1X23.88
G1X23.82Y21.91
G1Y21.83
G1X23.81Y21.71
M5
G0X24.66Y21.68
M3 S30
; Layer C00
G1X24.75Y21.85
G1X24.87Y21.94
G1X24.96Y21.98
G1X25.02
G1X25.07
G1X25.13Y21.94
G1X25.3Y21.8
G1X25.39Y21.59
G1X25.43Y21.34
G1X25.41Y21.09
G1X25.33Y20.85
G1X25.22Y20.67
G1X25.14Y20.6
G1X25.06Y20.56
G1X24.97Y20.55
G1X24.87Y20.56
G1X24.75Y20.65
G1X24.66Y20.8
G1X24.61Y21.01
G1X24.59Y21.24
G1X24.61Y21.47
G1X24.66Y21.68
M5
G0X24.44Y21.7
M3 S30
; Layer C00
G1X24.37Y21.5
G1X24.35Y21.28
G1X24.37Y21.06
G1X24.44Y20.85
G1X24.55Y20.67
G1X24.71Y20.54
G1X24.86Y20.42
G1X24.99Y20.28
G1X25.17Y20.1
G1X25.44Y19.98
G1X25.58Y19.95
G1X25.71Y19.94
G1X25.82Y19.96
G1X25.9Y20
G1Y20.02
G1X25.88Y20.03
G1X25.83
G1X25.76
G1X25.63
G1X25.5Y20.07
G1X25.4Y20.14
G1X25.31Y20.22
G1X25.25Y20.31
G1X25.22Y20.4
G1X25.24Y20.49
G1X25.3Y20.55
G1X25.43Y20.66
G1X25.53Y20.77
G1X25.6Y20.9
G1X25.64Y21.04
G1X25.66Y21.32
G1X25.6Y21.59
G1X25.45Y21.82
G1X25.25Y21.99
G1X25.13Y22.03
G1X25Y22.05
G1X24.86Y22.03
G1X24.71Y21.98
G1X24.55Y21.87
G1X24.44Y21.7
M5
G0X25.82Y21.96
M3 S30
; Layer C00
G1X25.85Y21.94
G1X25.9Y21.89
G1X25.93Y21.79
G1Y21.71
G1X25.94Y21.61
G1Y21.48
G1Y21.31
G1X25.96Y21.1
G1X25.99Y20.91
G1X26.04Y20.76
G1X26.1Y20.63
G1X26.18Y20.53
G1X26.26Y20.46
G1X26.35Y20.41
G1X26.45Y20.4
G1X26.54
G1X26.63Y20.45
G1X26.72Y20.52
G1X26.8Y20.62
G1X26.86Y20.75
G1X26.92Y20.9
G1X26.96Y21.09
G1X26.97Y21.3
G1X26.99Y21.53
G1X27Y21.72
G1X27.03Y21.86
G1X27.05Y21.93
G1X27.07Y21.96
G1X27.05Y21.98
G1X26.99Y21.99
G1X26.89
G1X26.79
G1X26.74
G1Y21.96
G1X26.78Y21.94
G1X26.87Y21.83
G1X26.91Y21.66
G1Y21.44
G1X26.88Y21.2
G1X26.82Y20.97
G1X26.74Y20.78
G1X26.63Y20.64
G1X26.52Y20.59
G1X26.4Y20.65
G1X26.3Y20.79
G1X26.22Y21
G1X26.15Y21.23
G1X26.12Y21.48
G1Y21.7
G1X26.15Y21.87
G1X26.23Y21.96
G1Y21.97
G1X26.2Y21.98
G1X26.13
G1X26.03
G1X25.9
G1X25.83
G1X25.82Y21.96
M5
G0X27.29Y21.95
M3 S30
; Layer C00
G1X27.3Y21.9
G1X27.33Y21.8
G1X27.35Y21.64
G1Y21.44
G1Y21.22
G1Y21
G1X27.33Y20.81
G1X27.3Y20.66
G1X27.26Y20.58
G1X27.23Y20.52
G1X27.26Y20.5
G1X27.32
G1X27.41
G1X27.53
G1X27.86
G1X27.99Y20.51
G1X28.08Y20.52
G1X28.15Y20.54
G1X28.21Y20.6
G1X28.22Y20.72
G1X28.23Y20.84
G1Y20.89
G1X28.2Y20.87
G1X28.15Y20.8
G1X28.04Y20.68
G1X27.94Y20.6
G1X27.85Y20.56
G1X27.76
G1X27.69Y20.6
G1X27.63Y20.67
G1X27.59Y20.78
G1Y20.93
G1Y21.06
G1X27.6Y21.15
G1X27.63Y21.23
G1X27.66Y21.27
G1X27.71Y21.28
G1X27.76Y21.27
G1X27.83Y21.23
G1X27.91Y21.16
G1X27.97Y21.11
G1X28
G1X28.02Y21.16
G1Y21.29
G1Y21.43
G1X28Y21.48
G1X27.97
G1X27.91Y21.42
G1X27.83Y21.36
G1X27.76Y21.32
G1X27.71Y21.3
G1X27.66Y21.32
G1X27.63Y21.35
G1X27.6Y21.42
G1Y21.5
G1Y21.62
G1Y21.74
G1X27.64Y21.84
G1X27.68Y21.91
G1X27.73Y21.95
G1X27.8
G1X27.87Y21.94
G1X27.95Y21.89
G1X28.04Y21.81
G1X28.12Y21.73
G1X28.16Y21.71
G1X28.18Y21.74
G1Y21.83
G1Y21.93
G1X28.12Y21.97
G1X28.07Y21.99
G1X27.98
G1X27.87
G1X27.72
G1X27.46
G1X27.38
G1X27.33
G1X27.29Y21.95
M5
G0X28.14Y23.32
M3 S30
; Layer C00
G1X28.08Y23.35
G1X28.05Y23.41
G1X28.03Y23.49
G1X28.04Y23.59
G1X28.07Y23.7
G1X28.11Y23.83
G1X28.26Y24.11
G1X28.45Y24.39
G1X28.69Y24.65
G1X28.97Y24.86
G1X29.11Y24.88
G1X29.26Y24.82
G1X29.38Y24.71
G1X29.43Y24.56
G1X29.4Y24.46
G1X29.31Y24.3
G1X29.17Y24.12
G1X29Y23.92
G1X28.82Y23.73
G1X28.64Y23.56
G1X28.48Y23.43
G1X28.35Y23.35
G1X28.23Y23.31
G1X28.14
M5
G0X28.41Y23.13
M3 S30
; Layer C00
G1X28.58Y23.23
G1X28.78Y23.38
G1X28.98Y23.57
G1X29.18Y23.78
G1X29.37Y24
G1X29.51Y24.2
G1X29.61Y24.38
G1X29.67Y24.57
G1X29.72Y24.63
G1X29.81Y24.69
G1X29.95Y24.77
G1X30.13Y24.87
G1X30.24Y24.96
G1X30.26Y24.99
G1Y25.01
G1X30.22
G1X30.15Y24.98
G1X29.96Y24.92
G1X29.82Y24.91
G1X29.74Y24.95
G1X29.73Y25.03
G1X29.76Y25.2
G1Y25.33
G1X29.73Y25.43
G1X29.67Y25.5
G1X29.6Y25.55
G1X29.5Y25.56
G1X29.38Y25.55
G1X29.25Y25.51
G1X29.11Y25.45
G1X28.95Y25.36
G1X28.79Y25.24
G1X28.62Y25.11
G1X28.28Y24.78
G1X27.71Y24.07
G1X27.44Y23.8
G1X27.16Y23.57
G1X26.89Y23.38
G1X26.64Y23.26
G1X26.44Y23.21
G1X26.36
G1X26.3Y23.24
G1X26.25Y23.28
G1X26.23Y23.36
G1Y23.43
G1X26.25Y23.52
G1X26.29Y23.62
G1X26.35Y23.74
G1X26.44Y23.88
G1X26.56Y24.05
G1X26.7Y24.24
G1X27.03Y24.67
G1X27.15Y24.82
G1X27.23Y24.94
G1X27.28Y25.03
G1X27.29Y25.09
G1Y25.14
G1X27.25Y25.17
G1X27.19Y25.2
G1X27.09Y25.23
G1X26.99Y25.22
G1X26.89Y25.17
G1X26.78Y25.09
G1X26.66Y24.98
G1X26.53Y24.83
G1X26.4Y24.64
G1X26.25Y24.42
G1X25.97Y24.03
G1X25.63Y23.69
G1X25.46Y23.55
G1X25.3Y23.44
G1X25.15Y23.37
G1X25.04Y23.35
G1X24.95Y23.37
G1X24.91Y23.44
G1Y23.55
G1X24.96Y23.69
G1X25.05Y23.88
G1X25.18Y24.1
G1X25.36Y24.36
G1X25.57Y24.65
G1X25.71Y24.83
G1X25.81Y24.96
G1X25.88Y25.06
G1X25.92Y25.13
G1Y25.22
G1X25.86Y25.3
G1X25.78Y25.34
G1X25.68Y25.36
G1X25.55Y25.33
G1X25.39Y25.27
G1X25.18Y25.17
G1X24.94Y25.03
G1X24.65Y24.84
G1X24.12Y24.49
G1X23.96Y24.39
G1X23.86Y24.34
G1X23.82Y24.33
G1X23.84Y24.36
G1X23.88Y24.44
G1X23.96Y24.54
G1X24.06Y24.68
G1X24.2Y24.86
G1X24.36Y25.08
G1X24.98Y25.86
G1X25.13Y26.05
G1X25.24Y26.21
G1X25.31Y26.32
G1X25.37Y26.42
G1X25.39Y26.49
G1Y26.54
G1Y26.59
G1X25.33Y26.66
G1X25.23
G1X25.11Y26.61
G1X24.97Y26.51
G1X24.86Y26.39
G1X24.73Y26.26
G1X24.6Y26.09
G1X24.45Y25.9
G1X24.13Y25.45
G1X23.78Y24.91
G1X23.57Y24.59
G1X23.37Y24.31
G1X23.17Y24.08
G1X22.99Y23.89
G1X22.81Y23.74
G1X22.64Y23.64
G1X22.48Y23.58
G1X22.33Y23.55
G1X22.31Y23.57
G1X22.3Y23.62
G1Y23.69
G1Y23.79
G1X22.32Y24.04
G1X22.38Y24.34
G1X22.44Y24.64
G1X22.52Y24.94
G1X22.6Y25.18
G1X22.68Y25.34
G1X22.78Y25.5
G1X22.85Y25.62
G1X22.9Y25.72
G1X22.92Y25.8
G1Y25.86
G1X22.9Y25.91
G1X22.86Y25.94
G1X22.79Y25.96
G1X22.75
G1X22.69Y25.93
G1X22.61Y25.89
G1X22.51Y25.83
G1X22.27Y25.66
G1X21.99Y25.44
G1X21.36Y24.88
G1X20.72Y24.26
G1X20.4Y23.93
G1X20.13Y23.67
G1X19.9Y23.48
G1X19.72Y23.35
G1X19.58Y23.29
G1X19.49Y23.3
G1X19.43Y23.37
G1X19.41Y23.51
G1X19.43Y23.65
G1X19.51Y23.83
G1X19.58Y23.95
G1X19.67Y24.1
G1X19.79Y24.28
G1X19.94Y24.5
G1X20.07Y24.71
G1X20.18Y24.88
G1X20.26Y25.02
G1X20.29Y25.09
G1X20.25Y25.16
G1X20.18Y25.22
G1X20.09Y25.25
G1X20.01
G1X19.97Y25.24
G1X19.96Y25.27
G1X19.93Y25.34
G1X19.85Y25.43
G1X19.71Y25.51
G1X19.55Y25.54
G1X19.36Y25.52
G1X19.15Y25.46
G1X18.93Y25.36
G1X18.7Y25.22
G1X18.47Y25.06
G1X18.25Y24.88
G1X18.04Y24.68
G1X17.86Y24.47
G1X17.69Y24.25
G1X17.56Y24.04
G1X17.46Y23.83
G1X17.41Y23.63
G1Y23.45
G1X17.46Y23.29
G1X17.55Y23.16
G1X17.67Y23.08
G1X17.81Y23.04
G1X17.96
G1X18.14Y23.1
G1X18.33Y23.19
G1X18.53Y23.33
G1X18.76Y23.52
G1X18.84Y23.6
G1X18.91Y23.65
G1X18.96Y23.69
G1X18.99Y23.7
G1X19.03Y23.66
G1X19.05Y23.54
G1X19.1Y23.35
G1X19.19Y23.21
G1X19.31Y23.13
G1X19.46Y23.1
G1X19.64Y23.13
G1X19.84Y23.21
G1X20.05Y23.34
G1X20.29Y23.53
G1X20.38Y23.62
G1X20.45Y23.68
G1X20.51Y23.73
G1X20.56Y23.76
G1X20.61Y23.77
G1X20.64Y23.73
G1X20.74Y23.5
G1X20.85Y23.32
G1X21Y23.18
G1X21.17Y23.09
G1X21.35Y23.05
G1X21.57Y23.06
G1X21.8Y23.12
G1X22.05Y23.23
G1X22.18Y23.3
G1X22.3Y23.35
G1X22.4Y23.39
G1X22.46
G1X22.59Y23.44
G1X22.77Y23.52
G1X22.9Y23.59
G1X22.96Y23.61
G1X22.95Y23.55
G1X22.89Y23.43
G1X22.82Y23.25
G1X22.79Y23.13
G1X22.82Y23.05
G1X22.88Y23.02
G1X22.97Y23.04
G1X23.09Y23.11
G1X23.22Y23.23
G1X23.55Y23.63
G1X23.79Y23.89
G1X24.07Y24.15
G1X24.35Y24.4
G1X24.62Y24.62
G1X24.85Y24.78
G1X24.94Y24.84
G1X25.02Y24.88
G1X25.08Y24.9
G1X25.11
G1Y24.85
G1X25.06Y24.77
G1X25Y24.66
G1X24.92Y24.52
G1X24.78Y24.29
G1X24.68Y24.08
G1X24.6Y23.89
G1X24.55Y23.71
G1X24.53Y23.55
G1Y23.41
G1X24.56Y23.3
G1X24.61Y23.21
G1X24.68Y23.14
G1X24.78Y23.1
G1X24.89
G1X25.02Y23.12
G1X25.16Y23.17
G1X25.32Y23.26
G1X25.5Y23.38
G1X25.69Y23.54
G1X25.81Y23.65
G1X25.87Y23.68
G1X25.89Y23.64
G1Y23.51
G1X25.92Y23.28
G1X26.01Y23.12
G1X26.14Y23.02
G1X26.32Y22.98
G1X26.53Y23.01
G1X26.78Y23.1
G1X27.05Y23.25
G1X27.34Y23.47
G1X27.5Y23.6
G1X27.55Y23.64
G1X27.59Y23.66
G1X27.62Y23.64
G1Y23.56
G1X27.64Y23.4
G1X27.69Y23.27
G1X27.76Y23.17
G1X27.85Y23.1
G1X27.97Y23.06
G1X28.1Y23.05
G1X28.25Y23.07
G1X28.41Y23.13
M5
G0X29.51Y23.66
M3 S30
; Layer C00
G1X29.59Y23.68
G1X29.72Y23.76
G1X29.88Y23.91
G1X30.03Y24.04
G1X30.07Y24.08
G1X30.1
G1Y24.07
G1X30.08Y24.03
G1X30.01Y23.87
G1X29.91Y23.61
G1X29.87Y23.4
G1X29.9Y23.23
G1X29.99Y23.11
G1X30.04Y23.08
G1X30.08Y23.07
G1X30.13
G1X30.2Y23.13
G1X30.3Y23.23
G1X30.45Y23.39
G1X30.94Y23.95
G1X31.17Y24.22
G1X31.39Y24.44
G1X31.58Y24.63
G1X31.73Y24.77
G1X31.84Y24.85
G1X31.9Y24.87
G1Y24.85
G1Y24.82
G1X31.88Y24.77
G1X31.62Y24.31
G1X31.46Y23.96
G1X31.37Y23.66
G1X31.34Y23.41
G1X31.38Y23.22
G1X31.48Y23.1
G1X31.55Y23.07
G1X31.64Y23.05
G1X31.75Y23.06
G1X31.87Y23.09
G1X31.98Y23.15
G1X32.15Y23.27
G1X32.34Y23.42
G1X32.55Y23.6
G1X32.75Y23.78
G1X32.92Y23.95
G1X33.05Y24.09
G1X33.11Y24.19
G1X33.13Y24.25
G1Y24.29
G1X33.11Y24.31
G1X33.07Y24.3
G1X33.02Y24.26
G1X32.94Y24.19
G1X32.85Y24.1
G1X32.73Y23.98
G1X32.52Y23.78
G1X32.33Y23.61
G1X32.16Y23.48
G1X32.02Y23.39
G1X31.9Y23.34
G1X31.81Y23.32
G1X31.74Y23.33
G1X31.7Y23.37
G1X31.68Y23.45
G1X31.69Y23.55
G1X31.73Y23.68
G1X31.8Y23.83
G1X31.89Y24.01
G1X32.02Y24.21
G1X32.18Y24.43
G1X32.37Y24.67
G1X32.54Y24.89
G1X32.65Y25.08
G1X32.71Y25.24
G1X32.72Y25.35
G1X32.68Y25.43
G1X32.58Y25.45
G1X32.43Y25.42
G1X32.24Y25.34
G1X32.14Y25.28
G1X32.01Y25.2
G1X31.87Y25.09
G1X31.7Y24.95
G1X31.32Y24.64
G1X30.74Y24.11
G1X30.6Y23.99
G1X30.5Y23.91
G1X30.47Y23.9
G1Y23.94
G1X30.5Y24
G1X30.55Y24.09
G1X30.61Y24.2
G1X30.77Y24.46
G1X31.07Y24.91
G1X31.14Y25.03
G1X31.18Y25.13
G1X31.2Y25.2
G1Y25.26
G1X31.16Y25.3
G1X31.11Y25.32
G1X31.03
G1X30.93Y25.29
G1X30.8Y25.19
G1X30.71Y25.11
G1X30.6Y24.99
G1X30.47Y24.84
G1X30.07Y24.37
G1X29.78Y24.03
G1X29.65Y23.89
G1X29.61Y23.86
G1X29.52Y23.76
G1X29.49Y23.7
G1X29.51Y23.66
M5
G0X27.79Y25.55
M3 S30
; Layer C00
G1X27.89Y25.59
G1X27.94Y25.67
G1X27.96Y25.77
G1X27.95Y25.85
G1X27.9Y25.91
G1X27.83Y25.95
G1X27.74Y25.98
G1X27.56Y25.99
G1X27.4Y25.92
G1X27.34Y25.8
G1X27.38Y25.67
G1X27.49Y25.57
G1X27.66Y25.53
G1X27.79Y25.55
M5
G0X16.5Y15.7
M3 S30
; Layer C00
G1X16.53Y15.67
G1X16.58Y15.58
G1X16.66Y15.45
G1X16.75Y15.28
G1X16.83Y15.12
G1X16.9Y14.98
G1X16.94Y14.88
G1Y14.84
G1X16.92Y14.86
G1X16.87Y14.94
G1X16.79Y15.06
G1X16.71Y15.22
G1X16.49Y15.66
G1Y15.69
G1Y15.7
M5
G0X16.26Y15.61
M3 S30
; Layer C00
G1X16.35Y15.37
G1X16.42Y15.17
G1X16.47Y14.99
G1X16.51Y14.86
G1X16.53Y14.75
G1Y14.69
G1X16.51Y14.65
G1X16.48
G1X16.43Y14.69
G1X16.37Y14.77
G1X16.28Y14.88
G1X16.19Y15.03
G1X16.07Y15.21
G1X15.83Y15.62
G1X15.74Y15.75
G1X15.69Y15.82
G1Y15.81
G1X15.7Y15.7
G1X15.74Y15.51
G1X15.96Y14.41
G1X16.01Y14.17
G1X16.05Y13.97
G1X16.09Y13.8
G1X16.13Y13.65
G1X16.16Y13.54
G1X16.19Y13.45
G1X16.22Y13.39
G1X16.25Y13.36
G1X16.27Y13.35
G1X16.3Y13.36
G1X16.34Y13.47
G1X16.39Y13.65
G1X16.45Y13.81
G1X16.53Y13.94
G1X16.59Y14.01
G1X16.57Y14.04
G1X16.48
G1X16.34Y13.99
G1X16.25Y13.96
G1X16.21
G1Y14.02
G1X16.23Y14.13
G1X16.27Y14.32
G1X16.33Y14.43
G1X16.41Y14.48
G1X16.52
G1X16.61Y14.47
G1X16.67
G1X16.72Y14.51
G1X16.77Y14.58
G1X16.83Y14.65
G1X16.87Y14.68
G1X16.92Y14.64
G1X17Y14.56
G1X17.13Y14.45
G1X17.27Y14.41
G1X17.39Y14.44
G1X17.48Y14.55
G1X17.54Y14.62
G1X17.58
G1X17.61Y14.61
G1X17.6Y14.65
G1X17.56Y14.73
G1X17.49Y14.84
G1X17.27Y15.18
G1X16.48Y16.37
G1X15.74Y17.47
G1X15.37Y18
G1X15.09Y18.42
G1X14.97Y18.58
G1X14.86Y18.72
G1X14.77Y18.84
G1X14.61Y19.04
G1X14.48Y19.19
G1X14.28Y19.38
G1X14.12Y19.52
G1X14.05Y19.56
G1X14.01Y19.59
G1X13.98
G1X13.97Y19.57
G1X13.99Y19.53
G1X14.03Y19.45
G1X14.1Y19.33
G1X14.2Y19.18
G1X14.45Y18.8
G1X15.02Y17.97
G1X15.24Y17.63
G1X15.44Y17.33
G1X15.6Y17.07
G1X15.85Y16.61
G1X16.04Y16.19
G1X16.16Y15.89
G1X16.26Y15.61
M9
G1S0
M5
G90
; return to user-defined finish pos
G0 X0 Y0
M2
