; LightBurn 0.9.24
; GRBL device profile, absolute coords
; Bounds: X3 Y3 to X33 Y32.86
G00 G17 G40 G21 G54
G90
M4
; Cut @ 6000 mm/min, 20% power
M8
M5
G0X12.95Y6.58
M3 S30
; Layer C00
G1X12.89Y6.63S20F6000
G1X12.9Y6.65
G1X12.93Y6.63
G1X12.96Y6.59
G1X13.01Y6.54
G1X12.95Y6.58
M5
G0X12.86Y6.63
M3 S30
; Layer C00
G1X13.23Y6.31
G1X13.19Y6.24
G1X13.25Y6.28
G1X13.34Y6.19
G1X13.37Y6.18
G1X13.35Y6.2
G1X13.28Y6.29
G1X13.16Y6.42
G1X12.95Y6.67
G1X12.71Y6.97
G1X12.47Y7.31
G1X12.39Y7.27
G1X12.43Y7.37
G1X12.35Y7.49
G1Y7.43
G1Y7.4
G1X12.38Y7.38
G1X12.41
G1X12.36Y7.31
G1X12.41Y7.26
G1X12.44Y7.23
G1X12.47
G1X12.5Y7.25
G1X12.52Y7.21
G1X12.53Y7.17
G1Y7.13
G1X12.55Y7.11
G1X12.57Y7.09
G1X12.68Y6.96
G1X12.73Y6.84
G1Y6.83
G1X12.77Y6.82
G1X12.83Y6.77
G1X12.89Y6.68
G1X12.86Y6.63
M5
G0X13.53Y6.96
M3 S30
; Layer C00
G1X13.56
G1X13.64Y6.99
G1X13.75Y7.03
G1X13.96Y6.95
G1X14.1Y6.89
G1X14.16Y6.85
G1X14.13Y6.82
G1X13.94Y6.75
G1X13.9Y6.73
G1X13.96
G1X14.09Y6.77
G1X14.26Y6.82
G1X14.61Y6.67
G1X14.68Y6.63
G1X14.73Y6.61
G1X14.74Y6.59
G1Y6.57
G1X14.7Y6.55
G1X14.63Y6.53
G1X14.33Y6.44
G1X14.37Y6.43
G1X14.42
G1X14.48Y6.45
G1X14.57Y6.48
G1X14.7Y6.52
G1X14.86Y6.55
G1X15.15Y6.42
G1X15.27Y6.37
G1X15.37Y6.32
G1X15.44Y6.28
G1X15.47Y6.25
G1X15.5Y6.22
G1X15.42Y6.13
G1X15.32Y6.03
G1X15.19Y5.95
G1X15.06Y5.88
G1X14.94Y5.84
G1X14.81Y5.81
G1X14.9Y5.78
G1X14.86Y5.71
G1X14.91Y5.76
G1X14.96Y5.8
G1X15.09Y5.84
G1X15.15Y5.88
G1X15.2Y5.91
G1X15.21
G1X15.23
G1X15.27Y5.94
G1X15.33Y6
G1X15.48Y6.14
G1X15.55Y6.2
G1X15.61Y6.24
G1X15.64Y6.25
G1X15.68
G1X15.63Y6.29
G1X15.56Y6.31
G1X15.49Y6.33
G1X15.35Y6.38
G1X15.13Y6.47
G1X14.85Y6.6
G1X14.71Y7.09
G1Y7.05
G1Y6.97
G1X14.74Y6.84
G1X14.78Y6.7
G1X14.8Y6.64
G1X14.78
G1X14.72Y6.66
G1X14.65Y6.69
G1X14.3Y6.83
G1X14.2Y7.04
G1X14.13Y7.19
G1X14.09Y7.25
G1Y7.22
G1X14.1Y7.16
G1X14.14Y7.08
G1X14.23Y6.91
G1X14.22Y6.89
G1X14.15Y6.91
G1X13.8Y7.05
G1X13.69Y7.26
G1Y7.17
G1X13.71Y7.07
G1X13.61Y7.02
G1X13.54Y6.98
G1X13.53Y6.96
M5
G0X13.59Y7.12
M3 S30
; Layer C00
G1X13.7Y7.08
G1X13.67Y7.11
G1X13.56Y7.16
G1X13.48Y7.17
G1X13.51Y7.15
G1X13.59Y7.12
M5
G0X13.43Y7.99
M3 S30
; Layer C00
G1X13.8
G1X13.91
G1X13.95Y8
G1X13.92
G1X13.85Y8.01
G1X13.76
G1X13.64Y8.02
G1X13.39
G1X13.17
G1X12.91Y7.99
G1X13.43
M5
G0X12.87Y7.97
M3 S30
; Layer C00
G1X12.56Y7.98
G1X12.7Y8.04
G1X12.61
G1X12.53Y8.03
G1X12.46Y8.01
G1X12.39Y7.98
G1X12.58Y7.96
G1X12.74Y7.95
G1X12.83
G1X12.87Y7.97
M5
G0X12.42Y7.93
M3 S30
; Layer C00
G1X12.35Y7.94
G1X12.27Y7.95
G1X12.19
G1X12.09Y7.94
G1X12.05Y7.84
G1X12.09Y7.73
G1X12.19Y7.58
G1X12.31Y7.51
G1X12.34
G1X12.23Y7.71
G1X12.17Y7.68
G1X12.12Y7.75
G1X12.2Y7.71
G1Y7.74
G1X12.18Y7.77
G1X12.11Y7.85
G1X12.09Y7.88
G1Y7.91
G1X12.42Y7.93
M5
G0X12.27Y8.57
M3 S30
; Layer C00
G1X12.37Y8.59
G1X12.49Y8.64
G1X12.58Y8.68
G1Y8.7
G1X12.52Y8.68
G1X12.37Y8.64
G1X12.18Y8.58
G1X12.27
M5
G0X12.14Y8.56
M3 S30
; Layer C00
G1X11.59
G1X11.74Y8.55
G1X11.88
G1X12.02
G1X12.14Y8.56
M5
G0X11.59Y8.58
M3 S30
; Layer C00
G1X11.38Y8.63
G1X11.19Y8.7
G1X11.03Y8.76
G1X10.88Y8.84
G1X10.92Y8.95
G1X10.85Y8.86
G1X10.73Y8.94
G1X10.64Y9
G1X10.6Y9.05
G1Y9.07
G1X10.64Y9.05
G1X10.67Y9.04
G1X10.65Y9.07
G1X10.61Y9.11
G1X10.55Y9.15
G1X10.61Y9.07
G1X10.58
G1X10.34Y9.29
G1X10.15Y9.56
G1Y9.59
G1X10.12Y9.6
G1X10.08Y9.65
G1X10.02Y9.75
G1X9.95Y9.88
G1Y9.83
G1X9.96Y9.75
G1X10.02Y9.64
G1X10.11Y9.51
G1X10.23Y9.37
G1X10.5Y9.08
G1X10.8Y8.85
G1X10.97Y8.73
G1X11.21Y8.65
G1X11.39Y8.6
G1X11.51Y8.57
G1X11.59
M5
G0X11.57Y8.68
M3 S30
; Layer C00
G1X11.6
G1X11.62Y8.7
G1X11.49
G1X11.53Y8.68
G1X11.57
M5
G0X11.55Y8.87
M3 S30
; Layer C00
G1X11.61Y8.9
G1X11.64Y8.92
G1X11.63
G1X11.57
G1X11.45Y8.9
G1X11.31Y8.88
G1X11.55
M5
G0X11.23Y8.9
M3 S30
; Layer C00
G1X11.21Y8.94
G1X11.19Y8.96
G1X11.17
G1X11.16Y8.94
G1Y8.91
G1X11.19
G1X11.23
M5
G0X11.36Y9.11
M3 S30
; Layer C00
G1X11.42
G1X11.51
G1X11.49Y9.12
G1X11.45Y9.14
G1X11.38Y9.15
G1X11.3
G1X11.32Y9.13
G1X11.36Y9.11
M5
G0X11.54Y9.19
M3 S30
; Layer C00
G1X11.56Y9.17
G1X11.6Y9.19
G1X11.63Y9.23
G1X11.68Y9.3
G1X11.65
G1X11.62Y9.28
G1X11.58Y9.25
G1X11.54Y9.19
M5
G0X11.73Y9.39
M3 S30
; Layer C00
G1Y9.41
G1X11.74Y9.51
G1Y9.66
G1X11.69
G1X11.7Y9.54
G1X11.72Y9.43
G1Y9.39
M5
G0X11.6Y9.67
M3 S30
; Layer C00
G1X11.63
G1X11.65Y9.7
G1X11.52
G1X11.57Y9.67
G1X11.6
M5
G0X11.53Y9.73
M3 S30
; Layer C00
G1X11.56Y9.74
G1X11.58Y9.76
G1X11.45
G1X11.5Y9.74
G1X11.53
M5
G0X11.59Y9.77
M3 S30
; Layer C00
G1X11.64
G1X11.72
G1X11.83Y9.81
G1X11.97Y9.85
G1X12.19Y9.87
G1X12.27Y9.9
G1X12.32Y9.93
G1X12.23
G1X12.12Y9.91
G1X11.97Y9.88
G1X11.82Y9.84
G1X11.69Y9.8
G1X11.59Y9.77
M5
G0X11.43Y9.71
M3 S30
; Layer C00
G1X11.42
G1X11.33
G1X11.15Y9.69
G1X10.88Y9.66
G1X10.31Y9.73
G1X10.18Y9.8
G1X10.08Y9.84
G1X10.03Y9.86
G1X10.01
G1X10.05Y9.83
G1X10.13Y9.78
G1X10.25Y9.73
G1X10.4Y9.66
G1X11.1Y9.65
G1X11.27Y9.68
G1X11.36Y9.69
G1X11.41Y9.7
G1X11.43Y9.71
M5
G0X10.9Y9.59
M3 S30
; Layer C00
G1X10.88
G1X10.85
G1Y9.57
G1Y9.54
G1X10.88
G1X10.9
G1X10.91Y9.57
G1Y9.59
M5
G0X10.65Y9.46
M3 S30
; Layer C00
G1X10.64Y9.44
G1X10.65Y9.41
G1X10.69Y9.39
G1X10.75Y9.36
G1X10.71Y9.42
G1X10.65Y9.46
M5
G0X10.56Y9.51
M3 S30
; Layer C00
G1Y9.53
G1Y9.56
G1X10.53
G1X10.49
G1X10.51Y9.53
G1X10.53Y9.51
G1X10.55Y9.5
G1X10.56
M5
G0X10.77Y9.3
M3 S30
; Layer C00
G1X10.79Y9.27
G1X10.81Y9.24
G1X10.83
G1X10.84Y9.27
G1Y9.29
G1X10.81Y9.3
G1X10.77
M5
G0X11.07Y9.35
M3 S30
; Layer C00
G1X11.11Y9.32
G1X11.16Y9.29
G1X11.19
G1X11.16Y9.33
G1X11.07Y9.37
G1Y9.35
M5
G0X12.42Y9.73
M3 S30
; Layer C00
G1X12.47Y9.71
G1X12.51
G1X12.53
G1X12.55Y9.73
G1X12.42
M5
G0X12.53Y9.89
M3 S30
; Layer C00
G1X12.72Y9.85
G1X12.87Y9.81
G1X12.98Y9.79
G1X13.04Y9.76
G1X12.95Y9.86
G1X13.03
G1X13.11Y9.68
G1X13.14Y9.76
G1X12.94Y10
G1X12.75Y10.22
G1X12.62Y10.39
G1X12.54Y10.5
G1X12.51Y10.55
G1X12.49Y10.59
G1X12.43Y10.64
G1X12.35Y10.71
G1X12.4Y10.65
G1X12.44Y10.59
G1X12.46Y10.52
G1Y10.46
G1X12.63Y10.29
G1X12.76Y10.16
G1X12.83Y10.1
G1X12.86Y10.09
G1X12.82Y10.03
G1X12.89
G1X12.85Y9.96
G1X12.94Y9.98
G1Y9.88
G1X12.53Y9.89
M5
G0X12.84Y9.73
M3 S30
; Layer C00
G1X12.88Y9.71
G1X12.92
G1X12.95
G1X12.97Y9.73
G1X12.84
M5
G0X13.17Y9.83
M3 S30
; Layer C00
G1X13.22
G1X13.26
G1Y9.85
G1Y9.88
G1X13.24Y9.93
G1X13.2Y9.98
G1Y9.94
G1Y9.89
G1X13.13Y9.93
G1X13.17Y9.83
M5
G0X13.11Y9.96
M3 S30
; Layer C00
G1X13.2Y10.04
G1Y10.21
G1X13.12Y10.06
G1X13.08Y10.07
G1X13.06Y10.09
G1Y10.12
G1X13.04Y10.15
G1X13.01Y10.17
G1X12.96Y10.19
G1X12.98Y10.15
G1X13.11Y9.96
M5
G0X13.24Y10.01
M3 S30
; Layer C00
G1X13.26Y10.06
G1Y10.09
G1Y10.12
G1X13.24Y10.14
G1Y10.08
G1Y10.01
M5
G0X13.28Y10.14
M3 S30
; Layer C00
G1X13.29Y10.19
G1X13.3Y10.23
G1Y10.27
G1X13.28Y10.31
G1Y10.23
G1Y10.14
M5
G0X13.21Y10.24
M3 S30
; Layer C00
G1X13.24Y10.33
G1X13.26Y10.42
G1Y10.51
G1X13.27Y10.61
G1X13.44Y10.93
G1X13.48Y11
G1X13.5Y11.05
G1Y11.07
G1Y11.06
G1X13.46Y11.01
G1X13.42Y10.94
G1X13.37Y10.85
G1X13.24Y10.61
G1X13.21Y10.24
M5
G0X12.96Y10.25
M3 S30
; Layer C00
G1X12.95Y10.27
G1X12.91Y10.32
G1X12.85Y10.38
G1X12.89Y10.3
G1X12.93Y10.26
G1X12.96Y10.25
M5
G0X12.84Y10.39
M3 S30
; Layer C00
G1Y10.42
G1X12.79Y10.5
G1X12.73Y10.6
G1X12.66Y10.68
G1X12.57Y10.77
G1X12.7Y10.58
G1X12.8Y10.45
G1X12.84Y10.39
M5
G0X12.39Y10.71
M3 S30
; Layer C00
G1X12.34Y10.77
G1X12.23Y10.91
G1X12.14Y10.97
G1X12.06
G1X11.94Y10.9
G1X11.77Y10.83
G1X11.57Y10.75
G1X11.35Y10.68
G1X10.83
G1X11Y10.62
G1X11.57Y10.65
G1X11.81Y10.79
G1X11.98Y10.88
G1X12.08Y10.91
G1X12.16Y10.89
G1X12.26Y10.82
G1X12.39Y10.71
M5
G0X12.55Y10.8
M3 S30
; Layer C00
G1X12.56Y10.79
G1X12.57Y10.8
G1Y10.82
G1Y10.85
G1X12.54
G1X12.5
G1X12.53Y10.82
G1X12.55Y10.8
M5
G0X12.51Y10.88
M3 S30
; Layer C00
G1X12.55Y10.92
G1X12.47
G1X12.51Y10.97
G1X12.53Y11.01
G1Y11.02
G1X12.51Y11.01
G1X12.48Y10.98
G1X12.44Y10.93
G1X12.51Y10.88
M5
G0X12.43Y10.98
M3 S30
; Layer C00
G1X12.48Y11.07
G1X12.4Y11.01
G1X12.41Y11.06
G1X12.44Y11.09
G1X12.48Y11.11
G1X12.54
G1X12.56Y11.12
G1Y11.14
G1X12.52Y11.16
G1X12.47Y11.18
G1X12.44Y11.22
G1Y11.24
G1X12.47
G1X12.49
G1X12.55Y11.33
G1X12.64Y11.42
G1X12.83Y11.63
G1X12.99Y11.87
G1X13.03Y11.95
G1X12.96Y11.99
G1Y11.92
G1Y11.86
G1X12.81Y11.66
G1X12.66Y11.49
G1X12.51Y11.34
G1X12.37Y11.21
G1X12.44Y11.13
G1X12.37Y11.09
G1X12.34Y11.15
G1X12.31Y11.18
G1X12.32Y11.12
G1X12.37Y11.06
G1X12.43Y10.98
M5
G0X13.51Y11.1
M3 S30
; Layer C00
G1X13.65Y11.27
G1X13.66Y11.22
G1Y11.21
G1Y11.25
G1Y11.32
G1X13.77Y11.52
G1X13.88Y11.44
G1X13.78Y11.55
G1X13.84Y11.69
G1X13.88Y11.79
G1Y11.84
G1X13.86
G1X13.84Y11.8
G1X13.82Y11.74
G1X13.78Y11.65
G1X13.72Y11.52
G1X13.51Y11.1
M5
G0X13.57Y10.78
M3 S30
; Layer C00
G1X13.55
G1X13.51Y10.74
G1X13.47Y10.69
G1X13.51
G1X13.57Y10.73
G1Y10.78
M5
G0X14.69Y10.57
M3 S30
; Layer C00
G1X14.61Y10.37
G1X14.52Y10.21
G1X14.38Y10.04
G1X14.18Y9.84
G1X14.05Y9.71
G1X13.99Y9.64
G1X14.08Y9.69
G1X14.28Y9.86
G1X14.45Y10.05
G1X14.6Y10.27
G1X14.71Y10.5
G1X14.79Y10.69
G1X14.76
G1X14.73Y10.65
G1X14.69Y10.57
M5
G0X14.94Y10.83
M3 S30
; Layer C00
G1X15.07Y10.97
G1X15.1Y10.98
G1Y10.97
G1X15.07Y10.91
G1X15.03Y10.83
G1X14.94
M5
G0X14.97Y10.83
M3 S30
; Layer C00
G1X15.03Y10.79
G1X15.16Y10.95
G1X15.19Y10.93
G1X15.2
G1X15.13Y11
G1X15.11Y11.03
G1X15.14Y11.04
G1X15.2
G1X15.29Y11.05
G1X15.24Y10.97
G1X15.27Y11.01
G1X15.3Y11.05
G1X15.33Y11.12
G1X15.35Y11.21
G1X15.26
G1X15.29Y11.09
G1X15.25
G1X15.23
G1X15.22Y11.11
G1Y11.14
G1Y11.18
G1Y11.22
G1X15.13Y11.18
G1X15.18Y11.25
G1X15.25Y11.22
G1X15.24Y11.28
G1X15.22Y11.33
G1X15.2Y11.38
G1X15.17Y11.43
G1X15.25Y11.38
G1Y11.43
G1Y11.47
G1X15.23Y11.48
G1X15.22
G1X15.18Y11.44
G1X15.16Y11.39
G1X15.15Y11.34
G1Y11.22
G1Y11.17
G1X15.16Y11.11
G1X15.19Y11.05
G1X15.16Y11.06
G1X15.1Y11.04
G1X14.93Y10.89
G1X14.86Y10.86
G1X14.81
G1X14.83Y11.18
G1Y11.25
G1Y11.28
G1X14.81Y11.25
G1Y11.19
G1X14.8Y11.11
G1X14.76Y10.72
G1X14.83Y10.76
G1Y10.68
G1X14.88Y10.72
G1X14.79Y10.82
G1X14.94Y10.81
G1X14.89Y10.68
G1X14.93Y10.71
G1X14.96Y10.74
G1X14.97Y10.78
G1Y10.83
M5
G0X15.53Y10.87
M3 S30
; Layer C00
G1Y10.8
G1Y10.74
G1X15.55Y10.78
G1Y10.82
G1Y10.85
G1X15.53Y10.87
M5
G0X15.56Y10.9
M3 S30
; Layer C00
G1X15.58Y10.89
G1X15.59
G1Y10.92
G1Y10.95
G1X15.56
G1X15.52
G1X15.54Y10.92
G1X15.56Y10.9
M5
G0X15.77Y10.95
M3 S30
; Layer C00
G1X15.82Y10.99
G1X15.86Y11.03
G1X15.87Y11.06
G1X15.86Y11.08
G1X15.82
G1X15.77
G1Y11.02
G1Y10.95
M5
G0X15.98Y10.84
M3 S30
; Layer C00
G1Y10.76
G1Y10.67
G1X16.03Y10.78
G1X16.14Y10.76
G1X16.11Y10.84
G1X15.98
M5
G0X16.15Y10.67
M3 S30
; Layer C00
G1Y10.61
G1Y10.54
G1X16.17Y10.59
G1X16.18Y10.62
G1Y10.65
G1X16.15Y10.67
M5
G0X16.21Y10.29
M3 S30
; Layer C00
G1X16.2Y10.25
G1Y10.2
G1X16.25Y10.23
G1X16.24Y10.26
G1X16.21Y10.29
M5
G0X16.29Y10.24
M3 S30
; Layer C00
G1X16.3Y10.07
G1X16.31Y9.9
G1X16.28
G1X16.26
G1Y9.88
G1X16.29
G1X16.34
G1X16.39Y9.9
G1X16.37Y9.94
G1X16.34Y10.01
G1X16.32Y10.11
G1X16.29Y10.24
M5
G0X16.58Y10.32
M3 S30
; Layer C00
G1X16.64Y10.3
G1X16.7
G1X16.77
G1X16.83Y10.32
G1X16.58
M5
G0X16.93Y10.29
M3 S30
; Layer C00
G1X17.17Y10.33
G1X17.29Y10.23
G1X17.42Y10.14
G1X17.55Y10.08
G1X17.68Y10.03
G1X18.02Y9.96
G1X18.12Y9.92
G1X18.16Y9.89
G1X18.43Y9.96
G1X18.82Y10.46
G1X18.9
G1X18.85Y10.5
G1X18.55Y10.22
G1X18.57Y10.19
G1X18.56Y10.18
G1X18.5Y10.21
G1X18.42Y10.26
G1X18.23Y10.28
G1X18.05Y10.31
G1X17.88Y10.37
G1X17.71Y10.46
G1X17.54Y10.57
G1X17.37Y10.68
G1X17.25Y10.75
G1X17.16Y10.79
G1X17.14Y10.76
G1X17.12Y10.69
G1Y10.56
G1X17.13Y10.41
G1X17.11Y10.37
G1X17.08Y10.34
G1X17.06
G1X17.02
G1X16.98Y10.32
G1X16.93Y10.29
M5
G0X16.9Y10.02
M3 S30
; Layer C00
G1X16.97Y9.99
G1X17.05Y9.95
G1Y9.9
G1X17.03Y9.84
G1X16.98Y9.77
G1X16.9Y9.7
G1X16.93
G1X17.08Y9.83
G1X17.19Y9.98
G1X17.14
G1X17.03Y10
G1X16.9Y10.02
M5
G0X16.44Y9.88
M3 S30
; Layer C00
G1Y9.76
G1Y9.65
G1X16.45Y9.71
G1Y9.76
G1Y9.82
G1X16.44Y9.88
M5
G0X16.42Y9.63
M3 S30
; Layer C00
G1X16.44Y9.6
G1X16.46Y9.57
G1X16.48
G1X16.49
G1Y9.6
G1Y9.62
G1X16.46Y9.63
G1X16.42
M5
G0X16.57Y9.53
M3 S30
; Layer C00
G1X16.55Y9.49
G1X16.54Y9.43
G1X16.5Y9.24
G1X16.56Y9.2
G1X16.57Y9.37
G1Y9.47
G1Y9.52
M5
G0X16.84Y9.53
M3 S30
; Layer C00
G1Y9.49
G1X16.86Y9.47
G1X16.87Y9.49
G1X16.89Y9.53
G1X16.91Y9.6
G1X16.84
G1Y9.53
M5
G0X16.97Y9.47
M3 S30
; Layer C00
G1X16.88Y9.41
G1X17.07
G1X17.19Y9.42
G1X17.24Y9.43
G1X17.21Y9.45
G1X17.12Y9.46
G1X17.1Y9.47
G1X17.09Y9.5
G1Y9.53
G1X17.28Y9.5
G1X17.34Y9.6
G1X17.38Y9.67
G1Y9.69
G1X17.35Y9.67
G1X17.29Y9.61
G1X17.22Y9.52
G1X17.26Y9.63
G1X17.16Y9.58
G1X17.07Y9.53
G1X16.97Y9.47
M5
G0X17.06Y9.36
M3 S30
; Layer C00
G1X17.1Y9.3
G1X17.13Y9.24
G1X17.18Y9.26
G1X17.21Y9.28
G1X17.24Y9.33
G1X17.26Y9.38
G1X17.22Y9.34
G1X17.18Y9.31
G1X17.15Y9.3
G1X17.12
G1X17.15Y9.36
G1X17.06
M5
G0X16.97Y9.13
M3 S30
; Layer C00
G1Y9.12
G1X16.95Y9.07
G1X16.92Y9.01
G1X16.96Y8.97
G1X16.92
G1X16.89
G1X16.87Y9
G1Y9.03
G1X16.91Y9.07
G1X16.95Y9.12
G1X16.97Y9.13
M5
G0X16.99Y9.17
M3 S30
; Layer C00
G1X17.02Y9.27
G1X17.1Y9.22
G1X17.06Y9.28
G1X17.02Y9.32
G1X17Y9.33
G1X16.99Y9.32
G1Y9.28
G1X16.96Y9.21
G1X16.89Y9.11
G1X16.8Y9
G1X16.93Y8.9
G1X16.86Y8.91
G1X16.8Y8.93
G1X16.77Y8.95
G1X16.74Y8.99
G1Y8.93
G1Y8.88
G1X16.77Y8.85
G1X16.8Y8.84
G1X16.82Y8.88
G1X16.83Y8.81
G1Y8.71
G1X16.74Y8.82
G1X16.79Y8.69
G1X16.71Y8.74
G1X16.75Y8.59
G1X16.67Y8.69
G1Y8.65
G1X16.68Y8.61
G1X16.7Y8.59
G1X16.74Y8.57
G1X16.79Y8.71
G1X16.86Y8.69
G1X16.87Y8.77
G1X16.9Y8.85
G1X16.96Y8.98
G1Y9.01
G1X16.98Y9.05
G1X17.05Y9.12
G1X17.16Y9.2
G1X16.99Y9.17
M5
G0X16.65Y9.16
M3 S30
; Layer C00
G1X16.46
G1Y9.13
G1X16.49Y9.11
G1X16.58Y9.13
G1X16.65Y9.16
M5
G0X16.63Y9.1
M3 S30
; Layer C00
G1X16.61Y9.06
G1X16.58Y8.97
G1X16.54Y8.84
G1X16.6
G1X16.58Y8.8
G1X16.56Y8.78
G1X16.53
G1X16.51Y8.8
G1Y8.7
G1X16.67Y8.8
G1X16.63Y8.69
G1X16.71Y8.81
G1X16.61Y8.92
G1X16.62Y9.01
G1X16.64Y9.08
G1X16.63Y9.1
M5
G0X16.64Y8.58
M3 S30
; Layer C00
G1Y8.54
G1Y8.5
G1X16.56Y8.55
G1X16.6Y8.48
G1X16.63Y8.43
G1X16.66Y8.41
G1X16.69Y8.47
G1X16.67Y8.56
G1X16.64Y8.58
M5
G0X16.53Y8.43
M3 S30
; Layer C00
G1X16.57Y8.37
G1X16.6Y8.33
G1X16.63Y8.31
G1X16.66
G1X16.68Y8.33
G1X16.7Y8.36
G1X16.53Y8.43
M5
G0X16.49Y8.39
M3 S30
; Layer C00
G1X16.51Y8.31
G1X16.54Y8.23
G1X16.45Y8.28
G1X16.49Y8.21
G1X16.52Y8.15
G1X16.53Y8.1
G1Y8.06
G1X16.46Y8.16
G1Y8.11
G1X16.47Y8.06
G1X16.49Y8.02
G1X16.52Y7.97
G1X16.6Y8.24
G1X16.49Y8.39
M5
G0X16.89Y8.26
M3 S30
; Layer C00
G1X16.86Y8.22
G1X16.85Y8.17
G1Y8.15
G1X16.88Y8.18
G1X16.9Y8.23
G1Y8.26
G1X16.89
M5
G0X16.98Y8.17
M3 S30
; Layer C00
G1Y8.1
G1Y8.06
G1X17Y8.05
G1X17.02Y8.07
G1Y8.09
G1X17.04Y8.13
G1X17.17Y8.25
G1X17.19Y8.27
G1X17.16Y8.26
G1X17.12Y8.22
G1X17.08Y8.19
G1X17.03Y8.17
G1X16.98
M5
G0X17.21Y8.29
M3 S30
; Layer C00
G1X17.31Y8.38
G1X17.39Y8.45
G1X17.44Y8.47
G1X17.46Y8.44
G1X17.47Y8.36
G1X17.49Y8.26
G1X17.53Y8.44
G1X17.42Y8.53
G1X17.36Y8.47
G1X17.31Y8.42
G1X17.26Y8.35
G1X17.21Y8.29
M5
G0X17.54Y8.36
M3 S30
; Layer C00
G1X17.57
G1X17.62Y8.41
G1X17.66Y8.45
G1Y8.47
G1X17.64
G1X17.59Y8.43
G1X17.55Y8.39
G1Y8.36
M5
G0X17.96Y8.4
M3 S30
; Layer C00
G1X17.97Y8.36
G1X18.02
G1X18.12Y8.41
G1X18.22Y8.47
G1X18.25Y8.5
G1X18.22
G1X18.16Y8.47
G1X18.08Y8.43
G1X18.06Y8.46
G1X18.03Y8.5
G1X18.02Y8.56
G1X18Y8.62
G1X17.97Y8.49
G1X17.96Y8.4
M5
G0X18.45Y8.42
M3 S30
; Layer C00
G1X18.57
G1X18.68Y8.47
G1Y8.5
G1X18.54Y8.46
G1X18.48Y8.54
G1X18.46Y8.49
G1X18.45Y8.44
G1Y8.42
M5
G0X18.4Y8.57
M3 S30
; Layer C00
G1X18.44Y8.59
G1X18.46Y8.61
G1X18.47Y8.62
G1Y8.63
G1X18.44
G1X18.41
G1Y8.6
G1Y8.57
M5
G0X18.73Y8.5
M3 S30
; Layer C00
G1X18.81Y8.48
G1X18.88
G1X18.95
G1X19.01Y8.5
G1X18.73
M5
G0X19.01Y8.53
M3 S30
; Layer C00
G1X19.06Y8.52
G1X19.09Y8.51
G1X19.12
G1X19.14Y8.54
G1X19.01
M5
G0X19.15Y8.44
M3 S30
; Layer C00
G1X19.11Y8.4
G1Y8.37
G1Y8.35
G1X19.12
G1X19.14Y8.39
G1X19.15Y8.44
M5
G0X19.02Y8.34
M3 S30
; Layer C00
G1X18.96Y8.31
G1X18.91Y8.27
G1X19.03
G1Y8.31
G1X19.02Y8.34
M5
G0X18.95Y8.23
M3 S30
; Layer C00
G1X18.75
G1X18.73Y8.21
G1X18.71Y8.17
G1X18.83Y8.22
G1X18.77Y8.13
G1X18.88Y8.17
G1X18.91Y8.09
G1X18.95Y8.23
M5
G0X19.01Y8.13
M3 S30
; Layer C00
G1X18.97
G1X18.96Y8.1
G1Y8.08
G1X18.99
G1X19.02
G1X19.04Y8.1
G1X19.06Y8.13
G1X19.01
M5
G0X18.93Y8
M3 S30
; Layer C00
G1X18.79Y7.98
G1X18.66Y7.95
G1X18.96
G1Y7.98
G1Y8
G1X18.93
M5
G0X18.6Y7.94
M3 S30
; Layer C00
G1X18.47
G1X18.49Y7.91
G1X18.52Y7.88
G1X18.58Y7.84
G1X18.64Y7.81
G1X18.6Y7.94
M5
G0X18.59Y7.74
M3 S30
; Layer C00
G1X18.39
G1X18.45Y7.72
G1X18.5
G1X18.55
G1X18.59Y7.74
M5
G0X18.38Y7.71
M3 S30
; Layer C00
G1X18.27
G1Y7.66
G1Y7.62
G1X18.32Y7.6
G1X18.37Y7.59
G1X18.4
G1Y7.61
G1X18.38
G1X18.34
G1X18.38Y7.71
M5
G0X18.21Y7.68
M3 S30
; Layer C00
G1X18.16Y7.71
G1X18.13Y7.7
G1X18.14Y7.68
G1X18.18Y7.66
G1X18.23Y7.65
G1X18.21Y7.68
M5
G0X18.27Y7.51
M3 S30
; Layer C00
G1Y7.48
G1Y7.45
G1X18.37
G1Y7.51
G1X18.27
M5
G0X18.18Y7.47
M3 S30
; Layer C00
G1X17.92
G1X17.9Y7.44
G1X17.89Y7.42
G1Y7.4
G1X18.02Y7.3
G1X17.98Y7.41
G1X18.18Y7.47
M5
G0X17.87Y7.27
M3 S30
; Layer C00
G1X17.69
G1X17.74Y7.26
G1X17.78
G1X17.82
G1X17.87Y7.27
M5
G0X17.64Y7.28
M3 S30
; Layer C00
G1Y7.3
G1X17.61Y7.31
G1X17.57
G1Y7.26
G1Y7.21
G1X17.61Y7.23
G1X17.63Y7.25
G1X17.64Y7.28
M5
G0X17.31Y7.15
M3 S30
; Layer C00
G1X17.26Y7.18
G1X17.22Y7.17
G1X17.24Y7.15
G1X17.28Y7.14
G1X17.33Y7.12
G1X17.31Y7.15
M5
G0X17.19Y7.15
M3 S30
; Layer C00
G1X17.17Y7.18
G1X17.12Y7.21
G1X17.09
G1X17.1Y7.19
G1X17.14Y7.17
G1X17.19Y7.15
M5
G0X16.86Y7.28
M3 S30
; Layer C00
G1X16.81Y7.31
G1X16.76Y7.34
G1X16.73
G1X16.7
G1X16.72Y7.31
G1X16.75Y7.29
G1X16.8
G1X16.86
M5
G0X16.64Y7.38
M3 S30
; Layer C00
G1X16.56
G1X16.6Y7.44
G1X16.53Y7.47
G1X16.57
G1X16.61Y7.45
G1X16.63Y7.42
G1X16.64Y7.38
M5
G0X16.52Y7.28
M3 S30
; Layer C00
G1X16.55Y7.25
G1X16.57Y7.22
G1X16.51Y7.18
G1Y7.23
G1Y7.28
M5
G0X16.49Y7.26
M3 S30
; Layer C00
G1X16.48Y7.19
G1Y7.11
G1X16.6Y7.22
G1X16.53Y7.3
G1X16.55Y7.32
G1X16.58Y7.34
G1X16.61
G1X16.64
G1X16.59Y7.27
G1X16.66Y7.31
G1Y7.4
G1Y7.5
G1X16.68Y7.6
G1X16.71Y7.72
G1X16.62Y7.78
G1X16.7
G1X16.74Y7.9
G1X16.78Y8
G1X16.82Y8.07
G1X16.84Y8.1
G1X16.81
G1X16.78Y8.06
G1X16.73Y8.01
G1X16.64Y8.05
G1Y7.96
G1X16.58Y8.05
G1X16.53Y7.86
G1X16.44Y8.01
G1Y7.85
G1Y7.73
G1X16.43Y7.66
G1X16.4Y7.63
G1X16.43Y7.38
G1X16.57
G1X16.53Y7.33
G1X16.49Y7.26
M5
G0X16.42Y7.24
M3 S30
; Layer C00
G1X16.36Y7.21
G1X16.3Y7.56
G1X16.28Y7.46
G1X16.26Y7.36
G1X16.33Y7.28
G1X16.31Y7.23
G1Y7.19
G1Y7.17
G1X16.33Y7.13
G1X16.35Y7.08
G1Y7.02
G1X16.27
G1X16.28Y6.86
G1X16.3Y6.74
G1X16.32Y6.67
G1X16.35Y6.65
G1X16.32Y6.81
G1X16.36Y6.95
G1X16.39Y7.08
G1X16.41Y7.17
G1Y7.24
M5
G0X16.25Y7.2
M3 S30
; Layer C00
G1X16.22Y7.22
G1Y7.15
G1Y7.1
G1X16.25Y7.06
G1X16.29Y7.04
G1Y7.11
G1X16.28Y7.16
G1X16.25Y7.2
M5
G0X16.19Y7.23
M3 S30
; Layer C00
G1X16.21Y7.27
G1Y7.31
G1Y7.34
G1X16.18Y7.36
G1Y7.29
G1Y7.23
M5
G0X16.37Y7.36
M3 S30
; Layer C00
G1X16.38Y7.42
G1Y7.47
G1Y7.52
G1X16.36Y7.56
G1Y7.46
G1Y7.36
M5
G0X16.2Y7.53
M3 S30
; Layer C00
G1X16.21Y7.59
G1X16.24Y7.66
G1X16.27Y7.73
G1X16.32Y7.8
G1X16.17
G1X16.18Y7.66
G1X16.2Y7.53
M5
G0X16.26Y7.59
M3 S30
; Layer C00
G1X16.28
G1X16.3Y7.63
G1Y7.68
G1X16.27Y7.64
G1X16.26Y7.61
G1Y7.59
M5
G0X16.36Y7.63
M3 S30
; Layer C00
G1X16.38Y7.67
G1Y7.71
G1Y7.75
G1X16.36Y7.79
G1Y7.71
G1Y7.63
M5
G0X16.4Y7.79
M3 S30
; Layer C00
G1X16.42Y7.84
G1Y7.87
G1Y7.9
G1X16.39Y7.92
G1Y7.86
G1Y7.79
M5
G0X16.09Y7.84
M3 S30
; Layer C00
G1X15.96
G1X16Y7.82
G1X16.04
G1X16.07
G1X16.09Y7.84
M5
G0X15.96Y7.84
M3 S30
; Layer C00
G1X15.91Y7.88
G1X15.86Y7.9
G1X15.82
G1X15.79
G1X15.84Y7.88
G1X15.88Y7.85
G1X15.92
G1X15.96
M5
G0X15.75Y7.92
M3 S30
; Layer C00
G1X15.73Y7.94
G1X15.66Y7.98
G1X15.56Y8.04
G1Y8.01
G1X15.65Y7.95
G1X15.75Y7.92
M5
G0X15.51Y8.06
M3 S30
; Layer C00
G1X15.38Y8.19
G1X15.33Y8.24
G1X15.28Y8.29
G1Y8.25
G1X15.32Y8.2
G1X15.4Y8.14
G1X15.51Y8.06
M5
G0X15.54Y8.31
M3 S30
; Layer C00
G1X15.51Y8.33
G1X15.48Y8.36
G1X15.46Y8.41
G1X15.45Y8.45
G1X15.42Y8.5
G1X15.39Y8.56
G1Y8.5
G1Y8.45
G1X15.43Y8.42
G1X15.47Y8.4
G1X15.3Y8.31
G1X15.54
M5
G0X15.39Y8.57
M3 S30
; Layer C00
G1X15.37Y8.62
G1X15.33Y8.67
G1X15.32Y8.64
G1Y8.61
G1X15.35Y8.59
G1X15.39Y8.57
M5
G0X15.51Y8.8
M3 S30
; Layer C00
G1X15.41Y8.86
G1X15.46Y8.94
G1X15.43
G1X15.4Y8.92
G1X15.36Y8.88
G1X15.31Y8.84
G1X15.35
G1X15.39
G1X15.44Y8.82
G1X15.51Y8.8
M5
G0X15.42Y8.95
M3 S30
; Layer C00
G1Y8.99
G1Y9.02
G1X15.39Y9.07
G1X15.35Y9.12
G1Y9.08
G1X15.36Y9.05
G1X15.39Y9
G1X15.42Y8.95
M5
G0X15.35Y9.14
M3 S30
; Layer C00
G1X15.34Y9.19
G1X15.3Y9.27
G1X15.25Y9.38
G1Y9.33
G1X15.3Y9.2
G1X15.35Y9.14
M5
G0X15.39Y9.4
M3 S30
; Layer C00
G1X15.41
G1X15.42Y9.43
G1X15.41Y9.45
G1X15.37
G1X15.32
G1X15.34Y9.43
G1X15.36Y9.41
G1X15.39Y9.4
M5
G0X15.39Y9.49
M3 S30
; Layer C00
G1X15.37Y9.54
G1X15.34Y9.58
G1X15.31Y9.6
G1X15.28
G1X15.32Y9.65
G1X15.22Y9.78
G1X15.24Y9.69
G1X15.26Y9.6
G1X15.39Y9.49
M5
G0X15.35Y9.9
M3 S30
; Layer C00
G1X15.38
G1Y9.93
G1Y9.95
G1X15.35Y9.96
G1X15.33
G1X15.32Y9.93
G1Y9.91
G1X15.35Y9.9
M5
G0X15.51Y10.43
M3 S30
; Layer C00
G1X15.52
G1Y10.46
G1Y10.48
G1X15.49Y10.49
G1X15.45
G1X15.47Y10.46
G1X15.49Y10.44
G1X15.51Y10.43
M5
G0X15.53Y10.53
M3 S30
; Layer C00
G1Y10.56
G1X15.52Y10.58
G1X15.49Y10.59
G1X15.46
G1X15.44Y10.56
G1X15.42Y10.53
G1X15.53
M5
G0X15.63Y11.09
M3 S30
; Layer C00
G1X15.64
G1X15.67Y11.13
G1X15.69Y11.18
G1Y11.21
G1X15.67
G1X15.65Y11.17
G1X15.63Y11.12
G1Y11.09
M5
G0X15.34Y11.26
M3 S30
; Layer C00
G1X15.36Y11.28
G1X15.38Y11.31
G1X15.25Y11.38
G1X15.26Y11.33
G1X15.28Y11.29
G1X15.31Y11.26
G1X15.34
M5
G0X15.4Y11.34
M3 S30
; Layer C00
G1X15.36Y11.39
G1X15.3Y11.45
G1X15.28Y11.44
G1X15.3Y11.42
G1X15.34Y11.38
G1X15.4Y11.34
M5
G0X15.59Y11.64
M3 S30
; Layer C00
G1X15.62Y11.66
G1Y11.69
G1Y11.72
G1X15.61Y11.76
G1X15.58Y11.72
G1X15.55Y11.68
G1X15.59Y11.64
M5
G0X15.52Y11.7
M3 S30
; Layer C00
G1X15.56Y11.76
G1X15.58Y11.8
G1Y11.81
G1X15.55Y11.79
G1X15.44Y11.92
G1X15.39Y11.88
G1X15.33Y11.85
G1X15.46
G1Y11.81
G1Y11.73
G1X15.48Y11.69
G1X15.52
M5
G0X15.75Y11.78
M3 S30
; Layer C00
G1X15.88
G1X15.86Y11.76
G1X15.83
G1X15.8
G1X15.75Y11.78
M5
G0X15.7Y11.73
M3 S30
; Layer C00
G1X15.76Y11.7
G1X15.78
G1Y11.66
G1Y11.6
G1X15.51
G1X15.42Y11.47
G1X15.46Y11.61
G1X15.32Y11.69
G1Y11.78
G1X15.44Y11.81
G1X15.32
G1X15.27Y11.71
G1X15.21Y11.8
G1Y11.7
G1X15.42Y11.61
G1X15.36Y11.46
G1X15.47Y11.37
G1X15.42Y11.45
G1X15.49
G1Y11.55
G1X15.86Y11.54
G1X15.83Y11.72
G1X15.91Y11.68
G1Y11.77
G1X15.64Y11.95
G1X15.49
G1X15.52Y11.89
G1X15.54Y11.84
G1X15.55Y11.88
G1X15.58Y11.9
G1X15.62Y11.92
G1X15.66
G1Y11.87
G1Y11.84
G1Y11.81
G1X15.7Y11.73
M5
G0X15.94Y11.75
M3 S30
; Layer C00
G1X15.96Y11.72
G1X15.98Y11.69
G1X16
G1X16.01Y11.72
G1Y11.74
G1X15.97Y11.75
G1X15.94
M5
G0X16.06Y11.71
M3 S30
; Layer C00
G1X16.12Y11.69
G1X16.18
G1X16.23
G1X16.27Y11.71
G1X16.06
M5
G0X16.34Y11.75
M3 S30
; Layer C00
G1X16.39Y11.73
G1X16.42
G1X16.45
G1X16.47Y11.75
G1X16.34
M5
G0X16.58Y11.78
M3 S30
; Layer C00
G1X16.74
G1Y11.82
G1X16.71Y11.85
G1X16.64Y11.82
G1X16.58Y11.78
M5
G0X16.77Y11.81
M3 S30
; Layer C00
G1X16.81Y11.83
G1X16.83Y11.85
G1X16.84Y11.87
G1X16.81Y11.88
G1X16.78
G1Y11.85
G1Y11.81
M5
G0X16.92Y11.86
M3 S30
; Layer C00
G1X16.93Y11.85
G1X16.94Y11.86
G1Y11.88
G1Y11.91
G1X16.91
G1X16.87
G1X16.9Y11.88
G1X16.92Y11.86
M5
G0X17.02Y11.88
M3 S30
; Layer C00
G1X17.05Y11.9
G1X17.08Y11.92
G1Y11.94
G1X17.07
G1X17.03
G1X16.98
G1X17Y11.92
G1X17.02Y11.88
M5
G0X17.22Y11.77
M3 S30
; Layer C00
G1X17.24Y11.67
G1X17.2
G1X17.17
G1X17.14Y11.64
G1X17.11Y11.62
G1X17.2
G1X17.07Y11.52
G1X17.12
G1X17.18Y11.56
G1X17.23Y11.63
G1X17.29Y11.72
G1X17.38Y11.75
G1X17.44Y11.78
G1X17.47Y11.8
G1X17.45Y11.81
G1X17.36Y11.77
G1X17.26Y11.72
G1X17.22Y11.77
M5
G0X17.47Y11.87
M3 S30
; Layer C00
G1X17.5
G1Y11.89
G1X17.47Y11.93
G1X17.43Y11.97
G1X17.45Y11.91
G1X17.47Y11.87
M5
G0X17.32Y11.97
M3 S30
; Layer C00
G1Y11.99
G1X17.3Y12.02
G1X17.26Y12.07
G1X17.28Y12.01
G1X17.3Y11.97
G1X17.32
M5
G0X17.21Y12.05
M3 S30
; Layer C00
G1X17.22
G1Y12.08
G1Y12.11
G1X17.19
G1X17.15
G1X17.17Y12.08
G1X17.19Y12.06
G1X17.21Y12.05
M5
G0X17.12Y12.15
M3 S30
; Layer C00
G1X17.1Y12.18
G1X17.07Y12.2
G1X17.02Y12.21
G1X16.96
G1X17.02Y12.18
G1X17.06Y12.16
G1X17.1Y12.15
G1X17.12
M5
G0X16.76Y12.3
M3 S30
; Layer C00
G1X16.34
G1X16.45Y12.29
G1X16.56
G1X16.66
G1X16.76Y12.3
M5
G0X16.06Y12.2
M3 S30
; Layer C00
G1X16.04Y12.22
G1X16.01Y12.26
G1X15.86
G1X15.83Y12.36
G1X15.91Y12.31
G1Y12.38
G1X15.73
G1Y12.34
G1Y12.3
G1X15.78Y12.35
G1X15.82Y12.29
G1X15.86Y12.24
G1X15.87Y12.2
G1Y12.17
G1X15.81Y12.22
G1X15.78Y12.24
G1X15.8Y12.21
G1X15.73Y12.07
G1X15.8Y12.12
G1X15.83Y12.04
G1X15.88Y12.11
G1X15.84
G1X15.81Y12.12
G1Y12.15
G1Y12.18
G1X15.85
G1X15.88Y12.16
G1X15.91Y12.14
G1X15.93Y12.11
G1X15.98Y12.16
G1X16.03Y12.19
G1X16.06
M5
G0X15.72Y12.21
M3 S30
; Layer C00
G1Y12.24
G1Y12.27
G1X15.7Y12.29
G1Y12.23
G1Y12.16
G1X15.72Y12.21
M5
G0X15.84Y12.45
M3 S30
; Layer C00
G1X15.87Y12.51
G1X15.84Y12.53
G1X15.81Y12.56
G1Y12.59
G1Y12.63
G1X16.05
G1X16.03Y12.6
G1X16.01Y12.58
G1X15.98Y12.57
G1X15.94
G1X15.98Y12.49
G1X15.84Y12.45
M5
G0X15.79Y12.51
M3 S30
; Layer C00
G1X15.7
G1X15.73Y12.66
G1X15.6Y12.5
G1X15.63Y12.42
G1X15.94Y12.44
G1X15.98Y12.38
G1X16.06Y12.42
G1X16.02Y12.33
G1X16.15Y12.21
G1Y12.28
G1X16.31Y12.25
G1X16.19Y12.3
G1X16.12Y12.35
G1X16.09Y12.38
G1Y12.4
G1X16.15Y12.41
G1X16.21
G1X16.29Y12.51
G1X16.25Y12.68
G1X16.1Y12.75
G1X16.16Y12.68
G1X16.2Y12.63
G1Y12.61
G1X16.18
G1X16.25Y12.52
G1X16.21Y12.49
G1X16.07Y12.44
G1X15.98
G1X15.99Y12.48
G1X16.03Y12.53
G1X16.08Y12.59
G1Y12.51
G1X16.16Y12.55
G1X16.07Y12.61
G1Y12.81
G1X16.01
G1X16.05Y12.87
G1X15.97Y12.92
G1X15.98Y12.81
G1X15.99Y12.7
G1X15.79Y12.66
G1Y12.51
M5
G0X15.56Y12.63
M3 S30
; Layer C00
G1X15.59Y12.66
G1X15.54
G1X15.49
G1X15.51Y12.64
G1X15.53Y12.61
G1X15.56Y12.63
M5
G0X15.47Y12.73
M3 S30
; Layer C00
G1X15.4Y12.82
G1X15.34Y12.89
G1X15.27Y12.94
G1X15.21Y12.98
G1Y12.95
G1X15.25Y12.9
G1X15.34Y12.83
G1X15.47Y12.73
M5
G0X15.18Y12.95
M3 S30
; Layer C00
G1X15.16Y12.99
G1X15.13Y13.04
G1X15.09Y13.01
G1X15.08Y12.98
G1X15.18Y12.95
M5
G0X14.85Y12.85
M3 S30
; Layer C00
G1X14.79Y12.89
G1X14.75Y12.92
G1X14.73Y12.96
G1X14.71Y13
G1X14.67Y13.06
G1X14.62Y13.12
G1Y13.09
G1X14.64Y13.05
G1X14.71Y12.97
G1Y12.95
G1X14.73Y12.89
G1X14.81Y12.84
G1X14.85
M5
G0X14.8Y13.08
M3 S30
; Layer C00
G1X14.84
G1X14.88Y13.1
G1X14.71
G1X14.75Y13.09
G1X14.8Y13.08
M5
G0X14.62Y13.44
M3 S30
; Layer C00
G1X14.64Y13.49
G1Y13.54
G1Y13.57
G1X14.63
G1Y13.54
G1Y13.5
G1X14.47Y13.44
G1X14.62
M5
G0X14.6Y13.72
M3 S30
; Layer C00
G1X14.48Y13.9
G1X14.56
G1X14.54Y13.94
G1X14.5Y13.96
G1X14.45
G1X14.39
G1Y13.92
G1Y13.89
G1X14.44Y13.87
G1X14.51Y13.81
G1X14.6Y13.72
M5
G0X14.26Y13.67
M3 S30
; Layer C00
G1X14.19Y13.74
G1X14.16Y13.72
G1X14.15Y13.65
G1Y13.51
G1Y13.32
G1X14.18Y13.62
G1X14.26Y13.67
M5
G0X14.14Y13.84
M3 S30
; Layer C00
G1X14.12Y13.87
G1X14.1Y13.89
G1X14.08Y13.9
G1X14.07Y13.87
G1Y13.85
G1X14.11Y13.84
G1X14.14
M5
G0X13.93Y13.87
M3 S30
; Layer C00
G1Y13.89
G1X13.92Y13.9
G1X13.9
G1X13.88Y13.87
G1X13.86Y13.84
G1X13.89
G1X13.92
G1X13.93Y13.87
M5
G0X13.82Y13.82
M3 S30
; Layer C00
G1X13.85Y13.76
G1X13.87Y13.7
G1X13.78Y13.72
G1X13.75Y13.64
G1X13.86
G1X13.9Y13.74
G1X13.82Y13.82
M5
G0X13.71Y13.94
M3 S30
; Layer C00
G1X13.5Y13.9
G1X13.6Y13.97
G1X13.47
G1X13.49Y13.91
G1X13.51Y13.85
G1X13.34Y13.69
G1Y13.59
G1X13.37Y13.64
G1X13.45Y13.76
G1X13.6Y13.88
G1X13.71Y13.94
M5
G0X13.75Y13.97
M3 S30
; Layer C00
G1X13.81Y13.99
G1X13.86Y14.02
G1X13.83Y14.04
G1X13.8Y14.03
G1X13.77Y14
G1X13.75Y13.97
M5
G0X13.93Y14.07
M3 S30
; Layer C00
G1X13.96
G1X14.02Y14.1
G1Y14.15
G1X14.01
G1X13.97Y14.12
G1X13.93Y14.07
M5
G0X14.17Y14.04
M3 S30
; Layer C00
G1X14.19Y14
G1X14.21Y13.98
G1X14.23Y13.97
G1X14.24Y14
G1Y14.03
G1X14.21
G1X14.17
M5
G0X14.4Y14.2
M3 S30
; Layer C00
G1X14.46Y14.23
G1Y14.26
G1Y14.3
G1X14.42Y14.35
G1X14.4Y14.29
G1X14.37Y14.23
G1X14.3Y14.28
G1X14.33Y14.24
G1X14.4Y14.2
M5
G0X14.47Y14.32
M3 S30
; Layer C00
G1X14.55Y14.38
G1X14.62Y14.45
G1Y14.47
G1X14.58Y14.44
G1X14.53Y14.39
G1X14.47Y14.32
M5
G0X14.73Y14.23
M3 S30
; Layer C00
G1X14.88Y14.12
G1X14.84Y14.18
G1X14.79Y14.22
G1X14.75Y14.23
G1X14.73
M5
G0X14.88Y14.1
M3 S30
; Layer C00
G1X14.87
G1Y14.08
G1X14.9Y14.06
G1X14.81Y13.95
G1X14.94Y14.04
G1X14.92Y14.07
G1X14.9Y14.09
G1X14.88Y14.1
M5
G0X14.81Y13.97
M3 S30
; Layer C00
G1X14.68
G1X14.72Y13.95
G1X14.76Y13.94
G1X14.79
G1X14.81Y13.97
M5
G0X15.26Y14.08
M3 S30
; Layer C00
G1X15.28Y14.05
G1X15.31Y14.04
G1X15.29Y14.1
G1X15.28Y14.15
G1X15.26Y14.17
G1Y14.16
G1X15.25Y14.12
G1Y14.08
M5
G0X15.33Y13.97
M3 S30
; Layer C00
G1X15.32Y13.94
G1Y13.91
G1X15.35Y13.89
G1X15.39Y13.87
G1X15.37Y13.92
G1X15.33Y13.97
M5
G0X15.4Y13.77
M3 S30
; Layer C00
G1X15.39Y13.74
G1X15.41Y13.7
G1X15.46Y13.66
G1X15.53Y13.62
G1X15.47Y13.56
G1X15.56Y13.61
G1Y13.57
G1Y13.55
G1X15.58
G1Y13.59
G1X15.52Y13.67
G1X15.47Y13.73
G1X15.43Y13.76
G1X15.4
M5
G0X15.7Y13.46
M3 S30
; Layer C00
G1X15.72Y13.44
G1X15.76Y13.4
G1X15.82Y13.36
G1X15.77Y13.41
G1X15.72Y13.47
G1X15.7Y13.46
M5
G0X16.03Y13.28
M3 S30
; Layer C00
G1X16.12Y13.22
G1X16.2Y13.15
G1X16.28Y13.21
G1X16.32Y13.08
G1X16.26Y13.04
G1X16.22Y13.12
G1Y13.08
G1X16.21Y13.05
G1X16.18
G1X16.15
G1X16.19Y13.11
G1X16.13
G1X16.08Y13.08
G1X16.04Y13.04
G1X16Y12.99
G1X16.18Y12.76
G1X16.24
G1X16.31
G1X16.37Y12.79
G1X16.43Y12.83
G1X16.22
G1Y12.77
G1X16.14Y12.82
G1X16.21Y12.89
G1X16.27Y12.96
G1X16.3Y13.02
G1X16.32Y13.08
G1X16.39Y13.04
G1X16.35Y13.15
G1X16.44Y13.1
G1X16.39Y13.18
G1X16.32Y13.14
G1Y13.17
G1X16.34Y13.2
G1X16.37Y13.22
G1X16.41Y13.24
G1X16.28
G1X16.17
G1X16.09Y13.26
G1X16.03Y13.28
M5
G0X16.05Y13.05
M3 S30
; Layer C00
G1X16.11Y13.03
G1X16.16Y13.01
G1X16.21Y13
G1X16.24
G1X16.25Y12.97
G1X16.24Y12.94
G1X16.2Y12.91
G1X16.15Y12.87
G1X16.1Y12.91
G1X16.06Y12.95
G1X16.05Y13
G1Y13.05
M5
G0X16.33Y12.99
M3 S30
; Layer C00
G1Y12.96
G1Y12.9
G1X16.42Y12.98
G1X16.5Y12.94
G1X16.46Y12.84
G1X16.53Y12.88
G1X16.51Y12.99
G1X16.63
G1Y13.1
G1X16.6Y13.09
G1X16.57
G1X16.54Y13.13
G1X16.51Y13.18
G1X16.48Y13.15
G1X16.46Y13.11
G1X16.49
G1X16.52Y13.1
G1X16.53Y13.08
G1X16.46Y13.02
G1X16.35Y13
G1X16.33
M5
G0X16.68Y12.98
M3 S30
; Layer C00
G1X16.86
G1X16.81Y13
G1X16.76Y13.02
G1X16.72Y13.05
G1X16.68Y13.07
G1Y13.03
G1Y12.98
M5
G0X16.87Y12.98
M3 S30
; Layer C00
G1X16.9Y12.95
G1X16.93Y12.92
G1X16.96Y12.89
G1X16.98Y12.86
G1Y12.98
G1X16.87
M5
G0X17.07Y12.94
M3 S30
; Layer C00
G1X17.13Y12.92
G1X17.19
G1X17.25
G1X17.31Y12.94
G1X17.07
M5
G0X17.4Y12.94
M3 S30
; Layer C00
G1Y12.91
G1X17.51
G1X17.48Y12.94
G1X17.46Y12.97
G1X17.43
G1X17.41
G1X17.4Y12.94
M5
G0X17.58Y12.96
M3 S30
; Layer C00
G1X17.6
G1X17.64Y12.99
G1X17.67Y13.03
G1X17.65
G1X17.61Y13.01
G1X17.58Y12.98
G1Y12.96
M5
G0X17.69Y13.04
M3 S30
; Layer C00
G1X17.78Y13.06
G1X17.86Y13.09
G1X17.92Y13.13
G1X17.95Y13.16
G1Y13.17
G1X17.9Y13.15
G1X17.81Y13.11
G1X17.69Y13.04
M5
G0X17.99Y13.12
M3 S30
; Layer C00
G1X18.04Y13.19
G1X18.08Y13.23
G1X18.09
G1X18.1Y13.22
G1X18.13Y13.25
G1X18.17Y13.31
G1X18.24Y13.26
G1X18.2Y13.33
G1X18.18
G1X18.15Y13.32
G1X18.08Y13.27
G1X18.02Y13.21
G1X17.99Y13.16
G1Y13.12
M5
G0X18.41Y13.38
M3 S30
; Layer C00
G1X18.42
G1X18.43
G1Y13.41
G1Y13.43
G1X18.4
G1X18.37
G1X18.39Y13.41
G1X18.41Y13.38
M5
G0X18.5Y13.45
M3 S30
; Layer C00
G1X18.54
G1X18.59
G1X18.63Y13.47
G1X18.46
G1X18.5Y13.45
M5
G0X18.64Y13.51
M3 S30
; Layer C00
G1X18.62Y13.56
G1X18.6Y13.59
G1X18.55
G1X18.48Y13.62
G1X18.4Y13.67
G1Y13.65
G1X18.44Y13.61
G1X18.52Y13.56
G1X18.64Y13.51
M5
G0X18.39Y13.63
M3 S30
; Layer C00
G1X18.32Y13.68
G1X18.26Y13.72
G1X18.23Y13.73
G1X18.2
G1Y13.7
G1Y13.68
G1X18.23
G1X18.27Y13.67
G1X18.32Y13.65
G1X18.39Y13.63
M5
G0X18.16Y13.7
M3 S30
; Layer C00
G1Y13.74
G1Y13.77
G1X18.09Y13.74
G1X18.04Y13.71
G1X18.16
M5
G0X17.93Y13.76
M3 S30
; Layer C00
G1X17.91
G1X17.85
G1X17.76
G1X17.26
G1Y13.73
G1Y13.71
G1X17.73Y13.74
G1X17.83
G1X17.9Y13.75
G1X17.93
M5
G0X18.67Y13.99
M3 S30
; Layer C00
G1X18.71Y13.94
G1X18.75Y13.91
G1X18.77
G1X18.79Y13.93
G1X18.76Y13.97
G1X18.7Y14.02
G1X18.61Y14.07
G1X18.67Y13.99
M5
G0X18.75Y14.03
M3 S30
; Layer C00
G1X18.71Y14.13
G1X18.65
G1X18.62
G1X18.75Y14.03
M5
G0X18.77Y14.07
M3 S30
; Layer C00
G1X18.8
G1X18.84
G1X18.89Y14.1
G1X18.94Y14.13
G1X18.91
G1X18.87
G1X18.82Y14.1
G1X18.77Y14.07
M5
G0X18.76Y14.14
M3 S30
; Layer C00
G1X18.93Y14.2
G1X19.06Y14.28
G1Y14.3
G1X19.04
G1X18.99Y14.27
G1X18.89Y14.22
G1X18.79Y14.16
G1X18.76Y14.14
M5
G0X19.05Y14.2
M3 S30
; Layer C00
G1X19.11Y14.23
G1X19.19Y14.27
G1X19.27Y14.33
G1X19.36Y14.4
G1X19.26
G1X19.35Y14.5
G1X19.41Y14.46
G1X19.45Y14.53
G1X19.47Y14.59
G1Y14.61
G1X19.42Y14.59
G1X19.35Y14.53
G1X19.23Y14.43
G1X19.27Y14.37
G1X19.05Y14.2
M5
G0X19.08Y14.28
M3 S30
; Layer C00
G1X19.14Y14.33
G1X19.18Y14.37
G1X19.2Y14.39
G1X19.18
G1X19.13Y14.34
G1X19.08Y14.28
M5
G0X19.39Y14.17
M3 S30
; Layer C00
G1X19.41Y14.19
G1X19.43Y14.2
G1X19.44Y14.17
G1Y14.14
G1X19.41
G1X19.37
G1X19.39Y14.17
M5
G0X19.38Y14.18
M3 S30
; Layer C00
G1X19.35Y14.13
G1X19.36Y14.11
G1X19.43
G1X19.51
G1Y14.05
G1Y14.02
G1X19.49Y14.01
G1X19.37Y13.98
G1X19.27Y13.93
G1X19.3Y13.92
G1X19.36
G1X19.45
G1X19.6Y14.11
G1X19.44Y14.23
G1X19.54Y14.27
G1X19.63Y14.47
G1X19.7
G1X19.65Y14.51
G1X19.76Y14.66
G1X19.7Y14.69
G1X19.64Y14.55
G1X19.56Y14.41
G1X19.46Y14.27
G1X19.38Y14.18
M5
G0X19.22Y13.9
M3 S30
; Layer C00
G1X18.94
G1X19.02Y13.88
G1X19.09
G1X19.16
G1X19.22Y13.9
M5
G0X18.97Y14.58
M3 S30
; Layer C00
G1X18.96Y14.76
G1X19.09Y14.75
G1X19.08Y14.72
G1X19.05Y14.71
G1X19.03
G1X19Y14.73
G1X18.97Y14.58
M5
G0X18.92Y14.57
M3 S30
; Layer C00
G1X18.99Y14.53
G1X19.02Y14.61
G1X19.06Y14.67
G1X19.11Y14.72
G1X19.2Y14.78
G1X19.41Y14.9
G1X19.47Y14.93
G1X19.49Y14.95
G1Y14.96
G1X19.46
G1X19.41Y14.93
G1X19.36Y14.9
G1X19.26Y14.94
G1X19.31Y14.86
G1X19.27
G1X19.19Y14.85
G1X19.15Y14.82
G1X19.11Y14.8
G1X19.06
G1X18.99
G1Y14.9
G1X18.89Y14.82
G1Y14.85
G1X18.87
G1X18.82Y14.81
G1X18.76Y14.73
G1X18.72Y14.78
G1Y14.63
G1X18.65
G1Y14.5
G1X18.58
G1Y14.45
G1Y14.41
G1X18.61Y14.4
G1X18.64
G1X18.69Y14.6
G1X18.72
G1X18.74Y14.61
G1X18.75Y14.64
G1Y14.69
G1X18.95Y14.83
G1X18.92Y14.57
M5
G0X18.35Y14.82
M3 S30
; Layer C00
G1X18.4Y14.86
G1X18.43Y14.9
G1Y14.91
G1X18.39Y14.89
G1X18.31Y14.82
G1X18.21Y14.72
G1X18.28Y14.77
G1X18.35Y14.82
M5
G0X18.49Y14.97
M3 S30
; Layer C00
G1X18.51Y14.99
G1X18.57Y15.03
G1X18.65Y15.11
G1X18.74Y15.2
G1X18.99Y15.43
G1X19.05Y15.39
G1X19.07Y15.46
G1X19.08Y15.51
G1X19.05
G1X19.02Y15.48
G1X18.96Y15.43
G1X18.77Y15.26
G1X18.65Y15.15
G1X18.56Y15.06
G1X18.5Y15
G1X18.49Y14.97
M5
G0X18.09Y14.65
M3 S30
; Layer C00
G1X18.06Y14.66
G1X18.02Y14.65
G1X17.94Y14.61
G1X17.83Y14.57
G1X17.47
G1Y14.53
G1Y14.51
G1X17.5Y14.48
G1X17.54Y14.46
G1Y14.54
G1X17.75Y14.5
G1X17.9Y14.56
G1X18.01Y14.6
G1X18.07
G1X18.09
G1Y14.63
G1Y14.65
M5
G0X17.33Y14.6
M3 S30
; Layer C00
G1X17.31Y14.62
G1X17.27Y14.64
G1X17.21Y14.66
G1X17.18Y14.62
G1X17.16Y14.58
G1X17.33Y14.57
G1Y14.6
M5
G0X17.09Y14.63
M3 S30
; Layer C00
G1X17.07Y14.62
G1X17.03Y14.61
G1X17
G1X16.99
G1Y14.64
G1X17.03Y14.74
G1X17.06Y14.69
G1X17.08Y14.66
G1Y14.63
M5
G0X17.05Y14.57
M3 S30
; Layer C00
G1Y14.52
G1Y14.48
G1X17.04Y14.47
G1X17.02Y14.48
G1X17Y14.52
G1X16.98Y14.57
G1X17.05
M5
G0X16.92Y14.63
M3 S30
; Layer C00
G1X16.87Y14.7
G1X16.66
G1X16.68Y14.68
G1X16.73Y14.66
G1X16.81Y14.64
G1X16.92
M5
G0X16.6Y14.66
M3 S30
; Layer C00
G1X16.58Y14.7
G1X16.56Y14.72
G1X16.55Y14.73
G1X16.54
G1Y14.7
G1Y14.67
G1X16.57
G1X16.6
M5
G0X16.48Y14.73
M3 S30
; Layer C00
G1X16.41Y14.77
G1X16.33Y14.83
G1X16.21Y14.93
G1X16.12Y15
G1X16.08
G1X16.24Y14.87
G1X16.44Y14.74
G1X16.48Y14.73
M5
G0X17.09Y14.9
M3 S30
; Layer C00
G1X17.16
G1X17.17Y15.14
G1X17.02Y15.13
G1X17Y15.31
G1X16.9Y15.33
G1X16.95Y15.3
G1X16.98Y15.27
G1X16.95
G1X17.02Y15.07
G1X17.17Y15.1
G1X17.04Y15
G1X17.13
G1X17.09Y14.9
M5
G0X17.2Y14.97
M3 S30
; Layer C00
G1X17.22
G1X17.25
G1X17.27Y14.99
G1X17.29Y15.02
G1X17.24
G1X17.2Y15.01
G1Y14.99
G1Y14.97
M5
G0X17.22Y15.07
M3 S30
; Layer C00
G1X17.28
G1X17.45Y15.19
G1X17.55Y15.32
G1X17.52Y15.31
G1X17.47Y15.25
G1X17.39Y15.16
G1X17.29
G1X17.34Y15.09
G1X17.26Y15.13
G1X17.28Y15.25
G1X17.31Y15.35
G1X17.34Y15.42
G1X17.37Y15.46
G1X17.33
G1X17.31Y15.45
G1X17.29Y15.42
G1Y15.39
G1X17.23Y15.43
G1X17.19Y15.36
G1X17.26
G1Y15.18
G1X17.19Y15.31
G1X17.21Y15.23
G1Y15.16
G1X17.22Y15.11
G1Y15.07
M5
G0X17.11Y15.19
M3 S30
; Layer C00
G1X17.14Y15.26
G1X17.15Y15.31
G1Y15.34
G1X17.13
G1X17.09Y15.32
G1X17.06Y15.28
G1X17.11Y15.19
M5
G0X17.12Y15.39
M3 S30
; Layer C00
G1X17.07Y15.47
G1X17.13Y15.45
G1X17.17Y15.44
G1X17.19
G1X17.17Y15.46
G1X17.06Y15.55
G1Y15.47
G1Y15.39
G1X17.12
M5
G0X16.93Y15.37
M3 S30
; Layer C00
G1Y15.39
G1X16.89Y15.41
G1X16.83Y15.43
G1X16.87Y15.39
G1X16.9Y15.37
G1X16.93
M5
G0X16.83Y15.45
M3 S30
; Layer C00
G1X16.89Y15.54
G1X16.81Y15.49
G1Y15.53
G1X16.71Y15.66
G1X16.59Y15.76
G1Y15.73
G1X16.65Y15.66
G1X16.73Y15.58
G1X16.79Y15.51
G1X16.83Y15.45
M5
G0X17.05Y15.58
M3 S30
; Layer C00
G1X17.1Y15.63
G1X17.26Y15.52
G1Y15.56
G1X17.25Y15.58
G1X17.2Y15.6
G1Y15.63
G1Y15.66
G1X17.3
G1X17.28Y16.15
G1X17.26
G1X17.24
G1X17.22Y16.14
G1Y16.08
G1X17.24Y15.96
G1X17.27Y15.8
G1X17.23Y15.69
G1X17.14Y15.66
G1X17.08Y15.63
G1X17.05Y15.6
G1Y15.58
M5
G0X17.29Y15.6
M3 S30
; Layer C00
G1Y15.56
G1X17.3Y15.53
G1X17.33
G1X17.36Y15.54
G1X17.4Y15.58
G1X17.42Y15.61
G1Y15.63
G1X17.4Y15.62
G1X17.38Y15.59
G1X17.36Y15.56
G1X17.29Y15.6
M5
G0X17.4Y15.73
M3 S30
; Layer C00
G1X17.54Y15.56
G1X17.45Y15.44
G1X17.58Y15.55
G1X17.55Y15.6
G1X17.53Y15.65
G1X17.52Y15.73
G1X17.5Y15.85
G1Y16.02
G1X17.48Y16.17
G1X17.54Y16.21
G1X17.57Y16.24
G1Y16.25
G1X17.53Y16.24
G1X17.47Y16.2
G1X17.42Y16.17
G1Y16.16
G1X17.45
G1Y15.99
G1X17.4
G1Y15.73
M5
G0X17.33Y15.87
M3 S30
; Layer C00
G1X17.4Y16.05
G1X17.33Y16.17
G1Y16.02
G1Y15.87
M5
G0X17.14Y16.13
M3 S30
; Layer C00
G1Y16.15
G1X17.1Y16.17
G1X17.03Y16.19
G1X17.08Y16.15
G1X17.11Y16.13
G1X17.14
M5
G0X17.01Y16.18
M3 S30
; Layer C00
G1X16.98Y16.22
G1X16.89Y16.3
G1X16.77Y16.39
G1Y16.36
G1X16.81Y16.31
G1X16.9Y16.24
G1X16.98Y16.18
G1X17.01
M5
G0X16.77Y16.42
M3 S30
; Layer C00
G1X16.75Y16.47
G1X16.72Y16.52
G1X16.7Y16.49
G1X16.71Y16.46
G1X16.74Y16.44
G1X16.77Y16.42
M5
G0X16.69Y16.55
M3 S30
; Layer C00
G1X16.7Y16.56
G1Y16.59
G1Y16.61
G1X16.67
G1X16.63
G1X16.65Y16.59
G1X16.67Y16.56
G1X16.69
M5
G0X16.61Y16.77
M3 S30
; Layer C00
G1X16.63Y16.88
G1Y16.98
G1Y17.07
G1X16.61Y17.16
G1Y16.97
G1Y16.77
M5
G0X16.61Y17.22
M3 S30
; Layer C00
G1X16.64Y17.23
G1X16.66Y17.26
G1Y17.28
G1Y17.3
G1X16.64Y17.31
G1X16.62Y17.3
G1Y17.27
G1Y17.22
M5
G0X16.72Y17.46
M3 S30
; Layer C00
G1X16.75Y17.5
G1X16.8Y17.6
G1X16.87Y17.74
G1X16.84
G1X16.82
G1X16.8Y17.73
G1X16.78Y17.66
G1X16.74Y17.57
G1X16.71Y17.48
G1Y17.46
M5
G0X16.43Y17.71
M3 S30
; Layer C00
G1X16.47Y17.88
G1X16.4Y18.03
G1Y17.76
G1X16.24
G1Y17.89
G1Y17.97
G1Y18
G1X16.22
G1X16.2Y17.93
G1X16.18Y17.85
G1X16.22Y17.71
G1X16.43
M5
G0X16.83Y17.78
M3 S30
; Layer C00
G1X16.87
G1X16.9
G1X16.93Y17.81
G1X16.95Y17.84
G1X16.87Y17.89
G1X16.89Y17.85
G1X16.91Y17.82
G1X16.83Y17.78
M5
G0X16.96Y17.89
M3 S30
; Layer C00
G1X16.97
G1X16.99Y17.93
G1X17Y17.97
G1X16.96Y17.94
G1Y17.91
G1Y17.89
M5
G0X17.11Y18.17
M3 S30
; Layer C00
G1Y18.18
G1X17.12Y18.21
G1X17.11Y18.23
G1X17.08Y18.24
G1X17.05
G1X17.07Y18.21
G1X17.09Y18.18
G1X17.11
M5
G0X17.09Y18.27
M3 S30
; Layer C00
G1X17.16Y18.33
G1X17.15Y18.44
G1X17.13Y18.51
G1Y18.52
G1X17.11Y18.47
G1Y18.38
G1X17.09Y18.27
M5
G0X17.32Y18.36
M3 S30
; Layer C00
G1X17.42Y18.22
G1X17.48Y18.13
G1X17.52Y18.1
G1X17.53Y18.12
G1Y18.15
G1X17.49Y18.19
G1X17.42Y18.26
G1X17.32Y18.36
M5
G0X17.28Y18.42
M3 S30
; Layer C00
G1Y18.45
G1X17.26Y18.52
G1X17.23Y18.61
G1X17.1
G1X17.14Y18.58
G1X17.18Y18.54
G1X17.26Y18.43
G1X17.28Y18.42
M5
G0X17.62Y18.05
M3 S30
; Layer C00
G1X17.6Y18
G1X17.58Y17.95
G1X17.63Y17.87
G1X17.68Y17.94
G1X17.62Y18.05
M5
G0X17.73Y17.81
M3 S30
; Layer C00
G1X17.71
G1X17.69Y17.78
G1X17.67Y17.74
G1X17.71
G1X17.73Y17.75
G1X17.74Y17.78
G1Y17.8
G1X17.73Y17.81
M5
G0X17.78Y17.61
M3 S30
; Layer C00
G1X17.76Y17.58
G1X17.74Y17.55
G1X17.81Y17.4
G1X17.8Y17.57
G1Y17.6
G1X17.78
M5
G0X18.17Y17.68
M3 S30
; Layer C00
G1X18.23
G1Y17.74
G1Y17.79
G1X18.22Y17.81
G1X18.2Y17.79
G1X18.19Y17.74
G1X18.17Y17.68
M5
G0X18.18Y17.58
M3 S30
; Layer C00
G1X18.17Y17.53
G1X18.16Y17.41
G1X18.14Y17.24
G1X18.23Y17.13
G1Y17.17
G1Y17.2
G1X18.21Y17.23
G1X18.18Y17.25
G1X18.19Y17.41
G1Y17.53
G1Y17.58
M5
G0X18.23Y17.84
M3 S30
; Layer C00
G1X18.25Y17.85
G1X18.27Y17.88
G1X18.25Y17.9
G1X18.23Y17.91
G1X18.21Y17.9
G1X18.2Y17.88
G1Y17.85
G1X18.23
M5
G0X18.28Y17.93
M3 S30
; Layer C00
G1X18.34Y18.09
G1X18.25Y18.16
G1X18.28Y18.11
G1X18.31Y18.07
G1X18.22Y18.02
G1X18.28Y17.93
M5
G0X18.3Y18.17
M3 S30
; Layer C00
G1X18.33
G1X18.38Y18.23
G1X18.39Y18.29
G1X18.37
G1X18.34Y18.24
G1X18.3Y18.17
M5
G0X18.37Y18.34
M3 S30
; Layer C00
G1X18.4
G1X18.43Y18.35
G1Y18.37
G1Y18.4
G1X18.41
G1X18.39Y18.37
G1X18.37Y18.34
M5
G0X18.61Y18.45
M3 S30
; Layer C00
G1X18.67Y18.39
G1X18.74Y18.3
G1X18.84Y18.19
G1X18.94Y18.09
G1X19.02Y18.02
G1X19.07Y17.98
G1X19.05Y18.03
G1X19Y18.06
G1Y18.09
G1Y18.13
G1X18.88Y18.17
G1X18.9Y18.2
G1Y18.27
G1X18.82Y18.31
G1X18.7Y18.39
G1X18.64Y18.48
G1Y18.5
G1X18.62
G1X18.6Y18.48
G1X18.61Y18.45
M5
G0X18.58Y18.51
M3 S30
; Layer C00
G1X18.62Y18.58
G1X18.54Y18.54
G1Y18.57
G1Y18.6
G1X18.51
G1X18.48
G1Y18.58
G1Y18.55
G1X18.52Y18.53
G1X18.58Y18.51
M5
G0X18.89Y18.87
M3 S30
; Layer C00
G1X18.98Y18.9
G1X18.86
G1X18.84Y19
G1X18.79Y18.97
G1X18.74Y18.94
G1X18.89Y18.87
M5
G0X18.98Y18.9
M3 S30
; Layer C00
G1X19.02
G1X19.05Y18.91
G1X19.08Y18.94
G1Y18.97
G1X19.03Y18.94
G1X18.98Y18.9
M5
G0X19.09Y19.01
M3 S30
; Layer C00
G1X19.15Y18.98
G1Y19.15
G1Y19.3
G1Y19.42
G1X19.13Y19.52
G1X18.92Y19.74
G1X19Y19.81
G1X19.05Y19.72
G1X19.1Y19.79
G1X19.01Y19.82
G1X19.12Y19.85
G1X19.21Y19.87
G1X19.26Y19.9
G1X19.27Y19.93
G1X19.15Y19.89
G1X19.43Y20.13
G1X19.57Y20.19
G1X19.65Y20.22
G1X19.72Y20.26
G1X19.74Y20.29
G1X19.71
G1X19.58Y20.24
G1X19.46Y20.17
G1X19.32Y20.08
G1X19.22Y20
G1X19.12Y19.94
G1X19.05Y19.91
G1X19Y19.9
G1X18.92
G1X18.89Y19.86
G1Y19.83
G1X19.01Y19.87
G1X18.94Y19.8
G1X18.64Y19.85
G1X18.76Y19.96
G1X18.71
G1X18.66
G1X18.61Y19.93
G1X18.56Y19.9
G1X18.66
G1X18.57Y19.84
G1X18.65Y19.81
G1X18.72Y19.79
G1X18.76
G1X18.78
G1Y19.76
G1Y19.72
G1X18.89Y19.76
G1X18.93Y19.69
G1X18.89Y19.71
G1X19.03Y19.56
G1X19.09Y19.48
G1X19.12Y19.39
G1X19.13Y19.29
G1Y19.18
G1X19.08Y19.14
G1X19.04Y19.1
G1Y19.07
G1Y19.04
G1X19.09Y19.01
M5
G0X18.73Y18.97
M3 S30
; Layer C00
G1X18.65Y19.02
G1X18.58Y19.1
G1X18.51Y19.21
G1X18.43Y19.34
G1X18.45Y19.39
G1Y19.43
G1X18.42Y19.4
G1Y19.28
G1X18.48Y19.16
G1X18.53Y19.14
G1X18.49
G1Y19.11
G1X18.56Y19.05
G1X18.63Y18.99
G1X18.69Y18.97
G1X18.73
M5
G0X18.4Y19.43
M3 S30
; Layer C00
G1Y19.48
G1Y19.52
G1Y19.53
G1X18.37Y19.52
G1X18.36Y19.48
G1X18.34Y19.43
G1X18.4
M5
G0X18.34Y19.55
M3 S30
; Layer C00
G1X18.36Y19.59
G1Y19.63
G1Y19.67
G1X18.34Y19.71
G1Y19.63
G1Y19.55
M5
G0X18.36Y19.74
M3 S30
; Layer C00
G1X18.39
G1Y19.76
G1X18.34Y19.78
G1X18.28Y19.8
G1X18.33Y19.76
G1X18.36Y19.74
M5
G0X18.3Y19.84
M3 S30
; Layer C00
G1X18.32
G1X18.33Y19.86
G1Y19.89
G1X18.32Y19.93
G1X18.27Y19.9
G1X18.22Y19.87
G1X18.26Y19.85
G1X18.3Y19.84
M5
G0X18.2Y19.86
M3 S30
; Layer C00
G1Y19.89
G1X18.17Y19.92
G1X18.12Y19.96
G1X18.04Y20
G1X18.2Y19.96
G1Y20.08
G1X18.48Y20.28
G1X18.61Y20.52
G1X18.54Y20.7
G1X18.6Y20.8
G1X18.52Y20.84
G1X18.42Y20.88
G1X18.29Y20.9
G1X18.14Y20.92
G1X18.23Y20.89
G1X18.32Y20.86
G1X18.23
G1X18.27Y20.79
G1X18.4Y20.87
G1X18.52Y20.8
G1X18.53Y20.66
G1Y20.53
G1X18.52Y20.43
G1X18.48Y20.35
G1X18.4Y20.27
G1X18.29Y20.16
G1X18.2Y20.19
G1Y20.16
G1Y20.14
G1X18.15Y20.12
G1X18.11Y20.08
G1X18.06Y20.03
G1X17.97Y19.98
G1X17.87Y19.92
G1X18.02Y19.96
G1Y19.93
G1X18Y19.91
G1X17.96Y19.89
G1X17.9Y19.87
G1X18.2
M5
G0X18.21Y19.96
M3 S30
; Layer C00
G1X18.4Y19.99
G1X18.49Y19.93
G1X18.39
G1X18.44Y19.9
G1X18.48Y19.87
G1X18.52
G1X18.54
G1X18.52Y19.92
G1X18.48Y19.99
G1X18.41Y20.02
G1X18.34
G1X18.27Y19.99
G1X18.21Y19.96
M5
G0X17.92Y19.81
M3 S30
; Layer C00
G1X17.86Y19.87
G1X17.68Y19.8
G1X17.65Y19.89
G1X17.62Y19.94
G1X17.61
G1Y19.91
G1Y19.85
G1Y19.79
G1X17.54Y19.83
G1Y19.76
G1X17.45Y19.81
G1X17.55Y19.7
G1X17.57Y19.72
G1X17.6Y19.74
G1X17.64
G1X17.7Y19.76
G1X17.77Y19.79
G1X17.85Y19.83
G1Y19.76
G1X17.92Y19.81
M5
G0X17.78Y19.86
M3 S30
; Layer C00
G1X17.76Y19.9
G1X17.74Y19.92
G1X17.73Y19.93
G1X17.71Y19.92
G1Y19.9
G1X17.72Y19.87
G1X17.75
G1X17.78
M5
G0X17.58Y20.01
M3 S30
; Layer C00
G1X17.6Y20.09
G1Y20.16
G1Y20.22
G1X17.58Y20.28
G1Y20.15
G1Y20.01
M5
G0X17.68Y20.11
M3 S30
; Layer C00
G1X17.7Y20.16
G1Y20.19
G1Y20.22
G1X17.68Y20.24
G1Y20.18
G1Y20.11
M5
G0X17.61Y20.28
M3 S30
; Layer C00
G1X17.65Y20.38
G1X17.72Y20.53
G1X17.82Y20.66
G1X17.94Y20.76
G1X18.05Y20.81
G1X18.1Y20.83
G1X18.13Y20.86
G1Y20.88
G1X18.11
G1X18.06Y20.86
G1X17.97Y20.82
G1X17.83Y20.74
G1X17.64Y20.48
G1X17.61Y20.28
M5
G0X16.78Y20.19
M3 S30
; Layer C00
G1X16.73
G1X16.69Y20.21
G1X16.64Y20.23
G1X16.58Y20.26
G1X16.66
G1X16.72
G1X16.76Y20.23
G1X16.78Y20.19
M5
G0X16.63Y20.33
M3 S30
; Layer C00
G1X16.44
G1X16.51Y20.36
G1X16.58Y20.38
G1X16.63Y20.39
G1X16.67
G1X16.65Y20.36
G1X16.63Y20.33
M5
G0X16.77Y20.33
M3 S30
; Layer C00
G1Y20.36
G1X16.93
G1X16.76Y20.42
G1X16.83
G1X16.9
G1X16.96Y20.41
G1X17.02Y20.39
G1X16.98Y20.33
G1X17.11Y20.37
G1X17.16Y20.3
G1X17.03Y20.34
G1X17.06Y20.31
G1X17.1Y20.29
G1X17.18Y20.27
G1X17.28Y20.26
G1X17.11Y20.42
G1X16.84Y20.48
G1X16.77
G1X16.68Y20.46
G1X16.57Y20.44
G1Y20.46
G1X16.56
G1X16.54Y20.43
G1X16.51Y20.39
G1X16.36Y20.48
G1X16.24Y20.4
G1X16.21Y20.23
G1X16.33Y20.19
G1X16.46Y20.3
G1X16.53Y20.23
G1X16.58Y20.18
G1X16.63Y20.16
G1X16.69Y20.12
G1X16.77Y20.03
G1X16.88Y19.89
G1X16.84Y19.83
G1X16.91
G1X16.92Y19.68
G1X16.95Y19.81
G1X16.96Y19.91
G1Y19.96
G1X16.95Y19.93
G1Y19.88
G1X16.8Y20.16
G1X16.84Y20.21
G1X16.97Y20.09
G1X17.09Y20.14
G1X17.05Y20.2
G1X16.95Y20.13
G1X16.9Y20.21
G1X16.94Y20.18
G1X16.97
G1X16.98
G1X16.93Y20.25
G1X16.86Y20.3
G1X16.79
G1X16.77Y20.33
M5
G0X16.12Y20.36
M3 S30
; Layer C00
G1X16.13Y20.58
G1X15.99Y20.6
G1X15.93Y20.54
G1X15.88Y20.47
G1X15.84Y20.38
G1X15.8Y20.29
G1X15.84Y20.16
G1X15.97
G1X16.12Y20.36
M5
G0X15.77Y20.46
M3 S30
; Layer C00
G1X15.81Y20.58
G1Y20.69
G1X15.79Y20.77
G1X15.74Y20.82
G1X15.66
G1X15.55Y20.79
G1X15.48Y20.72
G1X15.4Y20.61
G1X15.32Y20.47
G1Y20.24
G1X15.38Y20.18
G1X15.44Y20.14
G1X15.48
G1X15.54Y20.16
G1X15.6Y20.22
G1X15.7Y20.34
G1X15.77Y20.46
M5
G0X15.27Y20.49
M3 S30
; Layer C00
G1X15.11
G1X15.09Y20.46
G1X15.07Y20.43
G1X15.01Y20.46
G1Y20.39
G1X15.07Y20.4
G1X15.13Y20.42
G1X15.2Y20.45
G1X15.27Y20.49
M5
G0X14.97Y20.44
M3 S30
; Layer C00
G1Y20.46
G1X14.89Y20.44
G1X14.85Y20.42
G1X14.82Y20.37
G1X14.78
G1X14.73
G1Y20.25
G1X14.82Y20.33
G1X14.87Y20.28
G1Y20.36
G1X14.97
G1Y20.41
G1Y20.44
M5
G0X14.67Y20.31
M3 S30
; Layer C00
G1X14.65Y20.33
G1X14.63Y20.31
G1Y20.28
G1Y20.23
G1X14.55
G1X14.57Y20.27
G1X14.49Y20.23
G1X14.41Y20.16
G1X14.38Y20.12
G1Y20.08
G1X14.46Y20.16
G1X14.57Y20.12
G1X14.52Y20.19
G1X14.68Y20.23
G1Y20.28
G1Y20.31
M5
G0X14.34Y20.15
M3 S30
; Layer C00
G1X14.32
G1X14.3Y20.11
G1X14.29Y20.06
G1Y20.04
G1X14.31
G1X14.33Y20.08
G1X14.34Y20.12
G1Y20.15
M5
G0X14.23Y20.08
M3 S30
; Layer C00
G1X14.11Y19.98
G1X14.04Y19.91
G1X14.01Y19.87
G1Y19.85
G1X14.05
G1X14.09
G1X14.1Y19.87
G1X14.13Y19.91
G1X14.18Y19.96
G1X14.25Y20.02
G1X14.23Y20.08
M5
G0X13.97Y20.1
M3 S30
; Layer C00
G1X13.92
G1X13.87Y20.09
G1X13.84Y20.06
G1X13.82Y20.03
G1X13.87
G1X13.92
G1X13.95Y20.06
G1X13.97Y20.1
M5
G0X13.92Y20.13
M3 S30
; Layer C00
G1X14.01Y20.2
G1X14.09Y20.32
G1Y20.36
G1X14.06
G1X14.02Y20.32
G1X13.97Y20.25
G1X13.93Y20.17
G1X13.92Y20.13
M5
G0X13.85Y19.99
M3 S30
; Layer C00
G1X13.76
G1X13.74Y19.92
G1X13.72Y19.86
G1X13.62
G1Y19.79
G1X13.66Y19.81
G1X13.67
G1X13.64Y19.79
G1X13.6Y19.74
G1X13.57Y19.68
G1X13.54Y19.66
G1X13.5Y19.64
G1X13.48Y19.46
G1X13.59Y19.57
G1X13.55Y19.63
G1X13.65Y19.59
G1Y19.68
G1X13.67Y19.72
G1X13.73Y19.78
G1X13.8Y19.85
G1X13.83Y19.92
G1X13.85Y19.99
M5
G0X13.3Y19.9
M3 S30
; Layer C00
G1X13.29Y19.92
G1X13.27Y19.87
G1X13.24Y19.76
G1X13.19Y19.57
G1X13.13Y19.36
G1X13.06Y19.14
G1X12.99
G1X13.03Y19.07
G1X12.94Y18.94
G1X12.99Y18.9
G1X13.04Y18.95
G1X13.08Y19
G1X13.16Y19.28
G1X13.25Y19.48
G1Y19.53
G1X13.23Y19.59
G1X13.3Y19.63
G1X13.26Y19.74
G1X13.33Y19.7
G1X13.31Y19.82
G1X13.3Y19.9
M5
G0X12.7Y20.01
M3 S30
; Layer C00
G1X12.61Y20.12
G1X12.66Y20.17
G1X12.58Y20.12
G1Y20.16
G1X12.56Y20.18
G1X12.52Y20.21
G1X12.47Y20.23
G1X12.51Y20.16
G1X12.48
G1X12.45Y20.17
G1X12.43Y20.2
G1Y20.23
G1X12.4Y20.21
G1X12.37Y20.18
G1Y20.16
G1X12.41Y20.14
G1X12.46
G1X12.56Y20.13
G1X12.7Y20.01
M5
G0X12.64Y19.95
M3 S30
; Layer C00
G1X12.62
G1X12.6Y19.91
G1X12.57Y19.85
G1X12.62Y19.89
G1X12.64Y19.92
G1Y19.95
M5
G0X12.56Y19.83
M3 S30
; Layer C00
G1X12.39Y19.91
G1X12.34Y20.08
G1Y20.01
G1Y19.95
G1X12.36Y19.9
G1X12.39Y19.85
G1X12.56Y19.83
M5
G0X12.53Y19.43
M3 S30
; Layer C00
G1X12.32
G1X12.38Y19.41
G1X12.44
G1X12.48
G1X12.53Y19.43
M5
G0X12.53Y19.35
M3 S30
; Layer C00
G1X11.59
G1X11.82
G1X12.06Y19.34
G1X12.29
G1X12.53Y19.35
M5
G0X12.18Y19.41
M3 S30
; Layer C00
G1X12.07Y19.43
G1X11.98Y19.46
G1X11.92Y19.48
G1X11.88Y19.5
G1Y19.47
G1X11.94Y19.42
G1X12.09Y19.4
G1X12.18
M5
G0X11.85Y19.46
M3 S30
; Layer C00
G1Y19.5
G1X11.83Y19.52
G1X11.78Y19.55
G1X11.71Y19.57
G1X11.62Y19.72
G1X11.53Y19.88
G1X11.42Y20.15
G1X11.4
G1X11.42Y20.06
G1X11.47Y19.91
G1X11.54Y19.72
G1X11.63Y19.62
G1X11.72Y19.55
G1X11.79Y19.5
G1X11.85Y19.46
M5
G0X11.64Y19.55
M3 S30
; Layer C00
G1X11.61Y19.57
G1X11.58Y19.56
G1X11.56Y19.53
G1X11.53Y19.5
G1X11.59Y19.52
G1X11.64Y19.55
M5
G0X11.59Y19.39
M3 S30
; Layer C00
G1X11.31
G1X11.39Y19.38
G1X11.46
G1X11.53
G1X11.59Y19.39
M5
G0X11.28Y19.33
M3 S30
; Layer C00
G1Y19.51
G1X11.19Y19.54
G1Y19.49
G1Y19.43
G1X11.27
G1X11.18Y19.34
G1X11.13Y19.38
G1X11.09Y19.42
G1X11.06Y19.43
G1Y19.41
G1X11.1Y19.37
G1X11.16Y19.31
G1X10.99Y19.18
G1X10.85Y19.07
G1X10.73Y18.99
G1X10.63Y18.93
G1X10.67Y18.89
G1X10.7Y18.92
G1X10.75Y18.97
G1X10.83Y19.01
G1X10.94Y19.09
G1X11.08Y19.2
G1X11.19Y19.29
G1X11.25Y19.33
G1X11.28
M5
G0X11.15Y19.47
M3 S30
; Layer C00
G1Y19.51
G1X11.09Y19.59
G1X10.98Y19.72
G1X10.84Y19.91
G1X10.71Y20.1
G1X10.6Y20.31
G1X10.62Y20.23
G1X10.66Y20.12
G1X10.7Y20.03
G1X10.77Y19.92
G1X10.88Y19.78
G1X11.05Y19.56
G1X10.97Y19.47
G1X11.15
M5
G0X10.74Y19.09
M3 S30
; Layer C00
G1X10.72
G1X10.67Y19.04
G1X10.62Y18.99
G1X10.68Y19.03
G1X10.72Y19.07
G1X10.74Y19.09
M5
G0X10.52Y18.87
M3 S30
; Layer C00
G1X10.42Y18.82
G1X10.3Y18.77
G1X10.02Y18.69
G1X9.95Y18.66
G1Y18.64
G1X10.02Y18.65
G1X10.19Y18.7
G1X10.35Y18.75
G1X10.48Y18.81
G1X10.53Y18.85
G1X10.52Y18.87
M5
G0X9.91Y18.63
M3 S30
; Layer C00
G1X9.88
G1X9.82
G1X9.73
G1Y18.61
G1Y18.58
G1X9.82Y18.6
G1X9.88Y18.61
G1X9.91Y18.63
M5
G0X9.72Y18.59
M3 S30
; Layer C00
G1X8.95
G1X9.15
G1X9.35Y18.58
G1X9.54
G1X9.72Y18.59
M5
G0X8.9Y18.58
M3 S30
; Layer C00
G1Y18.64
G1X8.82
G1X8.75
G1X8.73Y18.63
G1X8.75Y18.61
G1X8.82Y18.6
G1X8.9Y18.58
M5
G0X8.67Y18.64
M3 S30
; Layer C00
G1X8.62Y18.67
G1X8.55Y18.7
G1X8.29Y18.8
G1X8.21Y18.83
G1X8.18
G1X8.2Y18.8
G1X8.28Y18.75
G1X8.35Y18.72
G1X8.42
G1X8.6Y18.65
G1X8.67Y18.64
M5
G0X8.33Y18.45
M3 S30
; Layer C00
G1X8.29Y18.46
G1X8.2
G1X8.1Y18.47
G1X8.07
G1X8.11Y18.44
G1X8.25Y18.37
G1X8.2Y18.44
G1X8.28
G1Y18.32
G1X8.31Y18.37
G1X8.34Y18.42
G1Y18.45
M5
G0X8.39Y18.38
M3 S30
; Layer C00
G1X8.37Y18.35
G1X8.35Y18.32
G1X8.55Y18.23
G1X8.62Y18.28
G1Y18.21
G1X8.73
G1Y18.27
G1X8.67
G1X8.61
G1X8.54
G1X8.48
G1X8.53Y18.35
G1X8.44Y18.3
G1X8.39Y18.38
M5
G0X8.64Y18.33
M3 S30
; Layer C00
G1X8.78Y18.27
G1X8.92Y18.21
G1X8.75Y18.25
G1X8.78Y18.22
G1X8.82Y18.19
G1X8.88Y18.17
G1X8.97Y18.15
G1Y18.18
G1X8.96Y18.2
G1X8.92Y18.24
G1X8.89Y18.28
G1Y18.3
G1Y18.32
G1X8.64Y18.33
M5
G0X8.86Y18.09
M3 S30
; Layer C00
G1X8.78Y18.04
G1X8.65Y17.98
G1X8.48Y17.93
G1X8.3Y17.88
G1X8.59Y17.89
G1Y17.95
G1X8.69Y17.91
G1X8.79Y18.01
G1X8.83Y17.97
G1Y18.06
G1X8.89Y17.97
G1X8.94Y18.04
G1X8.85
G1X8.95Y18.11
G1X8.92
G1X8.86Y18.09
M5
G0X9.23Y17.84
M3 S30
; Layer C00
G1X9.17Y17.8
G1X9.07Y17.7
G1X8.98Y17.6
G1X8.96Y17.55
G1X8.98
G1X9.03Y17.6
G1X9.13Y17.7
G1X9.21Y17.8
G1X9.23Y17.84
M5
G0X9.28Y17.84
M3 S30
; Layer C00
G1X9.32
G1X9.34Y17.85
G1X9.35Y17.88
G1Y17.9
G1X9.34Y17.91
G1X9.32Y17.9
G1X9.3Y17.88
G1X9.28Y17.84
M5
G0X9.37Y17.87
M3 S30
; Layer C00
G1X9.55Y17.91
G1X9.58Y17.93
G1X9.55Y17.95
G1X9.51Y17.97
G1X9.44Y17.92
G1X9.37Y17.87
M5
G0X9.56Y17.98
M3 S30
; Layer C00
G1X9.59
G1X9.62
G1X9.63Y18.01
G1Y18.03
G1X9.62Y18.04
G1X9.6
G1X9.58Y18.01
G1X9.56Y17.98
M5
G0X9.65Y17.94
M3 S30
; Layer C00
G1X9.68
G1X9.72Y17.95
G1X9.77Y17.98
G1X9.82Y18.01
G1X9.79
G1X9.75Y18
G1X9.7Y17.98
G1X9.65Y17.94
M5
G0X9.86Y17.9
M3 S30
; Layer C00
G1X9.9Y17.89
G1X9.94
G1X9.97
G1X9.99Y17.91
G1X9.86
M5
G0X10.04Y17.91
M3 S30
; Layer C00
G1X10.12Y17.87
G1X10.2Y17.83
G1X10.26Y17.76
G1X10.33Y17.69
G1X10.25Y17.85
G1X10.08Y17.92
G1X10.1Y17.95
G1Y17.97
G1X10.08
G1X10.06Y17.94
G1X10.04Y17.91
M5
G0X10.4Y17.53
M3 S30
; Layer C00
G1Y17.46
G1Y17.38
G1X10.46Y17.34
G1Y17.37
G1X10.45Y17.41
G1X10.43Y17.46
G1X10.4Y17.53
M5
G0X10.44Y17.31
M3 S30
; Layer C00
G1X10.43
G1X10.41Y17.27
G1X10.4Y17.22
G1Y17.17
G1X10.42Y17.13
G1X10.43Y17.22
G1X10.44Y17.28
G1Y17.31
M5
G0X10.76Y17.04
M3 S30
; Layer C00
G1X10.75
G1Y16.98
G1X10.76Y16.88
G1X10.82Y16.71
G1X10.9Y16.5
G1X11.04Y16.32
G1X11.18Y16.16
G1X11.31Y16.03
G1X11.45Y15.91
G1X11.62Y15.81
G1X11.83Y15.69
G1X12.25Y15.57
G1X12.34Y15.54
G1X12.36
G1X12.4Y15.52
G1X12.44Y15.49
G1X12.6Y15.57
G1X12.66
G1X12.72Y15.55
G1X12.81Y15.51
G1X12.94Y15.46
G1X13.08Y15.4
G1X13.42Y15.25
G1X13.74Y15.28
G1X14.07Y15.47
G1X14.24Y15.7
G1X14.36Y15.86
G1X14.44Y15.99
G1X14.49Y16.09
G1X14.51Y16.16
G1X14.49Y16.2
G1X14.44
G1X14.36Y16.19
G1X14.24Y16.14
G1X13.98Y16.03
G1X13.04Y15.92
G1X12.88Y15.87
G1X12.75Y15.83
G1X12.64Y15.81
G1X12.56Y15.79
G1X12.49Y15.76
G1X12.44Y15.72
G1X12.41Y15.74
G1X12.38Y15.77
G1X12.34Y15.83
G1X12.29Y15.92
G1X12.23Y16.02
G1X12.1Y16.28
G1X11.81Y16.52
G1X11.51Y16.62
G1X11.27Y16.71
G1X11.08Y16.8
G1X10.94Y16.88
G1X10.85Y16.97
G1X10.8Y17.02
G1X10.76Y17.04
M5
G0X10.31Y16.93
M3 S30
; Layer C00
G1X10.19Y16.81
G1X10.07Y16.68
G1X10.12Y16.64
G1Y16.72
G1X10.19Y16.68
G1X10.17Y16.76
G1X10.21
G1X10.25Y16.78
G1X10.29Y16.81
G1X10.33Y16.84
G1X10.31Y16.93
M5
G0X9.9Y16.61
M3 S30
; Layer C00
G1X9.87
G1X9.85
G1X9.84Y16.58
G1Y16.55
G1X9.87Y16.57
G1X9.9Y16.59
G1Y16.6
G1Y16.61
M5
G0X9.77Y16.57
M3 S30
; Layer C00
G1X9.66Y16.58
G1X9.49Y16.55
G1X9.44Y16.52
G1X9.6Y16.54
G1X9.71Y16.56
G1X9.77Y16.57
M5
G0X9.39Y16.6
M3 S30
; Layer C00
G1X9.23Y16.72
G1X9.05Y16.82
G1Y16.8
G1X9.1Y16.76
G1X9.26Y16.64
G1X9.35Y16.59
G1X9.39Y16.6
M5
G0X9.04Y16.85
M3 S30
; Layer C00
G1X9.06
G1X9.05Y16.89
G1X9.02Y16.93
G1X8.97Y17
G1Y16.94
G1X8.98Y16.9
G1X9.01Y16.87
G1X9.04Y16.85
M5
G0X8.92Y17.07
M3 S30
; Layer C00
G1X8.84Y17.16
G1X8.82Y17.18
G1X8.76Y17.14
G1X8.71Y17.11
G1X8.82Y17.14
G1X8.92Y17.07
M5
G0X8.9Y17.25
M3 S30
; Layer C00
G1X8.92Y17.3
G1X8.93Y17.34
G1Y17.39
G1X8.91Y17.43
G1Y17.36
G1Y17.29
G1X8.74
G1X8.61Y17.28
G1X8.57Y17.27
G1X8.6Y17.25
G1X8.72
G1X8.9
M5
G0X8.52Y17.2
M3 S30
; Layer C00
G1X8.5Y17.21
G1X8.46
G1X8.4
G1Y17.15
G1Y17.08
G1X8.46Y17.14
G1X8.5Y17.18
G1X8.52Y17.2
M5
G0X8.47Y17.3
M3 S30
; Layer C00
G1X8.3Y17.34
G1X8.34Y17.31
G1X8.38Y17.27
G1X8.47Y17.3
M5
G0X8.31Y17.25
M3 S30
; Layer C00
G1X8.2
G1X8.23Y17.21
G1X8.25Y17.19
G1X8.28
G1X8.3
G1X8.31Y17.21
G1Y17.25
M5
G0X8.17Y17.25
M3 S30
; Layer C00
G1X7.85Y17.38
G1X7.79Y17.41
G1X7.76
G1Y17.38
G1Y17.35
G1X7.98Y17.31
G1X7.93Y17.28
G1X7.9Y17.26
G1Y17.25
G1X8.04Y17.22
G1X8Y17.28
G1X8.03
G1X8.06
G1X8.09Y17.22
G1X8.12Y17.2
G1X8.17Y17.18
G1Y17.25
M5
G0X8.14Y17.37
M3 S30
; Layer C00
G1X8.17Y17.38
G1X8.09Y17.47
G1X8.05Y17.44
G1X8.02Y17.42
G1X7.99
G1X7.96
G1X8Y17.48
G1X7.97
G1X7.94
G1X7.92Y17.45
G1X7.9Y17.42
G1X8Y17.38
G1X8.09Y17.36
G1X8.14
M5
G0X8.14Y17.44
M3 S30
; Layer C00
G1X8.17Y17.46
G1X8.2Y17.48
G1Y17.5
G1X8.17Y17.51
G1X8.15
G1X8.14Y17.48
G1Y17.44
M5
G0X7.79Y17.48
M3 S30
; Layer C00
G1Y17.51
G1X7.78Y17.54
G1X7.74Y17.56
G1X7.69Y17.58
G1Y17.55
G1X7.7Y17.52
G1X7.74Y17.5
G1X7.79Y17.48
M5
G0X7.56Y17.5
M3 S30
; Layer C00
G1X7.5Y17.47
G1X7.45Y17.44
G1X7.32Y17.52
G1X7.45Y17.48
G1Y17.54
G1X7.56Y17.5
M5
G0X7.58Y17.58
M3 S30
; Layer C00
G1X7.5Y17.75
G1X7.38Y17.72
G1X7.34Y17.81
G1X7.23
G1X7.14Y17.93
G1Y17.89
G1Y17.85
G1X7.38Y17.68
G1X7.49Y17.72
G1X7.44Y17.65
G1X7.58Y17.58
M5
G0X7.2Y17.51
M3 S30
; Layer C00
G1Y17.46
G1Y17.41
G1X7.24
G1X7.26
G1X7.27Y17.38
G1Y17.35
G1X7.06Y17.42
G1Y17.49
G1X7.17Y17.45
G1X7.13Y17.51
G1X7.2
M5
G0X7.1Y17.6
M3 S30
; Layer C00
G1X7.09Y17.62
G1X7Y17.7
G1X6.9Y17.8
G1X6.86Y17.86
G1Y17.88
G1X6.93Y17.84
G1X6.87Y17.92
G1X6.82Y17.98
G1X6.78Y18.01
G1X6.75
G1X6.77Y17.98
G1X6.79Y17.95
G1X6.75Y17.94
G1X6.73Y17.9
G1X6.7Y17.83
G1X6.68Y17.73
G1X6.74Y17.82
G1X6.76Y17.77
G1X6.77Y17.71
G1Y17.65
G1X6.74Y17.58
G1X7.03
G1Y17.65
G1X7.09Y17.61
G1X7.1
M5
G0X7.05Y17.69
M3 S30
; Layer C00
G1X7Y17.75
G1X6.95Y17.81
G1X6.93Y17.8
G1X6.94Y17.78
G1X6.99Y17.74
G1X7.05Y17.69
M5
G0X6.72Y17.65
M3 S30
; Layer C00
G1X6.71Y17.67
G1X6.68
G1X6.66
G1X6.65Y17.65
G1Y17.62
G1X6.68
G1X6.71
G1Y17.65
M5
G0X6.57Y17.64
M3 S30
; Layer C00
G1Y17.67
G1X6.54Y17.69
G1Y17.63
G1Y17.56
G1X6.57Y17.61
G1Y17.64
M5
G0X6.61Y17.73
M3 S30
; Layer C00
G1Y17.75
G1X6.58Y17.79
G1X6.54Y17.83
G1X6.56Y17.77
G1X6.59Y17.73
G1X6.61
M5
G0X6.61Y17.84
M3 S30
; Layer C00
G1X6.64Y17.85
G1Y17.88
G1Y17.9
G1Y17.91
G1X6.62Y17.9
G1X6.6Y17.88
G1X6.57Y17.84
G1X6.61
M5
G0X6.65Y17.93
M3 S30
; Layer C00
G1X6.72Y18.15
G1X6.66Y18.21
G1Y18.07
G1Y17.93
M5
G0X6.86Y18.06
M3 S30
; Layer C00
G1X6.92Y18.01
G1X6.98Y17.99
G1X7.03
G1Y18.05
G1X6.93Y18.01
G1Y18.06
G1Y18.1
G1X6.97Y18.13
G1X7.01Y18.15
G1X6.96Y18.08
G1X7.03
G1X7.01Y18.19
G1X6.83Y18.21
G1X6.81Y18.16
G1X6.79Y18.11
G1X6.86Y18.06
M5
G0X7.06Y18.08
M3 S30
; Layer C00
G1X7.12
G1X7.15
G1X7.17
G1X7.15Y18.1
G1X7.12Y18.12
G1X7.06Y18.14
G1Y18.11
G1Y18.08
M5
G0X7.31Y18.02
M3 S30
; Layer C00
G1X7.33Y18
G1X7.4Y17.99
G1X7.5
G1X7.43Y18.01
G1X7.33Y18.04
G1X7.31Y18.02
M5
G0X7.5Y17.98
M3 S30
; Layer C00
G1X7.58Y17.91
G1X7.67Y17.85
G1X7.79Y17.87
G1X7.89Y17.89
G1X7.93Y17.9
G1X7.89
G1X7.79
G1X7.64Y17.88
G1X7.74Y17.94
G1X7.68
G1X7.62
G1X7.56Y17.96
G1X7.5Y17.98
M5
G0X6.84Y18.24
M3 S30
; Layer C00
G1X6.79Y18.27
G1X6.74Y18.3
G1X6.71
G1X6.68
G1X6.72Y18.24
G1X6.75Y18.19
G1X6.77Y18.17
G1Y18.18
G1Y18.21
G1X6.75Y18.24
G1X6.84
M5
G0X6.68Y18.46
M3 S30
; Layer C00
G1X6.75Y18.49
G1X6.84Y18.54
G1X6.79
G1X6.72
G1X6.62Y18.57
G1X6.51Y18.61
G1Y18.66
G1X6.5Y18.69
G1X6.47Y18.7
G1X6.44
G1X6.49Y18.61
G1X6.54Y18.54
G1X6.57Y18.51
G1X6.6
G1X6.65
G1X6.7
G1X6.56Y18.44
G1X6.61
G1X6.68Y18.46
M5
G0X7.06Y18.58
M3 S30
; Layer C00
G1X7.15Y18.6
G1X7.21Y18.61
G1X7.24Y18.63
G1X7.21
G1X7.15
G1X7.06
G1Y18.61
G1Y18.58
M5
G0X7.46Y18.63
M3 S30
; Layer C00
G1X7.52Y18.62
G1X7.58Y18.61
G1X7.63
G1X7.67Y18.63
G1X7.46
M5
G0X7.72Y18.61
M3 S30
; Layer C00
G1X7.73Y18.58
G1X7.76
G1X7.78
G1X7.79Y18.61
G1Y18.63
G1X7.76
G1X7.73
G1Y18.61
M5
G0X7.85Y18.58
M3 S30
; Layer C00
G1X7.83Y18.55
G1X7.94Y18.5
G1X8.02Y18.58
G1X7.92Y18.53
G1X7.87Y18.61
G1X7.85Y18.58
M5
G0X8.14Y18.51
M3 S30
; Layer C00
G1X8.17
G1X8.2
G1Y18.54
G1Y18.56
G1Y18.57
G1X8.18
G1X8.16Y18.54
G1X8.14Y18.51
M5
G0X8.13Y18.85
M3 S30
; Layer C00
G1X8.07Y18.9
G1X7.97Y18.96
G1X7.84Y19.03
G1X7.79Y19.04
G1X7.89Y18.96
G1X8.08Y18.86
G1X8.13Y18.85
M5
G0X7.91Y19.05
M3 S30
; Layer C00
G1X7.87Y19.11
G1X7.81Y19.16
G1X7.79
G1X7.81Y19.13
G1X7.85Y19.1
G1X7.91Y19.05
M5
G0X7.96Y19.14
M3 S30
; Layer C00
G1Y19.16
G1X7.93Y19.18
G1X8.15Y19.39
G1X8.08Y19.43
G1X7.98Y19.33
G1X7.89Y19.24
G1X7.85Y19.26
G1X7.88Y19.21
G1X7.93Y19.16
G1X7.96Y19.14
M5
G0X7.88Y19.18
M3 S30
; Layer C00
G1X8.04Y19.35
G1X8.08Y19.39
G1X8.1
G1X8.07Y19.35
G1X7.99Y19.28
G1X7.88Y19.18
M5
G0X7.74Y19.12
M3 S30
; Layer C00
G1X7.69Y19.16
G1X7.63Y19.22
G1X7.54Y19.28
G1X7.34Y19.44
G1X7.37Y19.37
G1X7.58Y19.19
G1X7.76Y19.09
G1X7.74Y19.12
M5
G0X7.3Y19.47
M3 S30
; Layer C00
G1X7.29Y19.49
G1X7.24Y19.55
G1X7.15Y19.64
G1X6.99Y19.8
G1X7.04Y19.87
G1X6.96Y19.83
G1X6.62Y20.14
G1X6.7Y20.24
G1X6.58Y20.16
G1X6.44Y20.27
G1X6.49Y20.34
G1X6.41Y20.29
G1X6.26Y20.38
G1X6.16Y20.43
G1X6.1Y20.45
G1X6.07
G1X6.06
G1X6.08Y20.43
G1X6.13Y20.4
G1X6.2Y20.35
G1X6.53Y20.18
G1X6.9Y19.82
G1X7.03Y19.7
G1X7.14Y19.6
G1X7.22Y19.53
G1X7.28Y19.48
G1X7.3Y19.47
M5
G0X7.45Y19.97
M3 S30
; Layer C00
G1Y20.03
G1X7.5
G1X7.53
G1X7.55Y20.02
G1X7.53Y20
G1X7.5Y19.98
G1X7.45Y19.97
M5
G0X7.13Y20.23
M3 S30
; Layer C00
G1Y20.26
G1X7.11Y20.28
G1X7.06Y20.3
G1X7.02Y20.31
G1X6.99
G1X7.02Y20.29
G1X7.06Y20.26
G1X7.13Y20.23
M5
G0X6.89Y20.37
M3 S30
; Layer C00
G1X6.85Y20.41
G1X6.74Y20.49
G1X6.6Y20.61
G1X6.64Y20.55
G1X6.79Y20.43
G1X6.89Y20.37
M5
G0X6.75Y20.29
M3 S30
; Layer C00
G1X6.71Y20.32
G1X6.62Y20.36
G1X6.41Y20.43
G1X6.39Y20.39
G1X6.36Y20.35
G1X6.44Y20.4
G1X6.67Y20.29
G1X6.72Y20.27
G1X6.75
G1Y20.29
M5
G0X6.62Y20.61
M3 S30
; Layer C00
G1X6.59Y20.71
G1X6.57Y20.78
G1X6.56Y20.82
G1X6.55
G1Y20.77
G1Y20.71
G1X6.58Y20.66
G1X6.62Y20.61
M5
G0X6.28Y20.47
M3 S30
; Layer C00
G1X6.21Y20.5
G1X6.15Y20.51
G1X6.09Y20.52
G1X6.04
G1X6.13Y20.48
G1X6.21Y20.44
G1X6.28Y20.47
M5
G0X6.6Y20.94
M3 S30
; Layer C00
G1X6.75Y21.05
G1X6.73
G1X6.69Y21.04
G1X6.64Y21
G1X6.6Y20.94
M5
G0X7.05Y21.08
M3 S30
; Layer C00
G1X7.09Y21.07
G1X7.13Y21.06
G1X7.16
G1X7.18Y21.09
G1X7.05
M5
G0X7.47Y20.97
M3 S30
; Layer C00
G1X7.49Y20.93
G1X7.5Y20.9
G1X7.56Y20.88
G1X7.59Y20.85
G1X7.62Y20.81
G1Y20.89
G1X7.66Y20.87
G1X7.68
G1X7.65Y20.9
G1X7.59Y20.95
G1X7.63Y20.99
G1X7.59
G1X7.56Y20.98
G1X7.55Y20.95
G1Y20.92
G1X7.47Y20.97
M5
G0X7.52Y21.02
M3 S30
; Layer C00
G1X7.58
G1X7.56Y21.09
G1X7.54Y21.14
G1X7.53Y21.16
G1X7.52Y21.14
G1Y21.09
G1Y21.02
M5
G0X7.49Y21.2
M3 S30
; Layer C00
G1X7.5Y21.26
G1X7.51Y21.32
G1Y21.36
G1X7.49Y21.4
G1Y21.3
G1Y21.2
M5
G0X7.49Y21.4
M3 S30
; Layer C00
G1X7.5Y21.45
G1X7.51Y21.49
G1Y21.53
G1X7.49Y21.57
G1Y21.49
G1Y21.4
M5
G0X7.76Y21.37
M3 S30
; Layer C00
G1Y21.34
G1Y21.3
G1X7.79Y21.25
G1X7.83Y21.2
G1Y21.24
G1X7.82Y21.28
G1X7.79Y21.32
G1X7.76Y21.37
M5
G0X8.13Y21.28
M3 S30
; Layer C00
G1X8.21Y21.2
G1X8.2Y21.4
G1X8.24Y21.5
G1X8.28Y21.59
G1X8.31Y21.66
G1X8.35Y21.72
G1X8.26Y21.76
G1X8.29Y21.73
G1X8.31Y21.71
G1X8.26Y21.65
G1X8.2Y21.6
G1X8.15Y21.59
G1X8.1
G1Y21.52
G1X8.16Y21.55
G1X8.13Y21.28
M5
G0X8.57Y21.3
M3 S30
; Layer C00
G1Y21.02
G1Y20.74
G1X8.58Y20.88
G1Y21.02
G1Y21.16
G1X8.57Y21.3
M5
G0X8.94Y21.27
M3 S30
; Layer C00
G1Y21.24
G1Y21.18
G1X9.01Y21.23
G1X8.99Y21.26
G1X8.97Y21.28
G1X8.95
G1Y21.27
M5
G0X9.06Y21.32
M3 S30
; Layer C00
G1X9.1
G1X9.14Y21.34
G1X9.18Y21.37
G1X9.21Y21.41
G1X9.18
G1X9.13Y21.37
G1X9.06Y21.32
M5
G0X8.91Y21.44
M3 S30
; Layer C00
G1X8.93Y21.48
G1Y21.52
G1Y21.54
G1X8.9Y21.56
G1Y21.5
G1Y21.44
M5
G0X9.25Y21.42
M3 S30
; Layer C00
G1X9.3Y21.44
G1X9.34Y21.46
G1X9.35Y21.47
G1X9.34Y21.48
G1X9.3
G1X9.25
G1Y21.45
G1Y21.42
M5
G0X9.37Y21.51
M3 S30
; Layer C00
G1X9.45Y21.5
G1X9.52Y21.49
G1X9.59
G1X9.65Y21.51
G1X9.37
M5
G0X9.79Y21.32
M3 S30
; Layer C00
G1X9.77Y21.31
G1Y21.27
G1X9.75Y21.2
G1X9.7Y21.11
G1X9.62Y21.01
G1X9.8Y21.2
G1Y21.26
G1Y21.3
G1X9.79Y21.32
M5
G0X9.27Y21.19
M3 S30
; Layer C00
G1X9.25Y21.18
G1X9.21Y21.14
G1X9.19Y21.1
G1Y21.07
G1X9.21Y21.08
G1X9.24Y21.12
G1X9.27Y21.17
G1Y21.19
M5
G0X9.56Y20.99
M3 S30
; Layer C00
G1Y20.97
G1Y20.93
G1X9.53Y20.82
G1X9.84
G1X9.98Y20.69
G1Y20.56
G1X9.79Y20.35
G1X9.65Y20.29
G1X9.56Y20.25
G1Y20.23
G1X9.71Y20.28
G1X9.89Y20.42
G1X10.01Y20.54
G1Y20.69
G1X9.84Y20.86
G1X9.74
G1X9.67
G1X9.62
G1X9.59
G1X9.63Y20.95
G1X9.56Y20.99
M5
G0X9.44Y20.86
M3 S30
; Layer C00
G1X9.43Y20.85
G1Y20.82
G1Y20.8
G1X9.46
G1X9.5
G1X9.47Y20.82
G1X9.45Y20.85
G1X9.44
M5
G0X8.93Y20.71
M3 S30
; Layer C00
G1X8.91
G1X8.89Y20.67
G1X8.87Y20.62
G1Y20.6
G1X8.88
G1X8.91Y20.64
G1X8.93Y20.68
G1Y20.71
M5
G0X8.08Y20.75
M3 S30
; Layer C00
G1X8.02Y20.84
G1X7.97Y20.9
G1X7.95Y20.92
G1Y20.91
G1X7.96Y20.86
G1X8Y20.81
G1X8.04Y20.77
G1X8.08Y20.75
M5
G0X7.74Y20.76
M3 S30
; Layer C00
G1Y20.78
G1X7.7Y20.81
G1X7.64Y20.83
G1X7.68Y20.79
G1X7.72Y20.76
G1X7.74
M5
G0X7.35Y20.48
M3 S30
; Layer C00
G1X7.27Y20.53
G1X7.18Y20.57
G1X7.12Y20.59
G1Y20.57
G1X7.2Y20.53
G1X7.3Y20.48
G1X7.36Y20.46
G1X7.35Y20.48
M5
G0X7.64Y20.39
M3 S30
; Layer C00
G1X7.68Y20.37
G1X7.72
G1X7.77
G1X7.81Y20.39
G1X7.64
M5
G0X7.84Y20.35
M3 S30
; Layer C00
G1X7.92Y20.34
G1X8
G1X8.08
G1X8.16Y20.35
G1X7.84
M5
G0X8.35Y20.23
M3 S30
; Layer C00
G1Y20.2
G1Y20.17
G1X8.38Y20.15
G1X8.42Y20.12
G1Y20.16
G1X8.41Y20.19
G1X8.38Y20.21
G1X8.35Y20.23
M5
G0X9.21Y20.13
M3 S30
; Layer C00
G1X9.28Y20.15
G1X9.33Y20.17
G1X9.35Y20.18
G1Y20.19
G1X9.3
G1X9.26
G1X9.23Y20.16
G1X9.21Y20.13
M5
G0X9.38Y20.16
M3 S30
; Layer C00
G1X9.44Y20.18
G1X9.49Y20.21
G1X9.46Y20.23
G1X9.43Y20.22
G1X9.41Y20.2
G1X9.38Y20.16
M5
G0X9.21Y19.96
M3 S30
; Layer C00
G1X9.19
G1X9.15Y19.94
G1X9.11Y19.91
G1X9.32
G1X9.28Y19.94
G1X9.24Y19.95
G1X9.21Y19.96
M5
G0X9.36Y19.92
M3 S30
; Layer C00
G1Y19.9
G1Y19.87
G1X9.39
G1X9.43
G1X9.4Y19.9
G1X9.39Y19.92
G1X9.37Y19.93
G1X9.36Y19.92
M5
G0X9.75Y19.73
M3 S30
; Layer C00
G1X9.88
G1X9.86Y19.71
G1X9.84
G1X9.8
G1X9.75Y19.73
M5
G0X10.06Y19.57
M3 S30
; Layer C00
G1X10.12Y19.6
G1X10.17Y19.62
G1X10.22
G1X10.27
G1X10.2Y19.6
G1X10.14Y19.58
G1X10.1Y19.57
G1X10.06
M5
G0X10.07Y19.63
M3 S30
; Layer C00
G1X9.97Y19.61
G1X9.92
G1X9.94Y19.63
G1X10.01Y19.65
G1X10.13Y19.68
G1X9.86Y19.75
G1X9.65Y19.82
G1X9.54Y19.86
G1X9.5Y19.9
G1X9.48Y19.87
G1X9.46Y19.84
G1X9.75Y19.73
G1X9.55Y19.77
G1X9.57Y19.72
G1X9.59Y19.69
G1X9.63
G1X9.68Y19.67
G1X9.73Y19.65
G1X9.77Y19.63
G1X9.84Y19.66
G1X9.9Y19.69
G1X9.95
G1X9.88Y19.65
G1X9.77Y19.6
G1X9.79Y19.52
G1X9.96Y19.48
G1X9.75Y19.45
G1X9.59Y19.42
G1X9.49Y19.4
G1X9.44Y19.37
G1X9.84
G1X9.81Y19.42
G1X10.69
G1X10.71Y19.5
G1X10.9
G1X10.63Y19.57
G1X10.41Y19.5
G1X10.72Y19.53
G1X10.53Y19.46
G1X10.35Y19.5
G1X10.38Y19.53
G1X10.42Y19.56
G1X10.46Y19.57
G1X10.47Y19.58
G1X10.43
G1X10.35Y19.57
G1X10.17Y19.53
G1X10.37Y19.62
G1X10.2Y19.66
G1X10.07Y19.63
M5
G0X8.92Y19.5
M3 S30
; Layer C00
G1X8.88
G1X8.85Y19.51
G1X8.8Y19.53
G1X8.75Y19.56
G1X8.78
G1X8.82
G1X8.87Y19.53
G1X8.92Y19.5
M5
G0X8.84Y19.62
M3 S30
; Layer C00
G1X8.79Y19.61
G1X8.71Y19.59
G1X8.65Y19.58
G1X8.68Y19.61
G1X8.69Y19.65
G1Y19.7
G1X8.76
G1X8.81Y19.69
G1X8.85Y19.67
G1X8.87Y19.64
G1X8.84Y19.62
M5
G0X8.98Y19.68
M3 S30
; Layer C00
G1X9.09Y19.76
G1X9.13Y19.74
G1X9.21Y19.72
G1X9.34Y19.71
G1X9.53
G1Y19.8
G1X9.42Y19.77
G1X9.46Y19.83
G1X9.34
G1X9.29Y19.84
G1X9.26
G1X9.25Y19.87
G1Y19.9
G1X9.14Y19.87
G1X9.06Y19.9
G1X9Y19.93
G1X8.97Y19.96
G1Y20
G1X9.09
G1X8.99Y19.93
G1X9.02
G1X9.06
G1X9.1Y19.96
G1X9.15Y19.99
G1X9.03Y20.03
G1X9.07Y20.19
G1X8.96
G1X9Y20.06
G1X8.94Y20.1
G1X8.91Y20
G1X8.68Y19.93
G1X8.87Y19.95
G1X8.85Y19.93
G1X8.81Y19.91
G1X8.74Y19.9
G1X8.66
G1Y19.93
G1X8.65Y19.95
G1X8.58Y19.98
G1X8.51Y20.03
G1X8.43Y20.08
G1X8.3Y20.14
G1X8.28Y20.17
G1Y20.19
G1X8.14
G1X8.18Y20.13
G1X8.03Y20.15
G1X7.85Y20.16
G1X7.63Y20.17
G1X7.44Y20.19
G1X7.35Y20.21
G1X7.32Y20.22
G1X7.28
G1X7.23
G1X7.42Y20.06
G1X7.32
G1X7.43Y20
G1X7.24Y20.01
G1Y20.07
G1X7.2Y20.03
G1X7.05Y20.16
G1X6.99Y20.12
G1Y20.15
G1X6.97Y20.19
G1X6.91Y20.22
G1X6.84Y20.25
G1X6.8
G1X6.82Y20.21
G1X6.86Y20.18
G1X6.89Y20.16
G1X6.95Y20.14
G1X7.05Y20.09
G1X7.17Y20.02
G1X7.08Y19.96
G1X7.22Y20
G1X7.29Y19.95
G1X7.35Y19.91
G1X7.39Y19.9
G1X7.42
G1X7.37Y19.97
G1X7.45Y19.93
G1X7.4Y19.85
G1X7.52Y19.9
G1X7.47Y19.82
G1X7.59Y19.86
G1X7.55Y19.8
G1X7.66Y19.76
G1X7.73Y19.81
G1X7.68Y19.72
G1X7.84Y19.77
G1X7.78Y19.69
G1X7.86Y19.74
G1Y19.99
G1X7.7Y20.01
G1X7.72
G1X8.09Y19.99
G1X8.28Y19.98
G1X8.44
G1X8.41Y19.9
G1X8.5Y19.89
G1X8.58Y19.87
G1X8.68
G1Y19.8
G1Y19.76
G1X8.66Y19.74
G1X8.63
G1X8.58Y19.72
G1X8.52Y19.69
G1X8.55Y19.64
G1X8.34Y19.55
G1X8.23Y19.63
G1X8.24Y19.7
G1X7.86Y19.69
G1X7.93Y19.62
G1X8.17
G1X8.09Y19.57
G1X8.22
G1X8.14Y19.47
G1X8.17Y19.45
G1X8.21
G1X8.22Y19.51
G1Y19.55
G1X8.57Y19.47
G1X8.82Y19.5
G1X8.68Y19.44
G1X8.9Y19.42
G1X9.08Y19.41
G1X9.21
G1X9.3
G1X8.95Y19.45
G1X8.98Y19.68
M5
G0X10.58Y20.36
M3 S30
; Layer C00
G1X10.59
G1Y20.43
G1X10.55Y20.58
G1X10.5Y20.77
G1Y20.68
G1X10.52Y20.57
G1X10.55Y20.44
G1X10.58Y20.36
M5
G0X11.37Y20.38
M3 S30
; Layer C00
G1Y20.28
G1X11.39Y20.34
G1Y20.39
G1Y20.44
G1X11.37Y20.48
G1Y20.38
M5
G0X11.4Y20.48
M3 S30
; Layer C00
G1Y20.58
G1X11.38Y20.69
G1X11.35Y20.84
G1X11.3Y21.01
G1X11.32Y20.79
G1X11.34Y20.62
G1X11.37Y20.53
G1X11.4Y20.48
M5
G0X11.73Y20.64
M3 S30
; Layer C00
G1X11.85Y20.73
G1X11.95Y20.65
G1Y20.68
G1X11.94Y20.71
G1X11.9Y20.74
G1X11.83Y20.75
G1X11.78Y20.7
G1X11.73Y20.64
M5
G0X11.92Y20.58
M3 S30
; Layer C00
G1X11.91Y20.56
G1X11.89Y20.54
G1X11.99
G1X11.97Y20.56
G1X11.95Y20.58
G1X11.94Y20.59
G1X11.92
M5
G0X12.1Y20.41
M3 S30
; Layer C00
G1Y20.36
G1Y20.31
G1X12.14Y20.27
G1X12.19Y20.24
G1X12.25Y20.23
G1X12.31
G1X12.36Y20.27
G1X12.39Y20.31
G1X12.4Y20.35
G1Y20.4
G1X12.33Y20.36
G1X12.37Y20.3
G1X12.31Y20.28
G1X12.26Y20.27
G1X12.21
G1X12.16
G1X12.1Y20.41
M5
G0X11.23Y20.74
M3 S30
; Layer C00
G1X11.25Y20.78
G1Y20.82
G1Y20.85
G1X11.23Y20.87
G1Y20.8
G1Y20.74
M5
G0X11.28Y21.03
M3 S30
; Layer C00
G1X11.29
G1Y21.08
G1Y21.13
G1X11.26Y21.19
G1X11.22Y21.24
G1X11.25Y21.14
G1X11.27Y21.07
G1X11.28Y21.03
M5
G0X11.22Y21.28
M3 S30
; Layer C00
G1Y21.32
G1X11.17Y21.43
G1X11.12Y21.55
G1X11.15
G1Y21.56
G1X11.14Y21.58
G1X11.07Y21.65
G1X10.84Y21.97
G1X10.73Y22.09
G1X10.66Y22.13
G1X10.62Y22.11
G1X10.59Y22.07
G1X10.67Y22.12
G1X10.76Y21.99
G1X10.85Y21.89
G1X10.91Y21.82
G1X10.95Y21.76
G1X11.01Y21.67
G1X11.07Y21.55
G1X11.15Y21.4
G1X11.2Y21.3
G1X11.22Y21.28
M5
G0X10.83Y21.4
M3 S30
; Layer C00
G1X10.84Y21.42
G1Y21.44
G1X10.83Y21.45
G1X10.81
G1X10.79Y21.42
G1X10.77Y21.39
G1X10.81
G1X10.83
M5
G0X10.91Y21.48
M3 S30
; Layer C00
G1X10.89Y21.53
G1X10.86Y21.58
G1X10.84Y21.55
G1X10.85Y21.53
G1X10.88Y21.5
G1X10.91Y21.48
M5
G0X10.72Y21.49
M3 S30
; Layer C00
G1Y21.53
G1X10.71Y21.58
G1X10.66Y21.63
G1X10.61Y21.67
G1X10.58Y21.68
G1X10.57
G1Y21.65
G1X10.58Y21.62
G1X10.62Y21.6
G1X10.68Y21.58
G1X10.63Y21.41
G1X10.68Y21.45
G1X10.72Y21.49
M5
G0X10.62Y21.45
M3 S30
; Layer C00
G1X10.54
G1X10.49
G1X10.47Y21.48
G1Y21.5
G1X10.48Y21.53
G1X10.5Y21.58
G1X10.52Y21.67
G1Y21.79
G1X10.47Y21.75
G1X10.45Y21.81
G1Y21.74
G1Y21.63
G1Y21.49
G1Y21.36
G1X10.46Y21.25
G1X10.47Y21.16
G1Y21.11
G1X10.49Y21.08
G1Y21.1
G1Y21.15
G1Y21.42
G1X10.62Y21.45
M5
G0X10.79Y21.62
M3 S30
; Layer C00
G1X10.8Y21.63
G1Y21.67
G1Y21.71
G1X10.7Y21.75
G1X10.74Y21.68
G1X10.77Y21.64
G1X10.79Y21.62
M5
G0X10.67Y21.78
M3 S30
; Layer C00
G1Y21.81
G1Y21.84
G1X10.64Y21.87
G1X10.6Y21.89
G1Y21.85
G1X10.61Y21.83
G1X10.64Y21.8
G1X10.67Y21.78
M5
G0X10.57Y21.84
M3 S30
; Layer C00
G1Y21.88
G1X10.55Y21.92
G1X10.51Y21.97
G1X10.48Y22
G1X10.46
G1X10.48Y21.96
G1X10.52Y21.9
G1X10.57Y21.84
M5
G0X10.97Y21.95
M3 S30
; Layer C00
G1X11.12Y21.81
G1X11.38Y21.77
G1X11.54Y21.82
G1X11.67Y21.86
G1X11.75Y21.92
G1X11.81Y21.97
G1X11.75Y22.07
G1Y22.02
G1X11.73Y21.97
G1X11.69Y21.93
G1X11.62Y21.89
G1X11.53Y21.85
G1X11.4Y21.81
G1X11.19Y21.86
G1Y21.92
G1X11.1Y21.89
G1X11Y21.96
G1X11.12Y21.92
G1X11.08Y22.01
G1X11.14Y22.07
G1X11.17Y22.12
G1X11.19Y22.17
G1Y22.2
G1Y22.22
G1X11.25Y22.23
G1X11.49Y22.31
G1X11.42
G1X11.34Y22.3
G1X11.25Y22.26
G1X11.16Y22.21
G1Y22.17
G1X11.13Y22.12
G1X11.06Y22.04
G1X10.97Y21.95
M5
G0X10.59Y22.19
M3 S30
; Layer C00
G1X10.51Y22.32
G1X10.35Y22.45
G1X10.3Y22.48
G1X10.26Y22.44
G1X10.23Y22.4
G1X10.26Y22.32
G1X10.28Y22.27
G1X10.3Y22.25
G1Y22.27
G1X10.29Y22.33
G1X10.25Y22.42
G1X10.38Y22.39
G1X10.36Y22.31
G1X10.44Y22.36
G1X10.39Y22.24
G1X10.49Y22.28
G1X10.53Y22.23
G1X10.57Y22.2
G1X10.59
M5
G0X11.21Y22.61
M3 S30
; Layer C00
G1X11.51Y22.65
G1X11.71Y22.82
G1X11.69Y22.93
G1X11.73
G1X11.77
G1X11.81Y22.95
G1X11.85Y22.98
G1X11.93Y22.93
G1X11.9Y23.03
G1X11.78Y23.04
G1X11.67Y23.07
G1X11.58Y23.1
G1X11.51Y23.14
G1X11.21
G1X11.36Y23.12
G1X11.52Y23.1
G1X11.67Y22.97
G1X11.64Y22.87
G1X11.61Y22.79
G1X11.57Y22.73
G1X11.5Y22.7
G1X11.4Y22.68
G1X11.25Y22.65
G1X11.22Y22.78
G1X11.17Y22.72
G1X11.14Y22.69
G1X11.13
G1Y22.74
G1X11.11Y22.79
G1X11.08Y22.85
G1X10.94Y22.8
G1X10.98Y22.87
G1X10.9Y22.91
G1X11.03
G1X10.93Y22.98
G1X11.05
G1X11.19Y23.11
G1X11.15
G1X11.08Y23.09
G1X10.99Y23.04
G1X10.88Y22.98
G1Y22.85
G1X11.02Y22.74
G1X11.12Y22.68
G1X11.16Y22.67
G1X11.19Y22.65
G1X11.21Y22.61
M5
G0X10.67Y22.95
M3 S30
; Layer C00
G1X10.64Y23.03
G1X10.85Y23.24
G1X10.82Y23.32
G1X10.8Y23.25
G1X10.78Y23.18
G1X10.6Y23.07
G1X10.19Y23.02
G1X10.18Y23.05
G1X10.14Y23.07
G1X10.07Y23.09
G1X9.98Y23.12
G1X9.99Y22.98
G1X10.08Y23.05
G1X10.04Y22.95
G1X10.12Y22.91
G1Y23.01
G1X10.18
G1X10.14Y22.89
G1X10.25Y23
G1X10.55Y22.96
G1X10.53Y23.04
G1X10.63Y23
G1X10.59Y22.9
G1X10.67Y22.95
M5
G0X9.96Y23.11
M3 S30
; Layer C00
G1X9.91Y23.14
G1X9.86Y23.16
G1X9.83Y23.17
G1X9.8
G1X9.82Y23.14
G1X9.85Y23.12
G1X9.9Y23.11
G1X9.96
M5
G0X9.61Y23.24
M3 S30
; Layer C00
G1X9.63Y23.27
G1X9.6
G1X9.57
G1X9.54Y23.24
G1X9.52Y23.21
G1X9.56
G1X9.59
G1X9.61Y23.24
M5
G0X9.45Y23.24
M3 S30
; Layer C00
G1Y23.22
G1X9.42
G1X9.37
G1X9.32Y23.25
G1X9.37Y23.31
G1X9.42Y23.36
G1X9.44Y23.37
G1Y23.35
G1X9.42Y23.31
G1X9.39Y23.24
G1X9.43
G1X9.45
M5
G0X9.45Y23.22
M3 S30
; Layer C00
G1X9.47Y23.25
G1X9.5Y23.28
G1X9.54Y23.31
G1X9.45
G1X9.53Y23.44
G1X9.5Y23.56
G1X9.46Y23.47
G1X9.42Y23.37
G1X9.38
G1X9.32
G1X9.3Y23.35
G1Y23.3
G1X9.28Y23.24
G1X9.24Y23.19
G1X9.17Y23.16
G1X9.07Y23.14
G1X9.05
G1Y23.11
G1Y23.07
G1X9.18Y23.11
G1Y23.06
G1X9.17Y23.02
G1X9.14Y22.99
G1X9.11Y22.97
G1Y23.05
G1X9.07Y23.01
G1X9.14Y22.9
G1X9.2Y23.01
G1X9.24Y23.1
G1X9.26Y23.15
G1X9.28Y23.18
G1X9.4
G1X9.44Y23.2
G1X9.45Y23.22
M5
G0X9.7Y23.41
M3 S30
; Layer C00
G1X9.75Y23.39
G1X9.81Y23.37
G1X9.88
G1X9.83Y23.45
G1X9.99Y23.4
G1X9.92Y23.46
G1X9.93Y23.52
G1X9.95Y23.64
G1X9.96Y23.68
G1X9.98
G1X10.01Y23.69
G1X10.07Y23.72
G1X10.13Y23.77
G1X10.06
G1X9.99Y23.75
G1X9.91Y23.74
G1X9.82Y23.72
G1X9.94Y23.67
G1X9.91Y23.59
G1X9.89Y23.53
G1Y23.5
G1Y23.48
G1X9.86Y23.46
G1X9.81Y23.44
G1X9.77Y23.55
G1X9.88Y23.67
G1X9.85
G1X9.81Y23.64
G1X9.75Y23.57
G1X9.69Y23.46
G1X9.76Y23.51
G1X9.8Y23.4
G1X9.65Y23.44
G1X9.7Y23.41
M5
G0X9.39Y23.49
M3 S30
; Layer C00
G1X9.41Y23.53
G1Y23.57
G1Y23.6
G1X9.39Y23.62
G1Y23.55
G1Y23.49
M5
G0X9.14Y23.47
M3 S30
; Layer C00
G1Y23.61
G1X9.11
G1X9.08Y23.6
G1X9.06Y23.58
G1X9.04Y23.55
G1X9.14Y23.47
M5
G0X9.04Y23.44
M3 S30
; Layer C00
G1Y23.47
G1X9.01Y23.49
G1X8.97Y23.51
G1Y23.48
G1X8.98Y23.45
G1X9.01Y23.42
G1X9.04Y23.4
G1Y23.44
M5
G0X8.96Y23.39
M3 S30
; Layer C00
G1X8.93Y23.35
G1X8.85Y23.25
G1X8.77Y23.13
G1X8.73Y23.07
G1Y23.04
G1X8.77Y23.05
G1X8.82Y23.07
G1X8.86Y23.12
G1X8.91Y23.18
G1X8.86Y23.24
G1X8.9
G1X8.95Y23.31
G1X8.96Y23.39
M5
G0X8.64Y23.52
M3 S30
; Layer C00
G1X8.76Y23.67
G1X8.77Y23.71
G1Y23.73
G1X9.01Y23.68
G1X8.98Y23.72
G1X8.93Y23.75
G1X8.85Y23.76
G1X8.77Y23.77
G1X8.71Y23.67
G1X8.65Y23.6
G1X8.6Y23.56
G1Y23.52
G1Y23.47
G1X8.52
G1Y23.32
G1X8.58Y23.43
G1X8.64Y23.52
M5
G0X8.48Y23.31
M3 S30
; Layer C00
G1X8.45
G1X8.47Y23.27
G1X8.49Y23.25
G1X8.51
G1X8.52Y23.27
G1X8.51Y23.3
G1X8.48
M5
G0X8.48Y23.2
M3 S30
; Layer C00
G1X8.46Y23.17
G1X8.44Y23.09
G1X8.42Y23
G1Y22.96
G1X8.45Y22.98
G1X8.47Y23.06
G1Y23.15
G1Y23.2
M5
G0X8.61Y22.94
M3 S30
; Layer C00
G1X8.62
G1X8.64Y22.91
G1X8.66Y22.88
G1X8.63
G1X8.6
G1Y22.91
G1Y22.93
G1Y22.94
M5
G0X8.59Y22.96
M3 S30
; Layer C00
G1X8.56Y22.93
G1X8.52Y22.88
G1X8.57Y22.87
G1X8.62Y22.86
G1X8.68
G1X8.73Y22.88
G1X8.68Y22.93
G1X8.64Y22.96
G1X8.61Y22.97
G1X8.59
M5
G0X8.78Y23.01
M3 S30
; Layer C00
G1X8.86Y22.94
G1X8.97Y22.98
G1X8.93Y23.05
G1X9.05Y23.01
G1X9Y23.07
G1X8.96Y23.13
G1X8.94
G1X8.92Y23.1
G1X8.88Y23.06
G1X8.91Y22.97
G1X8.78Y23.01
M5
G0X8.97Y22.9
M3 S30
; Layer C00
G1X8.99Y22.91
G1X9
G1Y22.88
G1Y22.85
G1X8.97
G1X8.93
G1X8.95Y22.88
G1X8.97Y22.9
M5
G0X8.94Y22.91
M3 S30
; Layer C00
G1X8.89Y22.88
G1X8.72Y22.98
G1X8.78Y22.91
G1X8.83Y22.83
G1X9.05Y22.79
G1X9.2Y22.76
G1X9.28
G1Y22.77
G1X9.24
G1X9.2Y22.79
G1X9.18Y22.81
G1Y22.84
G1X9.05Y22.8
G1X9.08Y22.94
G1X9.04
G1X8.99
G1X8.94Y22.91
M5
G0X8.61Y22.64
M3 S30
; Layer C00
G1X8.59
G1X8.57Y22.6
G1X8.54Y22.56
G1X8.6Y22.61
G1X8.71Y22.53
G1X8.63Y22.63
G1X8.61Y22.64
M5
G0X8.73Y22.55
M3 S30
; Layer C00
G1X8.71Y22.51
G1X8.69Y22.48
G1X8.74
G1X8.78
G1X8.81
G1X8.83
G1Y22.45
G1X8.85Y22.43
G1X8.88
G1X8.92
G1X8.93
G1X8.9Y22.46
G1X8.83Y22.5
G1X8.73Y22.55
M5
G0X8.98Y22.4
M3 S30
; Layer C00
G1Y22.38
G1Y22.34
G1X9.04Y22.38
G1X9.06Y22.35
G1X9.09Y22.32
G1X9.14
G1X9.2
G1X9.11Y22.36
G1X9.04Y22.4
G1X9Y22.41
G1X8.98
M5
G0X9.18Y22.28
M3 S30
; Layer C00
G1X9.13Y22.25
G1X9.19
G1X9.23
G1X9.27Y22.28
G1X9.29Y22.31
G1X9.26
G1X9.22
G1X9.18Y22.28
M5
G0X9.32Y22.25
M3 S30
; Layer C00
G1X9.36Y22.23
G1X9.47Y22.27
G1X9.51Y22.3
G1X9.48
G1X9.4
G1X9.34Y22.27
G1X9.32Y22.25
M5
G0X9.56Y22.41
M3 S30
; Layer C00
G1X9.58
G1X9.62Y22.44
G1X9.65Y22.5
G1X9.68Y22.55
G1Y22.58
G1X9.64Y22.54
G1X9.61Y22.5
G1X9.58Y22.46
G1X9.56Y22.41
M5
G0X9.56Y22.55
M3 S30
; Layer C00
G1X9.58
G1X9.6Y22.58
G1Y22.6
G1X9.58Y22.61
G1X9.56
G1X9.54Y22.58
G1X9.52Y22.55
G1X9.56
M5
G0X9.46Y22.61
M3 S30
; Layer C00
G1X9.53Y22.65
G1X9.51Y22.67
G1X9.48Y22.69
G1X9.44
G1X9.38Y22.71
G1X9.42Y22.66
G1X9.46Y22.61
M5
G0X8.38Y22.74
M3 S30
; Layer C00
G1Y22.72
G1X8.35
G1X8.31
G1X8.33Y22.74
G1X8.35Y22.77
G1X8.37
G1X8.38Y22.74
M5
G0X8.42Y22.75
M3 S30
; Layer C00
G1X8.45Y22.73
G1X8.47Y22.71
G1Y22.68
G1X8.45Y22.66
G1X8.56
G1X8.38Y22.83
G1X8.47Y22.91
G1X8.42
G1X8.39Y22.9
G1Y22.88
G1Y22.84
G1X8.31Y22.88
G1X8.35Y22.78
G1X8.32
G1X8.29
G1X8.28Y22.8
G1X8.26Y22.82
G1X8.2Y22.83
G1X8.12
G1X8.2Y22.8
G1X8.26Y22.77
G1X8.28Y22.73
G1Y22.7
G1X8.24Y22.74
G1X8.2Y22.77
G1X8.16
G1X8.13
G1X8.21Y22.69
G1X8.42
G1Y22.75
M5
G0X8.14Y22.69
M3 S30
; Layer C00
G1X8.11Y22.71
G1X8.08Y22.74
G1X8.06Y22.78
G1X8.04Y22.83
G1Y22.79
G1Y22.75
G1X7.89Y22.7
G1X7.98Y22.65
G1X7.86
G1Y22.71
G1X7.74
G1X7.86Y22.62
G1X7.84Y22.6
G1X7.9
G1X7.98Y22.64
G1X7.97Y22.71
G1X8.07
G1Y22.6
G1X8.14Y22.69
M5
G0X7.95Y22.84
M3 S30
; Layer C00
G1X7.91
G1X7.87
G1X7.83Y22.81
G1X7.78Y22.78
G1X7.81
G1X7.85
G1X7.9Y22.81
G1X7.95Y22.84
M5
G0X7.66Y22.68
M3 S30
; Layer C00
G1X7.64Y22.65
G1X7.62Y22.63
G1X7.71Y22.59
G1X7.77Y22.57
G1X7.79
G1X7.78Y22.6
G1X7.72Y22.64
G1X7.66Y22.68
M5
G0X7.62Y22.59
M3 S30
; Layer C00
G1X7.55Y22.61
G1Y22.56
G1Y22.52
G1X7.62Y22.54
G1X7.67Y22.55
G1X7.69Y22.56
G1X7.67Y22.57
G1X7.62Y22.59
M5
G0X7.08Y22.48
M3 S30
; Layer C00
G1X6.94Y22.51
G1X6.73Y22.54
G1X6.48Y22.5
G1X6.19Y22.39
G1X5.91Y22.25
G1X5.65Y22.07
G1X5.43Y21.86
G1X5.3Y21.71
G1X5.29Y22.23
G1X5.24Y21.37
G1X5.18Y20.05
G1X5.14Y20.64
G1X5.12Y20.02
G1X5.21Y20.05
G1X5.28Y21.32
G1X5.31Y21.34
G1X5.36Y21.37
G1X5.45Y21.39
G1X5.61
G1X5.87
G1X6.28
G1X6.76Y21.45
G1X6.9Y21.52
G1X7.03Y21.59
G1X7.14Y21.68
G1X7.23Y21.77
G1X7.29Y21.86
G1X7.34Y21.95
G1Y22.22
G1X7.08Y22.48
M5
G0X6.69Y23.05
M3 S30
; Layer C00
G1X6.89Y23.1
G1X7.06Y23.17
G1X7.2Y23.26
G1X7.31Y23.37
G1X7.39Y23.48
G1X7.43Y23.6
G1Y23.73
G1X7.39Y23.85
G1X7.34Y23.96
G1X7.06Y24.14
G1X6.52Y24.11
G1X5.86Y23.8
G1X5.65Y23.6
G1X5.56Y23.53
G1X5.49Y23.47
G1X5.43Y23.42
G1X5.4Y23.41
G1X5.37
G1X5.34Y23.82
G1Y23.05
G1X5.27Y23.01
G1Y23.43
G1X5.28Y23.69
G1Y23.73
G1Y23.71
G1X5.26Y23.56
G1X5.24Y23.41
G1X5.22Y23.27
G1X5.09Y23.43
G1X4.94Y23.59
G1X4.75Y23.74
G1X4.54Y23.88
G1X4.3Y24
G1X4.03Y24.12
G1X3.51Y24.14
G1X3.41Y24.08
G1X3.31Y24.03
G1X3.24Y23.98
G1X3.18Y23.93
G1X3.11Y23.66
G1X3.22Y23.38
G1X3.45Y23.18
G1X3.86Y23.03
G1X4.73Y23.02
G1X5.09Y23.01
G1X5.17
G1X5.23Y23
G1Y22.33
G1X5.28Y22.99
G1X5.31Y22.33
G1X5.33Y22.92
G1X5.41Y23.01
G1X6.51
G1X6.69Y23.05
M5
G0X5.37Y23.95
M3 S30
; Layer C00
G1X5.44Y24.71
G1X5.51Y24.79
G1X5.73Y24.82
G1X5.55
G1X5.42
G1X5.34Y24.84
G1X5.31Y24.86
G1Y24.79
G1Y24.72
G1Y24.76
G1X5.34Y24.79
G1X5.36
G1X5.39
G1X5.37Y23.95
M5
G0X5.31Y23.99
M3 S30
; Layer C00
G1X5.32Y24.18
G1Y24.36
G1Y24.54
G1X5.31Y24.72
G1Y24.35
G1Y23.99
M5
G0X5.74Y24.8
M3 S30
; Layer C00
G1X5.78
G1X5.81
G1X5.83Y24.83
G1X5.85Y24.86
G1X5.82
G1X5.79
G1X5.76Y24.83
G1X5.74Y24.8
M5
G0X5.94Y24.9
M3 S30
; Layer C00
G1X5.98
G1X6.02Y24.92
G1X6.08Y24.96
G1X6.12Y25.01
G1Y25.03
G1X6.09Y25.01
G1X6.02Y24.96
G1X5.94Y24.9
M5
G0X6.2Y25.05
M3 S30
; Layer C00
G1X6.22
G1X6.27Y25.08
G1X6.31Y25.13
G1Y25.16
G1Y25.18
G1X6.34Y25.22
G1X6.36Y25.25
G1Y25.26
G1X6.33Y25.23
G1X6.27Y25.17
G1X6.22Y25.09
G1X6.2Y25.05
M5
G0X6.37Y25.29
M3 S30
; Layer C00
G1X6.4
G1X6.43Y25.3
G1Y25.33
G1Y25.35
G1Y25.36
G1X6.41
G1X6.39Y25.33
G1X6.37Y25.29
M5
G0X6.48Y25.45
M3 S30
; Layer C00
G1X6.53Y25.49
G1X6.57Y25.55
G1X6.61Y25.63
G1X6.64Y25.73
G1X6.62
G1X6.59Y25.68
G1X6.54Y25.59
G1X6.48Y25.45
M5
G0X6.62Y25.76
M3 S30
; Layer C00
G1X6.68
G1Y25.82
G1Y25.87
G1X6.67Y25.89
G1X6.65Y25.87
G1X6.64Y25.82
G1X6.62Y25.76
M5
G0X6.69Y25.94
M3 S30
; Layer C00
G1X6.71
G1X6.73Y25.97
G1Y26.02
G1X6.7Y25.99
G1X6.69Y25.96
G1Y25.94
M5
G0X7.27Y25.74
M3 S30
; Layer C00
G1X7.31Y25.78
G1X7.33Y25.79
G1Y25.78
G1X7.32Y25.74
G1X7.3Y25.71
G1X7.26Y25.69
G1X7.23
G1X7.27Y25.74
M5
G0X7.4Y25.75
M3 S30
; Layer C00
G1X7.43Y25.78
G1X7.44Y25.77
G1Y25.71
G1Y25.63
G1X7.37Y25.55
G1X7.33Y25.51
G1X7.35Y25.56
G1X7.23
G1X7.4Y25.75
M5
G0X7.31Y25.81
M3 S30
; Layer C00
G1X7.21Y25.77
G1X7.12Y25.76
G1X7.01
G1X6.88Y25.77
G1X6.75Y25.79
G1X6.77Y25.76
G1X6.8Y25.74
G1X6.83Y25.73
G1X6.88Y25.71
G1X6.94Y25.67
G1X7.01Y25.61
G1X6.96Y25.69
G1X7.2
G1X7.24Y25.63
G1X7.1Y25.6
G1X7.14Y25.66
G1X7.05
G1X7.03Y25.45
G1X7.2Y25.56
G1X7.28Y25.46
G1X7.2
G1Y25.36
G1X7.11Y25.4
G1X7.07Y25.3
G1X7.24
G1Y25.36
G1X7.3Y25.33
G1X7.4Y25.48
G1X7.47Y25.6
G1X7.5Y25.66
G1Y25.68
G1X7.53Y25.72
G1X7.56Y25.76
G1X7.48Y25.85
G1X7.61Y25.82
G1X7.65Y25.92
G1X7.55Y26.06
G1X7.45
G1Y26.01
G1Y25.97
G1Y25.92
G1Y25.87
G1X7.31Y25.81
M5
G0X7.8Y25.95
M3 S30
; Layer C00
G1X7.9Y26.05
G1X7.85Y26.22
G1X7.77Y26.29
G1X7.67Y26.35
G1X7.61Y26.33
G1X7.59Y26.29
G1Y26.23
G1Y26.15
G1X7.8Y25.95
M5
G0X8.05Y26.12
M3 S30
; Layer C00
G1X8.2
G1X8.25Y26.2
G1X7.78Y26.67
G1X8.24Y26.24
G1Y26.3
G1X8.23Y26.37
G1X8.19Y26.47
G1X8.13Y26.58
G1X8.22Y26.69
G1X8.24Y26.85
G1Y26.94
G1X8.25Y27.08
G1Y27.24
G1X8.26Y27.41
G1Y27.82
G1X8.18Y27.85
G1X8.2Y27.69
G1X8.22Y27.3
G1X8.2Y26.98
G1X8.18Y26.88
G1X8.13Y26.62
G1X8.09
G1X8.05Y26.63
G1X8.01Y26.65
G1X7.97Y26.69
G1X7.78Y26.67
G1X7.75Y26.52
G1X7.81Y26.41
G1X7.88Y26.31
G1X7.96Y26.21
G1X8.05Y26.12
M5
G0X8.49Y25.67
M3 S30
; Layer C00
G1X8.46Y25.65
G1Y25.63
G1Y25.6
G1X8.59Y25.63
G1X8.64Y25.59
G1X8.68Y25.57
G1X8.69
G1X8.68Y25.6
G1X8.64Y25.64
G1X8.57Y25.69
G1X8.49Y25.67
M5
G0X8.7Y25.54
M3 S30
; Layer C00
G1Y25.44
G1Y25.34
G1X8.72Y25.4
G1Y25.46
G1Y25.5
G1X8.7Y25.54
M5
G0X8.96Y25.46
M3 S30
; Layer C00
G1X8.9Y25.41
G1X8.86Y25.36
G1X8.91Y25.38
G1X8.95Y25.4
G1X8.97Y25.43
G1X8.96Y25.46
M5
G0X8.83Y25.29
M3 S30
; Layer C00
G1X8.82
G1X8.79Y25.26
G1X8.7Y25.33
G1X8.68Y25.25
G1X8.66Y25.18
G1X8.73Y25.11
G1X8.68Y25.24
G1X8.76Y25.2
G1X8.8Y25.25
G1X8.83Y25.29
M5
G0X9.1Y25.17
M3 S30
; Layer C00
G1X9.03Y25.13
G1X8.94Y25.06
G1X8.98Y25
G1X8.85Y25.04
G1X8.93Y24.95
G1X9.05Y25
G1X9.01Y25.09
G1X9.08Y25.11
G1X9.13Y25.14
G1X9.14Y25.16
G1Y25.19
G1X9.1Y25.17
M5
G0X8.82Y24.99
M3 S30
; Layer C00
G1X8.76Y24.96
G1X8.71Y24.93
G1X8.83
G1Y24.96
G1Y24.99
M5
G0X8.65Y25.01
M3 S30
; Layer C00
G1X8.67Y25.05
G1X8.69Y25.1
G1X8.62
G1Y25.05
G1Y25.01
G1X8.64Y25
G1X8.65Y25.01
M5
G0X8.48Y25.04
M3 S30
; Layer C00
G1Y25.08
G1Y25.13
G1X8.42
G1X8.44Y25.08
G1X8.46Y25.04
G1X8.47Y25.03
G1X8.48Y25.04
M5
G0X8.4Y25.17
M3 S30
; Layer C00
G1X8.42Y25.18
G1X8.44Y25.21
G1X8.45Y25.26
G1Y25.32
G1X8.34Y25.36
G1X8.39Y25.29
G1X8.35
G1X8.32Y25.3
G1Y25.33
G1X8.29Y25.36
G1X8.24Y25.4
G1X8.16Y25.43
G1X8.28Y25.3
G1X8.4Y25.17
M5
G0X8.24Y25.01
M3 S30
; Layer C00
G1X7.97Y25.23
G1Y25.2
G1X7.99Y25.16
G1X8.08Y25.08
G1X8.1Y25.05
G1Y25.03
G1X8.02Y25.08
G1X8.07Y25.02
G1X8.11Y24.98
G1X8.15Y24.97
G1X8.19
G1X8.22Y24.99
G1X8.24Y25.01
M5
G0X8.31Y24.8
M3 S30
; Layer C00
G1Y24.77
G1Y24.73
G1X8.36Y24.75
G1X8.4Y24.77
G1X8.42Y24.78
G1X8.4Y24.79
G1X8.36
G1X8.31
M5
G0X8.17Y24.73
M3 S30
; Layer C00
G1X7.88Y24.72
G1X8.03Y24.71
G1X8.18Y24.69
G1X8.09Y24.58
G1X8.21Y24.67
G1X8.17Y24.73
M5
G0X8.46Y24.68
M3 S30
; Layer C00
G1X8.43Y24.61
G1X8.42Y24.56
G1Y24.52
G1X8.41Y24.51
G1X8.38Y24.5
G1X8.34Y24.47
G1X8.28Y24.39
G1X8.2Y24.28
G1X8.34Y24.43
G1X8.46Y24.39
G1X8.43Y24.56
G1X8.5Y24.59
G1X8.46Y24.68
M5
G0X8.62Y24.67
M3 S30
; Layer C00
G1X8.64Y24.64
G1X8.66Y24.62
G1X8.7Y24.59
G1X8.65Y24.52
G1X8.73Y24.57
G1X8.69Y24.63
G1X8.64Y24.7
G1X8.62Y24.67
M5
G0X8.74Y24.77
M3 S30
; Layer C00
G1X8.78Y24.75
G1X8.83Y24.73
G1Y24.8
G1X8.78
G1X8.74
G1X8.73Y24.78
G1X8.74Y24.77
M5
G0X8.86Y24.76
M3 S30
; Layer C00
G1X8.87Y24.74
G1X9.05Y24.57
G1X9.21Y24.45
G1X9.18Y24.5
G1X9.04Y24.63
G1X9.01Y24.67
G1Y24.7
G1X9.12
G1X9.19
G1X9.2Y24.71
G1X9.15Y24.73
G1X9.03Y24.74
G1X8.86Y24.76
M5
G0X8.71Y24.51
M3 S30
; Layer C00
G1X8.7Y24.46
G1X8.74Y24.43
G1X8.79Y24.41
G1X8.87Y24.35
G1X8.95Y24.29
G1X8.98Y24.27
G1X8.86Y24.4
G1X8.71Y24.51
M5
G0X8.7Y24.42
M3 S30
; Layer C00
G1Y24.32
G1Y24.22
G1X8.72Y24.28
G1Y24.33
G1Y24.38
G1X8.7Y24.42
M5
G0X8.43Y24.2
M3 S30
; Layer C00
G1X8.42
G1Y24.18
G1X8.43Y24.14
G1X8.48Y24.1
G1X8.54Y24.05
G1X8.43Y24.2
M5
G0X7.96Y24.38
M3 S30
; Layer C00
G1Y24.41
G1X7.94Y24.44
G1X7.89Y24.48
G1X7.92Y24.42
G1X7.94Y24.39
G1X7.96
M5
G0X7.99Y24.47
M3 S30
; Layer C00
G1Y24.52
G1X7.98Y24.56
G1X7.95Y24.54
G1X7.93Y24.5
G1X7.99Y24.47
M5
G0X7.72Y24.83
M3 S30
; Layer C00
G1X7.75Y24.84
G1Y24.86
G1Y24.89
G1X7.72
G1X7.7
G1X7.69Y24.86
G1Y24.84
G1X7.72
M5
G0X7.94Y25.24
M3 S30
; Layer C00
G1X7.95Y25.29
G1X7.96Y25.33
G1Y25.35
G1X7.93Y25.37
G1Y25.31
G1Y25.24
M5
G0X7.97Y25.4
M3 S30
; Layer C00
G1X8.05Y25.42
G1X8.11Y25.43
G1X8.14Y25.45
G1X8.07Y25.46
G1X7.99Y25.43
G1X7.97Y25.4
M5
G0X9.28Y25.84
M3 S30
; Layer C00
G1X9.34Y25.93
G1X9.39Y25.77
G1X9.43Y25.85
G1X9.19Y26.31
G1X9.27Y26.38
G1X9.24Y26.56
G1X9.1Y26.62
G1X9.26Y26.79
G1X9.15Y26.89
G1X8.98
G1X9.06Y26.97
G1X9.13Y27.06
G1Y27.15
G1X9.05Y27.22
G1X8.92Y27.27
G1X8.82Y27.28
G1X8.7Y27.22
G1X8.6Y27.14
G1X8.54Y27.06
G1Y26.98
G1X8.58Y26.9
G1X8.63Y26.85
G1X8.83
G1X8.87Y26.78
G1X8.79Y26.69
G1X8.88Y26.58
G1X8.98Y26.59
G1X9.04
G1X9.07
G1Y26.57
G1X9.04Y26.52
G1X9.01Y26.48
G1X9.03Y26.43
G1X9.06Y26.4
G1X9.1Y26.39
G1X9.15
G1X9.14Y26.35
G1X9.15Y26.29
G1X9.19Y26.2
G1X9.25Y26.1
G1X9.2Y26.06
G1X9.28
G1Y25.84
M5
G0X9.46Y25.89
M3 S30
; Layer C00
G1X9.49Y25.91
G1X9.52Y25.93
G1Y25.94
G1Y25.95
G1X9.49
G1X9.47
G1X9.46Y25.92
G1Y25.89
M5
G0X9.45Y26.12
M3 S30
; Layer C00
G1X9.47Y26.16
G1X9.49Y26.18
G1X9.51
G1X9.52
G1Y26.16
G1Y26.13
G1X9.49
G1X9.45
M5
G0X9.39Y26.12
M3 S30
; Layer C00
G1Y25.95
G1X9.52Y25.99
G1X9.6Y25.89
G1X9.57
G1Y25.88
G1X9.6Y25.85
G1X9.67Y25.82
G1X9.74Y25.86
G1X9.53Y26.06
G1X9.6
G1X9.58Y26.09
G1X9.57Y26.11
G1X9.59
G1X9.66Y26.09
G1X9.8Y26.04
G1X9.96Y25.98
G1X10.05Y25.96
G1X10.1
G1X10.06Y25.98
G1X10Y26.02
G1X9.88Y26.05
G1X9.73Y26.09
G1Y26.2
G1X9.63Y26.16
G1X9.59Y26.2
G1X9.46Y26.3
G1X9.37Y26.35
G1X9.31Y26.37
G1X9.27Y26.33
G1X9.25Y26.28
G1X9.33Y26.19
G1X9.3
G1Y26.18
G1X9.33Y26.15
G1X9.39Y26.12
M5
G0X9.4Y26.16
M3 S30
; Layer C00
G1X9.27Y26.34
G1X9.36Y26.27
G1X9.45Y26.2
G1X9.43Y26.18
G1X9.4Y26.16
M5
G0X10.2Y26.05
M3 S30
; Layer C00
G1X10.53Y26.23
G1X10.72Y26.21
G1X10.87Y26.09
G1X10.86Y26.21
G1X10.84Y26.3
G1X10.82Y26.35
G1X10.81
G1X10.79Y26.3
G1X10.77Y26.24
G1X10.47Y26.26
G1X10.2Y26.05
M5
G0X10.24Y26.02
M3 S30
; Layer C00
G1X10.22Y26
G1X10.2Y25.94
G1X10.18Y25.85
G1X10.26Y25.59
G1X10.32Y25.63
G1X10.21Y25.83
G1X10.23Y25.93
G1X10.24Y26
G1Y26.02
M5
G0X10.73Y26.35
M3 S30
; Layer C00
G1Y26.37
G1X10.69Y26.4
G1X10.65Y26.46
G1X10.43Y26.69
G1X10.25Y27.03
G1Y26.97
G1Y26.91
G1X10.39Y26.73
G1X10.5Y26.59
G1X10.6Y26.47
G1X10.68Y26.39
G1X10.73Y26.35
M5
G0X10.88Y26.36
M3 S30
; Layer C00
G1Y26.34
G1X10.91
G1X10.92Y26.39
G1X10.93Y26.43
G1Y26.45
G1X10.91
G1X10.89Y26.4
G1Y26.36
M5
G0X10.76Y26.45
M3 S30
; Layer C00
G1X10.77Y26.46
G1Y26.49
G1Y26.51
G1X10.74Y26.52
G1X10.7
G1X10.72Y26.49
G1X10.74Y26.46
G1X10.76
M5
G0X10.95Y26.5
M3 S30
; Layer C00
G1X10.98Y26.51
G1X11.03Y26.55
G1X11.07Y26.6
G1X11.08Y26.62
G1X11.06Y26.61
G1X11Y26.57
G1X10.96Y26.53
G1Y26.5
M5
G0X11.12Y26.63
M3 S30
; Layer C00
G1X11.43
G1Y26.67
G1X11.33Y26.7
G1X11.19Y26.67
G1X11.12Y26.63
M5
G0X10.88Y26.7
M3 S30
; Layer C00
G1Y26.74
G1X10.87Y26.77
G1X10.84Y26.82
G1X10.81Y26.87
G1Y26.83
G1X10.82Y26.8
G1X10.84Y26.75
G1X10.88Y26.7
M5
G0X11Y26.79
M3 S30
; Layer C00
G1Y26.91
G1X10.98Y27.03
G1X10.97Y27.08
G1X10.96Y27.06
G1Y26.98
G1X10.95Y26.82
G1X11Y26.79
M5
G0X11.2Y26.93
M3 S30
; Layer C00
G1X11.21Y26.98
G1X11.22Y27.01
G1Y27.04
G1X11.19Y27.06
G1Y27
G1Y26.93
M5
G0X11.36Y27.03
M3 S30
; Layer C00
G1X11.44Y27.15
G1X11.41Y27.26
G1Y27.21
G1X11.39Y27.15
G1X11.38Y27.09
G1X11.36Y27.03
M5
G0X11.65Y27.03
M3 S30
; Layer C00
G1X11.67Y27.16
G1Y27.28
G1Y27.39
G1X11.65Y27.5
G1Y27.26
G1Y27.03
M5
G0X11.79Y27
M3 S30
; Layer C00
G1X11.77Y26.95
G1Y26.9
G1Y26.88
G1X11.79Y26.9
G1X11.82Y26.95
G1X11.85Y27.02
G1X11.82
G1X11.79Y27
M5
G0X11.82Y27.05
M3 S30
; Layer C00
G1X11.85Y27.07
G1X11.87Y27.09
G1X11.88Y27.1
G1Y27.11
G1X11.85
G1X11.83
G1X11.82Y27.08
G1Y27.05
M5
G0X12.02Y27.06
M3 S30
; Layer C00
G1Y27
G1Y26.93
G1X12.05Y26.98
G1Y27.01
G1Y27.04
G1X12.02Y27.06
M5
G0X12.02Y27.07
M3 S30
; Layer C00
G1X12.07Y27.13
G1X12.11Y27.18
G1X12.13Y27.22
G1Y27.25
G1X12.11
G1X12.09Y27.21
G1X12.06Y27.16
G1X12.02Y27.07
M5
G0X12.24Y27.02
M3 S30
; Layer C00
G1X12.19Y26.95
G1X12.17Y26.91
G1Y26.89
G1X12.2Y26.9
G1X12.28Y27.02
G1X12.33Y27.12
G1X12.29Y27.09
G1X12.24Y27.02
M5
G0X12.41Y26.96
M3 S30
; Layer C00
G1X12.35Y26.83
G1X12.32Y26.7
G1X12.3Y26.57
G1X12.36Y26.75
G1X12.42Y26.9
G1X12.49Y27.06
G1Y27.08
G1X12.46Y27.05
G1X12.41Y26.96
M5
G0X12.66Y26.85
M3 S30
; Layer C00
G1X12.59Y26.8
G1X12.48Y26.69
G1X12.43Y26.62
G1X12.39Y26.57
G1X12.36Y26.53
G1Y26.52
G1X12.41Y26.55
G1X12.49Y26.63
G1X12.57Y26.72
G1X12.63Y26.79
G1X12.66Y26.83
G1Y26.85
M5
G0X12.85Y26.74
M3 S30
; Layer C00
G1X12.79Y26.68
G1X12.69Y26.56
G1X12.59Y26.44
G1X12.53Y26.33
G1Y26.29
G1X12.55Y26.32
G1X12.59Y26.38
G1X12.68Y26.5
G1X12.8Y26.65
G1X12.87Y26.71
G1X12.91Y26.77
G1X12.94Y26.8
G1Y26.81
G1X12.9Y26.78
G1X12.85Y26.74
M5
G0X12.98Y26.85
M3 S30
; Layer C00
G1X13.02Y26.83
G1X13.06
G1X13.09
G1X13.11Y26.85
G1X12.98
M5
G0X13.11Y26.61
M3 S30
; Layer C00
G1X13.06Y26.56
G1X13.01Y26.5
G1X13.07Y26.55
G1X13.11Y26.58
G1X13.13Y26.61
G1X13.11
M5
G0X12.99Y26.5
M3 S30
; Layer C00
G1X12.95Y26.49
G1X12.87Y26.43
G1X12.81Y26.38
G1Y26.36
G1X12.92Y26.42
G1X12.99Y26.5
M5
G0X12.74Y26.35
M3 S30
; Layer C00
G1X12.68Y26.32
G1X12.63Y26.29
G1X12.67
G1X12.71
G1X12.73Y26.32
G1X12.74Y26.35
M5
G0X12.6Y26.27
M3 S30
; Layer C00
G1X12.34
G1X12.36Y26.23
G1X12.38Y26.19
G1X12.45Y26.23
G1X12.41Y26.09
G1X12.47Y26.06
G1X12.49Y26.12
G1X12.52Y26.17
G1X12.54Y26.19
G1X12.57Y26.2
G1X12.59Y26.23
G1X12.6Y26.27
M5
G0X12.77Y26.17
M3 S30
; Layer C00
G1X12.73Y26.12
G1X12.72Y26.1
G1X12.74
G1X12.79Y26.14
G1X12.84Y26.18
G1X12.86Y26.21
G1X12.83
G1X12.77Y26.17
M5
G0X12.69Y26.09
M3 S30
; Layer C00
G1X12.65
G1X12.62Y26.08
G1X12.59Y26.06
G1X12.57Y26.04
G1X12.54
G1X12.52Y26.06
G1X12.43Y25.96
G1X12.35Y26
G1X12.4Y25.95
G1X12.28Y25.86
G1X12.34
G1X12.38Y25.88
G1X12.41Y25.91
G1X12.43Y25.94
G1X12.54Y25.85
G1X12.51Y25.99
G1X12.56
G1X12.6Y26
G1X12.65Y26.04
G1X12.69Y26.09
M5
G0X12.79Y25.96
M3 S30
; Layer C00
G1X12.76Y25.95
G1Y25.92
G1Y25.9
G1X12.79
G1X12.81
G1X12.82Y25.92
G1Y25.95
G1X12.79
M5
G0X12.66Y25.92
M3 S30
; Layer C00
G1X12.62Y25.9
G1X12.57Y25.86
G1X12.52Y25.8
G1X12.58Y25.76
G1X12.65Y25.7
G1X12.72Y25.62
G1X12.77Y25.55
G1X12.79
G1X12.73Y25.66
G1X12.63Y25.77
G1X12.6Y25.79
G1X12.64Y25.86
G1X12.66Y25.9
G1Y25.92
M5
G0X13.16Y26.09
M3 S30
; Layer C00
G1X13.21Y26.11
G1X13.25Y26.13
G1X13.27Y26.16
G1X13.26Y26.19
G1X13.2Y26.14
G1X13.16Y26.09
M5
G0X13.5Y26.35
M3 S30
; Layer C00
G1X13.54Y26.33
G1X13.58
G1X13.61
G1X13.63Y26.35
G1X13.5
M5
G0X13.52Y26.39
M3 S30
; Layer C00
G1X13.55
G1X13.57
G1X13.58Y26.42
G1Y26.46
G1X13.65Y26.42
G1X13.72Y26.51
G1X13.7Y26.53
G1X13.67Y26.55
G1X13.62
G1X13.57
G1X13.63Y26.53
G1X13.69Y26.51
G1X13.65Y26.46
G1X13.56Y26.49
G1X13.52Y26.39
M5
G0X13.65Y26.36
M3 S30
; Layer C00
G1Y26.34
G1X13.85
G1X13.84Y26.36
G1X13.8Y26.38
G1X13.74
G1X13.68
G1X13.65Y26.36
M5
G0X13.74Y26.51
M3 S30
; Layer C00
G1X13.92Y26.62
G1X13.96Y26.64
G1Y26.65
G1X13.92
G1X13.87Y26.63
G1X13.81Y26.58
G1X13.74Y26.51
M5
G0X13.96Y26.32
M3 S30
; Layer C00
G1X13.98Y26.29
G1X14Y26.26
G1X14.02
G1X14.03Y26.29
G1Y26.31
G1X14Y26.32
G1X13.96
M5
G0X14.24Y26.21
M3 S30
; Layer C00
G1X14.26Y26.2
G1X14.31Y26.18
G1X14.38Y26.16
G1X14.36Y26.19
G1X14.3Y26.22
G1X14.24Y26.21
M5
G0X14.4Y26.18
M3 S30
; Layer C00
G1X14.49Y26.16
G1X14.58
G1X14.67
G1X14.75Y26.18
G1X14.4
M5
G0X14.79Y26.11
M3 S30
; Layer C00
G1X14.84Y26.15
G1X14.86Y26.18
G1Y26.21
G1X14.84
G1X14.82Y26.17
G1X14.79Y26.11
M5
G0X15.28Y26.16
M3 S30
; Layer C00
G1X15.21Y26.28
G1X15.29Y26.26
G1X15.36Y26.24
G1X15.4Y26.2
G1X15.43Y26.15
G1X15.54Y26.24
G1X15.5Y26.14
G1X15.34Y26.12
G1X15.4Y26.2
G1X15.28Y26.16
M5
G0X15.39Y26.02
M3 S30
; Layer C00
G1X15.38Y25.96
G1X15.36Y25.9
G1X15.41Y25.91
G1X15.45Y25.96
G1X15.43Y26
G1X15.39Y26.02
M5
G0X15.53Y25.98
M3 S30
; Layer C00
G1X15.51Y25.96
G1X15.49Y25.92
G1X15.52
G1X15.55Y25.93
G1X15.56Y25.96
G1Y25.98
G1X15.54Y25.99
G1X15.53Y25.98
M5
G0X15.65Y25.95
M3 S30
; Layer C00
G1X15.58Y25.91
G1X15.51Y25.86
G1X15.33
G1X15.39Y25.82
G1X15.44Y25.8
G1X15.5
G1X15.56
G1X15.53Y25.84
G1X15.66Y25.92
G1Y25.89
G1Y25.86
G1X15.63Y25.84
G1X15.61Y25.81
G1X15.59Y25.75
G1Y25.68
G1X15.71Y25.77
G1X15.67Y25.66
G1X15.73Y25.7
G1Y25.66
G1Y25.64
G1X15.7Y25.61
G1X15.66Y25.6
G1X15.7
G1X15.74Y25.62
G1X15.76Y25.65
G1X15.77Y25.69
G1X15.63Y25.82
G1X15.7Y25.86
G1Y25.79
G1X15.8
G1Y25.9
G1X15.72Y25.87
G1X15.65Y25.95
M5
G0X15.7Y25.97
M3 S30
; Layer C00
G1Y26.1
G1X15.72Y26.08
G1Y26.05
G1Y26.02
G1X15.7Y25.97
M5
G0X15.69Y25.96
M3 S30
; Layer C00
G1X15.84
G1X15.79Y26.07
G1X15.87Y26.02
G1Y26.05
G1X15.91Y26.12
G1X16.08Y26.32
G1X16.11Y26.37
G1X16.08Y26.36
G1X16.03Y26.3
G1X15.97Y26.22
G1X15.9Y26.27
G1X15.95Y26.19
G1X15.87
G1Y26.09
G1X15.81
G1X15.68Y26.12
G1X15.64Y26.15
G1X15.68
G1X15.61Y26.22
G1X15.55Y26.27
G1X15.5Y26.29
G1X15.46
G1Y26.17
G1X15.36Y26.36
G1X15.33Y26.28
G1X15.24Y26.33
G1X15.35Y26.48
G1X15.29Y26.56
G1X15.25Y26.51
G1X15.21Y26.46
G1X15.26Y26.42
G1X15.18
G1X15.23Y26.31
G1X15.11Y26.35
G1X15.3Y26.1
G1X15.49Y26.09
G1X15.59Y26.23
G1X15.61Y26.2
G1X15.6Y26.13
G1X15.51Y26.06
G1X15.44Y26.03
G1X15.52
G1X15.57Y26.04
G1X15.59Y26.06
G1X15.6Y26.09
G1X15.63
G1X15.65Y26.06
G1X15.67Y26.02
G1X15.69Y25.96
M5
G0X15.54Y25.76
M3 S30
; Layer C00
G1X15.42Y25.73
G1X15.38Y25.79
G1X15.09Y25.78
G1X15.22Y25.77
G1X15.35Y25.75
G1X15.31Y25.69
G1X15.38
G1X15.44Y25.7
G1X15.49Y25.73
G1X15.54Y25.76
M5
G0X15.11Y25.69
M3 S30
; Layer C00
G1X15.09Y25.73
G1X15.07Y25.75
G1X15.06
G1X15.04
G1X15.02Y25.73
G1X15Y25.69
G1X15.11
M5
G0X14.97Y25.68
M3 S30
; Layer C00
G1X14.96
G1X14.92Y25.69
G1X14.88
G1X14.85Y25.66
G1X14.83Y25.63
G1X14.9Y25.65
G1X14.95Y25.66
G1X14.97Y25.68
M5
G0X14.79Y25.64
M3 S30
; Layer C00
G1X14.77
G1X14.75Y25.6
G1X14.72Y25.54
G1X14.77Y25.58
G1X14.79Y25.62
G1Y25.64
M5
G0X14.68Y25.56
M3 S30
; Layer C00
G1X14.65Y25.54
G1X14.6Y25.49
G1X14.54Y25.41
G1X14.62Y25.47
G1X14.69Y25.54
G1Y25.56
M5
G0X14.78Y25.39
M3 S30
; Layer C00
G1X14.82Y25.37
G1X14.87
G1X14.91
G1X14.95Y25.39
G1X14.78
M5
G0X14.95Y25.36
M3 S30
; Layer C00
G1X15Y25.34
G1X15.04
G1X15.07
G1X15.09Y25.36
G1X14.95
M5
G0X14.66Y24.95
M3 S30
; Layer C00
G1X14.55Y24.99
G1X14.54Y24.96
G1X14.52Y24.94
G1X14.63Y24.91
G1X14.71
G1X14.74
G1X14.73Y24.92
G1X14.66Y24.95
M5
G0X14.53Y24.9
M3 S30
; Layer C00
G1X14.4
G1X14.44Y24.87
G1X14.48
G1X14.51
G1X14.53Y24.9
M5
G0X14.5Y24.97
M3 S30
; Layer C00
G1X14.35Y25
G1X14.2Y25.02
G1X14.07
G1X13.95
G1X14.12Y25
G1X14.27Y24.98
G1X14.4
G1X14.5
M5
G0X14.78Y24.89
M3 S30
; Layer C00
G1X14.93Y24.82
G1X15.08Y24.75
G1X15.02Y24.69
G1X15.11Y24.74
G1X15.28Y24.62
G1X15.41Y24.53
G1X15.48Y24.5
G1Y24.66
G1X15.41Y24.85
G1X15.38Y24.88
G1X15.43Y24.67
G1X15.36Y24.63
G1X15.12Y24.76
G1X14.93Y24.86
G1X14.83Y24.9
G1X14.78
M5
G0X14.78Y24.66
M3 S30
; Layer C00
G1X14.61
G1X14.65Y24.64
G1X14.69
G1X14.74
G1X14.78Y24.66
M5
G0X14.7Y24.59
M3 S30
; Layer C00
G1X14.53Y24.62
G1Y24.55
G1X14.54Y24.49
G1X14.63Y24.47
G1X14.54Y24.51
G1X14.7Y24.59
M5
G0X14.76Y24.56
M3 S30
; Layer C00
G1X14.73Y24.53
G1Y24.5
G1X14.68Y24.52
G1Y24.51
G1X14.74Y24.45
G1X14.84Y24.36
G1X14.95Y24.4
G1X14.9Y24.36
G1X15.02Y24.23
G1X14.88Y24.28
G1X14.91Y24.25
G1X14.95Y24.23
G1X15.01
G1X15.09Y24.22
G1Y24.18
G1Y24.15
G1X15.1Y24.14
G1X15.13
G1X15.15
G1X15.21Y24.12
G1X15.27Y24.11
G1Y24.08
G1X15.23Y24.01
G1X15.17Y23.92
G1X15.22Y23.96
G1X15.26Y23.99
G1X15.32Y24
G1X15.37
G1X15.28Y23.96
G1X15.34Y23.92
G1X15.4Y23.88
G1X15.47Y23.86
G1X15.54Y23.84
G1X15.59Y23.82
G1X15.61Y23.79
G1X15.52Y23.85
G1X15.57Y23.69
G1X15.51Y23.76
G1X15.47Y23.81
G1X15.43Y23.83
G1X15.4
G1X15.39Y23.8
G1Y23.77
G1X15.46Y23.79
G1X15.5Y23.7
G1X15.41Y23.75
G1X15.46Y23.67
G1X15.52Y23.71
G1X15.58Y23.59
G1X15.63Y23.51
G1X15.65Y23.49
G1Y23.52
G1X15.63Y23.57
G1X15.59Y23.63
G1X15.67Y23.68
G1X15.79Y23.57
G1X15.83Y23.67
G1X15.73Y23.63
G1Y23.67
G1Y23.7
G1X15.69Y23.74
G1X15.61Y23.83
G1X15.49Y23.98
G1X15.34Y24.17
G1X15.27Y24.13
G1X15.32Y24.18
G1X15.2Y24.3
G1X15.13Y24.26
G1X15.18Y24.33
G1X15.04Y24.44
G1X14.97Y24.4
G1X14.99Y24.48
G1X14.87
G1X14.9Y24.53
G1X14.85Y24.55
G1X14.76Y24.56
M5
G0X14.07Y24.47
M3 S30
; Layer C00
G1X13.93Y24.66
G1X13.82Y24.79
G1X13.74Y24.87
G1X13.69Y24.9
G1X13.65
G1X13.69Y24.96
G1X13.66
G1X13.63
G1X13.62Y24.94
G1X13.64Y24.92
G1X13.68Y24.87
G1X13.75Y24.79
G1X13.83Y24.7
G1X14Y24.51
G1X14.1Y24.37
G1X14.19Y24.25
G1X14.33Y24.1
G1X14.4Y24.03
G1X14.46Y23.97
G1X14.5Y23.94
G1X14.52
G1X14.48Y24
G1X14.39Y24.09
G1X14.24Y24.25
G1X14.07Y24.47
M5
G0X14.03Y24.63
M3 S30
; Layer C00
G1X14.06Y24.64
G1Y24.67
G1Y24.69
G1X14.04
G1X14.02Y24.67
G1X14Y24.63
G1X14.03
M5
G0X13.91Y24.97
M3 S30
; Layer C00
G1X13.95Y24.99
G1X13.74
G1X13.8Y24.97
G1X13.86
G1X13.91
M5
G0X13.4Y25
M3 S30
; Layer C00
G1Y25.06
G1X13.39Y25.12
G1X13.36
G1X13.32Y25.07
G1X13.27Y24.97
G1X13.22Y24.84
G1X13.18Y24.74
G1X13.16Y24.67
G1X13.23
G1X13.19Y24.77
G1X13.29Y24.75
G1X13.31Y24.93
G1X13.38
G1X13.34Y25
G1X13.4
M5
G0X12.71Y25.16
M3 S30
; Layer C00
G1Y25.25
G1X12.69
G1X12.66Y25.23
G1X12.59Y25.16
G1X12.54Y25.09
G1X12.6Y25.13
G1X12.66Y25.08
G1X12.61Y25.16
G1X12.71
M5
G0X12.38Y25.03
M3 S30
; Layer C00
G1X12.25
G1X12.29Y25.01
G1X12.33
G1X12.36
G1X12.38Y25.03
M5
G0X12.14Y25.02
M3 S30
; Layer C00
G1X11.97
G1X12.01Y25.01
G1X12.06
G1X12.1
G1X12.14Y25.02
M5
G0X11.95Y25.05
M3 S30
; Layer C00
G1X11.92Y25.06
G1X11.89
G1Y25.03
G1Y24.99
G1X11.92Y25.01
G1X11.94Y25.03
G1X11.95Y25.05
M5
G0X11.85Y25.03
M3 S30
; Layer C00
G1X11.83Y25.06
G1X11.81Y25.09
G1X11.8
G1X11.78
G1X11.76Y25.06
G1X11.74Y25.03
G1X11.85
M5
G0X11.72Y25.08
M3 S30
; Layer C00
G1X11.75Y25.12
G1X11.71
G1X11.65Y25.09
G1X11.62Y25.05
G1X11.61Y25.01
G1Y24.96
G1X11.53Y24.98
G1X11.5Y24.88
G1X11.57Y24.98
G1Y24.95
G1X11.6
G1X11.66Y25.01
G1X11.72Y25.08
M5
G0X11.59Y24.86
M3 S30
; Layer C00
G1X11.6Y24.75
G1X11.61Y24.64
G1X11.53Y24.59
G1X11.39Y24.75
G1X11.43Y24.63
G1X11.38Y24.51
G1X11.34Y24.44
G1X11.3Y24.41
G1X11.27
G1X11.24Y24.43
G1X11.22Y24.47
G1X11.16Y24.43
G1X11.19Y24.72
G1X11.13Y24.58
G1X11.17Y24.49
G1X11.1Y24.53
G1X11.06Y24.45
G1X11.03Y24.4
G1X11Y24.37
G1X10.96
G1X10.9Y24.39
G1X10.84Y24.41
G1X10.89Y24.48
G1X10.79Y24.4
G1X10.69Y24.46
G1X10.78Y24.55
G1X10.74Y24.47
G1X10.81
G1Y24.56
G1X10.9Y24.63
G1X10.96Y24.68
G1X10.98Y24.72
G1X10.95Y24.7
G1X10.86Y24.63
G1X10.73Y24.53
G1X10.65Y24.56
G1Y24.43
G1X10.71
G1X10.68Y24.35
G1X10.86Y24.22
G1X10.8Y24.31
G1X10.92Y24.27
G1X10.87Y24.34
G1X11.02Y24.31
G1Y24.38
G1X11.09Y24.28
G1X11.06Y24.4
G1X11.16Y24.43
G1X11.12Y24.32
G1X11.23Y24.41
G1X11.32Y24.3
G1X11.38Y24.41
G1X11.44Y24.5
G1X11.48Y24.53
G1X11.53Y24.55
G1X11.59Y24.6
G1X11.67Y24.67
G1X11.65Y24.75
G1X11.63Y24.81
G1X11.61Y24.85
G1X11.59
M5
G0X10.93Y24.93
M3 S30
; Layer C00
G1X10.87Y24.98
G1X10.84Y24.91
G1X10.64Y24.94
G1Y25.03
G1X10.7Y25.06
G1X10.78Y25.09
G1X10.92Y25.1
G1X10.96Y25.12
G1X10.98Y25.15
G1X10.89
G1X10.8Y25.14
G1X10.72Y25.12
G1X10.65Y25.08
G1X10.61Y25.02
G1X10.57Y24.96
G1X10.65Y24.88
G1X10.83Y24.9
G1X10.78Y24.87
G1X10.74Y24.84
G1Y24.82
G1X10.78
G1X10.84Y24.86
G1X10.93Y24.93
M5
G0X10.74Y24.76
M3 S30
; Layer C00
G1X10.7
G1X10.67Y24.75
G1X10.65Y24.71
G1X10.64Y24.67
G1Y24.65
G1X10.67Y24.66
G1X10.7Y24.7
G1X10.74Y24.76
M5
G0X10.82Y24.4
M3 S30
; Layer C00
G1X10.86Y24.37
G1X10.88Y24.34
G1X10.78Y24.3
G1X10.73Y24.38
G1X10.81Y24.33
G1Y24.37
G1X10.82Y24.4
M5
G0X10.73Y24.26
M3 S30
; Layer C00
G1X10.69
G1X10.64
G1Y24.22
G1X10.67Y24.17
G1X10.7Y24.13
G1X10.75Y24.09
G1X10.7Y24.16
G1X10.79Y24.19
G1X10.76Y24.23
G1X10.73Y24.26
M5
G0X10.59Y24.16
M3 S30
; Layer C00
G1X10.51
G1X10.46Y24.15
G1X10.45Y24.13
G1X10.48Y24.11
G1X10.53Y24.09
G1X10.59Y24.08
G1Y24.16
M5
G0X10.6Y24.05
M3 S30
; Layer C00
G1X10.56Y24.01
G1X10.43Y24.07
G1X10.45Y24.01
G1X10.47Y23.96
G1X10.36Y24
G1X10.4Y23.93
G1X10.43Y23.87
G1Y23.85
G1Y23.82
G1X10.47Y23.83
G1X10.51Y23.87
G1X10.6Y23.95
G1Y24.05
M5
G0X10.52Y23.99
M3 S30
; Layer C00
G1X10.55Y23.97
G1X10.57Y23.95
G1X10.43Y23.83
G1X10.44Y23.88
G1X10.46Y23.94
G1X10.49Y23.98
G1X10.52Y23.99
M5
G0X10.35Y23.92
M3 S30
; Layer C00
G1X10.34Y23.88
G1X10.31Y23.85
G1X10.28Y23.84
G1X10.25
G1X10.27Y23.87
G1X10.28Y23.89
G1Y23.9
G1X10.26
G1Y23.89
G1X10.24Y23.84
G1X10.22Y23.81
G1X10.18Y23.76
G1X10.12Y23.7
G1Y23.57
G1X10.18
G1X10.15Y23.7
G1X10.23Y23.75
G1X10.17Y23.66
G1X10.26Y23.71
G1X10.22Y23.77
G1X10.29Y23.81
G1Y23.73
G1X10.31Y23.75
G1X10.33Y23.79
G1X10.35Y23.85
G1Y23.92
M5
G0X10.18Y23.86
M3 S30
; Layer C00
G1X10.03
G1X10.02Y23.9
G1X10Y23.93
G1X9.97
G1X9.94Y23.91
G1X9.91Y23.85
G1X9.87Y23.77
G1X9.91
G1X9.93Y23.79
G1X9.94Y23.82
G1Y23.87
G1X10.15Y23.81
G1X10.18Y23.86
M5
G0X10.04Y23.98
M3 S30
; Layer C00
G1Y24
G1Y24.03
G1X10.01
G1X9.99
G1X9.98Y24
G1Y23.98
G1X10.01Y23.97
G1X10.04Y23.98
M5
G0X10.05Y24.07
M3 S30
; Layer C00
G1X10.09
G1X10.06Y24.1
G1X10.04Y24.13
G1X10.03
G1X10.02
G1Y24.1
G1Y24.08
G1X10.05Y24.07
M5
G0X10.05Y24.15
M3 S30
; Layer C00
G1X10.07Y24.21
G1Y24.27
G1Y24.33
G1X10.05Y24.38
G1Y24.27
G1Y24.15
M5
G0X10.03Y24.4
M3 S30
; Layer C00
G1Y24.49
G1X9.97
G1X9.92
G1X10.03Y24.4
M5
G0X9.88Y24.47
M3 S30
; Layer C00
G1X9.86Y24.5
G1X9.84Y24.52
G1X9.82Y24.53
G1X9.81
G1Y24.5
G1Y24.48
G1X9.84Y24.47
G1X9.88
M5
G0X9.76Y24.45
M3 S30
; Layer C00
G1Y24.47
G1X9.73Y24.45
G1X9.7Y24.41
G1X9.65Y24.35
G1X9.71Y24.4
G1X9.76Y24.45
M5
G0X9.66Y24.33
M3 S30
; Layer C00
G1X9.63
G1X9.61
G1X9.59Y24.31
G1X9.58Y24.29
G1Y24.25
G1X9.6Y24.2
G1X9.54
G1Y24.1
G1Y24.03
G1Y24.02
G1X9.57Y24.06
G1X9.66Y24.33
M5
G0X9.51Y23.97
M3 S30
; Layer C00
G1X9.5Y23.96
G1X9.48Y23.91
G1X9.45Y23.86
G1X9.53Y23.79
G1Y23.88
G1Y23.94
G1X9.51Y23.97
M5
G0X9.36Y23.88
M3 S30
; Layer C00
G1X9.38Y23.8
G1X9.4Y23.72
G1X9.43Y23.81
G1X9.36Y23.88
M5
G0X9.99Y23.6
M3 S30
; Layer C00
G1X10Y23.52
G1X10.02Y23.46
G1X10.04Y23.44
G1X10.06Y23.48
G1Y23.56
G1Y23.64
G1Y23.67
G1X10.02Y23.64
G1X9.99Y23.6
M5
G0X10.08Y23.54
M3 S30
; Layer C00
G1X10.1Y23.51
G1X10.12Y23.48
G1X10.15
G1X10.19
G1X10.17Y23.51
G1X10.14Y23.53
G1X10.11Y23.54
G1X10.08
M5
G0X10.22Y23.54
M3 S30
; Layer C00
G1X10.23Y23.57
G1X10.26Y23.59
G1X10.31
G1X10.34
G1X10.36Y23.57
G1Y23.54
G1X10.22
M5
G0X10.21Y23.52
M3 S30
; Layer C00
G1X10.29
G1X10.39Y23.54
G1X10.52Y23.56
G1X10.67Y23.58
G1X10.84Y23.41
G1X10.88Y23.52
G1X10.84Y23.48
