; LightBurn 0.9.24
; GRBL device profile, absolute coords
; Bounds: X3.1 Y1.03 to X28.92 Y34.35
G00 G17 G40 G21 G54
G90
M4
; Cut @ 100 mm/sec, 20% power
M8
M3 S30
M5
G0X5.14Y5.45
M3 S30
; Layer C00
G1X5.19Y5.47S20F6000
G1X5.2Y5.59
G1Y5.71
G1X5.18Y5.76
G1X5.15Y5.73
G1X5.11Y5.63
G1Y5.52
G1X5.14Y5.45
M5
G0X5.36Y6.09
M3 S30
; Layer C00
G1X5.38Y6.18
G1Y6.35
G1X5.36Y6.45
G1Y6.5
G1X5.37
G1X5.41Y6.47
G1X5.47Y6.4
G1X5.51Y6.42
G1Y6.52
G1X5.49Y6.7
G1X5.46Y6.84
G1Y6.92
G1X5.49Y6.95
G1X5.6Y6.93
G1X5.62Y6.96
G1X5.59Y7.05
G1X5.52Y7.21
G1X5.43Y7.39
G1X5.35Y7.49
G1X5.29Y7.52
G1X5.27Y7.45
G1X5.3Y7.39
G1X5.34Y7.34
G1X5.39Y7.27
G1X5.41Y7.16
G1X5.4Y7.07
G1X5.36Y7.05
G1X5.34Y7.02
G1X5.32Y6.92
G1Y6.77
G1X5.31Y6.57
G1Y6.37
G1Y6.22
G1X5.34Y6.12
G1X5.36Y6.09
M5
G0X5.75Y7.17
M3 S30
; Layer C00
G1X5.76Y7.21
G1X5.73Y7.31
G1X5.65Y7.45
G1X5.55Y7.62
G1X5.59Y7.45
G1X5.65Y7.3
G1X5.7Y7.21
G1X5.75Y7.17
M5
G0X5.88Y7.47
M3 S30
; Layer C00
G1Y7.5
G1X5.86Y7.57
G1X5.83Y7.66
G1X5.79Y7.75
G1X5.69Y7.93
G1X5.62Y8.01
G1X5.61Y7.99
G1X5.62Y7.92
G1X5.66Y7.83
G1X5.71Y7.72
G1X5.76Y7.61
G1X5.81Y7.53
G1X5.85Y7.48
G1X5.88Y7.47
M5
G0X5.95Y7.73
M3 S30
; Layer C00
G1X5.97
G1Y7.76
G1X5.95Y7.83
G1X5.93Y7.92
G1X5.86Y8.12
G1X5.79Y8.31
G1X5.73Y8.41
G1X5.7Y8.47
G1X5.67Y8.49
G1Y8.44
G1X5.69Y8.37
G1X5.72Y8.26
G1X5.77Y8.13
G1X5.83Y7.99
G1X5.88Y7.86
G1X5.93Y7.77
G1X5.95Y7.73
M5
G0X6.11Y8.07
M3 S30
; Layer C00
G1Y8.08
G1Y8.13
G1X6.09Y8.2
G1X6.01Y8.48
G1X5.99Y8.56
G1Y8.61
G1X6.02
G1X6.05Y8.57
G1X6.14Y8.46
G1X6.17Y8.42
G1X6.19
G1Y8.47
G1X6.17Y8.55
G1X6.09Y8.8
G1X5.99Y9.06
G1X5.88Y9.24
G1X5.83Y9.29
G1X5.8Y9.3
G1X5.77Y9.28
G1Y9.22
G1X5.8Y9.13
G1X5.95Y8.84
G1X5.97Y8.75
G1Y8.74
G1X5.94
G1X5.91Y8.77
G1X5.86Y8.82
G1X5.79Y8.9
G1X5.78Y8.92
G1Y8.9
G1X5.79Y8.84
G1X5.83Y8.74
G1X5.95Y8.39
G1X6.03Y8.2
G1X6.09Y8.09
G1X6.11Y8.07
M5
G0X6.24Y8.82
M3 S30
; Layer C00
G1X6.27Y8.83
G1X6.28Y8.89
G1X6.3Y8.98
G1Y9.22
G1X6.31Y9.32
G1X6.33Y9.4
G1X6.35Y9.45
G1X6.38Y9.47
G1X6.42
G1X6.46Y9.43
G1X6.52Y9.37
G1X6.58Y9.29
G1X6.6Y9.27
G1Y9.29
G1X6.57Y9.37
G1X6.53Y9.5
G1X6.5Y9.67
G1X6.47Y9.68
G1X6.43Y9.65
G1X6.31Y9.51
G1X6.27
G1X6.22Y9.55
G1X6.16Y9.66
G1X6.09Y9.76
G1X6.06Y9.8
G1Y9.78
G1X6.08Y9.69
G1X6.1Y9.59
G1Y9.56
G1X6.07Y9.58
G1X5.97Y9.71
G1X5.93Y9.74
G1X5.91
G1Y9.72
G1X5.92Y9.68
G1X5.95Y9.61
G1X5.99Y9.52
G1X6.04Y9.41
G1X6.14Y9.17
G1X6.18Y8.99
G1X6.2Y8.89
G1X6.24Y8.82
M5
G0X6.39Y8.95
M3 S30
; Layer C00
G1X6.44
G1X6.46Y8.98
G1X6.44Y9.04
G1X6.39Y9.09
G1X6.35Y9.1
G1X6.32Y9.07
G1X6.35Y9
G1X6.39Y8.95
M5
G0X6.4Y9.79
M3 S30
; Layer C00
G1X6.35Y10
G1X6.3Y10.16
G1X6.25Y10.27
G1X6.22Y10.3
G1X6.2
G1X6.19Y10.24
G1X6.22Y10.12
G1X6.29Y9.97
G1X6.4Y9.79
M5
G0X6.8Y10.46
M3 S30
; Layer C00
G1X6.78Y10.49
G1X6.75Y10.56
G1X6.72Y10.68
G1Y10.76
G1X6.77Y10.79
G1X6.83Y10.75
G1X6.87Y10.66
G1X6.85Y10.55
G1X6.82Y10.48
G1X6.8Y10.46
M5
G0X6.71Y10.89
M3 S30
; Layer C00
G1X6.66
G1X6.6Y10.95
G1X6.56Y11.04
G1X6.54Y11.1
G1X6.55Y11.14
G1X6.6Y11.16
G1X6.65Y11.12
G1X6.7Y11.04
G1X6.72Y10.95
G1X6.71Y10.89
M5
G0X6.8Y11.1
M3 S30
; Layer C00
G1X6.74Y11.16
G1X6.69Y11.25
G1X6.68Y11.31
G1X6.7Y11.35
G1X6.75Y11.37
G1X6.81Y11.34
G1X6.86Y11.26
G1X6.88Y11.16
G1X6.85Y11.11
G1X6.8
M5
G0X6.97Y11.08
M3 S30
; Layer C00
G1X6.99Y11.15
G1X7.03Y11.2
G1X7.1
G1X7.13Y11.13
G1X7.12Y11.05
G1X7.1Y11
G1X7.07Y10.98
G1X7.04
G1X7.01Y11.01
G1X6.97Y11.08
M5
G0X6.99Y11.33
M3 S30
; Layer C00
G1X6.95
G1X6.9Y11.4
G1X6.88Y11.51
G1X6.86Y11.61
G1X6.81Y11.65
G1X6.77Y11.67
G1X6.74Y11.72
G1X6.77Y11.78
G1X6.82
G1X6.88Y11.73
G1X6.93Y11.63
G1X6.98Y11.47
G1X7Y11.37
G1X6.99Y11.33
M5
G0X6.67Y11.47
M3 S30
; Layer C00
G1X6.63
G1X6.6Y11.5
G1X6.63Y11.56
G1X6.67Y11.58
G1X6.72Y11.57
G1X6.74Y11.55
G1X6.72Y11.51
G1X6.67Y11.47
M5
G0X7.05Y11.67
M3 S30
; Layer C00
G1Y11.73
G1X7.07Y11.8
G1X7.09Y11.84
G1X7.12Y11.85
G1X7.13Y11.84
G1X7.15Y11.8
G1Y11.72
G1X7.14Y11.67
G1X7.09Y11.64
G1X7.05Y11.67
M5
G0X6.98Y11.87
M3 S30
; Layer C00
G1X6.95Y11.9
G1X6.97Y11.97
G1X7Y12.02
G1X7.04Y12.04
G1X7.08
G1Y11.98
G1X7.04Y11.91
G1X6.98Y11.87
M5
G0X6.9Y12.08
M3 S30
; Layer C00
G1X6.87
G1X6.85Y12.09
G1Y12.12
G1Y12.17
G1X6.91Y12.24
G1X6.97Y12.28
G1X7.01Y12.26
G1Y12.19
G1X6.96Y12.13
G1X6.9Y12.08
M5
G0X6.77Y12.56
M3 S30
; Layer C00
G1X6.82Y12.6
G1X6.88Y12.7
G1X6.93Y12.8
G1Y12.84
G1X6.88Y12.8
G1X6.81Y12.7
G1X6.77Y12.6
G1Y12.56
M5
G0X7.27Y12.64
M3 S30
; Layer C00
G1X7.24Y12.72
G1X7.26Y12.76
G1X7.32
G1X7.38Y12.68
G1X7.42Y12.56
G1X7.44Y12.46
G1Y12.43
G1X7.4Y12.45
G1X7.34Y12.52
G1X7.27Y12.64
M5
G0X7.58Y12.84
M3 S30
; Layer C00
G1X7.54Y12.87
G1X7.51Y12.95
G1X7.54Y13.01
G1X7.58
G1X7.63Y12.96
G1X7.65Y12.9
G1X7.63Y12.86
G1X7.58Y12.84
M5
G0X7.67Y12.84
M3 S30
; Layer C00
G1X7.68Y13.03
G1Y13.24
G1X7.69Y13.81
G1X7.57Y13.69
G1X7.48Y13.58
G1X7.43Y13.45
G1X7.38Y13.39
G1X7.32Y13.31
G1X7.15Y13.14
G1X7.09Y13.06
G1X7.04Y12.99
G1X7.02Y12.95
G1X7.04Y12.94
G1X7.07Y12.95
G1X7.12Y12.99
G1X7.28Y13.14
G1X7.34Y13.18
G1X7.37Y13.16
G1Y13.1
G1X7.33Y13
G1X7.26Y12.87
G1X7.17Y12.73
G1X6.91Y12.37
G1X6.82Y12.22
G1X6.77Y12.1
G1Y12.03
G1X6.78Y11.96
G1X6.77Y11.9
G1X6.73Y11.82
G1X6.67Y11.75
G1X6.57Y11.6
G1X6.56Y11.47
G1Y11.36
G1X6.52Y11.23
G1X6.48Y11.16
G1Y11.09
G1Y11.01
G1X6.52Y10.92
G1X6.56Y10.78
G1Y10.66
G1X6.53Y10.56
G1X6.46Y10.53
G1X6.41Y10.55
G1X6.38Y10.62
G1X6.37Y10.63
G1X6.35Y10.61
G1Y10.56
G1Y10.48
G1X6.36Y10.31
G1X6.51Y10.13
G1X6.53Y9.98
G1X6.56Y9.81
G1X6.63Y9.69
G1X6.67Y9.68
G1X6.69Y9.7
G1Y9.75
G1Y9.83
G1X6.63Y10.02
G1X6.54Y10.24
G1X6.5Y10.32
G1Y10.39
G1Y10.44
G1X6.54Y10.5
G1X6.58Y10.54
G1X6.62
G1X6.66Y10.51
G1X6.69Y10.47
G1X6.73Y10.33
G1X6.71Y10.17
G1X6.69Y10.11
G1X6.7Y10.07
G1X6.73Y10.05
G1X6.77Y10.04
G1X6.82
G1X6.84Y10.07
G1Y10.1
G1Y10.14
G1Y10.27
G1X6.88Y10.45
G1X6.95Y10.62
G1X7.02Y10.74
G1X7.11Y10.86
G1X7.19Y11.02
G1X7.23Y11.1
G1X7.25Y11.17
G1Y11.21
G1X7.24Y11.23
G1X7.19Y11.28
G1X7.16Y11.41
G1Y11.52
G1X7.18Y11.56
G1X7.22Y11.54
G1X7.37Y11.42
G1X7.41Y11.4
G1X7.43Y11.43
G1Y11.52
G1X7.45Y11.7
G1X7.48Y11.89
G1X7.5Y12
G1Y12.05
G1X7.48
G1X7.36Y11.95
G1X7.29Y11.93
G1X7.25Y11.95
G1X7.23Y12
G1X7.25Y12.04
G1X7.3
G1X7.36
G1X7.41Y12.14
G1X7.46Y12.24
G1X7.51Y12.28
G1X7.55Y12.29
G1X7.58Y12.34
G1X7.61Y12.42
G1X7.63Y12.53
G1X7.65Y12.67
G1X7.67Y12.84
M5
G0X6.99Y13.19
M3 S30
; Layer C00
G1X7.08Y13.26
G1X7.2Y13.42
G1X7.3Y13.61
G1X7.38Y13.88
G1X7.44Y13.98
G1X7.48Y14.01
G1X7.5
G1X7.49Y13.98
G1X7.41Y13.82
G1X7.4Y13.78
G1X7.43
G1X7.51Y13.83
G1X7.59Y13.92
G1X7.61Y14.04
G1X7.59Y14.15
G1X7.51Y14.23
G1X7.47Y14.26
G1X7.48Y14.31
G1X7.54Y14.33
G1X7.63Y14.27
G1X7.72Y14.2
G1X7.78
G1Y14.25
G1X7.73Y14.34
G1X7.68Y14.43
G1Y14.51
G1X7.7Y14.57
G1X7.67Y14.58
G1X7.61Y14.56
G1X7.51Y14.5
G1X7.39Y14.36
G1X7.28Y14.17
G1X7.21Y13.99
G1Y13.87
G1Y13.78
G1X7.12Y13.64
G1X7.07Y13.38
G1X7.01Y13.27
G1X6.97Y13.21
G1X6.99Y13.19
M5
G0X7.79Y14.67
M3 S30
; Layer C00
G1X7.82Y14.72
G1X7.84Y14.83
G1Y14.94
G1X7.81Y15
G1X7.76
G1X7.66Y14.94
G1X7.61Y14.91
G1X7.6Y14.87
G1Y14.83
G1X7.65Y14.77
G1X7.73Y14.68
G1X7.79Y14.67
M5
G0X7.85Y15.15
M3 S30
; Layer C00
G1X7.9Y15.17
G1X7.96Y15.25
G1X8.03Y15.35
G1X8.1Y15.46
G1X8.16Y15.58
G1X8.21Y15.69
G1X8.23Y15.77
G1Y15.81
G1X8.16
G1X8.09Y15.76
G1X8.03Y15.68
G1X7.99Y15.53
G1X7.94Y15.49
G1X7.88Y15.42
G1X7.84Y15.3
G1X7.82Y15.2
G1X7.85Y15.15
M5
G0X8.57Y16.34
M3 S30
; Layer C00
G1X8.6Y16.36
G1X8.63Y16.43
G1X8.65Y16.52
G1X8.67Y16.63
G1Y16.85
G1X8.64Y17.02
G1X8.59Y17.09
G1X8.56Y17.07
G1X8.54Y16.7
G1Y16.57
G1Y16.48
G1Y16.37
G1X8.57Y16.34
M5
G0X9.56Y16.55
M3 S30
; Layer C00
G1X9.51Y16.66
G1X9.49Y16.79
G1X9.51Y16.87
G1X9.56Y16.9
G1X9.63Y16.93
G1X9.73Y16.96
G1X10.13Y17.07
G1X10.21Y17.09
G1X10.26
G1X10.31
G1Y17.04
G1X10.29Y17.01
G1X10.21Y16.96
G1X10.09Y16.91
G1X9.81Y16.81
G1X9.71Y16.76
G1X9.66Y16.73
G1Y16.71
G1X9.79Y16.72
G1X10Y16.79
G1X10.2Y16.86
G1X10.34Y16.89
G1X10.43
G1X10.45Y16.83
G1X10.43Y16.8
G1X10.36Y16.76
G1X10.26Y16.72
G1X10.01Y16.64
G1X9.9Y16.61
G1X9.82Y16.57
G1X9.78Y16.54
G1X9.72Y16.48
G1X9.64
G1X9.56Y16.55
M5
G0X9.54Y17.11
M3 S30
; Layer C00
G1X9.31Y17.12
G1X9.19Y17.14
G1X9.11Y17.16
G1X9.06Y17.19
G1Y17.22
G1X9.09Y17.25
G1X9.15Y17.29
G1X9.26Y17.33
G1X9.57Y17.41
G1X9.72Y17.46
G1X9.84Y17.51
G1X9.94Y17.56
G1X10.01Y17.62
G1X10.05Y17.68
G1Y17.74
G1X10.04Y17.8
G1X10Y17.96
G1Y18.15
G1X10.05Y18.29
G1X10.1Y18.36
G1X10.15
G1X10.21Y18.26
G1X10.23
G1Y18.3
G1Y18.35
G1X10.26Y18.46
G1X10.29Y18.51
G1X10.3Y18.47
G1X10.31Y18.37
G1Y18.22
G1X10.3Y18.04
G1X10.26Y17.78
G1X10.21Y17.58
G1X10.13Y17.41
G1X10.03Y17.28
G1X9.9Y17.19
G1X9.73Y17.14
G1X9.54Y17.11
M5
G0X9.54Y17.75
M3 S30
; Layer C00
G1X9.6Y17.77
G1X9.59Y17.79
G1X9.5Y17.8
G1X9.46
G1X9.43Y17.79
G1Y17.78
G1X9.46Y17.76
G1X9.54Y17.75
M5
G0X9.73Y17.83
M3 S30
; Layer C00
G1X9.77Y17.8
G1X9.84Y17.78
G1X9.92Y17.75
G1X9.94Y17.73
G1X9.89Y17.69
G1X9.76Y17.63
G1X9.54Y17.55
G1X9.37Y17.53
G1X9.23Y17.58
G1X9.14Y17.67
G1X9.08Y17.78
G1Y17.84
G1X9.11Y17.87
G1X9.16Y17.9
G1X9.24Y17.94
G1X9.34Y17.98
G1X9.41Y18.02
G1X9.45Y18.05
G1Y18.06
G1X9.42Y18.07
G1X9.29Y18.05
G1X9.11Y17.98
G1X9.02Y17.97
G1X8.98Y18
G1X9.01Y18.03
G1X9.07Y18.07
G1X9.16Y18.11
G1X9.26Y18.16
G1X9.49Y18.25
G1X9.67Y18.29
G1X9.74Y18.24
G1X9.8Y18.12
G1Y17.97
G1X9.76Y17.88
G1X9.73Y17.85
G1Y17.83
M5
G0X9.41Y18.3
M3 S30
; Layer C00
G1X9.15Y18.2
G1X8.97Y18.16
G1X8.91
G1X8.88Y18.19
G1X8.89Y18.23
G1X8.92Y18.27
G1X9.04Y18.36
G1X9.21Y18.43
G1X9.45Y18.48
G1X9.58Y18.5
G1X9.66
G1X9.71Y18.46
G1X9.69Y18.44
G1X9.63Y18.4
G1X9.53Y18.35
G1X9.41Y18.3
M5
G0X9.35Y18.54
M3 S30
; Layer C00
G1X9.24
G1X9.22
G1Y18.57
G1X9.26Y18.6
G1X9.33Y18.64
G1X9.42Y18.68
G1X9.43Y18.7
G1X9.37
G1X9.23Y18.68
G1X8.95Y18.64
G1X9.3Y18.81
G1X9.43Y18.87
G1X9.53Y18.91
G1X9.6Y18.94
G1X9.65
G1X9.68
G1Y18.92
G1X9.66Y18.88
G1X9.62Y18.83
G1X9.59Y18.78
G1X9.58Y18.75
G1Y18.72
G1X9.63Y18.7
G1X9.65Y18.68
G1X9.64Y18.65
G1X9.59Y18.62
G1X9.52Y18.58
G1X9.35Y18.54
M5
G0X9.79Y18.55
M3 S30
; Layer C00
G1X9.78Y18.74
G1X9.81Y18.95
G1X9.84Y19.05
G1X9.86Y19.12
G1Y19.17
G1X9.85Y19.19
G1X9.82
G1X9.77Y19.18
G1X9.7Y19.15
G1X9.61Y19.1
G1X9.46Y19.04
G1X9.35
G1X9.29Y19.08
G1X9.26Y19.17
G1X9.29Y19.26
G1X9.36Y19.32
G1X9.43Y19.35
G1X9.52Y19.39
G1X9.64Y19.42
G1X9.88Y19.49
G1X10.01Y19.52
G1X10.03Y19.53
G1X9.99
G1X9.94
G1X9.44Y19.47
G1X9.35
G1X9.29Y19.49
G1X9.28Y19.52
G1X9.3Y19.56
G1X9.43Y19.66
G1X9.65Y19.74
G1X9.78Y19.78
G1X9.87Y19.8
G1X9.91Y19.82
G1X9.89Y19.83
G1X9.84
G1X9.82Y19.85
G1X9.84Y19.87
G1X9.89Y19.91
G1X10.02Y19.97
G1X10.11
G1X10.17Y19.89
G1X10.21Y19.74
G1X10.24Y19.54
G1Y19.38
G1Y19.23
G1X10.31Y19.08
G1X10.35Y18.98
G1Y18.91
G1X10.33Y18.85
G1X10.25Y18.76
G1X10.17Y18.69
G1X10.13Y18.66
G1X10.11Y18.68
G1Y18.74
G1X10.08Y18.82
G1X10.03Y18.86
G1X9.99Y18.8
G1X9.96Y18.65
G1X9.94Y18.49
G1X9.9Y18.4
G1X9.86
G1X9.83Y18.42
G1X9.8Y18.48
G1X9.79Y18.55
M5
G0X11.24Y18.91
M3 S30
; Layer C00
G1X11.27Y18.92
G1X11.32Y18.97
G1X11.37Y19.05
G1X11.43Y19.14
G1X11.46Y19.22
G1X11.48Y19.28
G1Y19.32
G1X11.47
G1X11.44
G1X11.39Y19.27
G1X11.34Y19.2
G1X11.26Y19.05
G1X11.23Y18.93
G1Y18.91
M5
G0X11.43Y18.82
M3 S30
; Layer C00
G1X11.38Y18.67
G1X11.37Y18.58
G1X11.39Y18.52
G1X11.44Y18.51
G1X11.49Y18.48
G1X11.48Y18.4
G1Y18.33
G1X11.51Y18.3
G1X11.56Y18.32
G1X11.58Y18.39
G1Y18.5
G1X11.64Y18.72
G1Y18.76
G1X11.62Y18.77
G1X11.54Y18.74
G1X11.52
G1Y18.78
G1X11.54Y18.85
G1X11.56Y18.96
G1X11.54Y18.99
G1X11.49Y18.94
G1X11.43Y18.82
M5
G0X11.77Y18.47
M3 S30
; Layer C00
G1X11.72Y18.45
G1X11.68Y18.38
G1X11.66Y18.26
G1X11.64Y18.09
G1X11.65Y17.94
G1X11.67Y17.82
G1X11.69Y17.74
G1X11.71Y17.71
G1X11.74
G1X11.77Y17.76
G1X11.78Y17.85
G1X11.79Y18
G1X11.8Y18.33
G1X11.86Y17.93
G1X11.89Y17.76
G1X11.93Y17.61
G1X11.96Y17.48
G1X12Y17.4
G1X12.03Y17.35
G1X12.05
G1Y17.4
G1X12Y17.76
G1X11.95Y18.08
G1X11.92Y18.25
G1X11.88Y18.37
G1X11.83Y18.45
G1X11.77Y18.47
M5
G0X11.24Y19.39
M3 S30
; Layer C00
G1X11.29Y19.41
G1X11.35Y19.49
G1X11.39Y19.59
G1X11.36Y19.63
G1X11.3Y19.6
G1X11.25Y19.52
G1X11.22Y19.42
G1X11.24Y19.39
M5
G0X11.31Y19.85
M3 S30
; Layer C00
G1X11.34
G1X11.37Y19.89
G1X11.42Y19.97
G1Y20.05
G1X11.39Y20.09
G1X11.35Y20.08
G1X11.31Y20.01
G1X11.29Y19.92
G1Y19.87
G1X11.31Y19.85
M5
G0X11.36Y20.29
M3 S30
; Layer C00
G1X11.41Y20.34
G1X11.43Y20.4
G1X11.41Y20.45
G1X11.36Y20.47
G1X11.32Y20.44
G1X11.29Y20.36
G1X11.32Y20.29
G1X11.36
M5
G0X11.27Y20.64
M3 S30
; Layer C00
G1X11.3Y20.65
G1X11.32Y20.7
G1X11.33Y20.77
G1Y20.87
G1X11.3Y21
G1X11.24Y21.27
G1Y20.93
G1Y20.78
G1Y20.68
G1X11.27Y20.64
M5
G0X10.21Y20.58
M3 S30
; Layer C00
G1X9.86Y20.5
G1X9.58Y20.42
G1X9.39Y20.36
G1X9.3Y20.35
G1X9.26Y20.39
G1X9.32Y20.48
G1X9.45Y20.58
G1X9.63Y20.67
G1X9.84Y20.72
G1X9.94Y20.75
G1X10.01Y20.77
G1X10.06Y20.8
G1Y20.83
G1Y20.9
G1X10.11Y20.96
G1X10.16Y21
G1Y21.02
G1X10.1
G1X10.03Y21.01
G1X9.93Y20.98
G1X9.81Y20.94
G1X9.66Y20.89
G1X9.51Y20.84
G1X9.38Y20.81
G1X9.3
G1X9.26
G1X9.31Y20.87
G1X9.44Y20.94
G1X9.64Y21.01
G1X9.98Y21.12
G1X10.04Y21.14
G1X10.05Y21.15
G1X10.03Y21.16
G1X9.96
G1X9.85Y21.14
G1X9.72Y21.11
G1X9.59Y21.07
G1X9.44Y21.03
G1X9.34Y21.02
G1X9.29
G1X9.28Y21.05
G1X9.31Y21.09
G1X9.39Y21.14
G1X9.5Y21.19
G1X9.65Y21.25
G1X9.81Y21.31
G1X9.88Y21.34
G1X9.86
G1X9.66Y21.32
G1X9.59
G1X9.56
G1Y21.34
G1X9.59Y21.36
G1X9.65Y21.39
G1X9.74Y21.43
G1X9.87Y21.48
G1X9.96Y21.52
G1X10.03Y21.55
G1X10.05Y21.58
G1X10.03
G1X10Y21.6
G1X9.99
G1X10.01Y21.63
G1X10.07Y21.66
G1X10.21Y21.72
G1X10.07
G1X9.9Y21.7
G1X9.75Y21.66
G1X9.69Y21.64
G1X9.67Y21.62
G1Y21.6
G1X9.77Y21.58
G1Y21.56
G1X9.73Y21.53
G1X9.62Y21.48
G1X9.43Y21.41
G1X9.31
G1X9.29Y21.42
G1X9.3Y21.44
G1X9.34Y21.47
G1X9.4Y21.49
G1X9.49Y21.52
G1X9.53Y21.54
G1X9.51Y21.56
G1X9.44Y21.59
G1X9.41Y21.62
G1X9.42Y21.65
G1X9.47Y21.7
G1X9.55Y21.75
G1X9.74Y21.83
G1X9.93Y21.87
G1X10.01Y21.89
G1X10.07Y21.95
G1Y21.99
G1X9.99Y21.98
G1X9.91Y21.96
G1X9.81Y21.93
G1X9.69Y21.88
G1X9.55Y21.82
G1X9.39Y21.77
G1X9.3
G1X9.27Y21.8
G1X9.29Y21.9
G1X9.32Y21.95
G1X9.39Y21.98
G1X9.48Y22
G1X9.6
G1X9.81Y22.03
G1X9.96Y22.08
G1X10.05Y22.13
G1X10.12Y22.15
G1X10.17Y22.14
G1X10.2Y22.09
G1X10.22Y21.99
G1X10.23Y21.84
G1Y21.63
G1Y21.36
G1X10.21Y20.58
M5
G0X10.17Y20.45
M3 S30
; Layer C00
G1X10.22Y20.43
G1Y20.39
G1X10.14Y20.3
G1X9.96Y20.21
G1X9.72Y20.12
G1X10Y20.16
G1X10.11Y20.17
G1X10.19
G1X10.22
G1Y20.14
G1X10.16Y20.11
G1X10.08Y20.06
G1X9.95Y20.01
G1X9.77Y19.93
G1X9.58Y19.86
G1X9.43Y19.82
G1X9.31Y19.8
G1X9.23
G1X9.21Y19.83
G1X9.24Y19.87
G1X9.33Y19.94
G1X9.49Y20.02
G1X9.72Y20.12
G1X9.49Y20.08
G1X9.34
G1X9.27Y20.11
G1Y20.14
G1X9.29Y20.18
G1X9.34Y20.22
G1X9.42Y20.27
G1X9.7Y20.38
G1X9.98Y20.45
G1X10.09Y20.46
G1X10.17
M5
G0X9.74Y22.11
M3 S30
; Layer C00
G1X9.51Y22.08
G1X9.4
G1X9.34Y22.11
G1X9.32Y22.15
G1X9.34Y22.19
G1X9.4Y22.24
G1X9.49Y22.28
G1X9.61Y22.33
G1X9.75Y22.36
G1X9.99Y22.41
G1X10.14
G1X10.22Y22.39
G1X10.24Y22.34
G1X10.22Y22.3
G1X10.17Y22.26
G1X10.08Y22.21
G1X9.98Y22.17
G1X9.74Y22.11
M5
G0X9.65Y22.43
M3 S30
; Layer C00
G1X9.51Y22.41
G1X9.41Y22.4
G1X9.36
G1X9.4Y22.43
G1X9.49Y22.46
G1X10Y22.6
G1X10.08
G1X10.17Y22.58
G1Y22.56
G1X10.11Y22.53
G1X9.99Y22.49
G1X9.82Y22.46
G1X9.65Y22.43
M5
G0X9.38Y22.53
M3 S30
; Layer C00
G1X9.35
G1X9.34Y22.57
G1Y22.66
G1X9.36Y22.8
G1X9.42Y22.88
G1X10.06Y23.08
G1X10.14Y23.1
G1X10.19Y23.11
G1X10.24
G1Y23.05
G1X10.19Y23.01
G1X10.11Y22.95
G1X9.99Y22.89
G1X9.72Y22.77
G1X9.59Y22.71
G1X9.48Y22.64
G1X9.42Y22.59
G1X9.38Y22.53
M5
G0X9.73Y22.65
M3 S30
; Layer C00
G1Y22.67
G1X9.76Y22.7
G1X9.86Y22.75
G1X10.02Y22.81
G1X10.14Y22.84
G1X10.22
G1X10.24Y22.79
G1X10.2Y22.73
G1X10.09Y22.69
G1X9.95Y22.65
G1X9.79
G1X9.73
M5
G0X9.53Y23.02
M3 S30
; Layer C00
G1X9.37
G1X9.33
G1Y23.04
G1X9.35Y23.06
G1X9.41Y23.09
G1X9.63Y23.17
G1X9.79Y23.24
G1X9.89Y23.28
G1X9.93Y23.31
G1X9.91Y23.32
G1X9.83
G1X9.69Y23.28
G1X9.49Y23.23
G1X9.38Y23.21
G1X9.34Y23.24
G1X9.38Y23.35
G1X9.48Y23.45
G1X9.61Y23.54
G1X9.77Y23.62
G1X9.93Y23.67
G1X10.08Y23.69
G1X10.18Y23.67
G1X10.23Y23.6
G1Y23.48
G1X10.16Y23.4
G1X10.12Y23.37
G1X10.11Y23.35
G1X10.12
G1X10.17Y23.34
G1X10.22Y23.33
G1X10.24Y23.31
G1X10.22Y23.27
G1X10.16Y23.23
G1X9.99Y23.13
G1X9.75Y23.06
G1X9.53Y23.02
M5
G0X9.5Y23.62
M3 S30
; Layer C00
G1X9.44
G1X9.4Y23.64
G1Y23.66
G1X9.41Y23.69
G1X9.51Y23.75
G1X9.67Y23.8
G1X9.86Y23.84
G1X10.02Y23.9
G1X10.07Y23.92
G1X10.1Y23.94
G1Y23.96
G1X10.07
G1X9.94Y23.95
G1X9.74Y23.9
G1X9.62Y23.88
G1X9.53
G1X9.49
G1Y23.9
G1X9.51Y23.94
G1X9.58Y23.97
G1X9.68Y24.02
G1X9.81Y24.06
G1X10.06Y24.14
G1X10.18Y24.17
G1X10.21Y24.13
G1X10.23Y24.01
G1X10.21Y23.94
G1X10.16Y23.88
G1X10.08Y23.81
G1X9.98Y23.75
G1X9.74Y23.66
G1X9.5Y23.62
M5
G0X9.57Y24.06
M3 S30
; Layer C00
G1X9.51
G1X9.48Y24.13
G1Y24.21
G1X9.54Y24.28
G1X9.68Y24.33
G1X9.91Y24.38
G1X10.13Y24.43
G1X10.23Y24.45
G1Y24.43
G1X10.24Y24.36
G1X10.22Y24.32
G1X10.16Y24.27
G1X10.07Y24.22
G1X9.96Y24.18
G1X9.73Y24.11
G1X9.57Y24.06
M5
G0X9.53Y24.38
M3 S30
; Layer C00
G1X9.47Y24.43
G1X9.49Y24.47
G1X9.54Y24.5
G1X9.62Y24.52
G1X9.73
G1X9.83
G1X9.9
G1X9.95
G1Y24.5
G1X9.83Y24.43
G1X9.67Y24.39
G1X9.53
M5
G0X9.72Y24.63
M3 S30
; Layer C00
G1X9.59Y24.66
G1Y24.69
G1X9.63Y24.73
G1X9.71Y24.76
G1X9.83Y24.79
G1X10.08Y24.85
G1X10.15Y24.86
G1X10.2
G1X10.24Y24.85
G1X10.23Y24.79
G1X10.13Y24.71
G1X9.93Y24.65
G1X9.72Y24.63
M5
G0X9.71Y24.83
M3 S30
; Layer C00
G1X9.61
G1X9.53
G1X9.49
G1Y24.87
G1X9.53Y24.9
G1X9.61Y24.94
G1X9.71Y24.98
G1X9.94Y25.05
G1X10.14Y25.08
G1X10.25
G1X10.3Y25.07
G1X10.29Y25.04
G1X10.23Y24.99
G1X10.06Y24.92
G1X9.83Y24.85
G1X9.71Y24.83
M5
G0X9.7Y25.05
M3 S30
; Layer C00
G1X9.53Y25.02
G1X9.48
G1X9.46Y25.04
G1Y25.07
G1X9.5Y25.1
G1X9.62Y25.18
G1X9.81Y25.25
G1X10.06Y25.33
G1X10.14Y25.35
G1X10.19
G1X10.24
G1X10.23Y25.29
G1X10.2Y25.26
G1X10.13Y25.22
G1X10.04Y25.17
G1X9.93Y25.13
G1X9.7Y25.05
M5
G0X9.51Y25.3
M3 S30
; Layer C00
G1X9.79Y25.4
G1X10.01Y25.47
G1X10.17Y25.5
G1X10.22
G1X10.23
G1Y25.47
G1X10.17Y25.44
G1X10.02Y25.39
G1X9.79Y25.34
G1X9.51Y25.3
M5
G0X9.56Y25.46
M3 S30
; Layer C00
G1X9.57Y25.49
G1X9.63Y25.53
G1X9.72Y25.59
G1X9.83Y25.64
G1X10.06Y25.74
G1X10.23Y25.79
G1X10.29Y25.77
G1X10.31Y25.72
G1X10.29Y25.69
G1X10.21Y25.64
G1X10.09Y25.59
G1X9.96Y25.54
G1X9.83Y25.5
G1X9.71Y25.47
G1X9.61Y25.46
G1X9.56
M5
G0X9.65Y25.68
M3 S30
; Layer C00
G1X9.62Y25.7
G1Y25.77
G1X9.63Y25.83
G1X9.69Y25.89
G1X9.78Y25.95
G1X9.91Y26.01
G1X10.14Y26.09
G1X10.21Y26.11
G1X10.26Y26.12
G1X10.31Y26.1
G1Y26.04
G1X10.29Y25.96
G1X10.23Y25.91
G1X9.88Y25.76
G1X9.73Y25.7
G1X9.65Y25.68
M5
G0X9.66Y26.02
M3 S30
; Layer C00
G1X9.64Y26.04
G1X9.66Y26.06
G1X9.69Y26.09
G1X9.75Y26.13
G1X9.93Y26.19
G1X10.03
G1X10.05
G1Y26.17
G1X10.01Y26.14
G1X9.94Y26.1
G1X9.78Y26.03
G1X9.66
M5
G0X9.76Y26.23
M3 S30
; Layer C00
G1X9.73Y26.25
G1X9.71Y26.3
G1Y26.38
G1Y26.51
G1X9.77Y26.59
G1X9.89Y26.67
G1X10.1Y26.74
G1X10.37Y26.83
G1Y26.81
G1X10.38Y26.77
G1X10.36Y26.73
G1X10.3Y26.67
G1X10.2Y26.61
G1X10Y26.51
G1X9.95Y26.48
G1X9.92Y26.46
G1Y26.45
G1X9.96
G1X10.01
G1X10.09Y26.48
G1X10.19Y26.52
G1X10.25Y26.54
G1X10.29
G1X10.31Y26.51
G1Y26.47
G1X10.26Y26.38
G1X10.12Y26.32
G1X9.95Y26.28
G1X9.82Y26.24
G1X9.76
M5
G0X9.84Y26.76
M3 S30
; Layer C00
G1X9.78Y26.77
G1X9.75Y26.8
G1X9.81Y26.87
G1X9.96Y26.95
G1X10.15Y27.01
G1X10.35Y27.04
G1X10.41
G1X10.44Y27.03
G1Y27
G1X10.4Y26.96
G1X10.24Y26.86
G1X10.02Y26.79
G1X9.92Y26.77
G1X9.84
M5
G0X9.84Y26.98
M3 S30
; Layer C00
G1X9.77
G1X9.74Y27.01
G1Y27.04
G1X9.77Y27.08
G1X9.91Y27.18
G1X10.12Y27.27
G1X10.51Y27.39
G1Y27.37
G1X10.52Y27.32
G1X10.5Y27.29
G1X10.44Y27.24
G1X10.35Y27.18
G1X10.24Y27.12
G1X10.01Y27.02
G1X9.84Y26.98
M5
G0X9.49Y27.16
M3 S30
; Layer C00
G1X9.38Y27.08
G1X9.28Y26.97
G1X9.18Y26.8
G1X8.96Y26.35
G1X8.86Y26.18
G1X8.75Y26.06
G1X8.64Y25.97
G1X8.54Y25.92
G1X8.47Y25.89
G1X8.43Y25.88
G1X8.4
G1Y25.92
G1Y25.98
G1X8.44Y26.06
G1X8.49Y26.17
G1X8.59Y26.36
G1X8.76Y26.57
G1X8.95Y26.79
G1X9.16Y26.99
G1X9.36Y27.16
G1X9.53Y27.29
G1X9.59Y27.32
G1X9.64Y27.34
G1X9.67Y27.33
G1X9.68Y27.29
G1X9.63Y27.24
G1X9.49Y27.16
M5
G0X9.84Y27.29
M3 S30
; Layer C00
G1Y27.35
G1X9.91Y27.4
G1X10.04Y27.45
G1X10.21Y27.48
G1X10.32
G1X10.36Y27.49
G1X10.33Y27.5
G1X10.15Y27.54
G1X10.12Y27.56
G1X10.14Y27.58
G1X10.21Y27.61
G1X10.31
G1X10.39Y27.59
G1X10.43Y27.53
G1X10.4Y27.46
G1X10.27Y27.39
G1X10.1Y27.32
G1X9.93Y27.28
G1X9.84
M5
G0X11.26Y26.99
M3 S30
; Layer C00
G1X11.19Y26.85
G1X11.17Y26.8
G1X11.2
G1X11.25Y26.84
G1X11.31Y26.91
G1X11.38Y27
G1X11.56Y27.25
G1X11.75Y27.56
G1X11.85Y27.74
G1X11.9Y27.85
G1X11.92Y27.91
G1X11.9
G1X11.84Y27.86
G1X11.76Y27.75
G1X11.64Y27.6
G1X11.51Y27.4
G1X11.37Y27.17
G1X11.26Y26.99
M5
G0X12.29Y26.4
M3 S30
; Layer C00
G1X12.27Y26.32
G1X12.3Y26.17
G1X12.36Y25.99
G1X12.43Y25.85
G1X12.5Y25.79
G1X12.53Y25.81
G1Y25.89
G1X12.49Y26.04
G1X12.41Y26.26
G1X12.36Y26.36
G1X12.32Y26.41
G1X12.29Y26.4
M5
G0X12.44Y26.38
M3 S30
; Layer C00
G1X12.52Y26.2
G1X12.61Y26.06
G1X12.66Y26
G1X12.68
G1Y26.03
G1Y26.08
G1X12.63Y26.24
G1Y26.27
G1X12.66
G1X12.8Y26.16
G1X12.83
G1Y26.2
G1X12.8Y26.26
G1X12.77Y26.34
G1X12.73Y26.44
G1X12.65Y26.61
G1X12.59Y26.69
G1X12.57
G1Y26.67
G1Y26.62
G1X12.6Y26.54
G1X12.62Y26.46
G1Y26.43
G1X12.59
G1X12.53Y26.48
G1X12.45Y26.53
G1X12.42Y26.49
G1X12.44Y26.38
M5
G0X12.12Y26.11
M3 S30
; Layer C00
G1X12.1Y26.13
G1X12.08Y26.11
G1Y26.07
G1X12.07Y25.99
G1Y25.89
G1X12.06Y25.8
G1X12.04Y25.72
G1X12.02Y25.67
G1X11.99Y25.65
G1X11.95Y25.63
G1X11.92Y25.58
G1X11.96Y25.52
G1X12.04
G1X12.14Y25.53
G1X12.23Y25.6
G1X12.27Y25.65
G1X12.28Y25.71
G1X12.27Y25.79
G1X12.23Y25.91
G1X12.19Y26.01
G1X12.15Y26.07
G1X12.12Y26.11
M5
G0X13.76Y24.99
M3 S30
; Layer C00
G1Y24.91
G1Y24.86
G1Y24.83
G1X13.78
G1X13.79Y24.86
G1X13.81Y24.94
G1X13.79Y25
G1X13.76Y24.99
M5
G0X14.11Y24.63
M3 S30
; Layer C00
G1X14.07Y24.56
G1X14.05Y24.46
G1Y24.4
G1X14.09Y24.41
G1X14.14Y24.49
G1X14.16Y24.58
G1X14.15Y24.64
G1X14.11Y24.63
M5
G0X13.88Y24.48
M3 S30
; Layer C00
G1X13.81Y24.53
G1X13.76Y24.48
G1X13.74Y24.35
G1X13.72Y24.23
G1X13.67Y24.18
G1X13.63Y24.15
G1X13.6Y24.07
G1X13.64Y24
G1X13.71Y23.97
G1X13.78Y24
G1X13.81Y24.07
G1X13.84Y24.15
G1X13.89Y24.19
G1X13.93Y24.26
G1Y24.37
G1X13.88Y24.48
M5
G0X13.83Y23.83
M3 S30
; Layer C00
G1X13.76Y23.81
G1X13.71Y23.75
G1X13.68Y23.72
G1X13.66Y23.71
G1X13.63
G1X13.61Y23.75
G1X13.56Y23.79
G1X13.51
G1X13.47Y23.73
G1Y23.68
G1X13.52Y23.65
G1X13.6Y23.64
G1X13.72Y23.66
G1X13.82Y23.73
G1X13.86Y23.8
G1X13.83Y23.83
M5
G0X13.96Y23.62
M3 S30
; Layer C00
G1X13.9Y23.6
G1X13.85Y23.55
G1X13.84Y23.5
G1X13.88Y23.48
G1X13.94Y23.5
G1X13.99Y23.55
G1Y23.6
G1X13.96Y23.62
M5
G0X13.79Y23.41
M3 S30
; Layer C00
G1X13.72Y23.35
G1X13.61Y23.2
G1X13.52Y23.06
G1X13.47Y22.97
G1Y22.93
G1X13.54Y22.95
G1X13.61Y23.04
G1X13.71Y23.2
G1X13.75Y23.28
G1X13.78Y23.34
G1X13.79Y23.39
G1Y23.41
M5
G0X13.57Y23.37
M3 S30
; Layer C00
G1X13.54Y23.41
G1X13.49Y23.4
G1X13.43Y23.34
G1Y23.29
G1X13.46Y23.24
G1X13.51
G1X13.56Y23.3
G1Y23.37
M5
G0X13.88Y23.23
M3 S30
; Layer C00
G1X13.84Y23.16
G1X13.87Y23.13
G1X13.94Y23.16
G1X14.02Y23.23
G1X14.07Y23.31
G1X14.04Y23.34
G1X13.97Y23.31
G1X13.88Y23.23
M5
G0X13.73Y22.99
M3 S30
; Layer C00
G1X13.69Y22.97
G1Y22.9
G1X13.73Y22.84
G1X13.8Y22.79
G1X13.83
G1X13.85Y22.8
G1Y22.83
G1Y22.88
G1X13.79Y22.95
G1X13.73Y22.99
M5
G0X13.63Y22.7
M3 S30
; Layer C00
G1X13.6Y22.69
G1X13.58Y22.65
G1X13.55Y22.57
G1X13.56Y22.52
G1X13.61Y22.5
G1X13.65Y22.52
G1X13.67Y22.58
G1X13.66Y22.65
G1X13.64Y22.69
G1X13.63Y22.7
M5
G0X15.05Y20.97
M3 S30
; Layer C00
G1X15.47Y21.03
G1X15.68
G1X15.87Y21.01
G1X16.04Y20.97
G1X16.18Y20.9
G1X16.31Y20.78
G1X16.43Y20.61
G1X16.48Y20.53
G1X16.52Y20.45
G1X16.53Y20.39
G1Y20.35
G1X16.47Y20.38
G1X16.27Y20.64
G1X16.14Y20.75
G1X15.99Y20.83
G1X15.82Y20.89
G1X15.65Y20.92
G1X15.46Y20.93
G1X15.27Y20.91
G1X15.07Y20.85
G1X14.83Y20.78
G1X14.67Y20.75
G1X14.62
G1X14.61Y20.77
G1X14.63Y20.79
G1X14.69Y20.83
G1X15.05Y20.97
M5
G0X15.19Y20.74
M3 S30
; Layer C00
G1X15.32Y20.77
G1X15.48
G1X15.65
G1X15.8Y20.76
G1X15.94Y20.72
G1X16.04Y20.66
G1X16.1Y20.56
G1X16.12Y20.43
G1X16.11Y20.31
G1X16.05Y20.26
G1X16.01Y20.2
G1X15.98Y20.07
G1Y19.98
G1X15.97Y19.94
G1X15.95
G1X15.92Y19.98
G1X15.88Y20.09
G1X15.89Y20.29
G1X15.85Y20.32
G1X15.76
G1X15.56Y20.22
G1X15.5
G1X15.45
G1X15.4Y20.25
G1X15.32Y20.29
G1X15.25Y20.27
G1X15.23
G1Y20.29
G1Y20.33
G1X15.24Y20.4
G1X15.27Y20.49
G1Y20.53
G1X15.24Y20.51
G1X15.19Y20.44
G1X15.1Y20.38
G1X15.03Y20.41
G1X15Y20.5
G1X15.03Y20.64
G1X15.08Y20.7
G1X15.19Y20.74
M5
G0X14.76Y20.54
M3 S30
; Layer C00
G1X14.79Y20.52
G1Y20.47
G1X14.77Y20.42
G1X14.72Y20.4
G1X14.68Y20.42
G1Y20.47
G1X14.73Y20.52
G1X14.76Y20.54
M5
G0X14.44Y20.49
M3 S30
; Layer C00
G1Y20.41
G1X14.46Y20.29
G1Y20.17
G1Y20.08
G1Y20.02
G1X14.43Y20
G1X14.39
G1X14.34Y20.04
G1X14.26Y20.11
G1X14.15Y20.2
G1X13.92Y20.42
G1X14.23Y20.55
G1X14.3Y20.58
G1X14.36Y20.59
G1X14.39
G1X14.42Y20.55
G1X14.44Y20.49
M5
G0X14.93Y20.05
M3 S30
; Layer C00
G1X14.98Y19.99
G1X15Y19.83
G1Y19.75
G1X14.99Y19.69
G1X14.96Y19.66
G1X14.93
G1X14.89Y19.74
G1X14.86Y19.88
G1X14.89Y20
G1X14.93Y20.05
M5
G0X15.23Y19.94
M3 S30
; Layer C00
G1X15.28
G1X15.33Y19.86
G1X15.35Y19.71
G1Y19.62
G1X15.34Y19.58
G1X15.32
G1X15.28Y19.63
G1X15.23Y19.74
G1X15.22Y19.86
G1X15.23Y19.94
M5
G0X15.46Y19.84
M3 S30
; Layer C00
G1X15.5Y19.87
G1X15.56
G1X15.63
G1X15.67Y19.84
G1X15.69Y19.8
G1Y19.74
G1Y19.66
G1X15.66Y19.68
G1X15.64Y19.72
G1X15.61Y19.74
G1X15.57Y19.73
G1X15.47Y19.66
G1X15.44
G1X15.43Y19.68
G1Y19.74
G1Y19.8
G1X15.46Y19.84
M5
G0X15.77Y19.56
M3 S30
; Layer C00
G1X15.91Y19.64
G1X16.01Y19.73
G1X16.08Y19.83
G1X16.12Y19.98
G1X16.16Y20.09
G1X16.19Y20.17
G1X16.22Y20.22
G1X16.25Y20.24
G1X16.29
G1X16.34Y20.2
G1X16.39Y20.14
G1X16.46Y20.05
G1X16.59Y19.9
G1X16.69Y19.84
G1X16.71
G1Y19.87
G1Y19.92
G1X16.58Y20.12
G1X16.55Y20.21
G1X16.57Y20.24
G1X16.65
G1X16.7Y20.22
G1X16.73Y20.24
G1Y20.28
G1X16.7Y20.44
G1Y20.5
G1Y20.53
G1X16.72
G1X16.77Y20.47
G1X16.84Y20.33
G1X16.89Y20.21
G1X16.96Y20.13
G1X17.01Y20.1
G1X17.03Y20.14
G1X17.01Y20.3
G1X16.93Y20.45
G1X16.84Y20.56
G1X16.74Y20.58
G1X16.67
G1X16.61Y20.61
G1X16.55Y20.68
G1X16.49Y20.78
G1X16.41Y20.91
G1X16.3Y21.02
G1X16.16Y21.09
G1X15.98Y21.14
G1X15.78Y21.16
G1X15.55
G1X15.29Y21.12
G1X15Y21.06
G1X14.72Y20.98
G1X14.23Y20.81
G1X13.92Y20.72
G1X13.71Y20.63
G1X13.56Y20.53
G1X13.52Y20.48
G1X13.51Y20.44
G1X13.54Y20.41
G1X13.6Y20.4
G1X13.65Y20.37
G1X13.74Y20.31
G1X13.86Y20.22
G1X14.35Y19.75
G1X14.67Y19.49
G1X14.95Y19.3
G1X15.21Y19.2
G1X15.46Y19.16
G1X15.72Y19.19
G1X16Y19.28
G1X16.31Y19.44
G1X16.51Y19.52
G1X16.78Y19.58
G1X16.82Y19.63
G1X16.81Y19.67
G1X16.76Y19.69
G1X16.68
G1X16.58
G1X16.33Y19.62
G1X16.05Y19.49
G1X15.89Y19.41
G1X15.76Y19.34
G1X15.65Y19.3
G1X15.58Y19.28
G1X15.53
G1X15.5Y19.3
G1Y19.33
G1Y19.37
G1X15.6Y19.45
G1X15.77Y19.56
M5
G0X16.28Y18.99
M3 S30
; Layer C00
G1X16.19Y18.95
G1X16.05Y18.88
G1X15.88Y18.78
G1X16.05Y18.82
G1X16.19Y18.84
G1X16.28Y18.86
G1X16.32Y18.88
G1X16.33Y18.93
G1Y18.98
G1X16.28
M5
G0X16.51Y19.02
M3 S30
; Layer C00
G1X16.58Y19
G1X16.65Y19.02
G1X16.68Y19.07
G1X16.67Y19.12
G1X16.62Y19.14
G1X16.56Y19.12
G1X16.51Y19.07
G1Y19.02
M5
G0X16.91Y18.68
M3 S30
; Layer C00
G1X16.87Y18.61
G1X16.83Y18.5
G1Y18.45
G1X16.85
G1X16.9Y18.53
G1X16.95Y18.63
G1Y18.69
G1X16.91
M5
G0X17.03Y18.37
M3 S30
; Layer C00
G1X16.99Y18.35
G1X16.96Y18.29
G1X16.99Y18.25
G1X17.03Y18.26
G1X17.08Y18.3
G1X17.1Y18.34
G1X17.08Y18.36
G1X17.03
M5
G0X16.76Y18.3
M3 S30
; Layer C00
G1X16.7Y18.25
G1X16.63Y18.12
G1X16.59Y18
G1Y17.95
G1X16.66Y18
G1X16.73Y18.12
G1X16.77Y18.25
G1X16.76Y18.3
M5
G0X16.85Y17.99
M3 S30
; Layer C00
G1X16.8Y17.97
G1X16.77Y17.92
G1X16.75Y17.85
G1X16.78Y17.82
G1X16.84Y17.86
G1X16.89Y17.93
G1Y17.98
G1X16.85Y17.99
M5
G0X16.58Y17.67
M3 S30
; Layer C00
G1X16.51Y17.65
G1X16.47Y17.6
G1X16.49Y17.55
G1X16.54Y17.53
G1X16.6Y17.55
G1X16.65Y17.6
G1Y17.65
G1X16.58Y17.67
M5
G0X16.08Y18.27
M3 S30
; Layer C00
G1X16.17Y18.33
G1X16.24Y18.4
G1X16.29Y18.46
G1Y18.49
G1Y18.5
G1X16.25
G1X16.2Y18.46
G1X16.12Y18.4
G1X16.03Y18.33
G1X15.86Y18.21
G1X15.73Y18.19
G1X15.57
G1X15.32Y18.15
G1X15.2Y18.12
G1X15.1Y18.1
G1X15.03Y18.07
G1Y18.05
G1X15.09Y18.03
G1X15.22
G1X15.39Y18.05
G1X15.57Y18.09
G1X15.76Y18.14
G1X15.94Y18.2
G1X16.08Y18.27
M5
G0X15.55Y17.99
M3 S30
; Layer C00
G1X15.5
G1X15.43Y17.91
G1X15.38Y17.84
G1X15.41Y17.81
G1X15.48Y17.83
G1X15.53Y17.88
G1X15.56Y17.94
G1X15.55Y17.99
M5
G0X15.35Y18.27
M3 S30
; Layer C00
G1X15.39Y18.3
G1X15.4Y18.34
G1X15.38Y18.36
G1X15.04Y18.3
G1X14.76Y18.25
G1X15.05Y18.24
G1X15.17
G1X15.27Y18.25
G1X15.35Y18.27
M5
G0X15.45Y18.6
M3 S30
; Layer C00
G1X15.54Y18.62
G1X15.56Y18.68
G1Y18.72
G1X15.54Y18.74
G1X15.5Y18.75
G1X15.46
G1X15.39Y18.74
G1X15.35Y18.79
G1Y18.83
G1X15.33
G1X15.3
G1X15.26Y18.79
G1X15.18Y18.75
G1X15.13Y18.77
G1X15.09Y18.81
G1X15Y18.87
G1X14.87Y18.94
G1X14.73Y19.01
G1X14.6Y19.07
G1X14.47Y19.12
G1X14.38Y19.14
G1X14.34
G1Y19.1
G1X14.4Y19.05
G1X14.48Y18.99
G1X14.59Y18.92
G1X14.83Y18.78
G1X15.06Y18.69
G1X15.29Y18.62
G1X15.45Y18.6
M5
G0X14.71Y18.61
M3 S30
; Layer C00
G1Y18.63
G1X14.66Y18.67
G1X14.59Y18.71
G1X14.49Y18.75
G1X14.33Y18.82
G1X14.23Y18.85
G1X14.18
G1X14.16Y18.82
G1X14.19Y18.8
G1X14.24Y18.76
G1X14.33Y18.72
G1X14.42Y18.68
G1X14.61Y18.62
G1X14.71
M5
G0X14.61Y18.36
M3 S30
; Layer C00
G1X14.57
G1X14.54Y18.35
G1Y18.34
G1X14.57Y18.32
G1X14.65Y18.31
G1X14.71Y18.33
G1X14.7Y18.35
G1X14.61Y18.36
M5
G0X15.54Y16.89
M3 S30
; Layer C00
G1X15.51Y16.87
G1X15.49Y16.76
G1X15.53Y16.62
G1X15.62Y16.49
G1X15.7Y16.38
G1X15.72Y16.29
G1Y16.22
G1X15.77Y16.17
G1X15.8
G1X15.82Y16.21
G1X15.84Y16.3
G1Y16.42
G1Y16.55
G1X15.82Y16.62
G1X15.81Y16.63
G1X15.78Y16.59
G1X15.75Y16.52
G1X15.72
G1X15.69Y16.56
G1X15.65Y16.67
G1X15.59Y16.82
G1X15.54Y16.89
M5
G0X15.95Y16.28
M3 S30
; Layer C00
G1Y16.27
G1X15.93Y16.21
G1Y16.13
G1Y16.04
G1X15.94Y15.99
G1X15.95Y15.98
G1X15.96Y16.01
G1X15.98Y16.13
G1X15.96Y16.25
G1Y16.28
M5
G0X16.23Y15.96
M3 S30
; Layer C00
G1X16.22Y15.95
G1X16.21Y15.91
G1Y15.85
G1Y15.79
G1Y15.75
G1X16.23
G1X16.24Y15.76
G1X16.26Y15.85
G1X16.24Y15.94
G1X16.23Y15.96
M5
G0X16.49Y15.77
M3 S30
; Layer C00
G1X16.48Y15.75
G1Y15.69
G1X16.5Y15.6
G1X16.54Y15.53
G1X16.59Y15.52
G1X16.61Y15.55
G1X16.59Y15.62
G1X16.54Y15.71
G1X16.51Y15.76
G1X16.49Y15.77
M5
G0X16.78Y15.69
M3 S30
; Layer C00
G1Y15.64
G1X16.83Y15.59
G1X16.86Y15.57
G1X16.89Y15.59
G1Y15.64
G1X16.87Y15.69
G1X16.82Y15.71
G1X16.78Y15.69
M5
G0X17.28Y15.63
M3 S30
; Layer C00
G1X17.34Y15.58
G1X17.42
G1X17.5Y15.62
G1X17.58Y15.71
G1X17.62Y15.8
G1X17.59Y15.85
G1X17.5Y15.84
G1X17.37Y15.77
G1X17.29Y15.7
G1Y15.63
M5
G0X15.05Y15.2
M3 S30
; Layer C00
G1X15.07Y15.07
G1X15.05Y14.92
G1Y14.88
G1X15.03Y14.89
G1Y14.95
G1Y15.04
G1Y15.14
G1Y15.21
G1X15.04Y15.23
G1X15.05Y15.2
M5
G0X14.9Y15.32
M3 S30
; Layer C00
G1X14.89Y15.33
G1X14.88Y15.37
G1Y15.43
G1Y15.49
G1Y15.53
G1X14.9
G1X14.91Y15.52
G1X14.93Y15.43
G1X14.91Y15.34
G1X14.9Y15.32
M5
G0X13.55Y14.71
M3 S30
; Layer C00
G1X13.54Y14.69
G1X13.51
G1X13.46Y14.76
G1X13.43Y14.83
G1X13.41Y14.85
G1Y14.8
G1X13.4Y14.71
G1X13.42Y14.56
G1X13.49Y14.42
G1X13.59Y14.33
G1X13.71Y14.28
G1X13.81Y14.23
G1X13.92Y14.13
G1X13.97Y14.07
G1X14Y14.05
G1X14.02
G1Y14.1
G1X14Y14.21
G1X13.93Y14.31
G1X13.84Y14.38
G1X13.75Y14.41
G1X13.66Y14.46
G1X13.6Y14.59
G1X13.58Y14.65
G1X13.56Y14.69
G1X13.55Y14.71
M5
G0X11.43Y14.55
M3 S30
; Layer C00
G1X11.07Y14.34
G1X10.61Y14.17
G1X10.55
G1X10.52Y14.2
G1Y14.23
G1X10.54Y14.27
G1X10.65Y14.37
G1X10.82Y14.46
G1X11.05Y14.53
G1X11.24Y14.57
G1X11.38Y14.58
G1X11.43Y14.55
M5
G0X11.43Y14.37
M3 S30
; Layer C00
G1X11.47
G1Y14.34
G1X11.44Y14.3
G1X11.36Y14.24
G1X11.19Y14.14
G1X11.01Y14.09
G1X10.95
G1X10.92Y14.08
G1X10.91Y14.07
G1X10.93Y14.05
G1X10.97Y13.99
G1X10.94Y13.92
G1X10.86Y13.85
G1X10.76Y13.82
G1X10.7
G1X10.67Y13.86
G1Y13.91
G1X10.7Y13.96
G1X10.82Y14.09
G1X11.01Y14.22
G1X11.15Y14.28
G1X11.27Y14.33
G1X11.36Y14.36
G1X11.43Y14.37
M5
G0X11.09Y14.64
M3 S30
; Layer C00
G1X10.97Y14.58
G1X10.7Y14.49
G1X10.5Y14.45
G1X10.45
G1X10.44Y14.48
G1Y14.52
G1X10.47Y14.56
G1X10.59Y14.65
G1X10.75Y14.74
G1X11Y14.82
G1X11.17Y14.85
G1X11.26Y14.84
G1X11.29Y14.78
G1X11.27Y14.74
G1X11.2Y14.69
G1X11.09Y14.64
M5
G0X10.78Y14.82
M3 S30
; Layer C00
G1X10.52Y14.75
G1X10.42Y14.74
G1X10.35
G1X10.32Y14.76
G1Y14.79
G1X10.37Y14.83
G1X10.44Y14.89
G1X10.55Y14.95
G1X10.68Y15.02
G1X10.81Y15.09
G1X10.92Y15.14
G1X11.01Y15.17
G1X11.07Y15.18
G1X11.16Y15.17
G1X11.21Y15.09
G1Y15.05
G1X11.16Y15.01
G1X11.1Y14.96
G1X11.01Y14.91
G1X10.78Y14.82
M5
G0X10.54Y15.06
M3 S30
; Layer C00
G1X10.41Y15
G1X10.3Y14.98
G1X10.24
G1X10.19Y15.04
G1X10.18Y15.12
G1X10.2Y15.19
G1X10.26Y15.22
G1X10.29
G1X10.3Y15.24
G1X10.29Y15.26
G1X10.25Y15.29
G1X10.18Y15.34
G1X10.19Y15.38
G1X10.23Y15.41
G1X10.3Y15.44
G1X10.4Y15.47
G1X10.52Y15.52
G1X10.76Y15.59
G1X10.91Y15.63
G1X10.99Y15.62
G1X11.01Y15.57
G1X10.99Y15.54
G1X10.92Y15.49
G1X10.81Y15.44
G1X10.68Y15.39
G1X10.58Y15.36
G1X10.46Y15.32
G1X10.44Y15.31
G1X10.48
G1X10.62Y15.33
G1X10.84Y15.37
G1X10.98Y15.4
G1X11.06Y15.41
G1X11.08Y15.37
G1X11.05Y15.33
G1X10.96Y15.26
G1X10.84Y15.19
G1X10.69Y15.12
G1X10.54Y15.06
M5
G0X10.35Y15.78
M3 S30
; Layer C00
G1X10.5Y15.81
G1X10.63Y15.88
G1X10.68Y15.92
G1X10.71Y15.95
G1Y15.97
G1X10.69
G1X10.59Y15.95
G1X10.42Y15.88
G1X10.32Y15.83
G1X10.28Y15.8
G1X10.29Y15.79
G1X10.35
M5
G0X10.14Y15.75
M3 S30
; Layer C00
G1X10.1Y15.77
G1X10.05
G1X9.97Y15.78
G1X9.92Y15.8
G1X9.91Y15.84
G1X9.93Y15.88
G1X9.98Y15.93
G1X10.07Y15.98
G1X10.18Y16.04
G1X10.46Y16.17
G1X10.56Y16.22
G1X10.61Y16.25
G1X10.59Y16.26
G1X10.53
G1X10.43Y16.22
G1X10.31Y16.18
G1X10.19Y16.13
G1X10.06Y16.08
G1X9.95Y16.04
G1X9.86Y16.03
G1X9.8
G1Y16.07
G1X9.82Y16.11
G1X9.9Y16.16
G1X10Y16.22
G1X10.14Y16.28
G1X10.19Y16.31
G1X10.17Y16.32
G1X10.07Y16.3
G1X9.8Y16.25
G1X9.7Y16.24
G1X9.66Y16.26
G1Y16.31
G1X9.73Y16.37
G1X9.93Y16.51
G1X10.21Y16.62
G1X10.41Y16.67
G1X10.53
G1X10.58Y16.65
G1X10.59Y16.58
G1X10.55Y16.48
G1X10.44Y16.4
G1X10.36Y16.37
G1X10.33Y16.35
G1X10.37
G1X10.47Y16.37
G1X10.59
G1X10.69Y16.33
G1X10.73Y16.27
G1X10.77Y16.2
G1X10.82Y16.09
G1X10.87Y15.96
G1X10.89Y15.89
G1X10.87Y15.83
G1X10.84Y15.77
G1X10.77Y15.71
G1X10.67Y15.65
G1X10.54Y15.59
G1X10.38Y15.53
G1X10.18Y15.47
G1X10.08
G1X10.03Y15.55
G1Y15.66
G1X10.12Y15.73
G1X10.14Y15.75
M5
G0X11.3Y13.98
M3 S30
; Layer C00
G1X11.49Y14.02
G1X11.56
G1X11.61Y14
G1X11.63Y13.97
G1Y13.91
G1X11.59Y13.85
G1X11.48Y13.79
G1X11.34Y13.73
G1X11.17Y13.68
G1X11.01Y13.64
G1X10.87Y13.62
G1X10.77
G1X10.73Y13.66
G1X10.76Y13.7
G1X10.83Y13.76
G1X10.93Y13.81
G1X11.04Y13.87
G1X11.3Y13.98
M5
G0X11.47Y13.68
M3 S30
; Layer C00
G1X11.55Y13.69
G1X11.62
G1X11.69Y13.67
G1X11.71Y13.59
G1X11.68Y13.53
G1X11.58Y13.47
G1X11.44Y13.39
G1X11.28Y13.31
G1X11.12Y13.24
G1X10.97Y13.19
G1X10.86Y13.16
G1X10.8Y13.17
G1X10.73Y13.28
G1X10.7Y13.39
G1Y13.48
G1X10.75Y13.5
G1X10.81
G1X10.93Y13.52
G1X11.07Y13.55
G1X11.22Y13.6
G1X11.36Y13.64
G1X11.47Y13.68
M5
G0X11.73Y13.19
M3 S30
; Layer C00
G1Y13.17
G1Y13.11
G1X11.68Y13.03
G1X11.62Y12.93
G1X11.48Y12.76
G1X11.34Y12.67
G1X11.28Y12.66
G1X11.23
G1X11.2Y12.7
G1X11.19Y12.77
G1X11.26Y12.87
G1X11.41Y13.01
G1X11.59Y13.14
G1X11.73Y13.19
M5
G0X11.91Y13.17
M3 S30
; Layer C00
G1X11.97Y13.23
G1X12.01Y13.26
G1X12.05Y13.24
G1Y13.2
G1X11.89Y12.82
G1X11.79Y12.63
G1X11.69Y12.51
G1X11.64Y12.48
G1X11.61
G1X11.58Y12.51
G1Y12.56
G1X11.59Y12.63
G1X11.63Y12.72
G1X11.69Y12.84
G1X11.76Y12.96
G1X11.84Y13.07
G1X11.91Y13.17
M5
G0X12.14Y13.16
M3 S30
; Layer C00
G1X12.17Y13.26
G1Y13.32
G1X12.19Y13.36
G1X12.28Y13.38
G1X12.38Y13.37
G1X12.41Y13.32
G1Y13.28
G1X12.37Y13.2
G1X12.32Y13.1
G1X12.11Y12.75
G1X12Y12.54
G1X11.91Y12.4
G1X11.84Y12.35
G1X11.8Y12.36
G1Y12.42
G1X11.82Y12.49
G1X11.86Y12.57
G1X12Y12.84
G1X12.08Y13.01
G1X12.14Y13.16
M5
G0X12.45Y13.12
M3 S30
; Layer C00
G1Y13.09
G1X12.42Y13.01
G1X12.37Y12.9
G1X12.31Y12.76
G1X12.2Y12.53
G1X12.09Y12.36
G1X12.05Y12.31
G1X12.02Y12.28
G1X12
G1Y12.31
G1X12.21Y12.74
G1X12.45Y13.12
M5
G0X12.57Y13.03
M3 S30
; Layer C00
G1X12.64Y13.09
G1X12.73Y13.12
G1X12.8
G1X12.83Y13.07
G1X12.82Y13.03
G1X12.77Y12.94
G1X12.71Y12.82
G1X12.54Y12.55
G1X12.48Y12.43
G1X12.43Y12.33
G1X12.39Y12.22
G1X12.34Y12.17
G1X12.27Y12.16
G1X12.21Y12.17
G1X12.2Y12.21
G1X12.21Y12.29
G1X12.25Y12.4
G1X12.3Y12.54
G1X12.43Y12.81
G1X12.57Y13.03
M5
G0X12.9Y12.87
M3 S30
; Layer C00
G1X12.93Y12.89
G1Y12.88
G1X12.92Y12.81
G1X12.87Y12.7
G1X12.8Y12.55
G1X12.73Y12.41
G1X12.68Y12.29
G1X12.65Y12.2
G1Y12.16
G1X12.67
G1X12.71Y12.21
G1X12.76Y12.28
G1X12.82Y12.37
G1X12.93Y12.57
G1X13.01Y12.76
G1X13.06Y12.85
G1X13.12Y12.89
G1X13.17Y12.88
G1X13.2Y12.81
G1X13.18Y12.75
G1X13.13Y12.63
G1X13.06Y12.49
G1X12.97Y12.33
G1X12.88Y12.18
G1X12.8Y12.05
G1X12.73Y11.96
G1X12.69Y11.93
G1X12.64Y11.95
G1X12.62Y12
G1X12.59Y12.03
G1X12.52
G1X12.47Y12.01
G1X12.43
G1Y12.05
G1Y12.1
G1X12.46Y12.17
G1X12.5Y12.27
G1X12.57Y12.38
G1X12.66Y12.53
G1X12.76Y12.68
G1X12.84Y12.8
G1X12.9Y12.87
M5
G0X13.37Y12.75
M3 S30
; Layer C00
G1X13.36Y12.7
G1X13.32Y12.59
G1X13.25Y12.44
G1X13.17Y12.26
G1X13.08Y12.07
G1X13Y11.93
G1X12.93Y11.82
G1X12.89Y11.79
G1X12.84Y11.82
G1Y11.9
G1X12.89Y12.01
G1X12.97Y12.14
G1X13.07Y12.28
G1X13.11Y12.37
G1X13.23Y12.6
G1X13.37Y12.75
M5
G0X13.5Y12.65
M3 S30
; Layer C00
G1X13.58Y12.69
G1X13.64Y12.63
G1Y12.55
G1X13.59Y12.42
G1X13.52Y12.25
G1X13.42Y12.06
G1X13.32Y11.89
G1X13.22Y11.74
G1X13.14Y11.65
G1X13.09
G1X13.07Y11.7
G1X13.09Y11.81
G1X13.15Y11.98
G1X13.25Y12.21
G1X13.33Y12.37
G1X13.4Y12.5
G1X13.46Y12.59
G1X13.5Y12.65
M5
G0X13.79Y12.46
M3 S30
; Layer C00
G1X13.85Y12.5
G1X13.9Y12.51
G1X13.92Y12.48
G1Y12.41
G1X13.88Y12.31
G1X13.81Y12.17
G1X13.66Y11.91
G1X13.5Y11.69
G1X13.43Y11.61
G1X13.37Y11.55
G1X13.32Y11.52
G1X13.29
G1Y11.6
G1X13.34Y11.73
G1X13.47Y11.94
G1X13.64Y12.23
G1X13.72Y12.37
G1X13.79Y12.46
M5
G0X14.04Y12.3
M3 S30
; Layer C00
G1X14.07Y12.32
G1Y12.27
G1X14.02Y12.15
G1X13.95Y11.99
G1X13.85Y11.79
G1X13.73Y11.56
G1X13.64Y11.42
G1X13.57Y11.35
G1X13.52
G1X13.5Y11.42
G1X13.53Y11.52
G1X13.61Y11.68
G1X13.74Y11.89
G1X13.86Y12.07
G1X13.96Y12.21
G1X14.04Y12.3
M5
G0X14.17Y12.22
M3 S30
; Layer C00
G1X14.24Y12.24
G1X14.26Y12.21
G1Y12.14
G1X14.22Y12.06
G1X14.16Y11.95
G1X14.09Y11.84
G1X14.06Y11.76
G1X14.04Y11.7
G1Y11.68
G1X14.08
G1X14.12Y11.73
G1X14.19Y11.8
G1X14.33Y12
G1X14.39Y12.08
G1X14.43Y12.12
G1X14.44
G1X14.18Y11.57
G1X13.87Y11.09
G1X13.82Y11.13
G1Y11.22
G1X13.86Y11.34
G1X13.94Y11.46
G1X13.99Y11.52
G1X14.01Y11.57
G1Y11.61
G1X13.97Y11.63
G1X13.94Y11.65
G1X13.93Y11.68
G1Y11.72
G1X14.03Y11.92
G1X14.09Y12.09
G1X14.17Y12.22
M5
G0X14.5Y11.96
M3 S30
; Layer C00
G1X14.63
G1X14.78Y11.89
G1X14.93Y11.78
G1X14.61Y11.15
G1X14.55Y11.04
G1X14.5Y10.95
G1X14.46Y10.9
G1X14.38Y10.86
G1X14.3Y10.88
G1X14.22Y10.93
G1X14.21Y10.98
G1X14.25Y11.07
G1X14.36Y11.21
G1X14.52Y11.43
G1X14.64Y11.62
G1X14.7Y11.76
G1Y11.83
G1X14.68Y11.81
G1X14.61Y11.72
G1X14.52Y11.6
G1X14.32Y11.29
G1X14.23Y11.18
G1X14.16Y11.09
G1X14.1Y11.04
G1X14.06Y11.02
G1X14.04Y11.03
G1Y11.09
G1X14.06Y11.18
G1X14.14Y11.34
G1X14.24Y11.52
G1X14.34Y11.67
G1X14.37Y11.77
G1X14.41Y11.89
G1X14.5Y11.96
M5
G0X15Y11.66
M3 S30
; Layer C00
G1X15.04
G1X15.06Y11.62
G1Y11.51
G1X15.01Y11.42
G1X14.96Y11.34
G1X14.93Y11.25
G1X14.89Y11.1
G1X14.78Y10.91
G1X14.72Y10.82
G1X14.66Y10.75
G1X14.62Y10.71
G1X14.58
G1X14.56Y10.76
G1X14.6Y10.9
G1X14.64Y10.99
G1X14.7Y11.12
G1X14.77Y11.26
G1X14.86Y11.44
G1X14.94Y11.58
G1X15Y11.66
M5
G0X15.26Y11.54
M3 S30
; Layer C00
G1X15.27
G1Y11.47
G1X15.22Y11.35
G1X15.15Y11.18
G1X15.02Y10.9
G1X14.93Y10.68
G1X14.86Y10.58
G1X14.8Y10.56
G1X14.79Y10.62
G1X14.82Y10.73
G1X14.88Y10.9
G1X14.98Y11.1
G1X15.07Y11.28
G1X15.15Y11.42
G1X15.22Y11.5
G1X15.26Y11.54
M5
G0X15.42Y11.4
M3 S30
; Layer C00
G1X15.47Y11.41
G1Y11.36
G1X15.42Y11.25
G1X15.35Y11.08
G1X15.26Y10.88
G1X15.17Y10.68
G1X15.08Y10.54
G1X15.02Y10.45
G1X14.98
G1Y10.52
G1X15.02Y10.65
G1X15.08Y10.82
G1X15.17Y11
G1X15.26Y11.17
G1X15.35Y11.31
G1X15.42Y11.4
M5
G0X15.64Y11.3
M3 S30
; Layer C00
G1X15.68
G1X15.7Y11.28
G1Y11.21
G1X15.69Y11.11
G1X15.64Y10.97
G1X15.57Y10.81
G1X15.48Y10.65
G1X15.4Y10.5
G1X15.32Y10.38
G1X15.25Y10.31
G1X15.21Y10.3
G1X15.19Y10.36
G1X15.2Y10.46
G1X15.26Y10.62
G1X15.35Y10.83
G1X15.42Y10.98
G1X15.48Y11.1
G1X15.54Y11.2
G1X15.6Y11.26
G1X15.64Y11.3
M5
G0X15.86Y11.09
M3 S30
; Layer C00
G1X15.89
G1Y11.05
G1X15.88Y10.96
G1X15.83Y10.82
G1X15.75Y10.64
G1X15.68Y10.48
G1X15.62Y10.35
G1X15.58Y10.24
G1X15.56Y10.18
G1X15.54Y10.13
G1X15.49Y10.11
G1X15.46
G1X15.43Y10.15
G1Y10.2
G1Y10.27
G1X15.47Y10.36
G1X15.51Y10.47
G1X15.57Y10.6
G1X15.65Y10.76
G1X15.74Y10.93
G1X15.81Y11.04
G1X15.86Y11.09
M5
G0X16.03Y10.97
M3 S30
; Layer C00
G1X16.1Y11.01
G1X16.16Y10.96
G1Y10.89
G1X16.12Y10.76
G1X16.05Y10.6
G1X15.97Y10.43
G1X15.89Y10.26
G1X15.81Y10.11
G1X15.74Y10.01
G1X15.69Y9.98
G1X15.64Y10.02
G1Y10.11
G1X15.66Y10.18
G1X15.69Y10.27
G1X15.75Y10.4
G1X15.82Y10.56
G1X15.89Y10.71
G1X15.94Y10.83
G1X15.99Y10.92
G1X16.03Y10.97
M5
G0X16.34Y10.81
M3 S30
; Layer C00
G1X16.38
G1X16.4Y10.8
G1Y10.74
G1X16.39Y10.67
G1X16.34Y10.55
G1X16.27Y10.4
G1X16.18Y10.24
G1X16.1Y10.08
G1X16.02Y9.95
G1X15.95Y9.86
G1X15.91Y9.83
G1X15.86Y9.84
G1Y9.91
G1X15.88Y9.98
G1X15.92Y10.08
G1X15.98Y10.2
G1X16.05Y10.36
G1X16.19Y10.62
G1X16.3Y10.77
G1X16.34Y10.81
M5
G0X16.59Y10.67
M3 S30
; Layer C00
G1X16.66Y10.66
G1X16.68Y10.63
G1X16.43Y10.2
G1X16.15Y9.85
G1Y9.9
G1X16.18Y10
G1X16.24Y10.13
G1X16.32Y10.28
G1X16.4Y10.42
G1X16.48Y10.55
G1X16.55Y10.64
G1X16.59Y10.67
M5
G0X16.77Y10.53
M3 S30
; Layer C00
G1X16.81Y10.51
G1X16.82Y10.46
G1X16.8Y10.4
G1X16.75Y10.35
G1X16.68Y10.27
G1X16.55Y10.01
G1X16.5Y9.98
G1Y10.02
G1X16.52Y10.09
G1X16.55Y10.18
G1X16.6Y10.27
G1X16.69Y10.45
G1X16.77Y10.53
M5
G0X16.97Y10.39
M3 S30
; Layer C00
G1X17Y10.41
G1X17.03Y10.39
G1Y10.35
G1X17.02Y10.28
G1X16.97Y10.17
G1X16.9Y10.03
G1X16.81Y9.88
G1X16.73Y9.73
G1X16.65Y9.6
G1X16.58Y9.51
G1X16.54Y9.48
G1X16.49
G1Y9.55
G1X16.51Y9.61
G1X16.55Y9.7
G1X16.69Y9.97
G1X16.81Y10.2
G1X16.93Y10.35
G1X16.97Y10.39
M5
G0X17.09Y10.08
M3 S30
; Layer C00
G1X17.07Y10
G1X17Y9.83
G1X16.95Y9.74
G1X16.91Y9.67
G1X16.88Y9.63
G1X16.86
G1Y9.64
G1X16.87Y9.69
G1X16.9Y9.76
G1X16.94Y9.86
G1X16.99Y9.95
G1X17.03Y10.03
G1X17.07Y10.07
G1X17.09
M5
G0X17.4Y10.07
M3 S30
; Layer C00
G1X17.39Y9.99
G1X17.35Y9.87
G1X17.28Y9.73
G1X17.2Y9.58
G1X17.03Y9.28
G1X16.93Y9.03
G1X16.9Y8.94
G1Y8.89
G1X16.93Y8.88
G1X16.98Y8.92
G1X17.1Y9.06
G1X17.23Y9.27
G1X17.5Y9.74
G1X17.57Y9.87
G1X17.59Y9.95
G1X17.57Y10.01
G1X17.5Y10.09
G1X17.43Y10.16
G1X17.39Y10.18
G1Y10.15
G1Y10.07
M5
G0X17.73Y10.05
M3 S30
; Layer C00
G1X17.96Y9.77
G1X18.25Y9.55
G1X18.29Y9.57
G1X18.28Y9.64
G1X18.21Y9.75
G1X18.08Y9.89
G1X17.94Y10.02
G1X17.83Y10.09
G1X17.76Y10.1
G1X17.73Y10.05
M5
G0X18.18Y10.28
M3 S30
; Layer C00
G1X18.15Y10.33
G1X18.18Y10.39
G1X18.26Y10.36
G1X18.39Y10.26
G1X18.57Y10.07
G1X18.68Y9.94
G1X18.77Y9.83
G1X18.83Y9.76
G1Y9.72
G1X18.8Y9.73
G1X18.71Y9.79
G1X18.6Y9.87
G1X18.48Y9.98
G1X18.36Y10.09
G1X18.26Y10.2
G1X18.18Y10.28
M5
G0X18.49Y10.47
M3 S30
; Layer C00
G1X18.43Y10.53
G1X18.4Y10.58
G1X18.42Y10.6
G1X18.47Y10.58
G1X18.55Y10.53
G1X18.64Y10.47
G1X18.84Y10.3
G1X18.92Y10.25
G1X18.98Y10.22
G1X18.99Y10.23
G1X18.97Y10.28
G1X18.92Y10.35
G1X18.83Y10.43
G1X18.63Y10.6
G1X18.56Y10.68
G1X18.52Y10.74
G1Y10.77
G1X18.6Y10.75
G1X18.74Y10.66
G1X18.89Y10.57
G1X18.97Y10.55
G1Y10.57
G1X18.94Y10.62
G1X18.88Y10.67
G1X18.75Y10.79
G1X18.7Y10.83
G1X18.69Y10.87
G1X18.76Y10.85
G1X18.86Y10.78
G1X19Y10.68
G1X19.15Y10.56
G1X19.29Y10.44
G1X19.4Y10.33
G1X19.49Y10.24
G1X19.55Y10.17
G1X19.58Y10.12
G1Y10.08
G1X19.57Y10.07
G1X19.52
G1X19.42Y10.12
G1X19.3Y10.23
G1X19.18Y10.36
G1X19.11Y10.48
G1X19.08Y10.52
G1X19.03
G1Y10.48
G1X19.05Y10.41
G1X19.1Y10.33
G1X19.16Y10.24
G1X19.27Y10.09
G1X19.31Y9.99
G1Y9.97
G1X19.27
G1X19.23Y9.99
G1X19.16Y10.04
G1X19Y10.15
G1X18.88Y10.17
G1X18.85Y10.16
G1Y10.12
G1X18.87Y10.07
G1X18.92Y10
G1X19.01Y9.89
G1X19.04Y9.8
G1X19.02Y9.76
G1X18.93Y9.79
G1X18.8Y9.9
G1X18.7Y10.05
G1X18.66Y10.12
G1X18.65Y10.17
G1Y10.21
G1X18.72
G1Y10.24
G1X18.66Y10.3
G1X18.49Y10.47
M5
G0X19.05Y10.77
M3 S30
; Layer C00
G1X18.95Y10.85
G1X18.88Y10.9
G1X18.81Y10.96
G1X18.79Y11.02
G1X18.83Y11.07
G1X18.92Y11.09
G1X19Y11.06
G1X19.13Y10.99
G1X19.28Y10.89
G1X19.44Y10.77
G1X19.57Y10.66
G1X19.68Y10.56
G1X19.76Y10.47
G1X19.81Y10.39
G1X19.83Y10.33
G1Y10.29
G1X19.79Y10.26
G1X19.73Y10.25
G1X19.66Y10.27
G1X19.56Y10.34
G1X19.43Y10.43
G1X19.3Y10.55
G1X19.17Y10.67
G1X19.05Y10.77
M5
G0X19.21Y11.09
M3 S30
; Layer C00
G1X19.15Y11.11
G1X19.1Y11.16
G1X19.09Y11.21
G1X19.13Y11.23
G1X19.19Y11.21
G1X19.24Y11.16
G1Y11.11
G1X19.21Y11.09
M5
G0X19.33Y11.17
M3 S30
; Layer C00
G1X19.24Y11.27
G1X19.2Y11.33
G1X19.22Y11.37
G1X19.26Y11.38
G1X19.32
G1X19.4Y11.34
G1X19.6Y11.22
G1X19.83Y11.04
G1X19.95Y10.93
G1X20.04Y10.83
G1X20.11Y10.74
G1X20.16Y10.67
G1X20.18Y10.61
G1Y10.56
G1X20.15Y10.54
G1X20.1Y10.53
G1X20.03Y10.56
G1X19.92Y10.64
G1X19.78Y10.76
G1X19.62Y10.9
G1X19.46Y11.04
G1X19.33Y11.17
M5
G0X19.56Y11.37
M3 S30
; Layer C00
G1X19.48Y11.41
G1X19.42Y11.45
G1X19.39Y11.49
G1Y11.52
G1X19.45Y11.57
G1X19.54Y11.54
G1X19.61Y11.49
G1X19.69Y11.42
G1X19.8Y11.31
G1X19.93Y11.18
G1X20.09Y11.02
G1X20.21Y10.88
G1X20.29Y10.77
G1X20.32Y10.71
G1X20.3
G1X20.24Y10.76
G1X20.16Y10.85
G1X20.05Y10.96
G1X19.79Y11.21
G1X19.56Y11.37
M5
G0X19.75Y11.51
M3 S30
; Layer C00
G1X19.66Y11.61
G1X19.63Y11.67
G1Y11.7
G1X19.65Y11.72
G1X19.69
G1X19.74Y11.68
G1X19.81Y11.62
G1X19.9Y11.54
G1X19.99Y11.44
G1X20.11Y11.32
G1X20.27Y11.13
G1X20.38Y10.99
G1X20.44Y10.9
G1X20.45Y10.86
G1X20.42
G1X20.34Y10.92
G1X20.22Y11.03
G1X20.05Y11.2
G1X19.88Y11.36
G1X19.75Y11.51
M5
G0X19.96Y11.59
M3 S30
; Layer C00
G1X19.87Y11.72
G1X19.83Y11.82
G1X19.85Y11.86
G1X19.91Y11.84
G1X20.01Y11.76
G1X20.17Y11.62
G1X20.42Y11.4
G1X20.64Y11.21
G1X20.75Y11.11
G1X20.8Y11.04
G1Y10.98
G1X20.74Y10.92
G1X20.68
G1X20.56Y10.99
G1X20.41Y11.11
G1X20.25Y11.26
G1X20.1Y11.43
G1X19.96Y11.59
M5
G0X20.18Y11.77
M3 S30
; Layer C00
G1X20.08Y11.88
G1X20.04Y11.94
G1X20.08Y11.98
G1X20.15Y12
G1X20.22Y11.98
G1X20.25Y11.92
G1X20.29Y11.86
G1X20.37Y11.75
G1X20.5Y11.62
G1X20.8Y11.32
G1X20.91Y11.2
G1X20.97Y11.12
G1Y11.09
G1X20.9Y11.12
G1X20.78Y11.21
G1X20.63Y11.33
G1X20.47Y11.48
G1X20.31Y11.63
G1X20.18Y11.77
M5
G0X20.36Y11.89
M3 S30
; Layer C00
G1X20.28Y12.03
G1Y12.14
G1X20.33Y12.16
G1X20.39Y12.14
G1X20.48Y12.09
G1X20.58Y12.02
G1X20.79Y11.82
G1X20.99Y11.57
G1X21.06Y11.46
G1X21.13Y11.38
G1X21.19Y11.33
G1X21.22
G1Y11.36
G1X21.19Y11.44
G1X21.14Y11.53
G1X20.98Y11.79
G1X20.93Y11.89
G1X20.92Y11.93
G1X20.94
G1X20.99Y11.89
G1X21.07Y11.81
G1X21.17Y11.68
G1X21.28Y11.52
G1X21.34Y11.43
G1X21.36Y11.37
G1X21.33Y11.32
G1X21.26Y11.27
G1X21.16Y11.25
G1X21.01Y11.31
G1X20.83Y11.42
G1X20.65Y11.56
G1X20.48Y11.73
G1X20.36Y11.89
M5
G0X20.48Y12.15
M3 S30
; Layer C00
G1Y12.19
G1X20.5Y12.26
G1X20.58Y12.36
G1X20.7Y12.46
G1X20.8
G1X20.87Y12.43
G1X20.94Y12.36
G1X21.02Y12.27
G1X21.13Y12.15
G1X21.35Y11.9
G1X21.52Y11.73
G1X21.58Y11.69
G1X21.62Y11.68
G1Y11.7
G1X21.59Y11.77
G1X21.54Y11.84
G1X21.46Y11.94
G1X21.35Y12.05
G1X21.24Y12.17
G1X21.08Y12.35
G1X20.98Y12.49
G1X20.95Y12.55
G1Y12.59
G1X20.96Y12.62
G1X21
G1X21.05Y12.6
G1X21.15Y12.51
G1X21.29Y12.38
G1X21.45Y12.23
G1X21.61Y12.07
G1X21.72Y11.95
G1X21.79Y11.86
G1X21.84Y11.78
G1Y11.72
G1X21.82Y11.66
G1X21.77Y11.61
G1X21.7Y11.55
G1X21.59Y11.5
G1X21.5Y11.52
G1X21.43Y11.56
G1X21.35Y11.63
G1X21.25Y11.73
G1X21.11Y11.86
G1X20.86Y12.1
G1X20.66Y12.25
G1X20.59Y12.29
G1X20.55
G1Y12.27
G1X20.57Y12.21
G1Y12.16
G1X20.54Y12.14
G1X20.48Y12.15
M5
G0X21.36Y12.43
M3 S30
; Layer C00
G1X21.26Y12.55
G1X21.19Y12.65
G1X21.16Y12.71
G1X21.17Y12.75
G1X21.19Y12.77
G1X21.23
G1X21.27Y12.74
G1X21.41Y12.62
G1X21.59Y12.42
G1X21.7Y12.27
G1X21.78Y12.15
G1X21.83Y12.06
G1Y12.01
G1X21.79Y12.02
G1X21.71Y12.09
G1X21.6Y12.19
G1X21.48Y12.31
G1X21.36Y12.43
M5
G0X21.59Y12.56
M3 S30
; Layer C00
G1X21.5Y12.69
G1X21.45Y12.79
G1X21.43Y12.85
G1X21.46Y12.88
G1X21.52
G1X21.59Y12.85
G1X21.62
G1X21.64Y12.87
G1X21.62Y12.9
G1X21.61Y12.96
G1X21.63Y12.98
G1X21.7Y12.93
G1X21.79Y12.82
G1X21.84Y12.74
G1X21.85Y12.7
G1X21.83Y12.71
G1X21.77Y12.76
G1X21.69Y12.82
G1X21.65
G1X21.87Y12.45
G1X22.18Y12.07
G1X22.23Y12.03
G1X22.26Y12.01
G1X22.28
G1Y12.03
G1X22.25Y12.07
G1X22.21Y12.13
G1X22.15Y12.21
G1X22.07Y12.31
G1X21.98Y12.44
G1X21.92Y12.53
G1X21.9Y12.58
G1X21.91Y12.61
G1X21.95Y12.6
G1X22.02Y12.55
G1X22.12Y12.47
G1X22.36Y12.25
G1X22.46Y12.17
G1X22.54Y12.12
G1X22.59
G1X22.62Y12.13
G1X22.63Y12.12
G1X22.35Y11.89
G1X22.05Y11.73
G1X22.01Y11.79
G1X21.88Y11.97
G1X21.86Y12
G1X21.89Y11.99
G1X21.95Y11.94
G1X22.05Y11.88
G1X22.11
G1Y11.92
G1X22.06Y12.01
G1X21.87Y12.22
G1X21.71Y12.41
G1X21.59Y12.56
M5
G0X22.01Y12.74
M3 S30
; Layer C00
G1X21.91Y12.86
G1X21.84Y12.96
G1X21.81Y13.04
G1Y13.1
G1X21.85Y13.14
G1X21.93Y13.17
G1X22.04
G1X22.06
G1X22.02Y13.14
G1X22.01Y13.1
G1X22.03Y13.03
G1X22.1Y12.91
G1X22.22Y12.76
G1X22.34Y12.59
G1X22.43Y12.47
G1X22.47Y12.38
G1X22.48Y12.34
G1X22.45
G1X22.39Y12.38
G1X22.28Y12.46
G1X22.14Y12.59
G1X22.01Y12.74
M5
G0X22.35Y12.8
M3 S30
; Layer C00
G1X22.37
G1X22.42Y12.79
G1X22.48Y12.74
G1X22.56Y12.68
G1X22.72Y12.53
G1X22.84Y12.4
G1X22.88Y12.31
G1Y12.22
G1X22.85Y12.16
G1X22.79Y12.14
G1X22.55Y12.44
G1X22.35Y12.8
M5
G0X22.58Y12.8
M3 S30
; Layer C00
G1X22.43Y12.95
G1X22.32Y13.09
G1X22.24Y13.2
G1X22.2Y13.3
G1Y13.37
G1X22.22Y13.42
G1X22.29Y13.46
G1X22.39
G1X22.41Y13.44
G1X22.46Y13.37
G1X22.62Y13.14
G1X22.84Y12.83
G1X23.02Y12.59
G1X23.09Y12.51
G1X23.15Y12.46
G1X23.18Y12.44
G1X23.19Y12.46
G1X23.18Y12.51
G1X23.13Y12.6
G1X23.06Y12.7
G1X22.84Y12.99
G1X22.74Y13.14
G1X22.67Y13.25
G1X22.65Y13.32
G1X22.66Y13.34
G1X22.72Y13.31
G1X22.81Y13.22
G1X22.95Y13.08
G1X23.07Y12.94
G1X23.17Y12.82
G1X23.24Y12.71
G1X23.3Y12.61
G1X23.33Y12.52
G1X23.34Y12.46
G1Y12.41
G1X23.31Y12.37
G1X23.22Y12.36
G1X23.06Y12.42
G1X22.84Y12.57
G1X22.58Y12.8
M5
G0X23.17Y13.12
M3 S30
; Layer C00
G1X23.05Y13.27
G1X22.95Y13.4
G1X22.88Y13.51
G1X22.84Y13.6
G1X22.82Y13.67
G1Y13.71
G1X22.86Y13.74
G1X22.92
G1X22.98Y13.71
G1X23.03Y13.63
G1X23.12Y13.47
G1X23.27Y13.26
G1X23.45Y13.01
G1X23.58Y12.82
G1X23.65Y12.69
G1Y12.63
G1X23.61Y12.65
G1X23.52Y12.73
G1X23.37Y12.88
G1X23.17Y13.12
M5
G0X23.38Y13.25
M3 S30
; Layer C00
G1X23.27Y13.46
G1X23.19Y13.64
G1X23.15Y13.79
G1X23.17Y13.87
G1X23.24Y13.91
G1X23.28Y13.93
G1X23.31Y13.9
G1X23.32Y13.84
G1X23.37Y13.72
G1X23.46Y13.63
G1X23.52Y13.56
G1Y13.54
G1Y13.51
G1X23.56Y13.43
G1X23.63Y13.32
G1X23.72Y13.18
G1X23.85Y12.97
G1X23.91Y12.82
G1Y12.73
G1X23.83Y12.7
G1X23.75Y12.74
G1X23.63Y12.87
G1X23.51Y13.04
G1X23.38Y13.25
M5
G0X23.83Y13.44
M3 S30
; Layer C00
G1X23.69Y13.62
G1X23.6Y13.75
G1X23.54Y13.86
G1X23.52Y13.95
G1X23.54Y14.02
G1X23.59Y14.08
G1X23.67Y14.13
G1X23.81Y14.2
G1X23.91Y14.23
G1X23.98Y14.2
G1X24.05Y14.13
G1X24.14Y14.02
G1X24.24Y13.92
G1X24.29Y13.83
G1Y13.77
G1X24.22
G1X24.13Y13.87
G1X24.01Y13.98
G1X23.86Y14.03
G1X23.74Y14.01
G1X23.69Y13.97
G1X23.71Y13.9
G1X23.79Y13.82
G1X23.84Y13.78
G1X23.87
G1X23.89
G1Y13.81
G1X23.91Y13.83
G1X23.94Y13.82
G1X23.99Y13.79
G1X24.05Y13.74
G1X24.23Y13.6
G1X24.47Y13.38
G1X24.55Y13.28
G1X24.59Y13.17
G1Y13.08
G1X24.53Y13.01
G1X24.48Y13.03
G1X24.4Y13.1
G1X24.31Y13.22
G1X24.21Y13.37
G1X24.1Y13.52
G1X24.02Y13.63
G1X23.95Y13.71
G1X23.92Y13.73
G1Y13.69
G1X23.96Y13.6
G1X24.02Y13.49
G1X24.18Y13.21
G1X24.24Y13.11
G1X24.27Y13.04
G1Y13
G1X24.25
G1X24.2Y13.04
G1X24.12Y13.12
G1X24.02Y13.23
G1X23.83Y13.44
M5
G0X23.95Y13.12
M3 S30
; Layer C00
G1X24.01Y13.08
G1X24.06Y13
G1X24.09Y12.9
G1X24.07Y12.86
G1X24.03Y12.88
G1X23.97Y12.97
G1X23.93Y13.08
G1X23.95Y13.12
M5
G0X24.7Y13.15
M3 S30
; Layer C00
G1X24.77Y13.22
G1X24.88Y13.29
G1X24.95Y13.32
G1X25
G1X25.01Y13.27
G1X24.99Y13.21
G1X24.92Y13.17
G1X24.82Y13.13
G1X24.72Y13.12
G1X24.7Y13.15
M5
G0X24.72Y13.5
M3 S30
; Layer C00
G1X24.66
G1X24.62Y13.56
G1X24.63Y13.61
G1X24.68Y13.65
G1X24.74Y13.64
G1X24.78Y13.59
G1X24.77Y13.53
G1X24.72Y13.5
M5
G0X24.85Y13.78
M3 S30
; Layer C00
G1X24.71Y13.97
G1X24.66Y14.05
G1X24.63Y14.11
G1Y14.15
G1X24.64Y14.17
G1X24.7Y14.14
G1X24.8Y14.06
G1X24.94Y13.94
G1X25.1Y13.79
G1X25.34Y13.54
G1X25.5Y13.33
G1X25.54Y13.24
G1X25.57Y13.17
G1Y13.11
G1X25.55Y13.07
G1X25.48
G1X25.37Y13.15
G1X25.27Y13.26
G1X25.22Y13.35
G1X25.17Y13.45
G1X24.85Y13.78
M5
G0X24.5Y13.84
M3 S30
; Layer C00
G1X24.45Y13.82
G1X24.41Y13.84
G1X24.38Y13.89
G1X24.41Y13.94
G1X24.45Y13.96
G1X24.5Y13.94
G1X24.52Y13.89
G1X24.5Y13.84
M5
G0X24.44Y14.11
M3 S30
; Layer C00
G1X24.36Y14.16
G1X24.34Y14.23
G1X24.36Y14.29
G1X24.43Y14.33
G1X24.59Y14.36
G1X24.71
G1X24.78Y14.35
G1X24.8Y14.3
G1X24.76Y14.26
G1X24.66Y14.27
G1X24.6Y14.29
G1X24.56
G1X24.53Y14.25
G1Y14.2
G1X24.5Y14.13
G1X24.44Y14.11
M5
G0X22.99Y11.82
M3 S30
; Layer C00
G1X23.01Y11.75
G1X23.06Y11.6
G1X23.15Y11.39
G1X23.25Y11.14
G1X23.36Y10.88
G1X23.47Y10.63
G1X23.57Y10.4
G1X23.66Y10.22
G1X23.73Y10.06
G1X23.75Y9.94
G1X23.8Y9.82
G1X23.89Y9.67
G1X23.99Y9.5
G1X24.03Y9.36
G1X24.05Y9.25
G1X24.09Y9.17
G1X24.14Y9.09
G1X24.18Y8.97
G1X24.22Y8.83
G1X24.24Y8.67
G1Y8.52
G1Y8.39
G1X24.21Y8.28
G1X24.17Y8.22
G1X24.06Y8.1
G1X24Y7.97
G1X23.96Y7.8
G1X23.9Y7.6
G1X23.87Y7.48
G1Y7.38
G1Y7.29
G1X23.91Y7.21
G1X23.99Y7.01
G1X24.05Y6.79
G1Y6.59
G1X24.03Y6.45
G1X24Y6.39
G1Y6.35
G1X24.04
G1X24.12Y6.36
G1X24.19Y6.34
G1X24.26Y6.25
G1X24.34Y6.11
G1X24.42Y5.92
G1X24.58Y5.42
G1X24.7Y4.84
G1X24.73Y4.7
G1X24.79Y4.57
G1X24.86Y4.46
G1X24.95Y4.37
G1X25.16Y4.25
G1X25.4Y4.2
G1X25.63Y4.23
G1X25.83Y4.34
G1X25.92Y4.42
G1X25.99Y4.52
G1X26.04Y4.65
G1X26.08Y4.79
G1Y4.89
G1X26.03Y4.94
G1X25.98Y4.96
G1X25.89
G1X25.78Y4.98
G1X25.49Y4.99
G1X25.37
G1X25.29Y5.01
G1X25.23Y5.03
G1X25.16Y5.08
G1X25.13Y5.16
G1X25.04Y5.62
G1X24.99Y5.98
G1X24.97Y6.26
G1X24.98Y6.46
G1X25.03Y6.6
G1X25.12Y6.68
G1X25.25Y6.71
G1X25.41
G1X25.73Y6.68
G1X25.69Y6.91
G1X25.6Y7.22
G1X25.49Y7.44
G1X25.34Y7.58
G1X25.18Y7.64
G1X25Y7.61
G1X24.82Y7.5
G1X24.63Y7.3
G1X24.44Y7.01
G1X24.38Y6.9
G1X24.33Y6.83
G1X24.29Y6.78
G1X24.25Y6.77
G1X24.22Y6.78
G1X24.19Y6.83
G1X24.16Y6.9
G1X24.13Y7.01
G1X24.09Y7.21
G1X24.11Y7.38
G1X24.16Y7.47
G1X24.22Y7.56
G1X24.31Y7.66
G1X24.52Y7.88
G1X24.6Y7.96
G1X24.65Y8.02
G1X24.66Y8.05
G1X24.65Y8.06
G1X24.61Y8.05
G1X24.54Y8.01
G1X24.46Y7.96
G1X24.29Y7.83
G1X24.15Y7.7
G1X24.09Y7.63
G1X24.05Y7.6
G1Y7.62
G1X24.06Y7.68
G1X24.09Y7.8
G1X24.1Y7.91
G1X24.15Y8.02
G1X24.25Y8.14
G1X24.31Y8.25
G1X24.34Y8.43
G1X24.33Y8.65
G1X24.29Y8.89
G1X24.23Y9.14
G1X24.15Y9.38
G1X24.05Y9.59
G1X23.93Y9.76
G1X23.87Y9.85
G1Y9.92
G1Y9.95
G1X23.85Y10.02
G1X23.82Y10.1
G1X23.76Y10.2
G1X23.66Y10.39
G1X23.61Y10.52
G1X23.59Y10.61
G1X23.52Y10.77
G1X23.42Y10.99
G1X23.3Y11.25
G1X23.18Y11.49
G1X23.08Y11.68
G1X23.04Y11.75
G1X23.01Y11.8
G1X22.99Y11.82
M5
G0X22.1Y10.66
M3 S30
; Layer C00
G1X22.07Y10.64
G1X22.03Y10.56
G1X22.01Y10.47
G1X22.02Y10.42
G1X22.06Y10.43
G1X22.09Y10.53
G1X22.11Y10.62
G1Y10.66
M5
G0X22.43Y9.6
M3 S30
; Layer C00
G1X22.41Y9.56
G1X22.37Y9.5
G1X22.32Y9.41
G1X22.25Y9.22
G1X22.22Y9.04
G1X22.24Y8.9
G1X22.41Y8.73
G1X22.49Y8.54
G1X22.53Y8.44
G1X22.57Y8.36
G1X22.61Y8.31
G1X22.64Y8.29
G1X22.69
G1Y8.33
G1Y8.37
G1X22.66Y8.42
G1X22.57Y8.61
G1X22.51Y8.75
G1X22.48Y8.91
G1X22.46Y9.07
G1Y9.25
G1Y9.39
G1Y9.49
G1Y9.56
G1Y9.6
G1X22.43
M5
G0X25.17Y8.77
M3 S30
; Layer C00
G1Y8.74
G1Y8.7
G1X25.24Y8.63
G1X25.35Y8.58
G1X25.46
G1X25.5Y8.63
G1X25.49Y8.69
G1X25.44Y8.71
G1X25.36Y8.72
G1X25.2Y8.77
G1X25.17
M5
G0X25.05Y8.23
M3 S30
; Layer C00
G1X24.96
G1X24.89Y8.19
G1X24.84Y8.14
G1X24.82Y8.11
G1X24.84Y8.09
G1X24.87
G1X24.93Y8.11
G1X25.06Y8.13
G1X25.2Y8.08
G1X25.29Y8.04
G1X25.39Y7.97
G1X25.5Y7.88
G1X25.64Y7.77
G1X25.78Y7.66
G1X25.91Y7.59
G1X26.03Y7.54
G1X26.12Y7.52
G1X26.23
G1X26.26Y7.54
G1X26.22Y7.56
G1X26.09Y7.61
G1X25.86Y7.75
G1X25.6Y7.95
G1X25.38Y8.12
G1X25.16Y8.21
G1X25.05Y8.23
M5
G0X23.3Y6.95
M3 S30
; Layer C00
G1X23.24
G1X23.13Y6.89
G1X23.07Y6.83
G1Y6.77
G1X23.15
G1X23.25Y6.84
G1X23.31Y6.92
G1X23.3Y6.95
M5
G0X23.44Y6.74
M3 S30
; Layer C00
G1X23.41Y6.72
G1X23.37Y6.68
G1X23.23Y6.54
G1X23.16Y6.46
G1X23.12Y6.4
G1X23.09Y6.36
G1Y6.33
G1X23.11
G1X23.15Y6.35
G1X23.21Y6.39
G1X23.36Y6.52
G1X23.4Y6.53
G1Y6.49
G1X23.37Y6.4
G1X23.33Y6.22
G1X23.47Y6.4
G1X23.57Y6.54
G1X23.61Y6.63
G1Y6.65
G1X23.59
G1X23.55Y6.64
G1X23.44Y6.55
G1X23.41
G1Y6.56
G1X23.45Y6.72
G1X23.44Y6.74
M5
G0X23.87Y6.52
M3 S30
; Layer C00
G1X23.85Y6.47
G1X23.82Y6.36
G1X23.8Y6.21
G1X23.76Y5.89
G1X23.74Y5.61
G1X23.71Y5.42
G1X23.67Y5.31
G1X23.63Y5.25
G1X23.62Y5.19
G1X23.64Y5.16
G1X23.73Y5.18
G1X23.75Y5.15
G1X23.73Y5.08
G1X23.68Y5.03
G1X23.64Y4.98
G1X23.61Y4.91
G1X23.63Y4.85
G1X23.65
G1X23.69Y4.88
G1X23.74Y4.95
G1X23.83Y5.16
G1X23.87Y5.37
G1X23.89Y5.7
G1X23.92Y6.1
G1Y6.27
G1Y6.4
G1Y6.49
G1X23.9Y6.53
G1X23.87
M5
G0X23.32Y6.19
M3 S30
; Layer C00
G1X23.29Y6.18
G1X23.25Y6.14
G1X23.19Y6.07
G1X23.14Y6
G1X23.12Y5.98
G1X23.15Y5.99
G1X23.21Y6.04
G1X23.3Y6.11
G1X23.33Y6.16
G1Y6.19
M5
G0X23.49Y6.03
M3 S30
; Layer C00
G1X23.4Y5.98
G1X23.35Y5.93
G1X23.38Y5.91
G1X23.45Y5.93
G1X23.51Y5.98
G1X23.54Y6.03
G1X23.53Y6.04
G1X23.49Y6.03
M5
G0X22.34Y5.94
M3 S30
; Layer C00
G1X22.31Y5.96
G1X22.26Y5.93
G1X22.23Y5.87
G1X22.22Y5.77
G1Y5.72
G1X22.23Y5.71
G1X22.26Y5.73
G1X22.29Y5.79
G1X22.33Y5.88
G1Y5.94
M5
G0X22.1Y6.06
M3 S30
; Layer C00
G1X22.16Y6.1
G1X22.21Y6.17
G1Y6.22
G1X22.17Y6.23
G1X22.12Y6.21
G1X22.09Y6.16
G1X22.07Y6.09
G1X22.1Y6.06
M5
G0X22.4Y5.7
M3 S30
; Layer C00
G1X22.37Y5.66
G1X22.33Y5.56
G1Y5.46
G1X22.36Y5.42
G1X22.41Y5.46
G1X22.42Y5.56
G1Y5.66
G1X22.4Y5.7
M5
G0X23.89Y4.89
M3 S30
; Layer C00
G1X23.79Y4.79
G1X23.75Y4.73
G1X23.72Y4.69
G1Y4.66
G1X23.74Y4.65
G1X23.82Y4.69
G1X23.89Y4.79
G1X23.94Y4.89
G1Y4.93
G1X23.89Y4.89
M5
G0X24.01Y4.78
M3 S30
; Layer C00
G1X23.97Y4.75
G1X23.93Y4.7
G1X23.87Y4.62
G1X23.83Y4.54
G1X23.8Y4.48
G1Y4.43
G1X23.83Y4.4
G1X23.87Y4.32
G1X23.86Y4.2
G1X23.84Y4.13
G1X23.86Y4.12
G1X23.91Y4.16
G1X23.99Y4.26
G1X24.06Y4.34
G1X24.1Y4.42
G1X24.13Y4.47
G1Y4.51
G1X24.09
G1X24.01Y4.39
G1X23.96Y4.37
G1X23.94Y4.38
G1Y4.43
G1X23.96Y4.5
G1X24.04Y4.66
G1X24.06Y4.72
G1Y4.76
G1X24.04Y4.78
G1X24.01
M5
G0X24.26Y4.36
M3 S30
; Layer C00
G1X24.19Y4.31
G1X24.08Y4.19
G1X24.02Y4.09
G1X23.99Y4.02
G1X24.01Y3.97
G1X24.07Y3.9
G1X24.13Y3.85
G1X24.18Y3.82
G1X24.22Y3.84
G1X24.25Y3.88
G1X24.35Y4.04
G1X24.41Y4.15
G1X24.42Y4.21
G1X24.39Y4.23
G1X24.34Y4.19
G1X24.24Y4.04
G1X24.2
G1Y4.11
G1X24.24Y4.22
G1X24.27Y4.29
G1X24.28Y4.33
G1Y4.36
G1X24.26
M5
G0X24.46Y3.97
M3 S30
; Layer C00
G1X24.41Y3.92
G1X24.36Y3.84
G1X24.28Y3.73
G1X24.26Y3.68
G1X24.3Y3.67
G1X24.47Y3.71
G1X24.5
G1X24.48Y3.67
G1X24.35Y3.52
G1X24.33Y3.48
G1X24.36Y3.46
G1X24.44
G1X24.55Y3.5
G1X24.63Y3.6
G1X24.66Y3.71
G1X24.61Y3.8
G1X24.56Y3.86
G1X24.51Y3.94
G1X24.49Y3.97
G1X24.46
M5
G0X25.03Y3.66
M3 S30
; Layer C00
G1X25.05Y3.63
G1X25.13Y3.57
G1X25.21Y3.53
G1X25.31Y3.52
G1X25.43
G1X25.55Y3.57
G1X25.8Y3.72
G1X26.06Y3.96
G1X26.16Y4.08
G1X26.22Y4.17
G1X26.25Y4.23
G1Y4.26
G1X26.22
G1X26.15Y4.23
G1X26.06Y4.16
G1X25.94Y4.06
G1X25.7Y3.86
G1X25.54Y3.71
G1X25.48Y3.67
G1X25.4Y3.64
G1X25.31
G1X25.2
G1X25.08Y3.66
G1X25.03
M5
G0X25.87Y3.02
M3 S30
; Layer C00
G1X25.79Y2.97
G1X25.73Y2.91
G1Y2.87
G1X25.78
G1X25.85Y2.93
G1X25.91Y3
G1Y3.03
G1X25.87
M5
G0X26.04Y2.89
M3 S30
; Layer C00
G1X26Y2.87
G1X25.92Y2.79
G1X25.87Y2.7
G1Y2.65
G1X25.92Y2.66
G1X25.99Y2.75
G1X26.04Y2.85
G1Y2.89
M5
G0X26.56Y2.6
M3 S30
; Layer C00
G1X26.52Y2.54
G1X26.49Y2.48
G1X26.5Y2.44
G1X26.54
G1X26.58Y2.51
G1X26.6Y2.58
G1Y2.61
G1X26.56
M5
G0X27.02Y3.53
M3 S30
; Layer C00
G1X27.1Y3.56
G1X27.18Y3.63
G1X27.24Y3.71
G1Y3.73
G1X27.18Y3.71
G1X27.08Y3.64
G1X27Y3.56
G1X27.02Y3.53
M5
G0X25.59Y5.64
M3 S30
; Layer C00
G1X25.67Y5.69
G1X25.76Y5.84
G1X25.85Y6.08
G1X25.89Y6.2
G1X25.91Y6.31
G1Y6.4
G1Y6.44
G1X25.88
G1X25.84Y6.39
G1X25.79Y6.32
G1X25.74Y6.21
G1X25.64Y5.98
G1X25.56Y5.81
G1X25.53Y5.71
G1Y5.65
G1X25.59
M5
G0X24.15Y1.77
M3 S30
; Layer C00
G1X24.11Y1.75
G1X24.03Y1.69
G1X23.88Y1.55
G1X23.8Y1.45
G1Y1.42
G1Y1.41
G1X23.84
G1X23.91Y1.46
G1X24.05Y1.57
G1X24.13Y1.68
G1X24.16Y1.75
G1Y1.77
M5
G0X24.37Y1.6
M3 S30
; Layer C00
G1X24.28Y1.53
G1X24.2Y1.46
G1X24.15Y1.41
G1X24.13Y1.37
G1X24.15Y1.36
G1X24.25Y1.41
G1X24.38Y1.53
G1X24.45Y1.61
G1X24.49Y1.66
G1X24.51Y1.69
G1X24.49
G1X24.44Y1.66
G1X24.37Y1.6
M5
G0X24.8Y1.46
M3 S30
; Layer C00
G1X24.75Y1.38
G1Y1.32
G1X24.79Y1.34
G1X24.86Y1.43
G1X24.91Y1.53
G1Y1.56
G1X24.88Y1.54
G1X24.8Y1.46
M5
G0X23.79Y1.64
M3 S30
; Layer C00
G1Y1.69
G1X23.76Y1.71
G1X23.7Y1.69
G1X23.65Y1.64
G1X23.64Y1.59
G1X23.68Y1.57
G1X23.74Y1.59
G1X23.79Y1.64
M5
G0X19.38Y5.65
M3 S30
; Layer C00
G1X19.4Y5.68
G1Y5.76
G1X19.38Y5.87
G1X19.34Y6.03
G1X19.31Y6.15
G1X19.29Y6.24
G1X19.26Y6.3
G1X19.25
G1X19.24Y6.28
G1Y6.21
G1Y6.08
G1X19.27Y5.94
G1X19.3Y5.82
G1X19.33Y5.72
G1X19.36Y5.66
G1X19.38
M5
G0X19.17Y5.66
M3 S30
; Layer C00
G1Y5.73
G1X19.11Y5.9
G1X19.05Y6.01
G1X19.02Y6.03
G1X19.01
G1Y5.98
G1X19.03Y5.91
G1X19.09Y5.73
G1X19.15Y5.62
G1X19.16Y5.61
G1X19.17
G1Y5.66
M5
G0X18.93Y5.82
M3 S30
; Layer C00
G1X18.94Y5.88
G1Y5.99
G1X18.92Y6.13
G1X18.89Y6.35
G1X18.86Y6.52
G1X18.84Y6.63
G1X18.82Y6.68
G1Y6.63
G1Y6.53
G1Y6.37
G1X18.84Y6.17
G1X18.86Y6.01
G1X18.89Y5.88
G1X18.91Y5.82
G1X18.93
M5
G0X18.52Y6.12
M3 S30
; Layer C00
G1X18.53Y6.19
G1Y6.32
G1Y6.51
G1X18.51Y6.73
G1X18.5Y6.89
G1X18.48Y7
G1X18.47Y7.05
G1X18.46Y7.04
G1Y6.98
G1X18.44Y6.86
G1Y6.68
G1Y6.49
G1X18.46Y6.33
G1X18.48Y6.2
G1X18.5Y6.13
G1X18.52Y6.12
M5
G0X17.57Y6.25
M3 S30
; Layer C00
G1X17.55Y6.18
G1X17.51Y6.11
G1X17.3Y5.93
G1X17.26Y5.85
G1Y5.81
G1X17.23Y5.79
G1X17.2
G1X17.19Y5.85
G1Y5.93
G1Y6.03
G1X17.23Y6.25
G1X17.29Y6.42
G1X17.35Y6.46
G1X17.43
G1X17.51Y6.41
G1X17.56Y6.33
G1X17.57Y6.25
M5
G0X17.16Y6.48
M3 S30
; Layer C00
G1X17.12Y6.47
G1X17.06Y6.5
G1X16.97Y6.57
G1X16.86Y6.68
G1X16.74Y6.81
G1X16.63Y6.94
G1X16.53Y7.07
G1X16.47Y7.16
G1X16.46Y7.22
G1X16.49Y7.29
G1X16.54
G1X16.59Y7.25
G1X16.65Y7.19
G1X16.85Y6.98
G1X17.04Y6.77
G1X17.15Y6.61
G1X17.17Y6.55
G1Y6.5
G1X17.16Y6.48
M5
G0X16.92Y6.48
M3 S30
; Layer C00
G1X16.99Y6.35
G1X17.02Y6.25
G1X17Y6.14
G1X16.96Y5.95
G1X16.63Y6.28
G1X16.51Y6.41
G1X16.42Y6.52
G1X16.36Y6.6
G1Y6.65
G1X16.39
G1X16.45Y6.61
G1X16.53Y6.53
G1X16.72Y6.34
G1X16.81Y6.26
G1X16.88Y6.21
G1X16.93Y6.19
G1Y6.21
G1X16.89Y6.28
G1X16.81Y6.37
G1X16.7Y6.49
G1X16.53Y6.68
G1X16.43Y6.83
G1X16.41Y6.88
G1Y6.92
G1X16.43Y6.95
G1X16.47
G1X16.52Y6.93
G1X16.59Y6.87
G1X16.69Y6.77
G1X16.79Y6.64
G1X16.92Y6.48
M5
G0X16.45Y6.31
M3 S30
; Layer C00
G1X16.59Y6.17
G1X16.72Y6.04
G1X16.81Y5.93
G1X16.87Y5.84
G1X16.88Y5.8
G1X16.83
G1X16.76Y5.85
G1X16.66Y5.92
G1X16.55Y6.02
G1X16.44Y6.13
G1X16.35Y6.23
G1X16.29Y6.32
G1X16.26Y6.39
G1X16.29Y6.42
G1X16.35Y6.39
G1X16.45Y6.31
M5
G0X16.55Y5.86
M3 S30
; Layer C00
G1X16.58
G1X16.69Y5.8
G1X16.82Y5.67
G1X16.86Y5.61
G1X16.88Y5.58
G1X16.86Y5.56
G1X16.81
G1X16.7Y5.61
G1X16.58Y5.74
G1X16.55Y5.8
G1X16.54Y5.85
G1X16.55Y5.86
M5
G0X16.39Y5.8
M3 S30
; Layer C00
G1X16.46Y5.74
G1X16.53Y5.64
G1X16.63Y5.52
G1X16.73Y5.33
G1X16.77Y5.2
G1Y5.17
G1X16.74Y5.16
G1X16.7Y5.17
G1X16.64Y5.22
G1X16.52Y5.36
G1X16.39Y5.58
G1X16.34Y5.69
G1X16.32Y5.77
G1Y5.82
G1X16.35
G1X16.39Y5.8
M5
G0X17.03Y5.6
M3 S30
; Layer C00
G1X17.08Y5.62
G1X17.14Y5.6
G1X17.22Y5.54
G1X17.32Y5.44
G1X17.45Y5.28
G1X17.54Y5.15
G1X17.6Y5.03
G1X17.63Y4.92
G1Y4.84
G1X17.58Y4.77
G1X17.51Y4.71
G1X17.4Y4.67
G1X17.22Y4.66
G1X17.09Y4.72
G1X17.02Y4.87
G1X16.98Y5.1
G1Y5.29
G1Y5.44
G1X17Y5.54
G1X17.03Y5.6
M5
G0X17.2Y6.83
M3 S30
; Layer C00
G1X17.11Y6.86
G1X17Y6.95
G1X16.88Y7.06
G1X16.76Y7.18
G1X16.65Y7.3
G1X16.57Y7.41
G1X16.54Y7.5
G1X16.56Y7.57
G1X16.63
G1X16.68Y7.53
G1X16.76Y7.47
G1X16.84Y7.39
G1X16.95Y7.28
G1X17.08Y7.14
G1X17.17Y7.02
G1X17.22Y6.92
G1X17.23Y6.85
G1X17.2Y6.83
M5
G0X17.37Y7.06
M3 S30
; Layer C00
G1X17.32Y7.07
G1X17.23Y7.13
G1X17.11Y7.24
G1X16.97Y7.36
G1X16.84Y7.48
G1X16.73Y7.6
G1X16.65Y7.7
G1X16.61Y7.75
G1X16.64Y7.8
G1X16.72Y7.76
G1X16.78Y7.72
G1X16.86Y7.65
G1X16.95Y7.56
G1X17.06Y7.45
G1X17.2Y7.31
G1X17.3Y7.19
G1X17.36Y7.1
G1Y7.06
M5
G0X17.35Y7.32
M3 S30
; Layer C00
G1X17.27Y7.34
G1X17.14Y7.45
G1X17.02Y7.58
G1X16.96Y7.68
G1X16.98Y7.7
G1X17.03Y7.67
G1X17.09Y7.63
G1X17.17Y7.55
G1X17.25Y7.47
G1X17.31Y7.4
G1X17.35Y7.35
G1Y7.32
M5
G0X17.47Y7.42
M3 S30
; Layer C00
G1X17.41Y7.47
G1X17.33Y7.54
G1X17.23Y7.64
G1X17.13Y7.73
G1X17.04Y7.79
G1X16.99Y7.82
G1X16.96Y7.8
G1Y7.76
G1X16.93
G1X16.89Y7.78
G1X16.82Y7.83
G1X16.73Y7.94
G1X16.68Y8.03
G1X16.73Y8.04
G1X16.82Y7.97
G1X16.89Y7.92
G1X16.93Y7.9
G1X16.96
G1Y7.94
G1X16.98Y7.96
G1X17.03Y7.94
G1X17.1Y7.89
G1X17.29Y7.72
G1X17.38Y7.65
G1X17.46Y7.61
G1X17.51Y7.59
G1X17.57Y7.56
G1X17.59Y7.48
G1X17.58Y7.4
G1X17.52
G1X17.47Y7.42
M5
G0X17.61Y7.64
M3 S30
; Layer C00
G1X17.5Y7.71
G1X17.37Y7.81
G1X17.22Y7.94
G1X17.07Y8.07
G1X16.95Y8.2
G1X16.86Y8.3
G1X16.82Y8.37
G1X16.83Y8.41
G1X16.85Y8.42
G1X16.88
G1X16.93Y8.39
G1X17Y8.34
G1X17.09Y8.27
G1X17.2Y8.17
G1X17.33Y8.05
G1X17.48Y7.89
G1X17.59Y7.76
G1X17.66Y7.67
G1Y7.62
G1X17.61Y7.64
M5
G0X18.03Y7.67
M3 S30
; Layer C00
G1X18.06Y7.74
G1X18.08Y7.78
G1X18.11Y7.79
G1X18.12Y7.78
G1X18.14Y7.74
G1Y7.66
G1X18.13Y7.61
G1X18.08Y7.58
G1X18.04Y7.61
G1Y7.67
M5
G0X18.32Y7.4
M3 S30
; Layer C00
G1X18.29Y7.38
G1X18.27Y7.33
G1X18.24Y7.2
G1Y7.04
G1Y6.96
G1Y6.92
G1X18.26Y6.93
G1X18.27Y6.99
G1X18.32Y7.11
G1X18.4Y7.2
G1X18.44Y7.24
G1X18.45Y7.28
G1X18.44Y7.31
G1X18.4Y7.36
G1X18.35Y7.39
G1X18.32Y7.4
M5
G0X18.69Y7.31
M3 S30
; Layer C00
G1X18.68Y7.27
G1X18.71Y7.17
G1X18.78Y7.07
G1X18.85Y7
G1X18.9Y6.97
G1X18.92Y7.01
G1X18.83Y7.19
G1X18.69Y7.31
M5
G0X19.71Y7.74
M3 S30
; Layer C00
G1X19.75Y7.73
G1X19.82Y7.78
G1X19.89Y7.9
G1X19.94Y8.02
G1Y8.07
G1X19.9Y8.04
G1X19.81Y7.95
G1X19.74Y7.86
G1X19.7Y7.79
G1Y7.74
M5
G0X19.98Y7.72
M3 S30
; Layer C00
G1X19.93Y7.61
G1Y7.54
G1X19.98Y7.56
G1X20.04Y7.66
G1X20.1Y7.78
G1Y7.83
G1X20.06Y7.82
G1X19.98Y7.72
M5
G0X20.14Y7.56
M3 S30
; Layer C00
G1X20.09Y7.54
G1X20.06Y7.49
G1X20.04Y7.42
G1X20.07Y7.39
G1X20.13Y7.43
G1X20.18Y7.5
G1Y7.55
G1X20.14Y7.56
M5
G0X19.63Y7.98
M3 S30
; Layer C00
G1X19.69Y8.04
G1X19.74Y8.12
G1X19.71Y8.15
G1X19.64Y8.13
G1X19.59Y8.07
G1X19.56Y8
G1X19.58Y7.97
G1X19.63Y7.98
M5
G0X19.51Y8.22
M3 S30
; Layer C00
G1X19.53Y8.24
G1Y8.27
G1X19.48Y8.32
G1X19.42Y8.4
G1X19.37Y8.43
G1X19.35Y8.4
G1Y8.32
G1X19.38Y8.25
G1X19.46Y8.22
G1X19.51
M5
G0X18.53Y8.43
M3 S30
; Layer C00
G1X18.59Y8.56
G1X18.68Y8.67
G1X18.8Y8.77
G1X19.31Y9.07
G1X19.71Y9.34
G1X20.13Y9.66
G1X20.55Y10
G1X20.92Y10.34
G1X21.23Y10.64
G1X21.35Y10.77
G1X21.44Y10.88
G1X21.5Y10.96
G1X21.51Y11.03
G1X21.54Y11.08
G1X21.59Y11.13
G1X21.62
G1X21.64
G1Y11.08
G1X21.62Y11.01
G1X21.58Y10.89
G1X21.54Y10.74
G1Y10.71
G1Y10.7
G1X21.63Y10.83
G1X21.68Y10.85
G1X21.73Y10.83
G1X21.89Y10.69
G1X21.95
G1X21.99Y10.74
G1X22.04Y10.88
G1X22.06Y10.96
G1Y11
G1X22.04
G1X21.97Y10.91
G1X21.95
G1Y10.96
G1X21.96Y11.07
G1Y11.21
G1X21.94Y11.29
G1X21.9
G1X21.84Y11.21
G1X21.81Y11.17
G1Y11.23
G1X21.83Y11.29
G1X21.92Y11.38
G1X22.05Y11.49
G1X22.23Y11.61
G1X22.69Y11.89
G1X23.23Y12.19
G1X23.8Y12.49
G1X24.33Y12.73
G1X24.57Y12.83
G1X24.77Y12.91
G1X24.94Y12.96
G1X25.06Y12.97
G1X25.14Y12.96
G1X25.23Y12.9
G1X25.32Y12.81
G1X25.42Y12.68
G1X25.62Y12.37
G1X25.81Y12.03
G1X25.95Y11.77
G1X26.12Y11.47
G1X26.36Y11.09
G1X27Y10.05
G1X27.32Y9.51
G1X27.57Y9.1
G1X27.69Y8.93
G1X27.79Y8.78
G1X27.89Y8.66
G1X28.29Y8.19
G1X28.53Y7.84
G1X28.61Y7.68
G1X28.67Y7.53
G1X28.71Y7.4
G1X28.72Y7.28
G1Y7.02
G1X28.68Y6.84
G1X28.63Y6.74
G1X28.56Y6.72
G1X28.52Y6.7
G1X28.5Y6.6
G1X28.49Y6.52
G1Y6.41
G1Y6.28
G1Y5.91
G1Y5.75
G1Y5.61
G1X28.46Y5.5
G1X28.39Y5.29
G1X28.24Y5.01
G1X28.13Y4.82
G1X28.04Y4.64
G1X27.97Y4.49
G1X27.93Y4.39
G1X27.88Y4.27
G1X27.83Y4.18
G1X27.79Y4.13
G1X27.75
G1X27.72Y4.15
G1X27.7Y4.21
G1Y4.31
G1Y4.44
G1X27.74Y4.82
G1X27.61Y4.33
G1X27.55Y4.12
G1X27.49Y3.91
G1X27.42Y3.73
G1X27.37Y3.6
G1X27.32Y3.5
G1X27.31Y3.45
G1Y3.44
G1X27.35Y3.47
G1X27.43Y3.55
G1X27.49
G1X27.55
G1X27.64Y3.6
G1X27.67Y3.62
G1X27.7
G1X27.71Y3.61
G1Y3.56
G1Y3.49
G1X27.7Y3.39
G1X27.67Y3.25
G1X27.64Y3.07
G1X27.55Y2.89
G1X27.39Y2.69
G1X27.31Y2.61
G1X27.22Y2.55
G1X27.16Y2.52
G1X27.11
G1X27.06Y2.53
G1X27.08Y2.48
G1X27.09Y2.43
G1X27.08Y2.38
G1X27.03Y2.32
G1X26.97Y2.26
G1X26.78Y2.15
G1X26.53Y2.05
G1X26.25Y1.97
G1X25.97Y1.91
G1X25.7Y1.9
G1X25.48Y1.92
G1X25.36Y1.95
G1X25.18Y1.98
G1X24.97Y2
G1X24.75Y2.02
G1X24.52Y2.05
G1X24.33Y2.08
G1X24.19Y2.12
G1X24.1Y2.17
G1X23.98Y2.24
G1X23.85Y2.27
G1X23.75Y2.29
G1X23.64Y2.33
G1X23.52Y2.4
G1X23.4Y2.49
G1X23.14Y2.74
G1X22.88Y3.08
G1X22.61Y3.48
G1X22.36Y3.95
G1X22.12Y4.46
G1X21.9Y5.01
G1X21.75Y5.31
G1X21.56Y5.56
G1X21.36Y5.78
G1X21.2Y5.99
G1X21.02Y6.17
G1X20.8Y6.29
G1X20.7Y6.32
G1X20.62Y6.33
G1X20.57
G1X20.54Y6.32
G1Y6.29
G1X20.57Y6.26
G1X20.62Y6.22
G1X20.71Y6.18
G1X20.81Y6.1
G1X20.94Y5.97
G1X21.1Y5.79
G1X21.26Y5.59
G1X21.43Y5.37
G1X21.57Y5.15
G1X21.69Y4.96
G1X21.77Y4.8
G1X21.88Y4.54
G1X22Y4.26
G1X22.13Y3.99
G1X22.25Y3.74
G1X22.37Y3.48
G1X22.53Y3.21
G1X22.67Y2.97
G1X22.77Y2.78
G1X22.84Y2.66
G1X22.91Y2.62
G1X22.99Y2.57
G1X23.06Y2.44
G1X23.14Y2.32
G1X23.27Y2.22
G1X23.45Y2.14
G1X23.66Y2.09
G1X23.83Y2.05
G1X24.04Y1.96
G1X24.18Y1.92
G1X24.38Y1.88
G1X24.6Y1.84
G1X24.84Y1.81
G1X25.06Y1.79
G1X25.24Y1.77
G1X25.38Y1.76
G1X25.48Y1.74
G1X25.61Y1.69
G1X25.64Y1.63
G1X25.63Y1.59
G1X25.59
G1X25.47Y1.57
G1X25.3Y1.51
G1X25.15Y1.44
G1X25.08Y1.37
G1X25.03Y1.3
G1X24.9Y1.23
G1X24.74Y1.19
G1X24.6
G1X24.51Y1.22
G1X24.49Y1.26
G1X24.53Y1.33
G1X24.64Y1.45
G1X24.84Y1.67
G1X24.34Y1.21
G1X23.41Y1.28
G1X23.15Y1.3
G1X22.96Y1.33
G1X22.8Y1.37
G1X22.68Y1.43
G1X22.56Y1.5
G1X22.45Y1.6
G1X22.32Y1.73
G1X22.03Y2.07
G1X21.83Y2.4
G1X21.75Y2.58
G1X21.68Y2.78
G1X21.63Y3
G1X21.58Y3.24
G1X21.45Y3.74
G1X21.24Y4.2
G1X21.13Y4.38
G1X21.03Y4.52
G1X20.93Y4.6
G1X20.86
G1X20.82Y4.59
G1X20.83Y4.61
G1X20.85Y4.68
G1X20.82Y4.75
G1X20.75Y4.89
G1X20.68Y5.13
G1X20.6Y5.3
G1X20.52Y5.4
G1X20.48
G1X20.46Y5.39
G1X20.44Y5.34
G1X20.45Y5.25
G1X20.44Y5.18
G1X20.36
G1X20.26Y5.26
G1X20.15Y5.39
G1X20.09Y5.51
G1Y5.56
G1Y5.6
G1X20.04Y5.7
G1X19.96Y5.8
G1X19.87Y5.81
G1X19.79
G1X19.74Y5.86
G1X19.7Y5.9
G1X19.65Y5.89
G1Y5.81
G1X19.74Y5.71
G1X19.87Y5.57
G1X20Y5.4
G1X20.14Y5.24
G1X20.29Y5.12
G1X20.41Y5.04
G1X20.46Y4.95
G1Y4.93
G1X20.41Y4.91
G1X20.35
G1X20.27Y4.93
G1X20.07Y5
G1X19.82Y5.11
G1X19.28Y5.4
G1X18.84Y5.73
G1X18.74Y5.81
G1X18.65Y5.87
G1X18.59Y5.9
G1X18.56Y5.89
G1X18.54Y5.87
G1X18.51Y5.9
G1X18.46Y5.96
G1X18.41Y6.04
G1X18.31Y6.26
G1X18.21Y6.5
G1X18.14Y6.78
G1X18.11Y7.04
G1Y7.15
G1Y7.23
G1X18.13Y7.29
G1X18.15Y7.31
G1X18.2Y7.33
G1X18.17Y7.46
G1X18.2Y7.59
G1X18.26Y7.78
G1X18.44Y8.22
G1X18.53Y8.43
M5
G0X18.01Y8.52
M3 S30
; Layer C00
G1X18.06Y8.62
G1X18.16Y8.86
G1X18.31Y9.16
G1X18.33Y9.22
G1Y9.26
G1X18.3
G1X18.26Y9.24
G1X18.21Y9.2
G1X18.15Y9.13
G1X18.09Y9.03
G1X17.99Y8.83
G1X17.94Y8.69
G1X17.92Y8.6
G1X17.87Y8.53
G1X17.82Y8.48
G1X17.81Y8.42
G1X17.83Y8.38
G1X17.88Y8.36
G1X17.92Y8.38
G1X17.96Y8.44
G1X18.01Y8.52
M5
G0X16.44Y8.11
M3 S30
; Layer C00
G1Y8.07
G1Y7.99
G1X16.42Y7.87
G1X16.39Y7.71
G1X16.34Y7.52
G1X16.3Y7.39
G1X16.24Y7.33
G1X16.18Y7.31
G1X16.09Y7.34
G1X16.06Y7.44
G1X16.08Y7.51
G1X16.11Y7.6
G1X16.17Y7.71
G1X16.24Y7.84
G1X16.31Y7.97
G1X16.37Y8.06
G1X16.41Y8.1
G1X16.44
M5
G0X16.12Y8.02
M3 S30
; Layer C00
G1Y7.98
G1X16.1Y7.92
G1X16.06Y7.84
G1X15.97Y7.72
G1X15.88Y7.64
G1X15.79Y7.6
G1X15.72Y7.62
G1Y7.65
G1X15.75Y7.71
G1X15.81Y7.78
G1X15.88Y7.87
G1X15.96Y7.95
G1X16.02Y8
G1X16.07Y8.03
G1X16.1
G1X16.12
M5
G0X15.81Y8.25
M3 S30
; Layer C00
G1X15.73Y8.22
G1X15.66Y8.24
G1X15.64Y8.28
G1X15.66Y8.34
G1X15.72Y8.38
G1X15.82Y8.41
G1X15.87
G1X15.89Y8.39
G1X15.87Y8.32
G1X15.81Y8.25
M5
G0X15.34Y8.27
M3 S30
; Layer C00
G1X15.32Y8.22
G1Y8.13
G1X15.35Y8.01
G1X15.39Y7.94
G1Y7.9
G1X15.37Y7.87
G1X15.32
G1X15.23Y7.91
G1X15.15Y8
G1X15.09Y8.11
G1Y8.18
G1X15.12Y8.21
G1X15.2Y8.24
G1X15.34Y8.28
G1Y8.27
M5
G0X15Y8.35
M3 S30
; Layer C00
G1X14.98Y8.31
G1X14.93Y8.32
G1X14.89Y8.37
G1X14.86Y8.44
G1X14.89Y8.47
G1X14.93
G1X14.98Y8.41
G1X15Y8.35
M5
G0X14.65Y8.38
M3 S30
; Layer C00
G1X14.64Y8.45
G1X14.58Y8.57
G1X14.48Y8.74
G1X14.41Y8.84
G1X14.36Y8.91
G1X14.32Y8.94
G1X14.31Y8.93
G1X14.44Y8.61
G1X14.63Y8.36
G1X14.65Y8.38
M5
G0X14.94Y8.06
M3 S30
; Layer C00
G1X14.98Y8.07
G1X15.01
G1X15.03Y8.02
G1X15.01Y7.98
G1X14.91Y7.96
G1X14.84
G1X14.81
G1X14.82Y7.98
G1X14.87Y8.01
G1X14.94Y8.06
M5
G0X13.6Y8.45
M3 S30
; Layer C00
G1X13.5Y8.75
G1X13.36Y8.99
G1X13.34
G1X13.32Y8.97
G1X13.46Y8.67
G1X13.6Y8.45
M5
G0X12.95Y8.79
M3 S30
; Layer C00
G1X12.97Y8.81
G1X12.95Y8.89
G1X12.9Y8.99
G1X12.86Y9.04
G1X12.84Y9.02
G1X12.86Y8.94
G1X12.9Y8.85
G1X12.95Y8.79
M5
G0X12.67Y8.93
M3 S30
; Layer C00
G1X12.7Y8.98
G1Y9.04
G1X12.69Y9.11
G1X12.65Y9.2
G1X12.61Y9.27
G1X12.57Y9.31
G1X12.55
G1X12.52Y9.26
G1X12.5Y9.12
G1X12.54Y8.99
G1X12.57Y8.94
G1X12.6Y8.91
G1X12.64
G1X12.67Y8.93
M5
G0X11.55Y8.81
M3 S30
; Layer C00
G1X11.52Y8.78
G1X11.44Y8.82
G1X11.34Y8.91
G1X11.26Y9.03
G1X11.22Y9.13
G1X11.19Y9.23
G1X11.09Y9.3
G1X11Y9.35
G1X10.89Y9.43
G1X10.76Y9.53
G1X10.63Y9.65
G1X10.51Y9.78
G1X10.41Y9.89
G1X10.34Y9.99
G1X10.31Y10.06
G1X10.32Y10.14
G1X10.36Y10.17
G1X10.45Y10.14
G1X10.61Y10.05
G1X10.88Y9.9
G1X11.08Y9.77
G1X11.19Y9.66
G1X11.22Y9.57
G1X11.2Y9.55
G1X11.14Y9.57
G1X11.05Y9.6
G1X10.95Y9.66
G1X10.73Y9.79
G1X10.58Y9.93
G1X10.53Y9.97
G1X10.49Y9.95
G1Y9.92
G1X10.57Y9.85
G1X10.68Y9.76
G1X10.82Y9.66
G1X11.1Y9.43
G1X11.36Y9.14
G1X11.46Y9
G1X11.53Y8.89
G1X11.55Y8.81
M5
G0X10.62Y8.85
M3 S30
; Layer C00
G1X10.61Y8.77
G1X10.58Y8.74
G1X10.54Y8.76
G1X10.52Y8.87
G1Y9.06
G1X10.46Y9.38
G1Y9.44
G1X10.48Y9.46
G1X10.51Y9.44
G1X10.57Y9.31
G1X10.61Y9.07
G1X10.62Y8.95
G1Y8.85
M5
G0X10.43Y8.94
M3 S30
; Layer C00
G1X10.38Y8.92
G1X10.34Y8.94
G1X10.31Y8.99
G1X10.34Y9.04
G1X10.38Y9.06
G1X10.43Y9.04
G1X10.45Y8.99
G1X10.43Y8.94
M5
G0X10.22Y8.9
M3 S30
; Layer C00
G1X10.24Y8.85
G1X10.22Y8.8
G1X10.17Y8.78
G1X10.13Y8.8
G1X10.1Y8.85
G1X10.13Y8.9
G1X10.17Y8.92
G1X10.22Y8.9
M5
G0X10.01Y8.75
M3 S30
; Layer C00
G1X10.03Y8.68
G1X10.01Y8.59
G1X9.96Y8.53
G1X9.92Y8.54
G1X9.89Y8.63
G1X9.92Y8.74
G1X9.96Y8.78
G1X10.01Y8.75
M5
G0X9.78Y8.61
M3 S30
; Layer C00
G1X9.81Y8.57
G1Y8.49
G1X9.76Y8.41
G1X9.73Y8.38
G1X9.7
G1X9.69Y8.39
G1Y8.44
G1X9.7Y8.53
G1X9.74Y8.59
G1X9.78Y8.61
M5
G0X9.96Y8.43
M3 S30
; Layer C00
G1X10.01Y8.41
G1X10.03Y8.36
G1X10.01Y8.31
G1X9.96Y8.29
G1X9.92Y8.31
G1X9.89Y8.36
G1X9.92Y8.41
G1X9.96Y8.43
M5
G0X9.96Y8.22
M3 S30
; Layer C00
G1X10.01Y8.2
G1X10.03Y8.15
G1X10.01Y8.09
G1X9.96Y8.04
G1X9.92
G1X9.89Y8.11
G1X9.92Y8.19
G1X9.96Y8.22
M5
G0X10.17Y8.06
M3 S30
; Layer C00
G1X10.2Y8.07
G1X10.21Y8.06
G1X10.23Y8.02
G1Y7.94
G1X10.22Y7.89
G1X10.17Y7.86
G1X10.13Y7.89
G1Y7.95
G1X10.15Y8.02
G1X10.17Y8.06
M5
G0X10.01Y7.9
M3 S30
; Layer C00
G1X10.03Y7.85
G1Y7.78
G1X9.99Y7.71
G1X9.92
G1X9.83Y7.79
G1X9.75Y7.88
G1X9.74Y7.96
G1X9.78Y7.98
G1X9.83Y7.94
G1X9.89Y7.89
G1X9.96
G1X10.01Y7.9
M5
G0X10.19Y7.77
M3 S30
; Layer C00
G1X10.26Y7.76
G1X10.29Y7.7
G1X10.25Y7.64
G1X10.19Y7.6
G1X10.14
G1X10.11Y7.65
G1X10.14Y7.72
G1X10.19Y7.77
M5
G0X10Y7.57
M3 S30
; Layer C00
G1Y7.52
G1X9.95Y7.47
G1X9.89Y7.45
G1X9.84Y7.47
G1X9.82Y7.52
G1X9.86Y7.57
G1X9.93Y7.59
G1X10Y7.57
M5
G0X9.96Y7.38
M3 S30
; Layer C00
G1X10.01Y7.35
G1X10.03Y7.28
G1X10.01Y7.2
G1X9.96Y7.14
G1X9.9Y7.11
G1X9.85Y7.12
G1X9.83Y7.19
G1X9.85Y7.27
G1X9.9Y7.35
G1X9.96Y7.38
M5
G0X9.73Y7.22
M3 S30
; Layer C00
G1X9.75Y7.16
G1X9.73Y7.08
G1X9.72Y7.06
G1X9.7
G1Y7.08
G1Y7.13
G1Y7.21
G1X9.73
M5
G0X9.59Y7.08
M3 S30
; Layer C00
G1X9.61Y7.03
G1X9.59Y6.97
G1X9.54Y6.92
G1X9.5
G1X9.47Y6.99
G1X9.5Y7.07
G1X9.54Y7.1
G1X9.59Y7.08
M5
G0X9.37Y7
M3 S30
; Layer C00
G1X9.39Y6.94
G1Y6.83
G1X9.38Y6.77
G1X9.32Y6.74
G1X9.29Y6.78
G1X9.28Y6.85
G1X9.3Y6.94
G1X9.33Y7
G1X9.35Y7.03
G1X9.37Y7
M5
G0X9.29Y7.25
M3 S30
; Layer C00
G1X9.26Y7.28
G1X9.28Y7.35
G1X9.31Y7.4
G1X9.35Y7.42
G1X9.39
G1Y7.36
G1X9.35Y7.29
G1X9.29Y7.25
M5
G0X9.54Y7.44
M3 S30
; Layer C00
G1X9.5Y7.47
G1Y7.53
G1X9.52Y7.6
G1X9.54Y7.64
G1X9.57Y7.65
G1X9.58Y7.64
G1X9.6Y7.6
G1Y7.52
G1X9.59Y7.47
G1X9.54Y7.44
M5
G0X9.5Y7.75
M3 S30
; Layer C00
G1X9.47Y7.79
G1X9.5Y7.85
G1X9.54Y7.87
G1X9.59Y7.86
G1X9.61Y7.84
G1X9.59Y7.8
G1X9.54Y7.76
G1X9.5
M5
G0X9.54Y8.01
M3 S30
; Layer C00
G1X9.5Y8.03
G1Y8.08
G1X9.55Y8.13
G1X9.58Y8.15
G1X9.61Y8.13
G1Y8.08
G1X9.59Y8.03
G1X9.54Y8.01
M5
G0X10.55Y8.11
M3 S30
; Layer C00
G1X10.52Y8.19
G1X10.55Y8.25
G1X10.59
G1X10.64Y8.2
G1X10.66Y8.14
G1X10.64Y8.1
G1X10.59Y8.08
G1X10.55Y8.11
M5
G0X10.55Y8.45
M3 S30
; Layer C00
G1X10.52Y8.49
G1X10.55Y8.55
G1X10.59Y8.57
G1X10.64Y8.56
G1X10.66Y8.54
G1X10.64Y8.5
G1X10.59Y8.46
G1X10.55
M5
G0X9.94Y7.02
M3 S30
; Layer C00
G1X9.96Y7
G1X9.94Y6.96
G1X9.89Y6.92
G1X9.85
G1X9.82Y6.95
G1X9.85Y7.01
G1X9.89Y7.03
G1X9.94Y7.02
M5
G0X9.73Y6.87
M3 S30
; Layer C00
G1X9.75Y6.81
G1X9.73Y6.73
G1X9.72Y6.71
G1X9.7
G1Y6.73
G1Y6.78
G1Y6.86
G1X9.73
M5
G0X9.37Y6.66
M3 S30
; Layer C00
G1X9.39Y6.62
G1Y6.54
G1X9.38Y6.49
G1X9.33Y6.46
G1X9.29Y6.49
G1Y6.55
G1X9.31Y6.62
G1X9.33Y6.66
G1X9.36Y6.67
G1X9.37Y6.66
M5
G0X9.54Y6.47
M3 S30
; Layer C00
G1X9.59Y6.45
G1X9.61Y6.4
G1X9.59Y6.34
G1X9.54Y6.29
G1X9.5
G1X9.47Y6.36
G1X9.5Y6.44
G1X9.54Y6.47
M5
G0X9.35Y6.4
M3 S30
; Layer C00
G1X9.37Y6.37
G1X9.39Y6.31
G1Y6.2
G1X9.38Y6.14
G1X9.32Y6.11
G1X9.29Y6.15
G1X9.28Y6.22
G1X9.3Y6.31
G1X9.33Y6.37
G1X9.35Y6.4
M5
G0X9.03Y6.38
M3 S30
; Layer C00
G1Y6.3
G1X9.04Y6.15
G1X9.02Y5.97
G1X8.98Y5.87
G1X8.95
G1X8.93Y5.92
G1Y5.98
G1X8.92Y6.07
G1Y6.24
G1X8.96Y6.35
G1X9.01Y6.39
G1X9.03Y6.38
M5
G0X8.95Y6.47
M3 S30
; Layer C00
G1X8.88Y6.48
G1X8.85Y6.52
G1Y6.57
G1X8.89Y6.63
G1X8.95Y6.67
G1X9
G1X9.04Y6.64
G1X9.05Y6.57
G1X9.02Y6.5
G1X8.95Y6.47
M5
G0X8.98Y5.77
M3 S30
; Layer C00
G1X9.03Y5.75
G1X9.05Y5.7
G1X9.03Y5.65
G1X8.98Y5.63
G1X8.94Y5.65
G1X8.91Y5.7
G1X8.94Y5.75
G1X8.98Y5.77
M5
G0X9.05Y5.56
M3 S30
; Layer C00
G1X9.1Y5.52
G1X9.12Y5.42
G1X9.1Y5.32
G1X9.05Y5.28
G1X9.01Y5.32
G1X8.98Y5.42
G1X9.01Y5.52
G1X9.05Y5.56
M5
G0X8.75Y5.26
M3 S30
; Layer C00
G1X8.77Y5.21
G1X8.75Y5.16
G1X8.7Y5.14
G1X8.66Y5.16
G1X8.63Y5.21
G1X8.66Y5.26
G1X8.7Y5.28
G1X8.75Y5.26
M5
G0X8.56Y5.1
M3 S30
; Layer C00
G1Y5.07
G1X8.52Y5.01
G1X8.45Y4.94
G1X8.37Y4.85
G1X8.28Y4.78
G1X8.21Y4.73
G1X8.16Y4.7
G1X8.14Y4.72
G1X8.2Y4.83
G1X8.33Y4.97
G1X8.4Y5.03
G1X8.47Y5.08
G1X8.52Y5.1
G1X8.56
M5
G0X8.72Y4.95
M3 S30
; Layer C00
G1X8.77Y4.96
G1X8.81Y4.91
G1X8.8Y4.82
G1X8.76Y4.74
G1X8.73Y4.72
G1X8.71Y4.76
G1Y4.86
G1X8.72Y4.95
M5
G0X9.54Y10.11
M3 S30
; Layer C00
G1X9.5Y10.13
G1Y10.18
G1X9.56Y10.23
G1X9.62Y10.25
G1X9.66Y10.23
G1X9.65Y10.18
G1X9.6Y10.13
G1X9.54Y10.11
M5
G0X10.35Y10.3
M3 S30
; Layer C00
G1X10.33Y10.42
G1X10.34Y10.54
G1X10.39Y10.59
G1X10.43Y10.58
G1X10.49Y10.55
G1X10.57Y10.5
G1X10.8Y10.35
G1X10.91Y10.29
G1X10.98Y10.24
G1X11.02Y10.23
G1X11.01Y10.26
G1X10.96Y10.31
G1X10.87Y10.39
G1X10.66Y10.55
G1X10.47Y10.64
G1X10.36Y10.7
G1X10.31Y10.78
G1X10.32Y10.82
G1X10.34Y10.84
G1X10.37
G1X10.4Y10.83
G1X10.86Y10.53
G1X11.04Y10.41
G1X11.15Y10.31
G1X11.19Y10.23
G1Y10.15
G1X11.14Y10.03
G1X11.1Y9.99
G1X11.02Y10.02
G1X10.89Y10.11
G1X10.72Y10.2
G1X10.6Y10.22
G1X10.55Y10.21
G1X10.53Y10.32
G1X10.46Y10.37
G1X10.43
G1X10.4
G1Y10.36
G1X10.41Y10.33
G1X10.43Y10.27
G1X10.4Y10.25
G1X10.35Y10.3
M5
G0X10.86Y10.62
M3 S30
; Layer C00
G1X10.71Y10.72
G1X10.56Y10.82
G1X10.43Y10.92
G1X10.33Y11.01
G1X10.29Y11.07
G1X10.27Y11.14
G1X10.33
G1X10.44Y11.1
G1X10.62Y10.98
G1X10.85Y10.82
G1X11.03Y10.67
G1X11.13Y10.56
G1X11.14Y10.49
G1X11.09
G1X10.99Y10.54
G1X10.86Y10.62
M5
G0X11.04Y10.76
M3 S30
; Layer C00
G1X10.96Y10.83
G1X10.89Y10.9
G1X10.85Y10.96
G1X10.84Y10.99
G1Y11.01
G1X10.87
G1X10.93Y10.99
G1X11Y10.94
G1X11.08Y10.88
G1X11.19Y10.77
G1X11.2Y10.69
G1X11.17
G1X11.11Y10.71
G1X11.04Y10.76
M5
G0X11.13Y10.96
M3 S30
; Layer C00
G1X10.99Y11.03
G1X10.65Y11.25
G1X10.53Y11.31
G1X10.45Y11.34
G1X10.41
G1Y11.32
G1X10.45Y11.29
G1X10.51Y11.24
G1X10.68Y11.15
G1X10.74Y11.1
G1X10.78Y11.07
G1Y11.05
G1X10.75
G1X10.69Y11.07
G1X10.6Y11.11
G1X10.49Y11.17
G1X10.4Y11.23
G1X10.33Y11.29
G1X10.29Y11.33
G1Y11.36
G1X10.33Y11.42
G1X10.35Y11.51
G1X10.33Y11.61
G1X10.29Y11.7
G1X10.27Y11.77
G1X10.32Y11.78
G1X10.44Y11.75
G1X10.62Y11.67
G1X10.84Y11.54
G1X11.03Y11.41
G1X11.17Y11.29
G1X11.22Y11.21
G1X11.19
G1X11.11Y11.24
G1X10.99Y11.29
G1X10.68Y11.45
G1X10.55Y11.52
G1X10.45Y11.55
G1X10.41
G1X10.43Y11.52
G1X10.51Y11.46
G1X10.64Y11.38
G1X10.97Y11.19
G1X11.1Y11.11
G1X11.19Y11.04
G1X11.22Y11
G1X11.2Y10.96
G1X11.13
M5
G0X11.19Y11.45
M3 S30
; Layer C00
G1X11.15
G1X11.09Y11.49
G1X11.01Y11.54
G1X10.9Y11.61
G1X10.8Y11.68
G1X10.7Y11.74
G1X10.61Y11.77
G1X10.56Y11.79
G1X10.47Y11.82
G1X10.38Y11.89
G1X10.35Y11.94
G1X10.34Y11.97
G1Y11.99
G1X10.37
G1X10.48Y11.95
G1X10.65Y11.85
G1X10.84Y11.76
G1X10.97Y11.74
G1Y11.76
G1X10.92Y11.81
G1X10.82Y11.87
G1X10.56Y11.99
G1X10.46Y12.04
G1X10.39Y12.09
G1X10.34Y12.13
G1X10.32Y12.16
G1Y12.19
G1X10.35Y12.2
G1X10.41
G1X10.52Y12.18
G1X10.62Y12.1
G1X10.71Y12.03
G1X10.79Y12
G1X10.87Y11.96
G1X10.98Y11.86
G1X11.05Y11.76
G1Y11.68
G1X11.12Y11.58
G1X11.17Y11.52
G1X11.2Y11.47
G1Y11.45
M5
G0X11.21Y11.89
M3 S30
; Layer C00
G1X10.75Y12.11
G1X10.31Y12.39
G1X10.34Y12.42
G1X10.43Y12.41
G1X10.57Y12.36
G1X10.77Y12.27
G1X10.98Y12.16
G1X11.13Y12.05
G1X11.21Y11.96
G1Y11.89
M5
G0X11.19Y12.19
M3 S30
; Layer C00
G1X11.1Y12.22
G1X10.97Y12.27
G1X10.8Y12.35
G1X10.68Y12.41
G1X10.57Y12.47
G1X10.49Y12.52
G1X10.43Y12.56
G1X10.38Y12.61
G1X10.42Y12.63
G1X10.47Y12.61
G1X10.56Y12.57
G1X10.69Y12.51
G1X10.84Y12.44
G1X10.99Y12.36
G1X11.11Y12.29
G1X11.19Y12.23
G1X11.22Y12.2
G1X11.19Y12.19
M5
G0X11.19Y12.41
M3 S30
; Layer C00
G1X11.11Y12.43
G1X10.99Y12.47
G1X10.86Y12.53
G1X10.72Y12.59
G1X10.6Y12.66
G1X10.51Y12.72
G1X10.47Y12.77
G1Y12.82
G1X10.51
G1X10.57Y12.81
G1X10.65Y12.78
G1X10.75Y12.73
G1X10.88Y12.66
G1X11.01Y12.59
G1X11.12Y12.52
G1X11.2Y12.46
G1X11.22Y12.42
G1X11.19Y12.41
M5
G0X10.95Y12.84
M3 S30
; Layer C00
G1X10.91Y12.87
G1Y12.94
G1X10.96Y13.02
G1X10.99Y13.05
G1X11.01Y13.02
G1Y12.94
G1X10.99Y12.87
G1X10.95Y12.84
M5
G0X15.36Y13.24
M3 S30
; Layer C00
G1X15.38Y13.16
G1X15.42Y13.05
G1X15.56Y12.77
G1X15.6Y12.64
G1Y12.54
G1Y12.48
G1X15.64Y12.39
G1X15.71Y12.28
G1X15.81Y12.17
G1X16.05Y11.91
G1Y12.1
G1Y12.19
G1X16.03Y12.24
G1X16Y12.26
G1X15.9Y12.24
G1X15.87Y12.26
G1X15.85Y12.31
G1Y12.39
G1X15.82Y12.5
G1X15.77Y12.52
G1X15.75
G1X15.72Y12.54
G1Y12.59
G1X15.7Y12.66
G1X15.68Y12.82
G1X15.63Y12.93
G1X15.55Y13.03
G1X15.46Y13.15
G1X15.39Y13.24
G1X15.36
M5
G0X15.65Y13.98
M3 S30
; Layer C00
G1Y14.01
G1Y14.06
G1Y14.14
G1X15.68
G1X15.7Y14.09
G1X15.68Y14.01
G1X15.67Y13.99
G1X15.65
M5
G0X15.56Y13.98
M3 S30
; Layer C00
G1Y13.89
G1X15.59Y13.74
G1X15.64Y13.68
G1X15.68Y13.66
G1X15.66Y13.56
G1X15.7Y13.54
G1X15.75Y13.59
G1X15.79Y13.73
G1X15.81Y13.81
G1Y13.83
G1X15.83Y13.77
G1Y13.65
G1X15.9Y13.41
G1X16.04Y13.19
G1X16.25Y13.03
G1X16.5Y12.94
G1X16.71Y12.91
G1X16.91Y12.87
G1X16.99Y12.85
G1X17.05
G1X17.09Y12.87
G1X17.1Y12.9
G1X17.14Y12.96
G1X17.21Y12.98
G1X17.36Y13.01
G1X17.56Y13.1
G1X17.65Y13.15
G1X17.73Y13.2
G1X17.79Y13.24
G1X17.8Y13.28
G1X17.78Y13.31
G1X17.74Y13.29
G1X17.65Y13.25
G1X17.54Y13.22
G1X17.41Y13.19
G1X17.26Y13.15
G1X17.19Y13.13
G1X17.14
G1X17.11Y13.16
G1Y13.2
G1Y13.24
G1X17.09Y13.25
G1X17.07Y13.23
G1X17.03Y13.19
G1X17Y13.14
G1X16.98
G1X16.97Y13.18
G1X16.96Y13.35
G1X16.95Y13.38
G1X16.93Y13.36
G1X16.9Y13.29
G1X16.87Y13.23
G1X16.85
G1X16.83Y13.28
G1X16.81Y13.4
G1X16.78Y13.64
G1X16.77Y13.42
G1X16.74Y13.25
G1X16.69Y13.19
G1X16.63Y13.25
G1X16.6Y13.42
G1X16.57Y13.64
G1X16.56Y13.42
G1X16.53Y13.27
G1X16.48Y13.19
G1X16.45
G1X16.43Y13.2
G1X16.41Y13.24
G1Y13.31
G1Y13.37
G1X16.39Y13.39
G1X16.37Y13.38
G1X16.33Y13.33
G1X16.3Y13.3
G1X16.28Y13.32
G1X16.27Y13.4
G1X16.26Y13.54
G1Y13.7
G1X16.24Y13.77
G1X16.22Y13.75
G1X16.17Y13.54
G1X16.15Y13.51
G1X16.14Y13.58
G1X16.11Y13.91
G1Y13.98
G1X16.09Y13.96
G1X16.04Y13.78
G1X16.02Y13.73
G1X16
G1X15.98Y13.75
G1X15.96Y13.82
G1X15.93Y13.93
G1X15.9Y14.08
G1X15.87Y14.27
G1X15.85Y14.41
G1X15.83Y14.49
G1X15.81Y14.51
G1X15.79Y14.46
G1X15.77Y14.39
G1X15.75Y14.35
G1X15.72Y14.34
G1X15.7Y14.35
G1X15.65Y14.46
G1X15.63Y14.64
G1Y14.78
G1X15.61Y14.84
G1X15.59Y14.82
G1X15.53Y14.65
G1X15.51Y14.64
G1Y14.69
G1X15.53Y14.82
G1Y14.92
G1Y15
G1X15.52Y15.04
G1X15.49
G1X15.44Y15.05
G1X15.4Y15.25
G1X15.35Y15.29
G1X15.31Y15.27
G1Y15.22
G1X15.33Y15.17
G1X15.3Y15.15
G1X15.23Y15.18
G1X15.19Y15.26
G1X15.17Y15.36
G1X15.19Y15.47
G1X15.2Y15.51
G1Y15.54
G1X15.17Y15.55
G1X15.1
G1X15.07Y15.57
G1X15.06Y15.61
G1Y15.66
G1Y15.74
G1X15.02Y15.75
G1X14.94Y15.76
G1X14.84Y15.84
G1X14.76Y15.94
G1X14.73Y16.03
G1Y16.14
G1Y16.24
G1X14.7Y16.3
G1X14.66
G1X14.63Y16.32
G1X14.59Y16.39
G1X14.53Y16.51
G1X14.43Y16.8
G1X14.38Y16.93
G1X14.33Y17.01
G1X14.27Y17.07
G1Y17.14
G1X14.29Y17.19
G1Y17.22
G1X14.26
G1X14.21Y17.21
G1X14.16Y17.19
G1X14.12Y17.21
G1X14.1Y17.24
G1Y17.31
G1X14.07Y17.41
G1X14Y17.46
G1X13.92Y17.48
G1X13.83Y17.55
G1X13.73Y17.65
G1X13.63Y17.78
G1X13.44Y18.09
G1X13.32Y18.4
G1X13.27Y18.61
G1Y18.38
G1X13.3Y18.16
G1X13.4Y17.89
G1X13.52Y17.65
G1X13.65Y17.51
G1X13.79Y17.4
G1X13.88Y17.29
G1X13.94Y17.15
G1X13.95Y17
G1Y16.9
G1X13.97Y16.83
G1X13.99Y16.78
G1X14.02Y16.76
G1X14.1Y16.68
G1X14.19Y16.51
G1X14.26Y16.32
G1X14.27Y16.09
G1X14.34Y16.03
G1X14.41Y15.95
G1X14.44Y15.82
G1X14.48Y15.67
G1X14.55Y15.54
G1X14.62Y15.44
G1X14.65Y15.33
G1X14.7Y15.2
G1X14.79Y15.06
G1X14.89Y14.92
G1X14.93Y14.78
G1X14.95Y14.7
G1X15Y14.66
G1X15.05Y14.62
G1X15.1Y14.54
G1Y14.51
G1X15.12Y14.54
G1X15.13Y14.6
G1X15.15Y14.85
G1X15.16Y14.94
G1X15.19Y14.99
G1X15.22Y15
G1X15.24Y14.97
G1X15.26Y14.9
G1X15.28Y14.79
G1X15.29Y14.46
G1X15.31Y14.33
G1X15.36Y14.24
G1X15.48Y14.13
G1X15.53Y14.07
G1X15.56Y13.98
M5
G0X16.42Y13.72
M3 S30
; Layer C00
G1Y13.64
G1Y13.59
G1Y13.56
G1X16.44
G1X16.45Y13.59
G1X16.47Y13.67
G1X16.45Y13.73
G1X16.42Y13.72
M5
G0X17.84Y12.8
M3 S30
; Layer C00
G1X17.74Y12.73
G1X17.66Y12.67
G1X17.62Y12.61
G1Y12.57
G1X17.7Y12.59
G1X17.82Y12.68
G1X18.04Y12.8
G1X18.34Y12.9
G1X18.49Y12.95
G1X18.63Y13
G1X18.75Y13.06
G1X18.82Y13.12
G1X18.92Y13.21
G1X19Y13.22
G1X19.05
G1X19.09Y13.29
G1X19.1Y13.38
G1X19.05Y13.39
G1X18.95Y13.34
G1X18.79Y13.22
G1X18.56Y13.08
G1X18.09Y12.93
G1X17.84Y12.8
M5
G0X17.52Y11.72
M3 S30
; Layer C00
G1X17.49Y11.69
G1X17.47Y11.63
G1X17.46Y11.53
G1Y11.41
G1Y11.22
G1X17.51Y11.08
G1X17.56Y11.03
G1X17.61Y11.07
G1X17.63Y11.21
G1X17.61Y11.43
G1X17.59Y11.54
G1X17.57Y11.63
G1X17.54Y11.69
G1X17.52Y11.72
M5
G0X17.88Y11.44
M3 S30
; Layer C00
G1X17.83Y11.39
G1X17.78Y11.28
G1X17.75Y11.14
G1X17.74Y11.03
G1Y10.96
G1X17.77
G1X17.83Y11.07
G1X17.87Y11.23
G1X17.9Y11.37
G1X17.88Y11.44
M5
G0X16.82Y11.57
M3 S30
; Layer C00
G1X16.8Y11.63
G1X16.75Y11.68
G1X16.71
G1X16.68Y11.62
G1X16.71Y11.54
G1X16.75Y11.51
G1X16.8Y11.53
G1X16.82Y11.57
M5
G0X16.51Y11.63
M3 S30
; Layer C00
G1Y11.69
G1Y11.77
G1X16.48Y11.86
G1X16.46Y11.93
G1X16.44Y11.97
G1X16.43Y11.98
G1X16.41Y11.94
G1Y11.8
G1X16.43Y11.64
G1X16.48Y11.58
G1X16.5Y11.59
G1X16.51Y11.63
M5
G0X16.19Y11.75
M3 S30
; Layer C00
G1X16.23Y11.83
G1Y11.96
G1X16.22Y12.09
G1X16.17Y12.18
G1X16.15
G1X16.14Y12.14
G1X16.13Y12.07
G1Y11.97
G1Y11.87
G1X16.14Y11.8
G1X16.16Y11.75
G1X16.19
M5
G0X15.91Y9.2
M3 S30
; Layer C00
G1X15.86Y9.18
G1X15.84Y9.13
G1X15.88Y9.08
G1X15.95Y9.06
G1X16.02Y9.08
G1Y9.13
G1X15.97Y9.18
G1X15.91Y9.2
M5
G0X20.16Y17.75
M3 S30
; Layer C00
G1X20.18
G1Y17.79
G1X20.15Y17.87
G1X20.06Y17.99
G1X19.95Y18.14
G1X19.85Y18.32
G1X19.73Y18.54
G1X19.47Y18.9
G1X19.41Y19
G1X19.38Y19.09
G1Y19.16
G1Y19.3
G1X19.32Y19.5
G1X19.24Y19.69
G1X19.2Y19.85
G1X19.17Y19.96
G1X19.1Y20.02
G1X19.03Y20.11
G1X18.99Y20.25
G1X18.96Y20.42
G1X18.88Y20.63
G1X18.75Y20.86
G1X18.6Y21.1
G1X18.44Y21.31
G1X18.28Y21.49
G1X18.13Y21.61
G1X18.02Y21.66
G1X17.96
G1X17.92Y21.68
G1X17.91Y21.7
G1Y21.73
G1X17.95Y21.85
G1X17.99Y22.05
G1X18.01Y22.29
G1Y22.53
G1Y22.99
G1X18Y23.21
G1X17.93Y23.43
G1X17.83Y23.63
G1X17.7Y23.8
G1X17.26Y24.27
G1X16.9Y24.73
G1X16.76Y24.95
G1X16.64Y25.16
G1X16.54Y25.36
G1X16.39Y25.75
G1X16.32Y25.89
G1X16.29Y25.92
G1X16.27
G1Y25.88
G1X16.3Y25.79
G1X16.35Y25.6
G1X16.39Y25.4
G1X16.47Y25.21
G1X16.61Y24.96
G1X16.8Y24.66
G1X17.02Y24.36
G1X17.24Y24.08
G1X17.45Y23.84
G1X17.54Y23.75
G1X17.62Y23.68
G1X17.68Y23.63
G1X17.73Y23.62
G1X17.79Y23.58
G1X17.84Y23.47
G1X17.87Y23.29
G1X17.88Y22.88
G1X17.9Y22.75
G1X17.92Y22.65
G1X17.95Y22.59
G1X17.98Y22.55
G1X17.99Y22.5
G1X17.98Y22.44
G1X17.95Y22.36
G1X17.89Y22.19
G1X17.84Y21.84
G1X17.79Y21.76
G1X17.73Y21.68
G1Y21.61
G1X17.8Y21.56
G1X17.9
G1X18.05Y21.54
G1X18.23Y21.44
G1X18.37Y21.3
G1X18.48Y21.07
G1X18.6Y20.91
G1X18.74Y20.68
G1X18.85Y20.4
G1X18.9Y20.27
G1X18.94Y20.16
G1X18.98Y20.07
G1X19.01Y20.02
G1X19.05Y19.92
G1X19.06Y19.79
G1X19.1Y19.66
G1X19.17Y19.58
G1X19.22Y19.55
G1X19.25Y19.47
G1X19.27Y19.36
G1X19.28Y19.04
G1X19.31Y18.92
G1X19.36Y18.81
G1X19.45Y18.72
G1X19.63Y18.49
G1X19.83Y18.19
G1X19.97Y17.96
G1X20.08Y17.81
G1X20.13Y17.77
G1X20.16Y17.75
M5
G0X22.29Y19
M3 S30
; Layer C00
G1X22.33Y19.03
G1X22.35Y19.1
G1Y19.18
G1X22.33Y19.21
G1X22.3Y19.18
G1X22.26Y19.1
G1Y19.03
G1X22.29Y19
M5
G0X22.06Y19.56
M3 S30
; Layer C00
G1X22.13Y19.58
G1X22.18Y19.63
G1X22.21Y19.69
G1X22.2Y19.74
G1X22.15
G1X22.08Y19.66
G1X22.03Y19.59
G1X22.06Y19.56
M5
G0X21.98Y19.93
M3 S30
; Layer C00
G1X22.03Y19.96
G1X22.07Y20.01
G1Y20.06
G1X22.05Y20.1
G1X22.01Y20.12
G1X21.95Y20.1
G1X21.9Y20.05
G1Y20
G1X21.92Y19.95
G1X21.98Y19.93
M5
G0X22.31Y20.63
M3 S30
; Layer C00
G1X22.34
G1X22.35Y20.67
G1Y20.73
G1Y20.83
G1X22.33Y20.88
G1X22.29
G1X22.25Y20.81
G1X22.24Y20.74
G1X22.28Y20.66
G1X22.31Y20.63
M5
G0X22.24Y21.05
M3 S30
; Layer C00
G1X22.27Y21.07
G1X22.28Y21.19
G1Y21.34
G1X22.24Y21.48
G1X22.19Y21.57
G1X22.13Y21.59
G1X22.1Y21.54
G1X22.11Y21.44
G1X22.15Y21.31
G1X22.17Y21.2
G1X22.2Y21.12
G1X22.24Y21.05
M5
G0X21.77Y21.19
M3 S30
; Layer C00
G1X21.76Y21.24
G1X21.72Y21.29
G1X21.69Y21.31
G1X21.66Y21.29
G1Y21.24
G1X21.68Y21.19
G1X21.73Y21.17
G1X21.77Y21.19
M5
G0X21.63Y21.48
M3 S30
; Layer C00
G1Y21.5
G1Y21.55
G1X21.6Y21.64
G1X21.55Y21.77
G1X21.44Y22.1
G1X21.35Y22.52
G1X21.32Y22.7
G1X21.28Y22.85
G1X21.25Y22.94
G1X21.23Y22.96
G1X21.21Y22.9
G1Y22.79
G1X21.22Y22.64
G1X21.25Y22.46
G1X21.34Y22.09
G1X21.44Y21.78
G1X21.51Y21.65
G1X21.56Y21.56
G1X21.6Y21.5
G1X21.63Y21.48
M5
G0X21.6Y23.55
M3 S30
; Layer C00
G1X21.65Y23.57
G1Y23.64
G1X21.57Y23.76
G1X21.45Y23.9
G1X21.26Y24.08
G1X21.03Y24.31
G1X20.79Y24.59
G1X20.54Y24.91
G1X20.29Y25.27
G1X20.06Y25.61
G1X19.82Y25.96
G1X19.58Y26.29
G1X19.39Y26.55
G1X19.24Y26.75
G1X19.11Y26.93
G1X19.03Y27.05
G1X19Y27.11
G1X19.01
G1X19.05Y27.08
G1X19.1Y27.03
G1X19.16Y26.95
G1X19.4Y26.66
G1X19.67Y26.37
G1X19.79Y26.24
G1X19.89Y26.14
G1X19.97Y26.08
G1X20
G1X19.99Y26.12
G1X19.93Y26.21
G1X19.82Y26.34
G1X19.56Y26.64
G1X19.45Y26.77
G1X19.37Y26.87
G1X19.35Y26.92
G1X18.61Y27.64
G1X17.84Y28.3
G1X17.85Y28.26
G1X17.91Y28.17
G1X18.01Y28.06
G1X18.13Y27.92
G1X18.44Y27.55
G1X18.74Y27.16
G1X18.86Y26.99
G1X18.99Y26.82
G1X19.09Y26.68
G1X19.17Y26.59
G1X19.27Y26.46
G1X19.29Y26.37
G1X19.31Y26.29
G1X19.38Y26.21
G1X19.45Y26.12
G1X19.48Y26.04
G1X19.47
G1X19.43Y26.06
G1X19.36Y26.12
G1X19.2Y26.3
G1X19.12Y26.37
G1X19.06Y26.4
G1X19.03
G1Y26.38
G1X19.06Y26.34
G1X19.1Y26.28
G1X19.16Y26.2
G1X19.33Y26.01
G1X19.77Y25.56
G1X19.95Y25.36
G1X20.02Y25.28
G1X20.07Y25.22
G1X20.1Y25.18
G1X20.13Y25.12
G1X20.17Y25.07
G1X20.24Y24.99
G1X20.33Y24.9
G1X20.55Y24.66
G1X21.07Y24.13
G1X21.23Y23.96
G1X21.32Y23.85
G1X21.34Y23.81
G1X21.28Y23.83
G1X21.14Y23.92
G1X21.04Y23.99
G1X20.93Y24.07
G1X20.64Y24.29
G1X20.09Y24.75
G1X19.51Y25.29
G1X19.24Y25.57
G1X18.98Y25.85
G1X18.74Y26.13
G1X18.45Y26.5
G1X18.34Y26.63
G1X18.2Y26.79
G1X18.04Y26.96
G1X17.69Y27.33
G1X17.32Y27.72
G1X16.95Y28.08
G1X16.64Y28.38
G1X16.51Y28.49
G1X16.41Y28.58
G1X16.33Y28.64
G1X16.29Y28.66
G1Y28.64
G1X16.33Y28.6
G1X16.39Y28.53
G1X16.47Y28.44
G1X16.7Y28.2
G1X16.98Y27.91
G1X17.29Y27.59
G1X17.57Y27.29
G1X17.69Y27.16
G1X17.8Y27.04
G1X17.88Y26.94
G1X17.94Y26.87
G1X18.14Y26.61
G1X18.33Y26.38
G1X18.52Y26.15
G1X18.73Y25.89
G1X18.87Y25.73
G1X19.03Y25.56
G1X19.21Y25.37
G1X19.41Y25.17
G1X19.84Y24.77
G1X20.27Y24.4
G1X20.42Y24.28
G1X20.55Y24.18
G1X20.64Y24.09
G1X20.71Y24.03
G1X20.74Y23.99
G1Y23.97
G1X20.72
G1X20.66Y24.01
G1X20.53Y24.09
G1X20.35Y24.2
G1X20.13Y24.35
G1X19.9Y24.5
G1X19.67Y24.66
G1X19.48Y24.79
G1X19.32Y24.9
G1X19.24Y24.97
G1X19.16Y25.04
G1X18.76Y25.39
G1X18.63Y25.52
G1X18.46Y25.7
G1X18.26Y25.92
G1X18.04Y26.18
G1X17.58Y26.76
G1X17.14Y27.36
G1X17.01Y27.54
G1X16.89Y27.69
G1X16.79Y27.82
G1X16.71Y27.93
G1X16.63Y28.01
G1X16.58Y28.07
G1X16.54Y28.09
G1X16.52
G1Y28.07
G1X16.54Y28.03
G1X16.58Y27.96
G1X16.63Y27.87
G1X16.78Y27.66
G1X17.17Y27.13
G1X17.35Y26.87
G1X17.48Y26.66
G1X17.59Y26.47
G1X17.64Y26.39
G1X17.71Y26.3
G1X17.81Y26.2
G1X18.03Y25.95
G1X18.29Y25.69
G1X18.57Y25.41
G1X18.84Y25.16
G1X19.1Y24.93
G1X19.32Y24.76
G1X19.73Y24.47
G1X20.06Y24.23
G1X20.32Y24.06
G1X20.53Y23.93
G1X20.68Y23.85
G1X20.78Y23.81
G1X20.85
G1X20.89Y23.84
G1X20.92Y23.87
G1X20.97
G1X21.05Y23.84
G1X21.35Y23.64
G1X21.5Y23.57
G1X21.6Y23.55
M5
G0X18.24Y24.25
M3 S30
; Layer C00
G1X18.25Y24.27
G1X18.24Y24.33
G1X18.21Y24.42
G1X18.15Y24.53
G1X18.06Y24.69
G1X17.98Y24.8
G1X17.95Y24.82
G1Y24.78
G1X17.97Y24.72
G1X18.05Y24.53
G1X18.13Y24.38
G1X18.2Y24.28
G1X18.24Y24.25
M5
G0X16.6Y23.8
M3 S30
; Layer C00
G1X16.57
G1X16.55Y23.76
G1Y23.65
G1X16.57Y23.48
G1X16.6Y23.31
G1X16.64Y23.16
G1X16.7Y23.04
G1X16.76Y22.94
G1X16.83Y22.87
G1X16.89Y22.83
G1X16.93Y22.81
G1X16.95
G1Y22.84
G1X16.93Y22.88
G1X16.89Y22.95
G1X16.83Y23.03
G1X16.77Y23.13
G1X16.72Y23.24
G1X16.7Y23.36
G1X16.68Y23.48
G1X16.66Y23.69
G1X16.6Y23.8
M5
G0X16.75Y22.64
M3 S30
; Layer C00
G1X16.71Y22.62
G1Y22.57
G1X16.77Y22.52
G1X16.83Y22.5
G1X16.87Y22.52
G1X16.86Y22.57
G1X16.81Y22.62
G1X16.75Y22.64
M5
G0X17Y22.57
M3 S30
; Layer C00
G1Y22.52
G1X17.07Y22.5
G1X17.14Y22.52
G1Y22.57
G1X17.1Y22.62
G1X17.07Y22.64
G1X17.04Y22.62
G1X17Y22.57
M5
G0X16.81Y22.29
M3 S30
; Layer C00
G1X16.77Y22.27
G1X16.75Y22.22
G1X16.78Y22.17
G1X16.85Y22.15
G1X16.95Y22.12
G1X17.03Y22.04
G1X17.12Y21.97
G1X17.2Y21.94
G1X17.21Y21.95
G1X17.19Y21.99
G1X17.14Y22.05
G1X17.07Y22.11
G1X16.92Y22.23
G1X16.81Y22.29
M5
G0X16.65Y22.03
M3 S30
; Layer C00
G1X16.6
G1X16.57Y21.95
G1X16.6Y21.85
G1X16.66Y21.78
G1X16.74Y21.76
G1X16.85
G1X16.97Y21.68
G1X17.07Y21.62
G1X17.1Y21.64
G1X17.07Y21.72
G1X16.97Y21.8
G1X16.85Y21.88
G1X16.73Y21.97
G1X16.65Y22.03
M5
G0X16.78Y21.64
M3 S30
; Layer C00
G1X16.68Y21.59
G1X16.64Y21.55
G1Y21.52
G1X16.69Y21.5
G1X16.78Y21.51
G1X16.87Y21.49
G1X17.01Y21.42
G1X17.09Y21.36
G1X17.15Y21.33
G1X17.2Y21.31
G1X17.22
G1Y21.33
G1X17.2Y21.37
G1X17.16Y21.42
G1X17.09Y21.48
G1X16.96Y21.59
G1X16.87Y21.65
G1X16.78
M5
G0X16.76Y21.36
M3 S30
; Layer C00
G1Y21.34
G1X16.81Y21.3
G1X16.88Y21.25
G1X16.93
G1Y21.29
G1X16.85Y21.34
G1X16.79Y21.36
G1X16.76
M5
G0X16.84Y21.02
M3 S30
; Layer C00
G1X16.82Y20.97
G1X16.86Y20.9
G1X16.93Y20.82
G1X17Y20.77
G1X17.03
G1Y20.82
G1X16.99Y20.92
G1X16.95Y20.99
G1X16.89Y21.02
G1X16.84
M5
G0X17.07Y20.93
M3 S30
; Layer C00
G1Y20.85
G1X17.12Y20.78
G1X17.15Y20.75
G1X17.17Y20.78
G1Y20.85
G1X17.15Y20.93
G1X17.11Y20.96
G1X17.07Y20.93
M5
G0X17.06Y20.62
M3 S30
; Layer C00
G1Y20.59
G1Y20.51
G1X17.1Y20.35
G1X17.17Y20.27
G1X17.22Y20.26
G1X17.24
G1Y20.29
G1X17.2Y20.33
G1X17.13Y20.45
G1X17.08Y20.57
G1X17.07Y20.62
G1X17.06
M5
G0X17.03Y20.05
M3 S30
; Layer C00
G1X16.99Y20.03
G1Y19.98
G1X17.04Y19.93
G1X17.07Y19.91
G1X17.1Y19.93
G1Y19.98
G1X17.08Y20.03
G1X17.03Y20.05
M5
G0X8.56Y17.79
M3 S30
; Layer C00
G1X8.53Y17.81
G1X8.5Y17.79
G1X8.46Y17.74
G1Y17.69
G1X8.49Y17.67
G1X8.54Y17.69
G1X8.56Y17.74
G1Y17.79
M5
G0X4.19Y21.2
M3 S30
; Layer C00
G1X4.5Y21.45
G1X4.57Y21.5
G1Y21.51
G1X4.53
G1X4.44Y21.47
G1X4.32Y21.36
G1X4.19Y21.2
M5
G0X5.08Y21.75
M3 S30
; Layer C00
G1X5.1
G1X5.11Y21.78
G1X5.13Y21.86
G1X5.11Y21.92
G1X5.08Y21.91
G1Y21.83
G1Y21.78
G1Y21.75
M5
G0X5.34Y22.01
M3 S30
; Layer C00
G1X5.39Y22.04
G1X5.41Y22.11
G1X5.39Y22.19
G1X5.34Y22.22
G1X5.3Y22.19
G1X5.27Y22.11
G1X5.3Y22.04
G1X5.34Y22.01
M5
G0X5.63Y22.25
M3 S30
; Layer C00
G1X5.68Y22.27
G1X5.69Y22.39
G1Y22.51
G1X5.67Y22.56
G1X5.64Y22.53
G1X5.6Y22.43
G1Y22.32
G1X5.63Y22.25
M5
G0X5.94Y22.63
M3 S30
; Layer C00
G1X5.95Y22.66
G1X5.97Y22.77
G1X5.95Y22.87
G1X5.94Y22.88
G1X5.93Y22.87
G1Y22.82
G1X5.92Y22.74
G1Y22.67
G1Y22.63
G1X5.94
M5
G0X6.29Y22.99
M3 S30
; Layer C00
G1X6.32Y23.01
G1Y23.06
G1X6.3Y23.11
G1X6.25Y23.13
G1X6.21Y23.11
G1Y23.06
G1X6.26Y23.01
G1X6.29Y22.99
M5
G0X5.62Y24.52
M3 S30
; Layer C00
G1X5.56
G1X5.51Y24.55
G1Y24.62
G1X5.58Y24.76
G1X5.69Y24.93
G1X5.82Y25.11
G1X5.9Y25.19
G1X5.94
G1Y25.17
G1Y25.11
G1Y25.03
G1X5.92Y24.93
G1X5.86Y24.74
G1X5.75Y24.6
G1X5.69Y24.55
G1X5.62Y24.52
M5
G0X6.07Y24.83
M3 S30
; Layer C00
G1Y24.89
G1X6.13Y25
G1X6.21Y25.15
G1X6.32Y25.33
G1X6.56Y25.7
G1X6.77Y25.98
G1X6.85Y26.06
G1X6.91Y26.11
G1X6.95Y26.13
G1X6.96
G1Y26.08
G1X6.94Y26.02
G1X6.89Y25.92
G1X6.82Y25.81
G1X6.64Y25.48
G1X6.5Y25.18
G1X6.39Y24.99
G1X6.27Y24.87
G1X6.16Y24.81
G1X6.07Y24.83
M5
G0X4.28Y25.06
M3 S30
; Layer C00
G1X4.23Y25.04
G1X4.13Y24.96
G1X3.98Y24.84
G1X3.81Y24.68
G1X3.65Y24.51
G1X3.51Y24.37
G1X3.42Y24.26
G1X3.38Y24.2
G1X3.34Y24.1
G1X3.24Y23.97
G1X3.16Y23.86
G1X3.12Y23.77
G1X3.1Y23.71
G1X3.13Y23.69
G1X3.16Y23.72
G1X3.22Y23.8
G1X3.31Y23.92
G1X3.41Y24.07
G1X3.69Y24.42
G1X3.99Y24.74
G1X4.11Y24.86
G1X4.2Y24.95
G1X4.26Y25.03
G1X4.28Y25.06
M5
G0X4.19Y24.38
M3 S30
; Layer C00
G1X4.2Y24.35
G1Y24.28
G1X4.16Y24.16
G1X4.1Y24.1
G1X4.04
G1X4Y24.17
G1X3.99Y24.27
G1X4.02Y24.28
G1X4.07
G1X4.12Y24.32
G1X4.16Y24.37
G1X4.19Y24.38
M5
G0X7.46Y26.08
M3 S30
; Layer C00
G1Y26.1
G1X7.48Y26.16
G1X7.53Y26.24
G1X7.57
G1Y26.19
G1X7.52Y26.12
G1X7.48Y26.08
G1X7.46
M5
G0X13.56Y27.52
M3 S30
; Layer C00
G1X13.59
G1X13.61Y27.59
G1X13.64Y27.76
G1X13.66Y27.89
G1X13.69Y27.99
G1X13.72Y28.05
G1X13.75
G1X13.78
G1X13.8Y28.09
G1Y28.15
G1X13.81Y28.23
G1X13.79Y28.39
G1X13.74Y28.48
G1X13.69Y28.46
G1X13.67Y28.35
G1X13.66Y28.22
G1X13.61Y28.17
G1X13.54Y28.11
G1X13.5Y27.96
G1Y27.77
G1X13.52Y27.6
G1X13.56Y27.52
M5
G0X13.96Y28.3
M3 S30
; Layer C00
G1X13.99Y28.32
G1X14.01Y28.41
G1X13.98Y28.55
G1X13.93Y28.67
G1X13.88Y28.73
G1X13.84Y28.67
G1X13.86Y28.54
G1X13.89Y28.4
G1X13.93Y28.33
G1X13.96Y28.3
M5
G0X14.09Y28.59
M3 S30
; Layer C00
G1X14.14Y28.6
G1X14.16Y28.64
G1X14.14Y28.71
G1X14.09Y28.8
G1X14.06Y28.84
G1X14.04Y28.85
G1X14.03Y28.82
G1Y28.75
G1X14.05Y28.63
G1X14.09Y28.59
M5
G0X14.3Y29.08
M3 S30
; Layer C00
G1X14.36Y29.1
G1X14.41Y29.15
G1Y29.2
G1X14.38Y29.22
G1X14.32Y29.2
G1X14.27Y29.15
G1X14.26Y29.1
G1X14.3Y29.08
M5
G0X14.54Y29.32
M3 S30
; Layer C00
G1X14.56
G1X14.6Y29.36
G1X14.65Y29.42
G1X14.72Y29.51
G1X14.85Y29.75
G1X14.92Y30.03
G1Y30.16
G1X14.93Y30.25
G1Y30.31
G1X14.92Y30.33
G1X14.9Y30.32
G1X14.88Y30.27
G1X14.86Y30.19
G1X14.83Y30.08
G1X14.76Y29.82
G1X14.65Y29.58
G1X14.59Y29.47
G1X14.55Y29.4
G1X14.54Y29.35
G1Y29.32
M5
G0X15.34Y28.9
M3 S30
; Layer C00
G1X15.39Y28.92
G1X15.44Y28.86
G1X15.5Y28.72
G1X15.55Y28.52
G1X15.63Y28.17
G1X15.78Y27.62
G1X15.81Y27.48
G1X15.82Y27.38
G1Y27.32
G1X15.81Y27.3
G1X15.78Y27.33
G1X15.74Y27.41
G1X15.69Y27.54
G1X15.55Y27.98
G1X15.43Y28.41
G1X15.39Y28.6
G1X15.35Y28.75
G1X15.34Y28.85
G1Y28.9
M5
G0X15.8Y29.1
M3 S30
; Layer C00
G1X15.85Y29.05
G1X15.93Y28.99
G1X16.06Y28.91
G1X16.24Y28.81
G1X16.43Y28.7
G1X16.74Y28.52
G1X17.09Y28.28
G1X17.45Y28
G1X17.81Y27.69
G1X18.15Y27.39
G1X18.44Y27.09
G1X18.68Y26.82
G1X18.84Y26.59
G1X18.91Y26.51
G1X18.96
G1X18.95Y26.56
G1X18.87Y26.69
G1X18.75Y26.86
G1X18.59Y27.06
G1X18.23Y27.48
G1X17.9Y27.82
G1X17.58Y28.09
G1X17.34Y28.3
G1X17.14Y28.47
G1X16.94Y28.62
G1X16.53Y28.88
G1X16.1Y29.08
G1X15.94Y29.14
G1X15.82Y29.16
G1X15.79Y29.15
G1Y29.13
G1X15.8Y29.1
M5
G0X15.73Y28.63
M3 S30
; Layer C00
G1X15.77
G1X15.82Y28.57
G1X15.84Y28.51
G1X15.82Y28.47
G1X15.77Y28.48
G1X15.73Y28.53
G1X15.7Y28.6
G1X15.73Y28.63
M5
G0X14.91Y28.01
M3 S30
; Layer C00
G1X14.93Y27.95
G1X14.91Y27.87
G1X14.9Y27.85
G1X14.88
G1Y27.87
G1Y27.92
G1Y28
G1X14.91
M5
G0X15Y27.61
M3 S30
; Layer C00
G1X15.04Y27.58
G1X15.08Y27.5
G1X15.13Y27.38
G1X15.17Y27.23
G1X15.22Y27.07
G1X15.25Y26.95
G1X15.27Y26.86
G1Y26.81
G1Y26.79
G1X15.25Y26.82
G1X15.22Y26.88
G1X15.17Y26.98
G1X15.07Y27.23
G1X15Y27.43
G1X14.98Y27.56
G1X15Y27.61
M5
G0X19.57Y28.8
M3 S30
; Layer C00
G1X19.58Y28.89
G1X19.66Y28.98
G1X19.77Y29.06
G1X19.81
G1X19.79Y29.01
G1X19.72Y28.89
G1X19.66Y28.82
G1X19.62Y28.78
G1X19.59
G1X19.57Y28.8
M5
G0X20.08Y29.57
M3 S30
; Layer C00
G1X20.15Y29.59
G1X20.18Y29.64
G1X20.17Y29.69
G1X20.12Y29.71
G1X20.06Y29.69
G1X20.01Y29.64
G1Y29.59
G1X20.08Y29.57
M5
G0X20.33Y29.78
M3 S30
; Layer C00
G1X20.39Y29.81
G1X20.44Y29.9
G1X20.5Y30
G1X20.56Y30.07
G1X20.59Y30.13
G1Y30.2
G1X20.57Y30.22
G1X20.53Y30.19
G1X20.47Y30.13
G1X20.41Y30.03
G1X20.36Y29.93
G1X20.32Y29.85
G1Y29.8
G1Y29.78
M5
G0X19.78Y29.68
M3 S30
; Layer C00
G1X19.83Y30
G1X19.88Y30.28
G1X19.93Y30.54
G1X20.04Y31
G1X20.16Y31.37
G1X20.29Y31.69
G1X20.44Y31.95
G1X20.62Y32.18
G1X20.83Y32.39
G1X20.98Y32.52
G1X21.09Y32.61
G1X21.17Y32.67
G1X21.24Y32.69
G1X21.28Y32.68
G1X21.31Y32.63
G1X21.34Y32.55
G1X21.38Y32.43
G1X21.44Y32.1
G1X21.47Y31.69
G1Y31.25
G1X21.45Y30.79
G1X21.4Y30.34
G1X21.33Y29.95
G1X21.29Y29.78
G1X21.24Y29.63
G1X21.19Y29.52
G1X20.91Y29.06
G1X20.68Y28.59
G1X20.62Y28.49
G1X20.55Y28.37
G1X20.47Y28.24
G1X20.27Y27.92
G1X20.08Y27.59
G1X20.01Y27.46
G1X19.95Y27.36
G1X19.9Y27.31
G1X19.85Y27.3
G1X19.77Y27.34
G1X19.67Y27.43
G1X19.52Y27.57
G1X19.32Y27.77
G1X18.82Y28.21
G1X18.31Y28.58
G1X18.07Y28.73
G1X17.9Y28.85
G1X17.8Y28.95
G1Y29.07
G1X17.82Y29.13
G1X17.87Y29.21
G1X17.94Y29.29
G1X18.04Y29.39
G1X18.16Y29.51
G1X18.3Y29.64
G1X18.67Y29.96
G1X18.99Y30.26
G1X19.28Y30.55
G1X19.51Y30.81
G1X19.67Y31.01
G1X19.78Y31.18
G1X19.85Y31.28
G1X19.91Y31.34
G1X19.93
G1Y31.28
G1X19.91Y31.15
G1X19.87Y30.97
G1X19.81Y30.72
G1X19.74Y30.45
G1X19.68Y30.17
G1X19.63Y29.93
G1X19.57Y29.56
G1X19.51Y29.33
G1X19.45Y29.08
G1X19.31Y28.58
G1X19.26Y28.37
G1X19.23Y28.19
G1Y28.06
G1X19.25Y27.99
G1X19.28Y27.98
G1X19.34Y28.03
G1X19.42Y28.17
G1X19.58Y28.52
G1X19.71Y28.78
G1X19.87Y29.08
G1X19.93Y29.2
G1X19.97Y29.32
G1X20Y29.4
G1Y29.45
G1X19.97Y29.46
G1X19.94Y29.44
G1X19.9Y29.4
G1X19.78Y29.2
G1X19.73Y29.16
G1X19.71Y29.2
G1X19.73Y29.34
G1X19.78Y29.68
M5
G0X18.73Y30.29
M3 S30
; Layer C00
G1X18.29Y29.88
G1X17.86Y29.48
G1X17.71Y29.34
G1X17.6Y29.23
G1X17.51Y29.17
G1X17.44Y29.14
G1X17.37
G1X17.29Y29.18
G1X17.2Y29.25
G1X17.08Y29.35
G1X16.96Y29.43
G1X16.84Y29.46
G1X16.45Y29.49
G1X16.07Y29.54
G1X15.9Y29.57
G1X15.78Y29.6
G1X15.7Y29.63
G1X15.68Y29.65
G1X15.75Y29.83
G1X15.81Y30.1
G1X15.86Y30.44
G1X15.89Y30.83
G1X15.9Y31.72
G1X15.84Y32.65
G1X15.78Y33.23
G1X15.73Y33.79
G1X15.71Y34
G1X15.67Y34.16
G1X15.62Y34.27
G1X15.55Y34.33
G1X15.46Y34.35
G1X15.34Y34.32
G1X15.2Y34.24
G1X15.03Y34.13
G1X14.91Y34.02
G1X14.77Y33.87
G1X14.62Y33.68
G1X14.46Y33.48
G1X14.32Y33.28
G1X14.2Y33.1
G1X14.12Y32.95
G1X14.09Y32.86
G1Y32.8
G1X14.04Y32.69
G1X13.97Y32.54
G1X13.88Y32.34
G1X13.78Y32.1
G1X13.66Y31.84
G1X13.52Y31.55
G1X13.37Y31.25
G1X13.28Y31.08
G1X13.16Y30.85
G1X13.01Y30.6
G1X12.85Y30.34
G1X12.7Y30.08
G1X12.28Y29.39
G1X12.16Y29.22
G1X12.03Y29.07
G1X11.87Y28.93
G1X11.35Y28.6
G1X11Y28.34
G1X10.83Y28.22
G1X10.69Y28.1
G1X10.58Y28.01
G1X10.52Y27.94
G1X10.39Y27.85
G1X10.18Y27.77
G1X9.96Y27.72
G1X9.57
G1X9.31Y27.66
G1X9.03Y27.57
G1X8.76Y27.52
G1X8.66Y27.49
G1X8.53Y27.44
G1X8.38Y27.37
G1X8.22Y27.28
G1X7.89Y27.05
G1X7.57Y26.8
G1X7.47Y26.73
G1X7.34Y26.64
G1X7.17Y26.56
G1X7Y26.47
G1X6.82Y26.4
G1X6.66Y26.34
G1X6.53Y26.29
G1X6.43Y26.28
G1X6.34Y26.24
G1X6.17Y26.04
G1X6.08Y26
G1X5.99Y25.98
