; LightBurn 0.9.24
; GRBL device profile, absolute coords
; Bounds: X3 Y3 to X32.25 Y33
G00 G17 G40 G21 G54
G90
M4
; Cut @ 6000 mm/min, 20% power
M8
M5
G0X11.89Y4.43
M3 S30
; Layer C00
G1X11.93S20F6000
G1X11.97
G1X12.02
G1X12.08Y4.45
G1Y4.55
G1X12.03Y4.64
G1Y4.7
G1Y4.75
G1X12.04Y4.8
G1X12.06Y4.85
G1X12.13
G1X12.15Y4.78
G1X12.23
G1X12.26Y4.89
G1X12.32Y4.91
G1X12.37Y4.86
G1Y4.71
G1Y4.6
G1X12.39Y4.52
G1X12.4Y4.47
G1X12.52Y4.45
G1Y4.36
G1X12.55Y4.28
G1X12.65
G1X12.62Y4.48
G1X12.64Y4.66
G1X12.67Y4.82
G1X12.69Y4.95
G1X12.72Y5.04
G1X12.7Y5.06
G1X12.69Y5.08
G1Y5.11
G1Y5.15
G1X12.32Y5.51
G1X12.17Y5.7
G1X12.06Y5.85
G1X12Y5.94
G1X11.97Y5.99
G1X11.91Y6.02
G1X11.86Y6.04
G1X11.81
G1X11.77
G1X11.75Y6.12
G1X11.65Y6.13
G1X11.63Y6.26
G1X11.55Y6.27
G1X11.45Y6.21
G1X11.39Y6.23
G1Y6.37
G1X11.32Y6.41
G1X11.39Y6.56
G1X11.2Y6.85
G1X11.08Y7.04
G1X10.99
G1X10.87Y7.21
G1X10.89Y7.26
G1X10.94
G1X10.86Y7.41
G1X10.79Y7.56
G1X10.73Y7.68
G1X10.69Y7.8
G1X10.61
G1X10.56Y7.84
G1Y7.97
G1X10.49Y8.08
G1X10.43Y8.1
G1X10.31Y8.15
G1Y8.2
G1X10.4Y8.32
G1X10.39Y8.5
G1X10.33Y8.62
G1X10.21Y8.68
G1Y8.76
G1X10.16Y8.82
G1X10.09Y8.84
G1X10.08Y8.92
G1X10.11Y8.97
G1X10.09Y9.16
G1X9.8
G1Y9.32
G1X10.06Y9.33
G1X9.99Y9.4
G1X9.91Y9.57
G1X9.9Y9.67
G1X9.88Y9.74
G1X9.86Y9.8
G1X9.84Y9.84
G1X9.93Y9.91
G1X9.89Y10.09
G1X9.85Y10.29
G1Y10.3
G1X9.81Y10.28
G1X9.77Y10.27
G1X9.74
G1X9.71
G1X9.69Y10.32
G1X9.81Y10.45
G1X9.79Y10.56
G1X9.77Y10.67
G1X9.74Y10.78
G1X9.71Y10.88
G1X9.66Y10.81
G1X9.59Y10.83
G1X9.61Y10.9
G1X9.69
G1X9.67Y10.94
G1X9.65Y10.98
G1X9.63Y11.01
G1Y11.03
G1X9.62Y11.07
G1X9.6Y11.14
G1X9.56Y11.26
G1X9.5Y11.42
G1X9.45Y11.58
G1X9.4Y11.75
G1X9.35Y12.2
G1X9.29Y12.14
G1X9.23Y12.1
G1X9.2Y12.09
G1X9.17
G1Y12.07
G1X9.13Y12.01
G1X8.93Y11.77
G1X8.84Y11.67
G1X8.78Y11.58
G1X8.8Y11.36
G1X8.75Y11.29
G1Y11.17
G1X8.82Y11.15
G1Y11.08
G1X8.77Y11.03
G1Y10.93
G1X8.86
G1X8.89Y10.87
G1X8.81Y10.76
G1X8.72Y10.61
G1X8.69Y10.48
G1Y10.43
G1X8.78
G1X8.83Y10.52
G1X8.89
G1X8.91Y10.42
G1X8.96Y10.39
G1Y10.3
G1X9.07
G1X9.22Y10.45
G1X9.3Y10.44
G1Y10.37
G1X9.22Y10.26
G1X9.25Y10.08
G1X9.15Y10.02
G1Y9.89
G1X9.06Y9.85
G1Y9.75
G1X9.13Y9.73
G1Y9.67
G1X9.08Y9.65
G1Y9.57
G1X9.35Y9.45
G1X9.46
G1X9.57
G1X9.68Y9.44
G1X9.8Y9.43
G1Y9.32
G1X9.28Y9.29
G1X9.12Y9.36
G1X9.04
G1Y9.25
G1X9.19Y9.18
G1X9.32
G1X9.37Y9.1
G1X9.44
G1X9.46Y9.06
G1X9.6Y9.07
G1X9.61Y9.02
G1X9.59Y8.65
G1X9.52Y8.64
G1X9.46Y8.68
G1Y8.81
G1X9.36
G1Y8.71
G1X9.29Y8.69
G1Y8.43
G1X9.38Y8.39
G1X9.48Y8.36
G1X9.59Y8.33
G1X9.71Y8.31
G1X9.77Y8.22
G1X9.75Y8.16
G1X9.72
G1X9.67Y8.18
G1X9.58Y8.21
G1X9.46Y8.26
G1X9.35
G1Y8.16
G1X9.48Y8.09
G1Y8
G1X9.57Y7.92
G1X9.76Y7.84
G1X9.77Y7.76
G1X10.03
G1Y7.7
G1X9.92Y7.67
G1X9.88Y7.61
G1X9.86
G1X9.83Y7.62
G1X9.78Y7.65
G1X9.73Y7.69
G1X9.57
G1X9.55Y7.76
G1X9.42
G1X9.43Y7.66
G1X9.54Y7.65
G1X9.56Y7.6
G1X9.59Y7.56
G1Y7.51
G1X9.61Y7.46
G1X9.66Y7.44
G1X9.78Y7.43
G1X9.96Y7.41
G1X10.2Y7.4
G1Y7.33
G1X10.02Y7.29
G1Y7.21
G1X10.24Y7.2
G1X10.23Y7.02
G1X10.35
G1X10.38Y7.11
G1X10.51Y7.13
G1X10.54Y7.11
G1X10.52Y6.99
G1X10.58Y6.86
G1X10.54Y6.8
G1X10.44Y6.77
G1X10.36Y6.75
G1X10.3
G1X10.25
G1Y6.65
G1X10.51
G1X10.71Y6.72
G1X10.76Y6.67
G1X10.69Y6.54
G1Y6.51
G1X10.68Y6.48
G1Y6.45
G1X10.74Y6.4
G1X10.68Y6.27
G1Y6.1
G1X10.79
G1X10.81Y6.18
G1X10.88Y6.17
G1X10.87Y5.98
G1X11.03Y5.96
G1Y5.92
G1X11Y5.57
G1X11.12
G1X11.14Y5.49
G1X11.23
G1X11.24Y5.58
G1X11.36
G1X11.37Y5.24
G1X11.46
G1X11.49Y5.44
G1X11.55Y5.46
G1X11.59Y5.41
G1X11.73Y5.39
G1X11.71Y4.98
G1X11.76Y4.78
G1X11.86Y4.73
G1X11.87Y4.68
G1X11.88Y4.62
G1Y4.53
G1X11.89Y4.43
M5
G0X17.59Y6.95
M3 S30
; Layer C00
G1X17.01Y7.49
G1X16.91Y7.67
G1X16.82Y7.65
G1X16.75Y7.68
G1X16.68Y7.72
G1X16.61Y7.78
G1X16.54Y7.84
G1Y7.94
G1X16.5Y7.96
G1Y8.12
G1X16.46Y8.14
G1X16.43Y8.16
G1Y8.18
G1X16.4Y8.24
G1X16.35Y8.34
G1X16.28Y8.49
G1X16.23Y8.63
G1X16.18Y8.78
G1X16.08Y8.81
G1X15.98Y8.91
G1X15.78Y9.13
G1X15.63Y9.34
G1X15.61Y9.4
G1X15.58
G1X15.52Y9.38
G1X15.44Y9.35
G1X15.32Y9.3
G1X15.24Y9.18
G1X15.13Y9.12
G1X14.9Y9.13
G1X14.69Y9.15
G1X14.5Y9.17
G1X14.33Y9.19
G1X14.22Y9.23
G1X14.06Y9.29
G1X13.86Y9.39
G1X13.62Y9.51
G1X13.39Y9.62
G1X13.19Y9.72
G1X13.05Y9.8
G1X12.95Y9.86
G1X12.81Y10.04
G1X12.72
G1X12.64
G1X12.56Y10.06
G1X12.5Y10.08
G1X12.34Y10.21
G1X12.26Y10.32
G1X12.2Y10.42
G1X12.17Y10.49
G1X12.16Y10.54
G1X12.09Y10.58
G1X12.04Y10.61
G1X12Y10.65
G1X11.97Y10.68
G1X11.93Y10.83
G1X11.89Y10.99
G1X11.86Y11.18
G1X11.84Y11.33
G1X11.82Y11.42
G1X11.81Y11.46
G1X11.78
G1X11.74Y11.47
G1X11.68Y11.49
G1X11.62Y11.52
G1X11.54Y11.64
G1Y11.83
G1X11.61Y12.07
G1X11.56Y12.44
G1Y12.85
G1X11.5Y13.14
G1Y13.42
G1X11.38Y13.52
G1X11.32Y13.63
G1X11.27Y13.72
G1X11.25Y13.77
G1Y13.79
G1X11.31Y13.84
G1X11.29Y13.91
G1X11.2
G1X11.17Y13.96
G1X11.24Y14.07
G1X11.18Y14.2
G1X11.03
G1X11.02Y14.3
G1X11.06Y14.34
G1Y14.43
G1X11.11Y14.44
G1X11.07Y14.69
G1X11.05Y14.76
G1Y14.81
G1Y14.89
G1X11.02Y15.18
G1X11.04Y15.31
G1X11.18Y15.45
G1X11.22Y15.47
G1X11.27Y15.48
G1X11.39Y15.53
G1X11.43Y15.5
G1X11.46Y15.48
G1X11.52Y15.46
G1X11.59Y15.44
G1X11.67Y15.4
G1X11.88Y15.2
G1X12.11
G1X12.15Y15.35
G1X12.24Y15.42
G1X12.33
G1X12.37Y15.36
G1X12.73Y15.38
G1X13.1Y15.47
G1X13.56Y15.76
G1X13.83Y16.03
G1X13.98
G1X14.05Y15.97
G1Y15.91
G1X14.15Y15.8
G1Y15.63
G1X14.2Y15.45
G1Y15.27
G1X14.12Y15.22
G1X13.89Y15.2
G1X13.75Y15.15
G1X13.65Y15.11
G1X13.61Y15.09
G1Y15.08
G1X13.75Y15.09
G1X13.8Y15.03
G1X13.79Y14.97
G1X13.69Y14.96
G1X13.6Y15.04
G1X13.56
G1X13.53
G1X13.49
G1X13.46Y15.06
G1X13.31Y15.05
G1X13.27Y15.01
G1X13.14
G1X13.08Y14.92
G1X12.92Y14.93
G1X12.91Y15.05
G1X12.59
G1X12.47Y15.11
G1X12.25
G1X12.18Y15.15
G1X12.13Y15.11
G1X12.21
G1X12.3Y15.04
G1X12.32Y14.9
G1X12.39Y14.86
G1X12.52Y15.01
G1X12.56Y14.99
G1X12.59Y14.96
G1X12.61Y14.94
G1X12.63Y14.91
G1X12.56Y14.83
G1X12.6Y14.79
G1X12.81Y14.83
G1X13.06Y14.87
G1X13.14Y14.85
G1X13.22Y14.74
G1X13.26Y14.75
G1X13.32Y14.78
G1X13.39Y14.82
G1X13.48Y14.87
G1X13.57Y14.88
G1X13.65Y14.9
G1X13.74
G1X13.96Y14.93
G1X14.41Y15.02
G1X14.81Y15.08
G1X14.92Y15.1
G1X15Y15.15
G1X15.12Y15.23
G1X15.27Y15.34
G1X15.44Y15.54
G1X15.62Y15.88
G1X15.65Y15.94
G1Y15.95
G1X15.45Y15.96
G1Y16.04
G1X15.71
G1X15.77Y16.14
G1X15.74Y16.17
G1X15.63
G1X15.5Y16.29
G1X15.46Y16.44
G1X15.52Y16.61
G1X15.42Y16.81
G1Y17.14
G1X15.29Y17.24
G1X15.13Y17.38
G1X14.93Y17.56
G1X14.72Y17.74
G1X14.54Y17.89
G1X14.4Y18.02
G1X14.18Y18.14
G1X14.15
G1X14.1Y18.16
G1X13.93Y18.24
G1X13.82Y18.28
G1X13.71Y18.32
G1X13.69Y18.26
G1X13.61
G1X13.58Y18.31
G1X13.63Y18.36
G1X13.24Y18.47
G1X13.07Y18.5
G1X12.88Y18.52
G1X12.67Y18.56
G1X12.44Y18.6
G1X12.14Y18.62
G1Y18.55
G1X12Y18.47
G1X11.66Y18.53
G1X11.62
G1X11.58Y18.5
G1X11.57Y18.45
G1Y18.43
G1X11.84Y18.37
G1X11.85Y18.26
G1X11.76Y18.22
G1X11.13Y18.21
G1X11.08Y18.24
G1X11.03Y18.14
G1X11.04Y17.87
G1X10.98Y17.74
G1X10.91Y17.7
G1Y17.59
G1X10.88Y17.53
G1X10.84Y17.46
G1X10.8Y17.41
G1X10.75Y17.35
G1Y16.88
G1X10.82Y16.62
G1X10.79Y16.48
G1X10.66Y16.36
G1X10.46
G1X10.35Y16.41
G1X10.27Y16.52
G1X10.25Y16.62
G1X10.2Y16.84
G1Y17.12
G1Y17.33
G1X10.11Y17.37
G1X10.04Y17.39
G1Y17.47
G1X10.1Y17.54
G1X10.19
G1Y17.58
G1X10.3Y17.66
G1X10.25Y17.75
G1X10.22Y17.81
G1X10.19Y17.84
G1X10.18Y17.89
G1X10.19Y17.94
G1X10.21Y17.96
G1X10.22Y18.49
G1X10.36Y18.88
G1X10.44Y19.15
G1X10.38Y19.19
G1X10.41Y19.25
G1X10.48Y19.27
G1Y19.42
G1X10.42Y19.47
G1X10.44Y19.53
G1X10.52
G1X10.61Y19.59
G1X10.69Y19.65
G1X10.75Y19.68
G1X10.79Y19.7
G1Y19.78
G1X10.85Y19.81
G1Y19.87
G1X10.9Y19.91
G1X11.02Y19.93
G1X11.11
G1X11.16Y19.95
G1X11.19Y19.97
G1X11.21Y20.07
G1X11.3Y20.08
G1X11.33Y20.13
G1X11.48
G1X11.5Y20.25
G1X11.61
G1X11.76Y20.36
G1X12.06Y20.46
G1X12.35Y20.49
G1X12.38Y20.52
G1X12.54Y20.49
G1X12.77
G1X13
G1X13.15Y20.46
G1X13.28Y20.43
G1X13.37Y20.41
G1X13.44Y20.38
G1X13.68
G1X14.01Y20.35
G1X14.1Y20.41
G1X14.17Y20.4
G1X14.22Y20.38
G1X14.26Y20.37
G1X14.28Y20.35
G1X14.3Y20.41
G1X14.35
G1X14.4
G1X14.44Y20.43
G1X14.49Y20.45
G1X14.59Y20.43
G1X14.63Y20.34
G1X14.74
G1X14.87Y20.33
G1X15.04Y20.3
G1X15.27Y20.25
G1X15.56Y20.19
G1X15.95Y20.1
G1X16.15Y20
G1X16.46Y19.88
G1X16.98Y19.7
G1X17.13Y19.64
G1X17.22Y19.59
G1X17.33Y19.54
G1X17.61Y19.38
G1X17.89Y19.21
G1X18.17Y19.04
G1X18.43Y18.87
G1X18.75Y18.65
G1X18.91Y18.54
G1X19.1Y18.43
G1X19.41Y18.17
G1X19.75Y17.8
G1X19.89Y17.65
G1X20.01Y17.51
G1X20.14Y17.38
G1X20.28Y17.25
G1X20.36Y17.14
G1X20.43Y17.06
G1X20.47Y17.01
G1X20.51Y16.98
G1Y16.91
G1X20.65Y16.71
G1X20.84Y16.65
G1X21.02Y16.47
G1X21.19Y16.4
G1X21.41Y16.19
G1X21.51Y16.06
G1X21.58Y15.95
G1X21.62Y15.86
G1X21.65Y15.8
G1Y15.65
G1X21.73Y15.55
G1X21.77Y15.34
G1X21.9Y15.14
G1X21.93Y15
G1X21.95Y14.89
G1X21.98Y14.81
G1X22Y14.76
G1X22.04
G1X22.1Y14.62
G1X22.11Y14.37
G1X21.99Y14.26
G1X21.86
G1X21.7Y14.32
G1X21.26
G1X21.12
G1X21.02Y14.31
G1X20.89Y14.34
G1X20.95Y14.27
G1Y14.17
G1X20.88Y14.09
G1X20.78
G1X20.7Y14.17
G1Y14.21
G1Y14.24
G1X20.72Y14.28
G1X20.74Y14.32
G1X20.69Y14.3
G1X20.61Y14.28
G1X20.37Y14.19
G1X20.25Y14.16
G1X20.14Y14.13
G1X19.8
G1X19.79Y14.05
G1X19.73Y14.04
G1X19.6Y14.11
G1Y14.19
G1X19.43Y14.17
G1X19.38Y14.24
G1X19.26
G1X19.04Y14.25
G1X18.86Y14.29
G1X18.83Y14.3
G1X18.68Y14.25
G1X18.59Y14.31
G1X18.17
G1X18Y14.27
G1X17.86Y14.23
G1X17.77Y14.2
G1X17.66Y14.15
G1X17.45Y14.08
G1X17.18Y13.99
G1X16.97Y13.87
G1X16.94Y13.82
G1X16.91
G1X16.86Y13.8
G1X16.78Y13.76
G1X16.67Y13.7
G1X16.41Y13.43
G1X16.37Y13.35
G1X16.34Y13.29
G1X16.33Y13.26
G1X16.3Y13.21
G1X16.23Y13.12
G1X16.14Y13
G1X16.09Y12.89
G1X16.03Y12.75
G1X15.95Y12.56
G1X15.85Y12.36
G1X15.72Y12.03
G1X15.67Y11.94
G1X15.64Y11.89
G1X15.6Y11.77
G1X15.57Y11.67
G1X15.54Y11.6
G1X15.51Y11.55
G1X15.49Y11.49
G1X15.48Y11.43
G1X15.56Y10.77
G1X15.54Y10.06
G1X15.64
G1X15.72
G1X15.77
G1X15.8Y10.04
G1X15.78Y10.3
G1X15.83Y10.43
G1X15.94Y10.52
G1Y10.57
G1Y10.64
G1X15.97Y10.75
G1X16Y10.88
G1X16.03Y11.33
G1X16.06Y11.65
G1X16.13Y11.67
G1Y12.01
G1X16.33Y12.37
G1X16.5Y12.53
G1X16.46Y12.58
G1X16.48Y12.64
G1X16.55
G1X16.57Y12.68
G1X16.61Y12.74
G1X16.75Y12.92
G1X16.81Y13
G1X16.86Y13.08
G1X17.11Y13.34
G1X17.15Y13.48
G1X17.29Y13.5
G1X17.38Y13.58
G1X17.46Y13.66
G1X17.59Y13.81
G1X17.62Y13.84
G1X17.66Y13.86
G1X17.74Y13.91
G1X17.85Y13.98
G1X18.16Y14.06
G1X18.76Y14.05
G1X19.11Y13.94
G1X19.36Y13.83
G1X19.37Y13.75
G1X19.5Y13.73
G1Y13.63
G1X19.69
G1X19.83Y13.6
G1X20.1Y13.41
G1X20.15Y13.38
G1X20.22Y13.41
G1X20.56Y13.64
G1X21Y13.86
G1X21.25Y13.89
G1X21.45Y13.92
G1X21.57Y13.95
G1X21.64Y13.96
G1X22.06
G1X22.15Y13.88
G1Y13.84
G1X22.16Y13.77
G1X22.21Y13.59
G1X22.23Y13.53
G1Y13.49
G1X22.33Y13.42
G1X22.57Y13.4
G1X22.64Y13.35
G1X22.73Y13.27
G1X22.84Y13.16
G1X22.96Y13.02
G1X23.04Y12.87
G1Y12.67
G1X22.96Y12.55
G1X22.84Y12.49
G1X22.67
G1X22.62Y12.51
G1X22.58Y12.54
G1X22.53Y12.57
G1X22.49Y12.62
G1X22.2Y12.64
G1X21.81Y12.68
G1X21.29
G1X21.04Y12.59
G1X20.76Y12.55
G1X20.61Y12.41
G1X20.56Y12.39
G1X20.49Y12.37
G1X20.42Y12.34
G1X20.34Y12.33
G1X20.33Y12.22
G1X20.22
G1Y12.07
G1X20.28Y12.05
G1X20.27Y11.95
G1X20.19
G1X20.18Y12.03
G1X20.04Y12.04
G1X20.03Y12.16
G1X19.92
G1X19.87Y12.24
G1X19.83Y12.29
G1X19.82Y12.33
G1X19.79Y12.35
G1X19.73Y12.36
G1X19.7
G1Y12.28
G1X19.61
G1Y12.43
G1X19.52Y12.45
G1X19.44Y12.47
G1X19.36
G1X19.29
G1X19.16Y12.6
G1X19.09
G1X19.05
G1X19.02Y12.61
G1X18.98Y12.62
G1X18.9
G1X18.78Y12.63
G1X18.65Y12.7
G1X18.53Y12.72
G1X18.43
G1X18.34Y12.74
G1X18.25
G1X18.23Y12.76
G1X18.18Y12.78
G1X18.1Y12.75
G1X18.05Y12.72
G1X17.66Y12.64
G1X17.34Y12.56
G1X17.12Y12.45
G1X17.04
G1Y12.38
G1X16.93Y12.31
G1X16.84
G1Y12.13
G1X16.68Y11.86
G1X16.67Y11.36
G1X16.81Y11.24
G1X17.07Y11.17
G1X17.21Y11.02
G1X17.24Y10.91
G1X17.43Y10.89
G1X17.47Y10.85
G1X17.55
G1X17.68Y10.8
G1X17.79Y10.74
G1X17.89Y10.68
G1X17.99Y10.62
G1X18.1Y10.64
G1X18.13Y10.56
G1X18.26Y10.47
G1X18.41Y10.5
G1X18.44Y10.48
G1X18.46Y10.46
G1Y10.44
G1Y10.41
G1X18.38Y10.38
G1X18.53Y10.26
G1X18.65
G1X18.7Y10.23
G1X18.81Y10.14
G1X18.87Y10.06
G1X18.89Y10.01
G1X18.94Y9.91
G1X19.03Y9.76
G1X19.27Y9.38
G1X19.36Y9.23
G1X19.42Y9.12
G1X19.46Y8.78
G1Y7.62
G1X19.39Y7.33
G1X19.27Y7.04
G1X19.12Y6.88
G1X19Y6.84
G1X18.87Y6.81
G1X18.72Y6.77
G1X18.57Y6.74
G1X18.03
G1X17.82Y6.8
G1X17.59Y6.95
M5
G0X20.33Y7.49
M3 S30
; Layer C00
G1Y8.14
G1X20.46Y8.62
G1X20.47Y8.82
G1X20.51Y9.19
G1X20.58Y9.55
G1X20.61Y9.68
G1X20.7Y9.88
G1X20.78Y9.98
G1X20.85Y10.07
G1X20.96Y10.26
G1X21.02Y10.34
G1X21.27Y10.61
G1X21.3
G1X21.33
G1X21.38Y10.65
G1X21.44Y10.69
G1X21.53Y10.73
G1X21.55Y10.8
G1X21.73Y10.92
G1X21.89Y10.97
G1X21.98Y11.04
G1X22.06Y11.1
G1X22.15Y11.16
G1X22.24Y11.22
G1X22.47Y11.29
G1X22.94
G1X23Y11.27
G1X23.08Y11.23
G1X23.19Y11.16
G1X23.31Y11.08
G1X23.39Y10.98
G1X23.4Y9.89
G1X23.37Y9.52
G1X23.42Y9.31
G1X23.38Y8.69
G1X23.36Y8.62
G1X23.34Y8.56
G1X23.26Y8.43
G1X23.25Y8.39
G1Y8.37
G1X23.17Y8.32
G1Y8.3
G1X23.19Y8.26
G1X23.22Y8.19
G1X23.27Y8.1
G1Y8.05
G1X23.25Y7.95
G1X23.19Y7.83
G1X23.09Y7.69
G1X22.91Y7.47
G1X22.88Y7.43
G1Y7.41
G1X22.85Y7.4
G1X22.78Y7.36
G1X22.68Y7.29
G1X22.26Y6.99
G1X22.04Y6.85
G1X21.98Y6.81
G1X21.91Y6.78
G1X21.34Y6.76
G1X21.1Y6.81
G1X20.85Y6.91
G1X20.57Y7.12
G1X20.51Y7.19
G1X20.45Y7.28
G1X20.39Y7.38
G1X20.33Y7.49
M5
G0X23.89Y8.92
M3 S30
; Layer C00
G1X23.79Y9.02
G1Y9.18
G1X23.77Y9.32
G1X23.75Y9.44
G1X23.74Y9.55
G1Y9.69
G1Y9.84
G1X23.76Y9.91
G1X23.79Y10.02
G1X23.83Y10.17
G1X23.88Y10.35
G1X23.9Y10.73
G1X23.85Y10.86
G1Y10.96
G1X23.76Y11.12
G1X23.75Y11.26
G1X23.71Y11.61
G1X23.75Y11.66
G1X23.73Y11.7
G1X23.7Y11.73
G1X23.65Y11.76
G1X23.6Y11.79
G1Y11.89
G1X23.53Y11.98
G1X23.55Y12.05
G1X23.57Y12.26
G1Y12.49
G1X23.58Y12.56
G1X23.5Y12.71
G1X23.55Y12.84
G1X23.53Y13.12
G1X23.58Y13.37
G1X23.46Y13.9
G1X23.31Y14.29
G1X23.11Y14.76
G1X23.07Y14.86
G1X22.79Y15.08
G1X22.53Y15.38
G1X22.42Y15.53
G1X22.31Y15.74
G1X22.3Y16.13
G1X22.37Y16.55
G1X22.05Y17.07
G1X21.94Y17.24
G1X21.87Y17.36
G1X21.65Y17.45
G1X21.3Y17.63
G1X21.03Y17.8
G1X20.57Y18.17
G1X20.51Y18.24
G1X20.44Y18.34
G1X20.37Y18.47
G1X20.29Y18.63
G1X20.25Y18.85
G1X20.02Y19.03
G1X19.92Y19.11
G1X19.67Y19.13
G1Y19.22
G1X19.78Y19.24
G1X19.65Y19.34
G1X19.57Y19.4
G1X19.45Y19.48
G1X19.32Y19.57
G1X19.17Y19.66
G1X18.83Y19.89
G1X18.49Y20.12
G1X18.15Y20.36
G1X18.01Y20.41
G1X17.89Y20.46
G1X17.77Y20.49
G1X17.66Y20.52
G1X17.43Y20.68
G1X17.27Y20.92
G1X17.17Y20.95
G1X17.08Y20.97
G1X16.43Y21.09
G1X15.89Y21.21
G1X15.69Y21.27
G1X15.46Y21.35
G1X15.2Y21.45
G1X14.57Y21.57
G1X14.16Y21.69
G1X14.13Y21.7
G1X14.12Y21.62
G1X14.04
G1X13.98Y21.73
G1X13.91Y21.76
G1X13.5Y21.87
G1X13.3Y21.96
G1X12.99Y22.18
G1X12.9Y22.31
G1X12.75Y22.54
G1X12.64Y22.77
G1X12.49Y23.26
G1X12.34Y23.79
G1X12.29Y24.01
G1X12.27Y25.13
G1X12.31Y25.31
G1X12.34Y25.49
G1X12.38Y25.65
G1X12.43Y25.8
G1X12.53Y26.22
G1X12.62Y26.43
G1X12.7Y26.62
G1X12.77Y26.8
G1X12.84Y26.97
G1Y27.09
G1X12.89Y27.12
G1X12.96Y27.31
G1X13.04Y27.53
G1X13.22Y28.05
G1X13.38Y28.37
G1Y28.48
G1X13.41
G1X13.46Y28.52
G1X13.47Y28.6
G1Y28.65
G1X13.39Y28.67
G1Y28.73
G1X13.46Y28.76
G1X13.5Y28.71
G1X13.59
G1Y28.79
G1X13.61Y28.8
G1X13.66Y28.85
G1X13.74Y28.94
G1X14Y29.21
G1X14.25Y29.44
G1X14.33Y29.51
G1X15Y29.8
G1X15.12Y29.9
G1X15.21Y29.97
G1X15.28Y30.02
G1X15.32Y30.04
G1X15.48
G1X15.65Y30.16
G1X15.76Y30.23
G1X15.84Y30.28
G1X15.9Y30.31
G1X15.95
G1X15.98
G1X16.09Y30.2
G1Y30.13
G1X16.15Y30.17
G1X16.21Y30.2
G1X16.29Y30.23
G1X16.37Y30.26
G1X16.55
G1X16.62Y30.24
G1X16.68Y30.21
G1X16.74Y30.18
G1X16.8Y30.14
G1X16.85Y30.17
G1X16.91Y30.21
G1X17Y30.25
G1X17.09Y30.3
G1X17.3Y30.34
G1X17.51Y30.3
G1X17.7Y30.19
G1X17.74Y30.21
G1X17.78Y30.23
G1X17.81Y30.25
G1X17.85Y30.27
G1X17.95Y30.22
G1X18.05Y30.25
G1X18.15Y30.27
G1X18.26Y30.29
G1X18.38Y30.3
G1X18.52Y30.37
G1Y30.41
G1Y30.43
G1X18.54Y30.45
G1X18.55Y30.46
G1X18.63
G1Y30.41
G1Y30.36
G1X18.61Y30.25
G1X18.79Y30.26
G1X18.84Y30.21
G1X18.89Y30.16
G1X18.91Y30.11
G1X18.93Y30.06
G1X19.05Y30.04
G1X19.17Y30.03
G1X19.27
G1X19.36
G1X19.69Y30.14
G1X20.11Y30.15
G1X20.34Y30.22
G1X20.47
G1X20.54Y30.3
G1X20.62Y30.29
G1Y30.17
G1X20.68Y30.13
G1X20.71Y30.17
G1X20.73Y30.2
G1X20.74Y30.23
G1X20.75Y30.27
G1X20.96Y30.37
G1X21.02Y30.35
G1X20.99Y30.27
G1X21.02Y30.24
G1X21.04Y30.21
G1X21.07Y30.15
G1X21.09Y30.08
G1X21.04Y29.99
G1X21.05Y29.87
G1X20.98Y29.77
G1X20.92Y29.67
G1X20.87Y29.57
G1X20.82Y29.48
G1X20.63Y29.22
G1Y29.05
G1X20.92Y29.19
G1X21.02Y29.27
G1X21.14Y29.37
G1X21.47Y29.65
G1X21.52Y29.66
G1X21.62Y29.68
G1X21.69Y29.7
G1X21.79Y29.73
G1X21.91Y29.78
G1X22.13
G1X22.26Y29.67
G1X22.29Y29.58
G1X22.38Y29.62
G1Y29.76
G1X22.67Y29.9
G1X22.73Y29.88
G1Y29.82
G1X22.84
G1X23Y29.91
G1X23.16Y30.01
G1X23.33Y30.12
G1X23.46Y30.21
G1X23.54Y30.27
G1X23.57
G1X23.6
G1X23.62Y30.23
G1X23.53Y30.11
G1X23.43Y30
G1X23.32Y29.89
G1X23.21Y29.77
G1X23.25Y29.7
G1X23.5Y29.67
G1X23.59Y29.64
G1X23.67Y29.59
G1X23.75Y29.54
G1X23.82Y29.48
G1X23.89Y29.53
G1X23.96Y29.58
G1X24.05Y29.63
G1X24.16Y29.67
G1X24.3Y29.63
G1X24.35Y29.57
G1Y29.45
G1X24.31Y29.38
G1X24.07Y29.21
G1X24.2Y29.24
G1X24.43Y29.33
G1X24.81Y29.49
G1X24.86Y29.51
G1X24.89
G1X24.9Y29.47
G1X24.93Y29.44
G1X24.97Y29.39
G1X25.02Y29.34
G1Y29.32
G1Y29.28
G1X25Y29.24
G1X24.99Y29.19
G1X24.85Y29.11
G1X24.75Y29.05
G1X24.7Y29.03
G1X24.67Y29.01
G1X24.61Y28.98
G1X24.54Y28.93
G1X24.5Y28.84
G1X24.36Y28.76
G1X24.16Y28.55
G1X23.95Y28.42
G1X23.62Y28.23
G1X23.24Y28.09
G1X23.04Y28.02
G1X22.94Y27.98
G1X22.91Y27.96
G1X22.79Y27.76
G1X22.72Y27.71
G1X22.65Y27.65
G1X22.58Y27.61
G1X22.5Y27.58
G1X22.19Y27.52
G1X22.07Y27.47
G1X21.7Y27.33
G1X21.31Y27.16
G1X21.21Y27.12
G1X21.12Y27.09
G1X20.97Y26.95
G1X20.85Y26.85
G1X20.77Y26.78
G1X20.7Y26.74
G1X20.49Y26.75
G1X19.94Y26.24
G1X20.62Y26.45
G1X20.73Y26.49
G1X21.04Y26.6
G1X21.32Y26.7
G1X21.66Y26.82
G1X22.24Y26.97
G1X22.46Y27.08
G1X22.5Y27.03
G1X22.7Y27.06
G1X23.07Y27.14
G1X23.38Y27.24
G1X23.53Y27.31
G1X23.69Y27.39
G1X23.88Y27.5
G1X24.09Y27.62
G1X24.35Y27.78
G1X24.76Y28.01
G1X24.87Y28.07
G1X24.95Y28.12
G1X25Y28.15
G1X25.06Y28.2
G1X25.15
G1X25.21Y28.16
G1X25.27Y28.11
G1X25.41Y27.98
G1Y27.8
G1X25.35Y27.72
G1X25.52Y27.54
G1X25.61Y27.36
G1Y27.08
G1X25.58Y27.02
G1X25.55Y26.96
G1X25.51Y26.89
G1X25.46Y26.83
G1X25.48
G1X25.52Y26.8
G1X25.59Y26.75
G1X25.67Y26.69
G1X25.81Y26.5
G1X25.87Y26.32
G1Y26.19
G1X26.36Y26.22
G1X26.41Y26.16
G1X26.42Y25.89
G1X26.28Y25.88
G1X26.2Y25.92
G1Y26.06
G1X26.06Y26.08
G1X25.88Y26.1
G1X25.86Y25.96
G1X25.93Y25.9
G1Y25.77
G1X25.89Y25.75
G1X25.99Y25.64
G1Y25.53
G1X25.91Y25.45
G1X25.72
G1X25.53Y25.4
G1X25.48Y25.42
G1X25.41Y25.3
G1X25.31Y25.26
G1X25.23Y25.29
G1X25.17Y25.31
G1X25.12Y25.33
G1X25.1Y25.35
G1X23.82
G1X23.64Y25.29
G1X23.49Y25.23
G1X23.38Y25.18
G1X23.29Y25.14
G1X23.28Y25.08
G1X23.14Y25.04
G1X23.13Y24.95
G1X23.19Y24.97
G1X23.27
G1X23.37Y24.99
G1X23.5
G1X23.65Y25.02
G1X23.8Y25.05
G1X24.34
G1Y24.94
G1X24.43
G1X24.88Y24.88
G1X25.33Y24.76
G1X25.45Y24.72
G1Y24.77
G1X25.5Y24.8
G1X25.37Y24.93
G1Y24.97
G1X25.31Y24.99
G1X25.32Y25.11
G1X25.41
G1X25.49Y25.12
G1X25.55Y25.13
G1X25.61Y25.14
G1X26.28Y25.1
G1X26.49Y24.92
G1X26.54
G1X26.61Y24.93
G1X26.68Y24.95
G1X26.78Y24.98
G1X26.87Y24.93
G1X26.95Y24.81
G1X27.02Y24.78
G1X27.09Y24.75
G1X27.13Y24.72
G1X27.17Y24.68
G1X27.32Y24.62
G1X27.46Y24.57
G1X27.6Y24.52
G1X27.73Y24.48
G1X27.82Y24.4
G1Y24.2
G1X27.68Y24.07
G1X27.61Y24.08
G1X27.52Y24.11
G1X27.27Y24.2
G1X27.21Y24.22
G1X27.17Y24.2
G1X27.1Y24.15
G1X27.01Y24.09
G1X26.77Y24.11
G1X26.5Y24.23
G1X26.45Y24.16
G1X26.39Y24.18
G1X26.35Y24.14
G1X27.3Y23.22
G1Y23.16
G1X27.44Y23.14
G1X27.49Y23.07
G1Y22.97
G1X27.52Y22.95
G1X27.54Y22.93
G1Y22.91
G1X27.57Y22.87
G1X27.62Y22.81
G1X27.68Y22.73
G1X28.19Y22.37
G1X28.17Y22.22
G1X28.25Y22
G1X28.23Y21.63
G1X28.12Y21.42
G1X27.88Y21.2
G1X27.65Y21.12
G1X27.27
G1X27.19Y21.15
G1X27.1Y21.19
G1X26.99Y21.25
G1X26.88Y21.32
G1X26.42Y21.77
G1X25.61Y22.16
G1X25.23Y22.33
G1X25.14Y22.37
G1X25.02Y22.42
G1X24.9Y22.3
G1X24.78Y22.33
G1X24.71Y22.37
G1X24.45Y22.55
G1X24.39Y22.52
G1X24.38Y22.37
G1X24.31Y22.36
G1X23.64Y22.69
G1X23.53Y22.74
G1X21.77Y22.76
G1X22.18Y22.73
G1X22.85Y22.6
G1X23.09Y22.54
G1X23.46Y22.43
G1X23.77Y22.32
G1X23.93Y22.26
G1X24.1Y22.18
G1X24.31Y22.08
G1X25.05Y21.73
G1X25.29Y21.57
G1X25.39
G1X25.46Y21.61
G1X25.57Y21.51
G1X25.62
G1X25.66Y21.52
G1X25.69Y21.54
G1X25.73Y21.56
G1X25.92Y21.41
G1X26.07Y21.29
G1X26.15Y21.24
G1X26.2Y21.22
G1Y21.07
G1X26.14Y21.05
G1X26.09Y21.09
G1X26.04Y21.12
G1X26.01
G1X25.98Y21.15
G1X25.92Y21.21
G1X25.85Y21.29
G1X25.74
G1X25.71Y21.26
G1X25.62
G1Y21.2
G1X25.56Y21.18
G1X25.53Y21.2
G1X25.57Y21.14
G1X25.89Y20.77
G1X25.97Y20.66
G1X26Y20.63
G1X26.05
G1X26.2Y20.49
G1Y20.44
G1X26.32Y20.31
G1X26.55Y20.01
G1X26.74Y19.7
G1X26.82Y19.54
G1X26.8Y19.48
G1X26.72Y19.5
G1X26.77Y19.42
G1X26.8Y19.33
G1X26.83Y19.25
G1X26.86Y19.17
G1Y18.89
G1X26.95Y18.67
G1X26.94Y18.25
G1X27.04Y18.11
G1X27.06Y18.09
G1Y18.11
G1X27.09Y18.17
G1X27.11Y18.24
G1X27.15Y18.31
G1X27.19Y18.37
G1X27.33Y18.46
G1X27.47
G1Y18.5
G1X27.49Y18.56
G1Y18.65
G1Y18.76
G1X27.4Y18.94
G1X27.32Y19.1
G1X27.19Y19.39
G1X27.12Y19.55
G1X27.03Y19.73
G1X26.83Y19.99
G1X26.79Y20.08
G1X26.76Y20.16
G1X26.72Y20.23
G1X26.68Y20.29
G1Y20.48
G1X26.78Y20.59
G1X26.87Y20.62
G1X26.95Y20.65
G1X27.03Y20.68
G1X27.11Y20.72
G1X27.29Y20.74
G1X27.65Y20.67
G1X27.72Y20.61
G1X27.79Y20.56
G1X27.85Y20.5
G1X27.89Y20.44
G1X28.01Y20.1
G1X28.08Y19.95
G1X28.18Y19.77
G1X28.41Y19.29
G1X28.59Y18.92
G1X28.73Y18.86
G1X28.82Y18.74
G1X28.86Y18.53
G1X28.82Y18.18
G1X28.75Y18.03
G1X28.7Y17.9
G1X28.67Y17.81
G1X28.66Y17.75
G1X28.59Y17.74
G1X28.31Y17.47
G1X28.28Y17.42
G1X28.25Y17.36
G1X28.23Y17.3
G1Y17.24
G1X28.11Y17.1
G1X27.89Y17
G1X27.56Y17.02
G1X27.36Y17.1
G1X27.19Y17.16
G1X27.09Y17.19
G1X27.03Y17.21
G1X26.83Y17.15
G1X26.55Y17.16
G1X26.42Y17.23
G1X26.26Y17.32
G1X26.05Y17.44
G1X25.82Y17.59
G1X25.32Y18.06
G1X25.11Y18.48
G1X24.97Y18.75
G1X24.91Y18.86
G1X24.86Y18.93
G1X24.56Y19.26
G1X24.19Y19.64
G1X24.1Y19.73
G1X23.87
G1Y19.7
G1Y19.67
G1X23.9Y19.61
G1X24Y19.42
G1X24.11Y19.21
G1X24.21Y19.05
G1X24.28Y18.95
G1X24.34Y18.86
G1X24.49Y18.68
G1X24.63Y18.5
G1X25.16Y17.88
G1X25.21Y17.86
G1X25.26Y17.84
G1X25.31Y17.81
G1X25.35Y17.77
G1X25.33Y17.7
G1X25.51Y17.49
G1X25.64Y17.5
G1X25.66Y17.46
G1X25.67Y17.41
G1X25.69Y17.35
G1X25.71Y17.28
G1X26.22Y16.74
G1X26.81Y16.14
G1X26.91Y15.98
G1X26.94Y15.86
G1X26.97Y15.76
G1X27.02Y15.62
G1X27.04Y15.55
G1X27.05Y15.48
G1X27.19
G1X27.23Y15.42
G1X27.13Y15.29
G1X26.98Y15.09
G1X26.75Y14.84
G1X26.72Y14.78
G1X26.66Y14.72
G1X26.58Y14.63
G1X26.37Y14.59
G1Y14.58
G1X26.35Y14.54
G1X26.29Y14.47
G1X26.2Y14.37
G1Y14.19
G1X26.17Y14.12
G1X26.11Y14
G1X26.01Y13.82
G1X25.91Y13.65
G1X25.85Y13.55
G1X25.8Y13.46
G1X25.7Y13.31
G1X25.58Y13.12
G1X25.51Y12.97
G1X25.36Y12.57
G1X25.21Y12.14
G1X25.16Y11.94
G1X25.06Y11.71
G1X24.96Y11.49
G1X24.84Y11.26
G1X24.72Y11.04
G1X24.81Y10.89
G1X24.83Y10.57
G1X24.79Y10.41
G1X24.69Y10.3
G1X24.57Y10.27
G1X24.55Y9.52
G1X24.47Y9.39
G1X24.37Y9.32
G1X24.18
G1X24.15Y9.11
G1Y9.04
G1X24.13Y8.99
G1X24.03Y8.92
G1X23.89
M5
G0X26.16Y12.99
M3 S30
; Layer C00
G1X26.04Y13.1
G1X26.06Y13.28
G1X26.19Y13.55
G1X26.31Y13.69
G1Y13.83
G1X26.47Y14.05
G1X26.69Y14.25
G1X26.95Y14.38
G1X27.06Y14.53
G1X27.08Y14.97
G1X27.11Y15.03
G1X27.21Y15.09
G1X27.35Y15.07
G1X27.38Y15.03
G1X27.44Y14.94
G1X27.68Y14.59
G1X27.9Y14.37
G1Y14.23
G1X27.84Y14.18
G1X27.86Y13.97
G1X27.78Y13.84
G1X27.55Y13.64
G1X26.95Y13.35
G1X26.62Y13.33
G1X26.45Y13.14
G1X26.3Y12.99
G1X26.16
M5
G0X29.14Y15.32
M3 S30
; Layer C00
G1X29.11Y15.35
G1X29.08Y15.38
G1X29Y15.47
G1X28.82Y15.57
G1X28.35Y15.83
G1X27.99Y16.18
G1X27.89Y16.37
G1X27.87Y16.57
G1X27.91Y16.72
G1X28.03Y16.88
G1X28.21Y16.98
G1X28.29Y16.99
G1X28.38Y17.01
G1X28.47Y17.04
G1X28.58Y17.08
G1X28.8Y17.06
G1X28.88Y17.03
G1X28.97Y16.99
G1X29.22Y16.79
G1X29.26Y16.82
G1X29.33Y16.8
G1X29.3Y16.72
G1X29.59Y16.46
G1X29.65Y16.5
G1X29.87Y16.42
G1Y16.35
G1X29.75Y16.34
G1Y16.29
G1X30.23Y15.99
G1X30.49Y15.9
G1X30.63Y15.88
G1X30.76Y15.87
G1X30.91
G1X31.07
G1X31.24Y15.79
G1X31.37Y15.67
G1X31.45Y15.52
G1X31.47Y15.31
G1X31.4Y15.13
G1X31.25Y14.98
G1X31.19Y14.95
G1X31.14Y14.92
G1X31.11Y14.9
G1X31.09Y14.87
G1X30.77Y14.89
G1X30.51
G1X30.33
G1X30.21
G1X30.19Y14.81
G1X30.1Y14.82
G1X30.11Y14.97
G1X29.99Y15.01
G1X29.76Y15.11
G1X29.5Y15.25
G1X29.4Y15.31
G1X29.14Y15.32
M5
G0X12.84Y16.46
M3 S30
; Layer C00
G1X12.75Y16.38
G1X12.52
G1X12.31Y16.44
G1X12.15Y16.58
G1X12.05Y16.75
G1X12Y17.01
G1X12.02Y17.26
G1X12.11Y17.39
G1X12.24Y17.45
G1X12.28Y17.43
G1X12.32Y17.41
G1X12.37Y17.38
G1X12.41Y17.35
G1Y17.27
G1X12.47Y17.32
G1Y17.39
G1X12.56Y17.48
G1X12.69
G1X12.73Y17.44
G1X12.78Y17.4
G1Y17.25
G1X12.7Y17.18
G1X12.39
G1X12.37Y17.09
G1X12.39Y16.87
G1X12.49Y16.75
G1X12.72Y16.7
G1X12.84Y16.61
G1Y16.46
M5
G0X9.43Y18
M3 S30
; Layer C00
G1X9.22Y17.9
G1X8.97Y17.88
G1X8.75Y17.94
G1X8.55Y18.11
G1X8.46Y18.29
G1X8.04Y18.38
G1X7.57Y18.42
G1X7.39Y18.5
G1X7.29Y18.59
G1X6.91Y18.62
G1X6.61Y18.51
G1X5.75Y18.4
G1X5.23Y18.15
G1X4.84
G1X4.78Y18.09
G1X4.54Y18.05
G1X4.5Y18.1
G1X4.31Y18.11
G1X4.16Y18.13
G1X4.04
G1X3.95Y18.15
G1Y18.05
G1X3.97
G1X4.03Y18.03
G1X4.14Y18.02
G1X4.28Y18.01
G1X4.3Y17.93
G1X4.48
G1Y17.85
G1X4.57
G1X4.58Y17.7
G1X4.53Y17.68
G1X4.3Y17.75
G1Y17.88
G1X4.2Y17.87
G1X4.11Y17.86
G1X4.03
G1X3.94Y17.85
G1Y17.88
G1X3.92Y17.91
G1X3.91Y17.95
G1X3.89Y17.98
G1Y18
G1Y18.03
G1X3.79Y18.05
G1X3.71Y18.01
G1X3.67Y18.02
G1X3.62Y18.04
G1X3.57Y18.08
G1X3.52Y18.12
G1Y18.22
G1X3.6Y18.3
G1X3.71Y18.28
G1Y18.33
G1X3.55
G1X3.54Y18.48
G1X3.41Y18.46
G1X3.33Y18.57
G1X3.35Y18.63
G1X3.86Y18.6
G1X3.9Y18.55
G1X3.98
G1X4.01Y18.59
G1X4.1
G1Y18.68
G1X4.08
G1X4.06
G1X4.03Y18.66
G1X3.99Y18.64
G1X3.92Y18.66
G1X3.94Y18.74
G1X4.04Y18.75
G1X4.05Y18.85
G1X4.18Y18.87
G1X4.22Y18.83
G1X4.42
G1X4.44Y18.92
G1X4.3
G1Y19.01
G1X4.35Y19.03
G1Y19.16
G1X4.41Y19.18
G1X4.49Y19.14
G1Y19.03
G1X4.51
G1X4.54
G1X4.57Y19.06
G1X4.61Y19.1
G1X4.69Y19.12
G1X4.77Y19.13
G1X4.84Y19.15
G1X4.9Y19.16
G1X4.95Y19.18
G1X4.97Y19.2
G1X5.16Y19.14
G1X5.31Y19.2
G1X5.37Y19.33
G1X5.52Y19.38
G1X5.68Y19.39
G1X5.82Y19.47
G1X5.86
G1X5.91
G1X5.97Y19.49
G1X6.05Y19.51
G1X6.16Y19.42
G1X6.28Y19.39
G1X6.42Y19.46
G1X6.49Y19.59
G1X6.67Y19.66
G1X6.7Y19.72
G1X6.73Y19.77
G1X6.77Y19.81
G1X6.81Y19.84
G1X6.89
G1X6.95
G1X7.01Y19.85
G1X7.05Y19.86
G1X7.06Y19.98
G1X7.23
G1Y19.88
G1X7.26
G1Y20
G1X7.35Y20.08
G1X7.7Y20.1
G1X7.72Y20.08
G1X7.75Y20.06
G1X7.77Y20.1
G1X7.78Y20.14
G1X7.72Y20.18
G1X7.74Y20.25
G1X7.85Y20.27
G1X7.88Y20.32
G1X7.94
G1X8.07Y20.41
G1X8.28
G1X8.31Y20.38
G1X8.34Y20.36
G1X8.37
G1X8.38
G1Y20.48
G1X8.4Y20.49
G1X8.46Y20.51
G1X8.58Y20.52
G1X8.74Y20.55
G1X8.67Y20.61
G1Y20.7
G1X8.83Y20.78
G1X9.03Y20.76
G1X9.1Y20.83
G1X9.29Y20.91
G1X9.5Y20.93
G1X9.46Y20.98
G1X9.48Y21.04
G1X9.76Y21.01
G1X9.79Y21.07
G1X9.85
G1X9.92
G1X10.01Y21.05
G1X10.11Y21.02
G1Y20.95
G1X10.01Y20.96
G1X9.81Y20.99
G1X9.8Y20.88
G1X9.75Y20.87
G1X9.72Y20.86
G1X9.77Y20.83
G1X9.84Y20.77
G1X9.94Y20.69
G1X10.03Y20.49
G1X10.04Y20.17
G1X10Y19.94
G1X9.94Y19.8
G1X9.87Y19.64
G1X9.77Y19.45
G1X9.66Y19.25
G1X9.64Y18.34
G1X9.54Y18.13
G1X9.43Y18
M5
G0X11.24Y20.93
M3 S30
; Layer C00
G1X11.11Y21.03
G1X11.08Y21.43
G1X11.04Y21.98
G1X10.99Y22.14
G1X10.95Y22.32
G1X10.9Y22.52
G1X10.86Y22.74
G1X10.87Y24.69
G1X10.9Y24.87
G1X10.94Y25.08
G1X11Y25.33
G1X11.06Y25.63
G1X11.25Y26.14
G1X11.45Y26.47
G1X11.51Y26.6
G1X11.58Y26.77
G1X11.66Y26.95
G1X11.69Y26.99
G1X11.72Y27.01
G1X11.75Y27.02
G1X11.77
G1X11.81Y27.08
G1X11.86Y27.14
G1X11.89Y27.21
G1X11.93Y27.27
G1X12.05Y27.36
G1X12.25Y27.62
G1X12.43Y27.95
G1X12.49Y28.01
G1X12.64Y28.12
G1X12.78Y28.2
G1X12.83Y28.22
G1X12.92Y28.21
G1Y28.18
G1X12.93Y28.14
G1X12.83Y27.97
G1X12.75Y27.83
G1X12.68Y27.71
G1X12.62Y27.61
G1X12.59Y27.54
G1X12.57Y27.48
G1X12.52Y27.41
G1X12.45Y27.33
G1X12.43Y27.26
G1X12.4Y27.2
G1X12.1Y26.45
G1X11.96Y26.1
G1X11.92Y26
G1X11.87Y25.85
G1X11.75Y25.21
G1X11.73Y24.6
G1X11.83Y23.57
G1X11.98Y22.97
G1X12.05Y22.74
G1X12.1Y22.55
G1X12.15Y22.4
G1X12.23Y22.18
G1X12.32Y22.04
G1X12.36Y21.98
G1X12.4Y21.93
G1X12.43Y21.87
G1X12.45Y21.68
G1X12.57Y21.46
G1X12.56Y21.32
G1X12.23Y21.17
G1X12.06Y21.13
G1X11.87Y21.08
G1X11.65Y21.01
G1X11.4Y20.93
G1X11.24
M5
G0X10.05Y21.97
M3 S30
; Layer C00
G1X9.58Y22
G1Y21.91
G1X9.66Y21.89
G1X9.64Y21.82
G1X9.6Y21.81
G1X9.54Y21.8
G1X9.42Y21.79
G1X9.38Y21.78
G1X9.35Y21.77
G1Y21.51
G1X9.23Y21.47
G1Y21.41
G1X9.11Y21.32
G1X8.93Y21.37
G1X8.79Y21.31
G1X8.72Y21.22
G1Y21.09
G1X8.81Y20.98
G1X8.8Y20.88
G1X8.42Y20.86
G1X8.32Y20.81
G1X8.1Y20.85
G1X8.05
G1X8.01
G1Y20.74
G1X7.96Y20.72
G1X7.71Y20.83
G1X7.61
G1Y20.73
G1X7.69Y20.68
G1X7.68Y20.53
G1X7.57Y20.52
G1Y20.41
G1X7.51Y20.39
G1X7.42Y20.41
G1X7.33Y20.43
G1X7.26Y20.44
G1X7.19Y20.45
G1Y20.35
G1X7.11Y20.33
G1X7.1Y20.23
G1X7
G1X6.98Y20.11
G1X6.84Y20.09
G1X6.83Y19.96
G1X6.68Y19.95
G1X6.61Y20.01
G1X6.47Y20.03
G1X6.36Y19.98
G1X6.3Y19.89
G1X6.22
G1X6.07Y19.82
G1X5.97Y19.89
G1X5.82
G1X5.7Y19.8
G1X5.57
G1X5.49Y19.77
G1X5.37
G1X5.24Y19.71
G1X5.15Y19.57
G1X4.97Y19.52
G1X4.89Y19.56
G1X4.77
G1X4.69Y19.52
G1X4.52Y19.51
G1X4.43Y19.45
G1X4.37Y19.34
G1X4.27
G1Y19.19
G1X4.21Y19.17
G1X4.1Y19.21
G1X4.01Y19.24
G1X3.92Y19.26
G1X3.85Y19.27
G1Y19.17
G1X3.72Y19.16
G1X3.71Y19.04
G1X3.5Y19.03
G1Y18.93
G1X3.46Y18.92
G1X3.41Y18.9
G1X3.32Y18.88
G1X3.2Y18.85
G1Y18.81
G1X3.19Y18.77
G1X3.17Y18.74
G1X3.15Y18.72
G1X3.05Y18.71
G1X3.04Y18.63
G1X3.03Y18.57
G1X3.01Y18.54
G1X3Y18.51
G1X3.03Y18.28
G1X3.13Y18.25
G1X3.29Y18.02
G1Y17.95
G1X3.19Y17.94
G1Y17.85
G1X3.27Y17.81
G1X3.39
G1X3.41Y17.76
G1X3.56Y17.7
G1Y17.64
G1X3.44Y17.63
G1Y17.54
G1X3.67Y17.49
G1X3.71Y17.45
G1X3.87Y17.42
G1X3.92Y17.49
G1X4.19Y17.44
G1X4.26Y17.4
G1X4.24Y17.34
G1X3.99Y17.26
G1X3.81
G1X3.82Y17.16
G1X4.17
G1X4.52Y17.3
G1X4.56Y17.28
G1Y17.17
G1X4.59
G1X4.65Y17.14
G1X4.68Y17.08
G1Y17.06
G1X4.5Y16.98
G1X4.52Y16.8
G1X4.43Y16.76
G1Y16.65
G1X4.58
G1X4.61Y16.6
G1X4.52Y16.51
G1X4.45Y16.44
G1X4.41Y16.38
G1X4.39Y16.34
G1Y16.17
G1X4.5
G1X4.54Y16.28
G1X4.62
G1X4.85Y16.44
G1X4.88Y16.43
G1X4.9Y16.41
G1X4.91Y16.4
G1Y16.38
G1X5.03
G1X5.49Y16.56
G1X5.55Y16.54
G1Y16.4
G1X5.64
G1X5.67Y16.34
G1X5.54Y16.23
G1X5.43Y16.12
G1X5.34Y16.03
G1X5.28Y15.94
G1Y15.82
G1X5.36
G1X5.71Y16.18
G1X5.77Y16.16
G1X5.8Y15.91
G1X5.7Y15.81
G1Y15.72
G1X5.81Y15.7
G1Y15.59
G1X5.9
G1X5.92Y15.51
G1X6
G1X6.03Y15.59
G1X6.11
G1X6.21Y15.66
G1X6.33Y15.74
G1X6.47Y15.84
G1X6.64Y15.94
G1X6.66Y16.04
G1X6.77
G1X6.78Y15.9
G1X6.61Y15.76
G1Y15.66
G1X6.72
G1X6.8Y15.71
G1X6.89Y15.77
G1X6.95Y15.75
G1Y15.73
G1X6.89Y15.6
G1X6.86
G1Y15.49
G1X6.95
G1Y15.57
G1X7.05Y15.6
G1X7.28
G1X7.31Y15.55
G1X7.25Y15.48
G1X7.2Y15.41
G1X7.16Y15.35
G1X7.13Y15.29
G1X7.15Y15.05
G1X7.25
G1X7.4Y15.24
G1X7.47Y15.23
G1Y15.08
G1X7.38Y15.07
G1Y14.98
G1X7.47
G1X7.48Y15.1
G1X7.6
G1X7.66Y15.19
G1X7.73Y15.16
G1Y15.05
G1X7.84
G1X7.91Y15.12
G1X8.06
G1X8.17Y15.22
G1X8.23Y15.2
G1Y15.17
G1X8.22Y15.15
G1X8.2Y15.12
G1X8.17Y15.1
G1Y15
G1X8.27
G1X8.29Y14.92
G1X8.4
G1X8.49Y15.01
G1X8.54
G1X8.56Y14.96
G1X8.67
G1X8.69Y14.99
G1X8.71Y15.01
G1X8.74
G1X8.77
G1X8.79Y14.96
G1X8.85
G1X8.87Y14.91
G1X8.81Y14.82
G1Y14.75
G1X8.94Y14.76
G1X9.04Y14.91
G1X9.1Y14.89
G1X9.12Y14.8
G1X9.22Y14.78
G1X9.23Y14.7
G1X9.42
G1X9.44Y14.73
G1X9.48Y14.76
G1X9.52Y14.79
G1X9.58Y14.81
G1X9.63Y14.79
G1Y14.69
G1X9.47Y14.57
G1X9.3
G1X9.39Y14.4
G1Y14.14
G1X9.29Y13.97
G1X9.23Y13.92
G1X9.16Y13.87
G1X9.09Y13.84
G1X9.03Y13.81
G1Y13.75
G1X9.04Y13.71
G1X9.06Y13.68
G1X9.08Y13.66
G1Y13.49
G1X9.12Y13.41
G1X9.07Y13.37
G1X8.99Y13.31
G1X8.77Y13.13
G1Y13.01
G1X8.89Y13
G1X8.9Y12.88
G1X8.98
G1X9Y12.82
G1X8.86Y12.67
G1X8.74Y12.54
G1X8.65Y12.43
G1X8.59Y12.35
G1Y12.24
G1X8.65Y12.22
G1X8.69Y12.2
G1X8.74
G1X8.78
G1X8.86Y12.28
G1X8.98Y12.38
G1X9.13Y12.49
G1X9.31Y12.62
G1Y12.71
G1X9.23
G1X9.2Y12.77
G1X9.34Y12.88
G1X9.44Y12.9
G1X9.45Y12.95
G1X9.47Y12.99
G1X9.51Y13.08
G1X9.69Y13.48
G1X9.79Y13.71
G1X9.81Y13.77
G1X9.84Y13.84
G1X9.96Y13.96
G1X10.09Y13.98
G1X10.15
G1X10.2Y13.95
G1X10.25Y13.93
G1X10.3Y13.89
G1X10.37Y13.77
G1Y13.21
G1X10.31Y13.07
G1X10.27Y12.59
G1Y12.13
G1X10.33Y11.89
G1Y11.7
G1X10.4Y11.59
G1X10.52Y11.45
G1X10.68Y11.27
G1X10.87Y11.05
G1X10.83Y10.88
G1X10.87Y10.76
G1X11.01Y10.43
G1X11.18Y10.08
G1X11.23Y9.96
G1X11.29Y9.81
G1X11.41Y9.64
G1X11.52Y9.51
G1X11.6Y9.41
G1X11.67Y9.34
G1X11.78Y9.28
G1X12.1Y9.13
G1X12.4Y9.01
G1X12.47Y8.99
G1X12.57Y8.87
G1X12.69Y8.74
G1X12.82Y8.59
G1X12.97Y8.44
G1X13.2Y8.27
G1X13.47Y8.08
G1X13.79Y7.85
G1X14.1Y7.64
G1X14.28Y7.52
G1X14.37Y7.46
G1X14.51Y7.44
G1X14.56Y7.39
G1X14.64Y7.41
G1X14.84Y7.29
G1X14.91Y7.3
G1X14.98Y7.31
G1X15.05
G1X15.12
G1X15.33Y7.26
G1X15.66Y6.93
G1X16.18
G1X16.29Y6.86
G1Y6.87
G1X16.26Y6.93
G1X16.2Y7.05
G1X16.11Y7.22
G1Y7.36
G1X16.18Y7.48
G1X16.31Y7.56
G1X16.5Y7.54
G1X16.63Y7.42
G1X16.7Y7.3
G1X16.76Y7.19
G1X16.8Y7.09
G1X16.83Y7
G1X17.28Y6.56
G1X17.57Y6.4
G1X17.89Y6.22
G1X18Y6.16
G1X18.15Y6.08
G1X18.28Y6.01
G1X18.42Y5.96
G1X18.77Y5.88
G1X18.85Y5.85
G1X18.93Y5.81
G1X19.03Y5.79
G1X19.15Y5.76
G1X19.54Y5.72
G1X19.66Y5.7
G1X19.73Y5.68
G1X20.26Y5.65
G1X20.43Y5.76
G1X20.7Y5.81
G1X20.74Y5.79
G1X20.78Y5.78
G1X20.82
G1X20.87
G1X20.89Y5.83
G1X20.98Y5.81
G1X21.03Y5.9
G1X21.16Y6
G1X21.45Y5.97
G1X21.6Y6.06
G1X21.71Y6.21
G1X21.74Y6.22
G1X21.79
G1X21.85
G1X21.92
G1X22Y6.3
G1X22.07Y6.36
G1X22.18Y6.44
G1X22.27Y6.5
G1X22.71Y6.81
G1X22.86Y6.92
G1X23.09Y7.11
G1X23.16Y7.16
G1X23.23Y7.2
G1X23.27
G1X23.3
G1X23.32Y7.26
G1X23.3Y7.33
G1X23.42Y7.45
G1X23.54Y7.43
G1X23.59Y7.54
G1X23.67Y7.66
G1X23.77Y7.81
G1X23.9Y7.98
G1X23.85Y8.02
G1X23.82Y8.17
G1X23.75Y8.24
G1Y8.33
G1X23.83Y8.4
G1X23.92
G1X24Y8.33
G1Y8.24
G1X23.95Y8.17
G1X23.99Y8.09
G1X24.23Y8.38
G1X24.3Y8.51
G1X24.35Y8.61
G1X24.37Y8.66
G1X24.39Y8.73
G1X24.44Y8.86
G1X24.53Y9.04
G1X24.63Y9.24
G1X24.87Y9.73
G1X25.09Y10.27
G1X25.16Y10.45
G1X25.21Y10.56
G1X25.26Y10.64
G1X25.32Y10.71
G1X25.4Y10.79
G1X25.42Y11.21
G1X25.49Y11.41
G1X25.57Y11.6
G1X25.64Y11.77
G1X25.72Y11.93
G1Y12.19
G1X25.83Y12.41
G1X25.92Y12.49
G1X26Y12.57
G1X26.09Y12.64
G1X26.18Y12.71
G1X26.26
G1X26.46Y12.86
G1X26.64Y12.95
G1X26.79Y13.02
G1X26.9Y13.06
G1X26.97Y13.08
G1X27.29Y13.11
G1X27.31Y13.2
G1X27.46
G1X27.47Y13.08
G1X27.43Y13.03
G1X27.58
G1Y12.98
G1X27.6Y12.93
G1X27.62Y12.89
G1X27.64Y12.85
G1Y12.61
G1Y12.48
G1Y12.42
G1X27.72Y12.28
G1Y12.18
G1Y12.09
G1Y12.01
G1Y11.94
G1X27.84Y11.92
G1X27.86Y11.86
G1X27.83Y11.83
G1X27.59Y11.86
G1X27.47Y11.75
G1Y11.3
G1X27.58Y11.29
G1Y11.16
G1X27.44
G1X27.39Y10.92
G1X27.42Y10.75
G1X27.36Y10.71
G1X27.26Y10.32
G1X27.24Y10.24
G1X27.27Y10.23
G1X27.34Y10.21
G1X27.44Y10.19
G1X27.46Y10.13
G1X27.42Y10.1
G1X27.21Y10.15
G1X27.18Y10.11
G1Y10.06
G1X27.2Y9.99
G1X27.26Y9.78
G1X27.24Y9.59
G1X27.2Y9.51
G1X27.16Y9.44
G1X27.13Y9.4
G1X27.1Y9.38
G1Y9.27
G1X27.07Y9.25
G1Y9.14
G1X27.01Y9.12
G1X26.95Y9.15
G1X26.91Y9.18
G1X26.89Y9.2
G1X26.88Y9.22
G1X26.86Y9.2
G1X26.83Y9.15
G1X26.79Y9.04
G1X26.72Y8.84
G1X26.61Y8.55
G1X26.51Y8.25
G1X26.43Y8.01
G1X26.37Y7.81
G1X26.4Y7.79
G1X26.44Y7.78
G1X26.52Y7.77
G1X26.63Y7.75
G1X26.65Y7.7
G1X26.56Y7.63
G1X26.34Y7.64
G1X26.24Y7.29
G1X26.26Y7.19
G1X26.18Y7.14
G1X26.12Y6.98
G1X26.02Y6.73
G1X25.86Y6.45
G1X25.76Y6.3
G1X25.9
G1Y6.22
G1X25.71Y6.18
G1X25.62Y6.14
G1X25.53Y6.09
G1X25.41Y6.01
G1X25.26Y5.91
G1X25.09Y5.79
G1X24.97Y5.7
G1X24.83Y5.58
G1X24.69Y5.45
G1X24.65Y5.31
G1X24.56Y5.25
G1X24.5Y5.21
G1X24.29Y5.08
G1X23.8Y4.8
G1X24.2
G1X24.24Y4.76
G1X24.21Y4.7
G1X23.89
G1X23.87Y4.57
G1X23.81Y4.55
G1X23.75Y4.6
G1Y4.78
G1X23.61Y4.71
G1X23.46Y4.65
G1X23.28Y4.58
G1X23.08Y4.52
G1X22.73Y4.46
G1X22.67Y4.48
G1Y4.57
G1X22.62Y4.63
G1Y4.81
G1X22.71Y5.2
G1X22.76Y5.38
G1X22.79Y5.52
G1X22.83Y5.64
G1X22.86Y5.76
G1Y5.79
G1X22.83Y5.78
G1X22.8Y5.74
G1X22.76Y5.68
G1X22.7Y5.6
G1X22.45Y5.26
G1X22.09Y4.9
G1X21.87Y4.68
G1X21.64Y4.54
G1X21.46Y4.48
G1X21.26Y4.39
G1X21.01Y4.29
G1X20.76Y4.18
G1X20.53Y4.1
G1X20.33Y4.04
G1X19.98Y3.98
G1X18.9Y4
G1X18.71Y4.06
G1X18.5Y4.14
G1X18.26Y4.24
G1X18.01Y4.35
G1X17.63Y4.61
G1X17.19Y4.92
G1X16.97Y5.09
G1X16.79Y5.25
G1X16.72Y5.32
G1X16.65Y5.58
G1X16.47Y5.6
G1X16.49Y5.44
G1X16.52Y5.31
G1X16.54Y5.23
G1X16.56Y5.18
G1Y4.57
G1X16.5Y4.47
G1X16.35Y4.37
G1X16.07Y4.33
G1Y4.31
G1X16.08Y4.28
G1X16.12Y4.22
G1X16.13Y4.19
G1Y4.17
G1X16.08Y4.15
G1X15.98Y4.22
G1X15.91Y4.27
G1X15.88Y4.3
G1Y4.32
G1X15.48
G1X15.44Y4.27
G1X15.38Y4.22
G1X15.31Y4.18
G1X15.23Y4.13
G1X15.02Y4.09
G1X14.92Y4.11
G1X14.83Y4.13
G1X14.71Y4.18
G1X14.67
G1X14.63
G1X14.62Y4.09
G1X14.5Y4.07
G1X14.22Y4.25
G1Y4.29
G1X14.06Y4.33
G1X13.84Y4.44
G1X13.65Y4.55
G1X13.5Y4.64
G1X13.37Y4.73
G1X13.18Y4.79
G1X13.08
G1X12.8Y4.98
G1Y4.97
G1X12.78Y4.92
G1X12.76Y4.84
G1X12.74Y4.73
G1Y4.34
G1X12.82Y4.18
G1X12.94Y4.06
G1X13.06
G1X13.11Y4
G1X13.3Y4.02
G1X13.38Y3.87
G1X13.47Y3.78
G1X13.54Y3.72
G1X13.58Y3.69
G1X13.61Y3.68
G1X13.7Y3.6
G1X13.76Y3.56
G1X13.82Y3.52
G1X14Y3.54
G1X14.46Y3.32
G1X14.65
G1Y3.42
G1X14.83
G1X14.84Y3.28
G1X15Y3.3
G1X15.04
G1X15.07
G1X15.13Y3.43
G1X15.22
G1Y3.32
G1X15.32
G1Y3.4
G1X15.36
G1X15.39Y3.42
G1X15.42Y3.43
G1X15.46Y3.45
G1X15.49
G1X15.53
G1X15.54Y3.53
G1X15.72
G1X15.73Y3.43
G1X15.63Y3.23
G1Y3.14
G1X15.72
G1X15.78Y3.2
G1X15.84Y3.18
G1Y3.1
G1X15.97
G1X15.98Y2.95
G1X16.01
G1X16.1Y2.96
G1X16.49Y3.03
G1X16.54Y3.01
G1Y2.86
G1X17.11Y2.87
G1X17.32Y2.94
G1X17.49Y3.18
G1X17.66
G1Y3.14
G1X17.69Y3.12
G1X17.71Y3.1
G1X17.73Y3.08
G1X17.71Y2.92
G1X17.82
G1X17.91Y3.01
G1X18
G1X18.02Y3.08
G1X18.1
G1X18.12Y3.02
G1X18.17Y2.99
G1X18.22Y2.98
G1X18.26
G1X18.29
G1Y3.05
G1X18.34Y3.06
G1X18.4Y3.08
G1X18.46
G1X18.53
G1X18.69Y3.16
G1X18.8Y3.13
G1X18.82Y3.01
G1X18.92
G1X18.94Y3.08
G1X19.2
G1X19.3Y3.28
G1X19.5Y3.26
G1X19.53Y3.23
G1X19.7
G1X19.72Y3.16
G1X19.87
G1X19.92Y3.1
G1X20.01
G1X20.08Y3.15
G1X20.17Y3.06
G1X20.36
G1Y3.14
G1X20.41Y3.16
G1X20.49Y3.12
G1X20.64Y3.04
G1X20.83Y2.97
G1X20.96Y2.94
G1X21.51Y2.92
G1X21.54Y2.95
G1X21.97
G1X22.2Y2.93
G1X22.22Y3.05
G1X22.51
G1X22.63Y3.07
G1Y3.15
G1X22.47Y3.17
G1Y3.29
G1X22.87
G1X22.99Y3.34
G1X23.01Y3.44
G1X23.44Y3.45
G1X23.45Y3.55
G1X23.67Y3.56
G1X23.75Y3.63
G1X23.86Y3.66
G1X23.92Y3.77
G1Y3.87
G1X23.95Y3.89
G1X24.01Y3.91
G1X24.14Y3.95
G1X24.31Y3.99
G1X24.52Y4.07
G1X24.69Y4.14
G1X24.82Y4.2
G1X24.93Y4.25
G1X25.02Y4.36
G1Y4.45
G1X25.15Y4.56
G1X25.23
G1Y4.66
G1X25.15Y4.68
G1Y4.76
G1X25.43Y4.84
G1X25.51Y4.87
G1X25.56Y4.89
G1Y4.98
G1X25.36
G1Y5.12
G1X25.44Y5.14
G1X25.54Y5.17
G1X25.61Y5.24
G1X25.64Y5.29
G1X25.91Y5.36
G1X25.99Y5.39
G1X26.04Y5.41
G1Y5.53
G1X26.11Y5.56
G1X26.16Y5.58
G1X26.21Y5.62
G1X26.25Y5.64
G1X26.29Y5.66
G1Y5.77
G1X26.46Y5.88
G1X26.51Y5.96
G1Y6.06
G1X26.45Y6.07
G1X26.38Y6.08
G1X26.32
G1X26.25
G1X26.23Y6.16
G1X26.15
G1Y6.25
G1X26.36Y6.31
G1X26.55Y6.36
G1X26.68Y6.47
G1Y6.54
G1X26.6Y6.56
G1Y6.62
G1X26.7Y6.66
G1Y6.78
G1X26.78Y6.83
G1Y6.95
G1X27.01Y7.05
G1Y7.16
G1X27.18Y7.23
G1Y7.33
G1X27.1Y7.35
G1Y7.45
G1X27.16Y7.47
G1Y7.55
G1X27.13Y7.58
G1X27.15Y7.76
G1X27.34Y7.81
G1X27.41Y7.87
G1X27.45Y7.99
G1X27.39Y8.15
G1X27.35Y8.17
G1X27.3Y8.19
G1X27.23Y8.2
G1X27.15Y8.21
G1Y8.31
G1X27.2Y8.33
G1X27.29Y8.28
G1X27.39
G1X27.42Y8.22
G1X27.53
G1X27.52Y8.45
G1X27.63Y8.46
G1X27.67Y8.42
G1X27.76
G1Y8.81
G1X27.71Y8.9
G1X27.76Y8.95
G1Y9.05
G1X27.64Y9.15
G1X27.6Y9.18
G1X27.56Y9.21
G1X27.58Y9.26
G1X27.86Y9.25
G1Y9.38
G1X27.9Y9.4
G1Y9.49
G1X27.86Y9.51
G1Y9.75
G1X27.93Y9.77
G1Y9.87
G1X27.87Y9.91
G1X27.78Y9.96
G1X27.66Y10.02
G1X27.5Y10.08
G1X27.49Y10.13
G1X27.54Y10.15
G1X27.76Y10.08
G1X27.91Y10.1
G1X27.96Y10.04
G1X28.07
G1Y10.32
G1X28.1Y10.33
G1X28.15Y10.37
G1X28.16Y10.43
G1Y10.48
G1X28.2Y10.51
G1Y10.58
G1X28.28Y10.6
G1Y10.71
G1X28.21Y10.87
G1X27.99Y11.04
G1X28.02Y11.14
G1X28.05Y11.22
G1X28.07Y11.27
G1X28.09Y11.28
G1Y11.38
G1X28.01Y11.41
G1X27.92Y11.44
G1X27.83Y11.47
G1X27.73Y11.49
G1Y11.56
G1X27.8
G1X27.9
G1X28.2Y11.53
G1Y11.64
G1X28.08Y11.65
G1Y11.81
G1Y11.94
G1Y12.05
G1X28.1Y12.13
G1X28.22Y12.19
G1Y12.27
G1X28.14Y12.28
G1X28.12Y12.34
G1X28.34Y12.42
G1Y12.53
G1X28.17Y12.51
G1X28.08
G1X28.07Y12.6
G1X28.15Y12.64
G1Y12.71
G1X28.2Y12.74
G1Y12.84
G1X28.05
G1X28.02Y12.9
G1X28.05Y12.94
G1X28.07Y13.02
G1Y13.13
G1Y13.17
G1X27.95Y13.28
G1X27.82Y13.3
G1X27.76Y13.43
G1X27.82Y13.54
G1X28.01Y13.52
G1Y13.55
G1X28.03Y13.6
G1X28.05Y13.73
G1X28.11Y13.75
G1X28.2Y13.71
G1Y13.56
G1X28.3
G1X28.32Y13.62
G1X28.37
G1X28.39Y13.75
G1X28.52
G1X28.58Y13.69
G1X28.53Y13.62
G1Y13.52
G1X28.61Y13.49
G1X28.82
G1Y13.59
G1X28.89Y13.68
G1X29.05Y13.61
G1X29.19Y13.55
G1X29.31Y13.51
G1X29.42Y13.47
G1X29.55
G1X29.57Y13.54
G1X29.74
G1X29.76Y13.62
G1X29.88Y13.64
G1X29.89Y13.72
G1X29.97
G1X30.07Y13.69
G1Y13.54
G1X30.23
G1Y13.64
G1X30.42
G1X30.44Y13.71
G1X30.65
G1X30.67Y13.74
G1X30.82
G1X30.84Y13.9
G1X30.88
G1X30.92Y13.92
G1X30.95Y13.93
G1X30.97Y13.95
G1X31.11
G1X31.13Y14
G1X31.19
G1X31.21Y14.08
G1X31.26Y14.07
G1X31.33Y14.05
G1X31.4
G1X31.48Y14.03
G1Y14.13
G1X31.24Y14.25
G1X31.23Y14.37
G1X31.15Y14.44
G1Y14.5
G1X31.21Y14.52
G1X31.27Y14.48
G1X31.33Y14.44
G1X31.39Y14.41
G1X31.43Y14.36
G1X31.49Y14.31
G1X31.57Y14.25
G1X31.83Y14.22
G1X31.85Y14.43
G1X31.77Y14.51
G1X31.78Y14.58
G1X31.93Y14.59
G1Y14.7
G1X31.73Y14.8
G1X31.74Y14.86
G1X31.78
G1X31.96Y14.83
G1X31.97Y14.91
G1X32.18
G1Y14.96
G1X32.25Y14.98
G1Y15.08
G1X32.21Y15.12
G1X32.13Y15.18
G1X32Y15.26
G1X31.83Y15.37
G1X31.85Y15.54
G1X31.81Y15.57
G1Y15.69
G1X31.79Y15.71
G1X31.72Y15.74
G1X31.6Y15.79
G1X31.43Y15.85
G1Y15.9
G1X31.42Y15.94
G1X31.4Y15.96
G1X31.37Y15.97
G1X31.3Y16
G1X31.19Y16.03
G1X30.72Y16.17
G1X30.69Y16.24
G1X30.64Y16.26
G1X30.59Y16.27
G1X30.56Y16.29
G1X30.54Y16.31
G1Y16.43
G1X30.39Y16.46
G1X30.27Y16.49
G1X30.21Y16.51
G1X30.17Y16.52
G1Y16.62
G1X29.95Y16.69
G1X29.78Y16.75
G1X29.67Y16.79
G1X29.6Y16.83
G1Y16.96
G1X29.48Y17.02
G1Y17.15
G1X29.23Y17.36
G1Y17.41
G1X29.3Y17.43
G1Y17.53
G1X29.18Y17.65
G1X29.07
G1Y17.55
G1X28.98Y17.53
G1X28.93Y17.61
G1X28.95Y17.67
G1X29.03
G1Y17.75
G1X28.97Y17.78
G1Y18.3
G1X28.9Y18.57
G1Y18.59
G1X28.92Y18.6
G1X28.95
G1X28.97
G1X29.03Y18.5
G1X29.07Y18.41
G1X29.09Y18.36
G1Y18.33
G1X29.2
G1Y18.84
G1X29.12Y18.99
G1X28.95Y19.3
G1X28.74Y19.59
G1X28.63Y19.73
G1Y19.9
G1X28.68Y19.92
G1X28.76Y19.87
G1Y19.72
G1X29.26Y19.25
G1X29.38
G1Y19.38
G1X29.44Y19.4
G1X29.48Y19.38
G1X29.51Y19.37
G1X29.54Y19.36
G1X29.56
G1X29.63Y19.29
G1X29.75
G1Y19.39
G1X29.7Y19.41
G1X29.66Y19.42
G1X29.63Y19.45
G1X29.59Y19.47
G1X29.5Y19.55
G1Y19.6
G1X29.55Y19.62
G1Y19.72
G1X29.47Y19.75
G1X29.24Y19.88
G1X29Y20.06
G1X28.91Y20.13
G1X28.94Y20.19
G1X29.03
G1Y20.28
G1X28.92
G1Y20.21
G1X28.86Y20.18
G1X28.76Y20.29
G1Y20.47
G1X28.82Y20.49
G1X28.94Y20.42
G1X29.03Y20.37
G1X29.07Y20.34
G1X29.08Y20.32
G1X29.29Y20.24
G1X29.48Y20.18
G1X29.64Y20.13
G1X29.78Y20.09
G1X29.85Y20.08
G1X29.9
G1X29.91Y20.22
G1X30.15
G1Y20.31
G1X29.98Y20.36
G1X29.83Y20.41
G1X29.7Y20.46
G1X29.36Y20.61
G1X29.07Y20.76
G1X29.01Y20.8
G1Y20.87
G1X29
G1X28.96Y20.89
G1X28.89Y20.94
G1X28.79Y21.01
G1X28.68Y21.04
G1X28.66Y21.11
G1X28.56
G1X28.55Y21.22
G1X28.61Y21.24
G1X28.66Y21.21
G1X28.75Y21.16
G1X28.88Y21.11
G1X29.57Y20.87
G1X29.68
G1X29.7Y20.94
G1X29.75
G1X29.83
G1X30.12Y20.9
G1X30.2Y20.89
G1X30.25
G1Y20.98
G1X30.16Y21
G1X30.09Y21.01
G1X30.03
G1X29.99
G1X29.97Y21.08
G1X29.8Y21.13
G1X29.62Y21.17
G1X29.45Y21.23
G1X29.27Y21.28
G1Y21.4
G1X29.16Y21.45
G1X28.89Y21.63
G1X28.56Y21.87
G1X28.44Y21.96
G1Y22.01
G1X28.48Y22.03
G1X28.99Y21.75
G1Y21.68
G1X29.12
G1X29.15Y21.66
G1X29.27Y21.6
G1X29.42Y21.57
G1X29.47
G1X29.49Y21.71
G1X29.54
G1X29.63
G1X29.9Y21.68
G1Y21.76
G1X29.54Y21.86
G1X29.37Y21.87
G1X29.36Y21.96
G1X29.19Y21.94
G1X29.09Y21.97
G1Y22.09
G1X29
G1X28.98Y22.05
G1X28.77Y22.03
G1X28.71Y22.07
G1X28.73Y22.24
G1X28.54Y22.33
G1X28.53Y22.45
G1X28.58Y22.47
G1X28.71Y22.42
G1X28.83Y22.36
G1X28.96Y22.31
G1X29.1Y22.27
G1X29.22
G1X29.24Y22.33
G1X29.46Y22.3
G1Y22.41
G1X29.26Y22.46
G1X28.2Y22.97
G1X28.02
G1X27.98Y22.99
G1X27.92Y23.03
G1X27.83Y23.1
G1X27.72Y23.18
G1Y23.32
G1X27.78Y23.34
G1X27.93Y23.29
G1X28.43Y23.13
G1X28.93Y22.97
G1X28.99Y22.96
G1X29.04
G1X29.09
G1Y23.05
G1X28.85Y23.13
G1Y23.2
G1X29.03Y23.21
G1Y23.29
G1X28.7Y23.35
G1X28.66Y23.39
G1X28.69Y23.45
G1X28.88Y23.42
G1X28.87Y23.53
G1X28.62Y23.58
G1X28.43Y23.61
G1X28.33Y23.64
G1X28.3
G1Y23.8
G1X28.34Y23.82
G1X28.47Y23.8
G1X28.65Y23.78
G1X28.91Y23.77
G1X29.23Y23.76
G1Y23.85
G1X29.17
G1X29.06
G1X28.62Y23.89
G1X28.18Y23.99
G1X28.16Y24.04
G1X28.2Y24.07
G1X28.62Y24.02
G1X29.02
G1X29.24Y24.08
G1Y24.18
G1X29.2
G1X29.13
G1X29.04Y24.15
G1X28.93Y24.12
G1X28.44Y24.15
G1X28.14Y24.21
G1Y24.29
G1X28.22
G1Y24.38
G1X28.08Y24.41
G1Y24.49
G1X28.38Y24.5
G1X28.61Y24.51
G1X28.76Y24.53
G1X28.84
G1Y24.78
G1X29.08Y24.84
G1X29.09Y24.94
G1X29.03
G1X28.94
G1X28.66Y24.89
G1X28.45Y24.86
G1X28.2Y24.84
G1X27.68Y24.88
G1X27.57Y24.84
G1X27.47Y24.88
G1X27.45Y24.98
G1X27.49Y25.07
G1X27.59Y25.09
G1X27.72Y25.03
G1Y25.12
G1X27.36Y25.13
G1X27.31Y25.18
G1X27.33Y25.23
G1X27.67
G1X28.1Y25.28
G1X28.22Y25.3
G1X28.41Y25.33
G1X28.59Y25.36
G1X28.72Y25.39
G1X28.82Y25.41
G1X28.92Y25.44
G1Y25.53
G1X28.86
G1X28.77Y25.52
G1X28.46Y25.46
G1X28.25Y25.43
G1X28.01Y25.39
G1X27.95Y25.42
G1Y25.54
G1X28.01Y25.59
G1X28.07Y25.57
G1Y25.51
G1X28.11
G1X28.19Y25.52
G1X28.32Y25.55
G1X28.48Y25.6
G1X28.52Y25.66
G1X28.66
G1Y25.77
G1X28.45Y25.75
G1X28.43Y25.8
G1X28.38
G1X28.25Y25.78
G1X28.14Y25.74
G1X28.11Y25.71
G1X27.96Y25.72
G1Y25.81
G1X27.6Y25.8
G1X27.58Y25.9
G1X27.46Y25.89
G1X27.36Y25.88
G1X27.28
G1X27.21Y25.87
G1Y25.94
G1X27.56Y26.04
G1Y26.17
G1X27.66Y26.22
G1Y26.3
G1X27.61
G1X27.53
G1X27.26Y26.24
G1X27.18Y26.23
G1X27.12
G1X26.98Y26.3
G1X26.97Y26.38
G1X26.99
G1X27.29Y26.45
G1X27.61Y26.53
G1Y26.63
G1X27.56
G1X27.49
G1X27.37Y26.6
G1X27.21Y26.56
G1X27.16Y26.58
G1Y26.63
G1X27.4Y26.74
G1X27.63Y26.92
G1X27.65Y27.04
G1X27.53
G1X27.36Y26.9
G1X27.08Y26.77
G1X26.89Y26.71
G1X26.72Y26.66
G1X26.57Y26.62
G1X26.43Y26.59
G1X26.41Y26.61
G1X26.4Y26.62
G1Y26.64
G1Y26.67
G1X26.51Y26.73
G1Y26.81
G1X26.42Y26.83
G1X26.41Y26.89
G1X26.52Y26.94
G1X26.54Y27.02
G1X26.58
G1X26.62
G1X26.67Y27.04
G1X26.72Y27.07
G1Y27.22
G1X26.77Y27.26
G1X26.84Y27.31
G1X26.92Y27.38
G1X27.01Y27.47
G1Y27.56
G1X27.09Y27.58
G1Y27.66
G1X26.99
G1X26.98Y27.58
G1X26.9Y27.57
G1X26.83Y27.51
G1X26.76Y27.45
G1X26.67Y27.39
G1X26.58Y27.33
G1X26.53Y27.35
G1Y27.46
G1X26.41
G1X26.39Y27.52
G1X26.56Y27.69
G1X26.57Y27.8
G1X26.66Y27.81
G1Y27.9
G1X26.57
G1X26.55Y27.82
G1X26.4Y27.8
G1Y27.84
G1X26.42Y27.88
G1X26.43Y27.9
G1X26.45
G1Y28.01
G1X26.36
G1X26.34Y28.04
G1X26.32Y28.06
G1Y28.08
G1Y28.11
G1X26.66Y28.42
G1X26.82Y28.64
G1Y28.77
G1X26.72
G1X26.68Y28.7
G1X26.6Y28.61
G1X26.49Y28.49
G1X26.34Y28.34
G1X26.12Y28.18
G1X25.93Y28.05
G1X25.8Y27.97
G1X25.72Y27.92
G1X25.66Y27.94
G1X25.64Y28.17
G1X25.71Y28.22
G1X25.78Y28.29
G1X25.87Y28.39
G1X25.96Y28.5
G1X26.14Y28.84
G1Y28.95
G1X26.18Y28.97
G1Y29.1
G1X26.08
G1Y29.03
G1X25.98Y28.88
G1X25.89
G1X25.87Y28.92
G1X25.74
G1X25.58Y28.73
G1X25.5
G1X25.48Y28.79
G1X25.68Y28.98
G1Y29.08
G1X25.55Y29.09
G1Y29.15
G1X25.72Y29.34
G1Y29.49
G1X25.64
G1X25.62Y29.54
G1X25.77Y29.71
G1Y29.83
G1X25.72Y29.85
G1Y29.92
G1X25.81Y30.07
G1Y30.17
G1X25.71
G1X25.61Y30.1
G1X25.51Y30.03
G1X25.4Y29.97
G1X25.29Y29.91
G1X25.22Y29.95
G1X25.06
G1X24.93Y29.9
G1X24.78Y29.85
G1X24.6Y29.77
G1X24.4Y29.69
G1X24.35Y29.71
G1Y29.82
G1X24.12Y29.8
G1X23.9Y29.74
G1X23.86Y29.78
G1X23.91Y29.87
G1X23.89Y30.04
G1X23.97Y30.21
G1X24.04Y30.36
G1X24.09Y30.49
G1X24.14Y30.59
G1Y30.72
G1X24.05Y30.73
G1X24.06Y30.98
G1X23.96
G1Y30.96
G1X23.94Y30.93
G1X23.88Y30.86
G1X23.79Y30.78
G1X23.7
G1X23.53Y30.65
G1X23.32Y30.51
G1X23.07Y30.35
G1X22.78Y30.17
G1X22.72
G1X22.71Y30.31
G1X22.8Y30.38
G1X22.88Y30.44
G1X22.93Y30.5
G1X22.98Y30.54
G1Y30.63
G1X22.86
G1Y30.61
G1X22.85Y30.59
G1X22.82Y30.57
G1X22.76Y30.54
G1X22.69Y30.49
G1X22.61Y30.43
G1X22.46
G1X22.36Y30.38
G1X22.31Y30.43
G1X22.21
G1X21.91Y30.25
G1X21.8Y30.17
G1X21.7Y30.11
G1X21.65Y30.13
G1Y30.28
G1X21.55
G1X21.53Y30.34
G1X21.75Y30.63
G1X21.81Y30.71
G1X21.86Y30.78
G1X21.96Y30.88
G1X22.06Y31
G1X22.15Y31.12
G1X22.23Y31.22
G1Y31.33
G1X22.28Y31.35
G1Y31.46
G1X22.19
G1Y31.35
G1X22.12Y31.32
G1X22.05Y31.37
G1X21.94
G1X21.92Y31.4
G1X21.81
G1X21.75Y31.35
G1X21.67Y31.27
G1X21.55Y31.17
G1X21.41Y31.06
G1X21.22Y30.94
G1X21.04Y30.84
G1X20.89Y30.76
G1X20.75Y30.69
G1X20.07Y30.48
G1X19.97Y30.39
G1X19.87
G1X19.8Y30.46
G1Y30.5
G1Y30.54
G1X19.83Y30.6
G1X19.85Y30.67
G1X19.91
G1X20.32Y30.87
G1X20.72Y31.11
G1X20.76Y31.15
G1Y31.25
G1X20.82Y31.29
G1X20.87Y31.32
G1X20.9
G1X20.93
G1Y31.41
G1X21.01Y31.43
G1Y31.51
G1X20.96
G1X20.91
G1X20.86Y31.5
G1X20.81Y31.49
G1X20.38Y31.21
G1X19.81Y30.9
G1X19.76Y30.92
G1Y30.98
G1X19.71
G1X19.64Y30.97
G1X19.53Y30.94
G1X19.4Y30.9
G1X19.34Y30.85
G1X19.27Y30.86
G1X19.25Y30.94
G1X19.16
G1Y30.79
G1X19.14
G1X19.1Y30.78
G1X19.04
G1X18.98Y30.77
G1X18.96Y30.85
G1X18.88
G1X18.87Y30.94
G1X18.9Y30.96
G1X18.96Y30.99
G1X19.1Y31.06
G1X19.14Y31.08
G1X19.16Y31.11
G1X19.25
G1X19.27Y31.25
G1X19.5
G1Y31.41
G1X19.34Y31.39
G1X19.29
G1X19.26
G1X19.22Y31.3
G1X19.04Y31.28
G1X19Y31.22
G1X18.89
G1X18.52Y31.11
G1X18.29
G1X18.09Y31.06
G1X17.82Y30.99
G1X17.57Y30.89
G1X17.46Y30.83
G1X17.38Y30.84
G1Y30.95
G1X17.42Y30.98
G1X17.47Y31.03
G1X17.53Y31.09
G1X17.6Y31.18
G1Y31.27
G1X17.47
G1X17.44Y31.24
G1X17.34
G1X17.2Y31.11
G1X17.06
G1Y31.07
G1X16.97Y31.03
G1X16.86Y30.99
G1X16.73Y30.91
G1X16.57Y30.83
G1X16.4Y30.73
G1X16.24Y30.63
G1X16.07Y30.57
G1X15.9Y30.51
G1X15.75Y30.45
G1X15.63Y30.39
G1X15.54Y30.34
G1X15.49Y30.31
G1X15.44Y30.28
G1X15.38Y30.24
G1X15.3Y30.18
G1X15.24Y30.2
G1X15.22Y30.28
G1X15.13
G1Y30.26
G1X15.1Y30.25
G1X15.08
G1X15.05Y30.23
G1X14.98Y30.19
G1X14.88Y30.14
G1X14.48Y29.91
G1X14.41Y29.92
G1X14.39Y30.03
G1X14.55Y30.18
G1X14.64Y30.33
G1X14.71Y30.44
G1X14.75Y30.5
G1X14.76Y30.54
G1X14.8
G1Y30.6
G1X14.88Y30.71
G1Y30.81
G1X14.79
G1X14.67Y30.76
G1X14.63Y30.66
G1X14.53Y30.55
G1X14.42Y30.46
G1X14.31Y30.37
G1X14.2Y30.3
G1X14.14
G1X14.12Y30.39
G1X14.04
G1X14.01Y30.33
G1X13.95
G1X13.74Y30.17
G1Y30.05
G1X13.6Y30.04
G1X13.42Y29.89
G1X13.36Y29.86
G1X13.31Y29.84
G1X13.26
G1X13.22
G1X13.05Y29.72
G1X12.79Y29.53
G1X12.58Y29.36
G1X12.41Y29.19
G1X12.27Y29
G1X12.17Y28.86
G1X12.01Y28.88
G1Y28.7
G1X12Y28.56
G1X11.99Y28.47
G1X11.98Y28.43
G1X11.9
G1X11.88Y28.78
G1X11.78Y28.99
G1X11.68
G1Y28.89
G1X11.78Y28.61
G1X11.76Y28.17
G1X11.7Y27.86
G1X11.35Y27.36
G1X11.28Y27.25
G1X11.25Y27.2
G1X11.1
G1X11.08Y27.17
G1X11.05Y27.09
G1X10.92Y26.76
G1X10.85Y26.59
G1X10.8Y26.44
G1X10.73Y26.29
G1X10.7Y26.22
G1X10.51Y25.81
G1X10.38Y25.8
G1X10.29Y25.58
G1X10.26Y25.53
G1X10.25Y25.51
G1X10.18
G1X10.16Y25.41
G1X10.07
G1Y25.55
G1X10.19Y25.78
G1X10.35Y25.95
G1Y26.04
G1X10.24
G1X10.18Y25.98
G1X10.03Y25.78
G1X9.92Y25.5
G1X9.83Y25.15
G1X9.79Y24.76
G1X9.78Y24.53
G1X9.71Y24.51
G1X9.69Y24.59
G1X9.6
G1Y24.4
G1X9.64Y24.18
G1X9.67Y24.01
G1X9.7Y23.88
G1X9.75Y23.78
G1X9.8Y23.68
G1X9.87Y23.57
G1X10.04Y23.59
G1X10.08Y23.51
G1X10.06Y23.45
G1X9.94
G1Y23.36
G1X10.02
G1X10.12Y23.24
G1Y23.19
G1X10.04Y23.17
G1Y23.08
G1X10.09Y23.07
G1X10.14Y22.9
G1X10.12Y22.84
G1X10.02
G1Y22.72
G1X10.12Y22.58
G1X10.1Y22.53
G1X9.98
G1Y22.43
G1X10.04Y22.32
G1X10.08Y22.22
G1X10.11Y22.15
G1X10.12Y22.1
G1X10.06Y22.06
G1X10.05Y21.97
M9
G1S0
M5
G90
; return to user-defined finish pos
G0 X0 Y0
M2
