; LightBurn 0.9.24
; GRBL device profile, absolute coords
; Bounds: X3 Y3 to X32.15 Y33
G00 G17 G40 G21 G54
G90
M4
; Cut @ 6000 mm/min, 20% power
M8
M5
G0X11.98Y4.44
M3 S30
; Layer C00
G1Y4.47S20F6000
G1X11.94Y4.57
G1X11.92Y4.64
G1X11.89Y4.75
G1X11.87Y4.82
G1X11.86Y4.84
G1Y4.83
G1X11.88Y4.65
G1X11.94Y4.51
G1X11.96Y4.48
G1X11.98Y4.44
M5
G0X12.51Y4.46
M3 S30
; Layer C00
G1Y4.39
G1X12.52Y4.41
G1X12.54Y4.49
G1X12.58Y4.83
G1X12.62Y5
G1X12.67Y5.15
G1X12.75Y5.31
G1X12.84Y5.49
G1X13.15Y5.78
G1X13.28Y5.9
G1X13.31Y5.92
G1Y5.91
G1X13.29Y5.87
G1X13.25Y5.81
G1X13.2Y5.73
G1X13.09Y5.57
G1X13.01Y5.43
G1X12.96Y5.32
G1X12.95Y5.23
G1X12.92Y5.14
G1X12.86Y5.01
G1X12.78Y4.84
G1X12.72Y4.46
G1X12.75Y4.35
G1X12.78Y4.27
G1X12.81Y4.23
G1X12.82Y4.24
G1X12.81Y4.3
G1X12.8Y4.41
G1Y4.57
G1Y4.75
G1X12.84Y4.9
G1X12.9Y5.02
G1X12.96Y5.11
G1X13Y5.14
G1X12.98
G1Y5.18
G1X13Y5.24
G1X13.03Y5.32
G1X13.13Y5.48
G1X13.23Y5.6
G1X13.26Y5.63
G1Y5.54
G1X13.3Y5.61
G1X13.37Y5.71
G1X13.49Y5.81
G1X13.63Y5.91
G1X13.79Y5.99
G1X13.94Y6.06
G1X14.01Y6.08
G1X14.02
G1X14.01Y6.07
G1X13.97Y6.05
G1X13.9Y6.01
G1X13.72Y5.9
G1X13.55Y5.74
G1X13.41Y5.56
G1X13.3Y5.37
G1X13.18Y5.11
G1X13.13Y4.98
G1X13.1Y4.89
G1X13.09Y4.82
G1X13.16Y4.96
G1X13.17Y4.73
G1X13.19Y4.8
G1X13.21Y4.9
G1X13.24Y5.04
G1X13.27Y5.21
G1X13.39Y5.38
G1X13.51Y5.54
G1X13.64Y5.68
G1X13.77Y5.81
G1X13.91Y5.9
G1X14.02Y5.97
G1X14.06Y6.01
G1X14Y5.99
G1X13.89Y5.92
G1X13.75Y5.83
G1X13.64Y5.74
G1X13.53Y5.65
G1X13.49Y5.63
G1X13.52Y5.67
G1X13.61Y5.76
G1X13.73Y5.86
G1X13.87Y5.95
G1X13.99Y6.01
G1X14.1Y6.03
G1X14.17Y6.06
G1X14.26Y6.1
G1X14.46Y6.21
G1X14.54Y6.25
G1X14.61Y6.27
G1X14.63
G1X14.65
G1Y6.29
G1X14.64Y6.31
G1X14.66Y6.33
G1X14.69
G1X14.66Y6.34
G1X14.63
G1X14.6Y6.3
G1X14.58
G1X14.59Y6.34
G1X14.67Y6.45
G1X14.77Y6.58
G1X14.84Y6.68
G1X14.86Y6.75
G1X14.89Y6.83
G1X14.99Y7.19
G1Y7.11
G1X14.98Y6.98
G1X14.93Y6.81
G1X14.92Y6.75
G1X15Y6.89
G1X15.01Y7.12
G1Y7.31
G1X14.99Y7.51
G1X14.97Y7.68
G1X14.94Y7.77
G1X14.93Y7.8
G1Y7.82
G1X14.92
G1X14.91Y7.78
G1X14.94Y7.65
G1Y7.59
G1X14.93Y7.54
G1X14.78Y7.82
G1Y8.15
G1Y8.42
G1X14.8Y8.6
G1X14.81Y8.69
G1Y8.72
G1X14.8Y8.71
G1X14.77Y8.64
G1X14.73Y8.26
G1X14.75Y7.88
G1X14.78Y7.75
G1X14.83Y7.63
G1X14.89Y7.51
G1Y7.13
G1X14.84Y7
G1X14.8Y6.91
G1X14.77Y6.85
G1X14.75Y6.83
G1Y6.87
G1X14.77Y6.94
G1X14.82Y7.17
G1X14.8Y7.33
G1X14.76Y7.55
G1X14.71Y7.76
G1X14.68Y7.91
G1X14.66Y7.95
G1Y7.87
G1X14.7Y7.7
G1X14.74Y7.48
G1X14.71Y7.33
G1X14.63Y7.05
G1X14.53Y6.8
G1X14.48Y6.7
G1X14.53Y6.76
G1X14.63Y6.96
G1X14.73Y7.25
G1X14.75Y7.27
G1X14.77Y7.22
G1Y7.1
G1X14.74Y6.95
G1X14.71Y6.83
G1X14.66Y6.73
G1X14.6Y6.64
G1X14.55Y6.58
G1X14.57
G1X14.62Y6.61
G1X14.61Y6.56
G1X14.64Y6.6
G1X14.69Y6.66
G1X14.71Y6.72
G1X14.73Y6.76
G1X14.75Y6.78
G1X14.79Y6.82
G1X14.84Y6.92
G1X14.88Y6.97
G1X14.9Y7
G1Y6.98
G1X14.82Y6.74
G1X14.68Y6.5
G1X14.52Y6.32
G1X14.35Y6.21
G1X14.2Y6.17
G1X13.98Y6.11
G1X13.71Y6.04
G1X13.77Y6.08
G1X13.85Y6.12
G1X13.95Y6.17
G1X14.03Y6.21
G1Y6.22
G1X13.95Y6.2
G1X13.8Y6.13
G1X13.59Y6.03
G1X13.45Y5.89
G1X13.32Y5.76
G1X13.22Y5.65
G1X13.14Y5.56
G1X13.07Y5.45
G1X13.05
G1X13.09Y5.54
G1X13.16Y5.62
G1X13.19Y5.65
G1X13.23Y5.71
G1X13.32Y5.82
G1X13.45Y5.94
G1X13.6Y6.06
G1X13.75Y6.14
G1X13.85Y6.2
G1X13.88Y6.22
G1X13.84Y6.21
G1X13.71Y6.17
G1X13.35Y5.99
G1X13.03Y5.73
G1X12.77Y5.41
G1X12.61Y5.07
G1X12.54Y4.77
G1X12.51Y4.46
M5
G0X12.85Y4.37
M3 S30
; Layer C00
G1X12.93Y4.28
G1X12.91Y4.33
G1X12.89Y4.41
G1Y4.53
G1X12.87Y4.68
G1X12.92Y4.81
G1X12.95Y4.9
G1Y4.94
G1X12.94Y4.92
G1X12.9Y4.85
G1X12.85Y4.75
G1Y4.37
M5
G0X12.94Y4.41
M3 S30
; Layer C00
G1X12.95Y4.34
G1X12.98Y4.32
G1X12.99Y4.34
G1Y4.41
G1Y4.53
G1Y4.69
G1X13.02Y4.89
G1X13.1Y5.05
G1X13.15Y5.16
G1Y5.2
G1X13.12Y5.15
G1X13.05Y5.03
G1X12.97Y4.86
G1X12.95Y4.66
G1X12.94Y4.52
G1Y4.41
M5
G0X13.19Y4.42
M3 S30
; Layer C00
G1Y4.35
G1X13.27Y4.11
G1X13.34Y3.96
G1X13.37Y3.95
G1Y3.97
G1X13.36Y4.02
G1X13.32Y4.1
G1X13.27Y4.22
G1X13.24Y4.32
G1X13.23Y4.39
G1X13.21Y4.43
G1X13.19Y4.42
M5
G0X13.36Y4.74
M3 S30
; Layer C00
G1X13.38Y4.78
G1X13.43Y5.02
G1X13.46Y5.09
G1X13.47
G1Y5.02
G1X13.46Y4.91
G1X13.53Y5.07
G1X13.51Y4.98
G1Y4.92
G1X13.52
G1X13.55Y4.95
G1X13.58Y5.04
G1X13.61Y5.14
G1X13.63Y5.02
G1X13.69Y5.08
G1X13.73Y5.14
G1X13.75Y5.17
G1X13.87Y5.37
G1X14.02Y5.57
G1X14.01Y5.52
G1X13.88Y5.27
G1X13.85Y5.2
G1X13.86
G1X13.89Y5.25
G1X13.93Y5.32
G1X14.06Y5.56
G1X14.14Y5.68
G1X14.2Y5.76
G1X14.23Y5.78
G1Y5.75
G1X14.13Y5.57
G1X14.1Y5.48
G1X14.13Y5.51
G1X14.17Y5.58
G1X14.27Y5.74
G1X14.39Y5.88
G1X14.52Y5.98
G1X14.71Y6.08
G1X14.74Y6.1
G1Y6.12
G1X14.69Y6.11
G1X14.6Y6.06
G1X14.48Y5.99
G1X14.33Y5.89
G1X14.28Y5.87
G1X14.25Y5.85
G1Y5.82
G1Y5.8
G1X14.24
G1X14.2Y5.78
G1X14.15Y5.74
G1X14.07Y5.66
G1X13.99Y5.57
G1X13.83Y5.37
G1X13.74Y5.21
G1X13.72Y5.17
G1X13.69Y5.13
G1X13.65Y5.1
G1X13.67Y5.17
G1X13.72Y5.3
G1X13.8Y5.45
G1X13.89Y5.58
G1X13.94Y5.63
G1X13.96
G1Y5.65
G1Y5.69
G1Y5.7
G1X13.92Y5.68
G1X13.88Y5.62
G1X13.82Y5.55
G1X13.69Y5.37
G1X13.59Y5.19
G1X13.55Y5.12
G1X13.53Y5.1
G1X13.55Y5.16
G1X13.59Y5.25
G1X13.64Y5.35
G1X13.71Y5.46
G1X13.79Y5.57
G1X13.86Y5.67
G1X13.92Y5.74
G1X13.96Y5.77
G1X13.98
G1Y5.76
G1Y5.74
G1Y5.71
G1X14.02Y5.72
G1X14.11Y5.79
G1X14.21Y5.88
G1X14.34Y5.98
G1X14.35Y6
G1Y6.02
G1X14.38Y6.05
G1X14.42Y6.09
G1X14.32Y6.04
G1X14.26Y5.99
G1X14.22Y5.95
G1X14.2Y5.93
G1X14.18
G1Y5.95
G1X14.17
G1X14.11Y5.92
G1X14Y5.84
G1X13.88Y5.73
G1X13.61Y5.44
G1X13.43Y5.16
G1X13.37Y4.92
G1X13.36Y4.74
M5
G0X13.49Y4.74
M3 S30
; Layer C00
G1X13.5Y4.71
G1X13.54Y4.77
G1Y4.85
G1X13.52Y4.88
G1X13.5
G1X13.49Y4.84
G1Y4.8
G1Y4.74
M5
G0X13.77Y4.83
M3 S30
; Layer C00
G1X13.79
G1X13.81Y4.87
G1X13.82
G1X13.84
G1Y4.9
G1Y4.93
G1X13.82
G1X13.81
G1X13.78Y4.96
G1X13.77
G1X13.75Y4.88
G1X13.77Y4.83
M5
G0X14.24Y4.88
M3 S30
; Layer C00
G1Y4.85
G1X14.27
G1X14.33Y4.83
G1Y4.89
G1X14.31Y4.98
G1X14.26Y5.02
G1X14.24Y4.99
G1Y4.94
G1Y4.88
M5
G0X14.51Y4.84
M3 S30
; Layer C00
G1Y4.76
G1Y4.65
G1X14.6Y4.51
G1X14.68Y4.4
G1X14.78Y4.3
G1X14.8Y4.25
G1Y4.22
G1X14.82
G1X14.87Y4.19
G1X14.96Y4.12
G1X15.06Y4.01
G1X15.16Y3.88
G1X15.23Y3.72
G1X15.29Y3.55
G1X15.31Y3.5
G1X15.32Y3.47
G1X15.33Y3.49
G1X15.27Y3.7
G1X15.17Y3.92
G1X15.14Y3.97
G1Y3.98
G1X15.18Y3.96
G1X15.23Y3.91
G1X15.36Y3.71
G1X15.43Y3.52
G1X15.45Y3.42
G1Y3.51
G1X15.43Y3.61
G1X15.38Y3.73
G1X15.31Y3.87
G1X14.88Y4.26
G1X14.79Y4.35
G1X14.72Y4.41
G1X14.7Y4.44
G1Y4.45
G1X14.74Y4.44
G1Y4.45
G1X14.72Y4.47
G1X14.69
G1X14.66Y4.49
G1X14.61Y4.54
G1X14.55Y4.62
G1Y4.75
G1Y4.84
G1X14.53Y4.88
G1X14.51Y4.84
M5
G0X14.58Y4.86
M3 S30
; Layer C00
G1X14.59Y4.82
G1X14.61Y4.78
G1X14.65Y4.84
G1X14.64Y4.8
G1Y4.74
G1X14.69Y4.66
G1X14.73Y4.61
G1X14.76Y4.58
G1X14.77
G1Y4.61
G1Y4.63
G1Y4.64
G1X14.78Y4.66
G1X14.76Y4.69
G1X14.72Y4.74
G1X14.73Y4.98
G1X14.75Y5.16
G1X14.77Y5.28
G1X14.79Y5.35
G1Y5.3
G1Y5.21
G1X14.77Y5.08
G1Y4.95
G1Y4.86
G1Y4.81
G1X14.8Y4.8
G1X14.82
G1Y4.78
G1Y4.7
G1X14.87Y4.59
G1X14.94Y4.46
G1X15.02Y4.35
G1X15.18Y4.2
G1X15.32Y4.11
G1X15.28Y4.15
G1X15.17Y4.25
G1X15.04Y4.38
G1X14.95Y4.49
G1X14.9Y4.62
G1X14.86Y4.78
G1X14.83Y4.95
G1Y5.11
G1X14.86Y5.26
G1X14.89Y5.03
G1Y5.34
G1X14.95Y5.46
G1X14.99Y5.55
G1X15Y5.6
G1X15.12Y5.85
G1X15.28Y6.03
G1X15.25Y5.97
G1X15.1Y5.68
G1X15.06Y5.61
G1X15.09Y5.64
G1X15.16Y5.75
G1X15.24Y5.88
G1X15.31Y5.96
G1X15.37Y6
G1X15.33Y5.95
G1X15.26Y5.84
G1X15.24Y5.81
G1X15.28Y5.84
G1X15.33Y5.92
G1X15.38Y5.99
G1Y6.01
G1X15.36Y6
G1Y6.02
G1X15.38Y6.04
G1X15.42
G1Y6.06
G1Y6.1
G1X15.44Y6.15
G1X15.52Y6.26
G1X15.55Y6.31
G1X15.54
G1X15.49Y6.27
G1X15.42Y6.18
G1X15.33Y6.09
G1X15.28Y6.06
G1X15.14Y5.94
G1X15.01Y5.77
G1X15Y5.74
G1X14.97Y5.72
G1X14.93Y5.71
G1X14.96Y5.75
G1X14.98Y5.78
G1Y5.8
G1X14.97Y5.79
G1X14.94Y5.74
G1X14.9Y5.68
G1X14.86Y5.59
G1X14.73Y5.26
G1X14.68Y4.97
G1X14.67Y4.91
G1X14.65
G1X14.63Y4.96
G1Y5.05
G1Y5.29
G1X14.7Y5.48
G1X14.86Y5.73
G1X15.02Y5.91
G1X15.13Y6
G1X15.04Y5.95
G1X14.9Y5.84
G1X14.75Y5.68
G1X14.64Y5.51
G1X14.59Y5.36
G1X14.57Y5.32
G1X14.54Y5.26
G1X14.5Y5.1
G1X14.54Y4.97
G1X14.57Y4.94
G1Y4.9
G1X14.58Y4.86
M5
G0X14.4Y4.73
M3 S30
; Layer C00
G1Y4.72
G1Y4.68
G1X14.47Y4.49
G1X14.55Y4.36
G1Y4.37
G1X14.47Y4.55
G1X14.44Y4.64
G1X14.42Y4.7
G1X14.4Y4.73
M5
G0X14.28Y4.68
M3 S30
; Layer C00
G1X14.26Y4.69
G1X14.24Y4.67
G1Y4.62
G1X14.31Y4.47
G1X14.38Y4.39
G1Y4.42
G1X14.3Y4.59
G1X14.28Y4.68
M5
G0X14.94Y4.71
M3 S30
; Layer C00
G1X15Y4.53
G1X15.06Y4.42
G1Y4.44
G1X15.04Y4.5
G1X14.98Y4.69
G1X14.94Y4.88
G1Y4.92
G1X14.96Y4.91
G1X14.98Y4.85
G1X15Y4.75
G1X15.07Y4.54
G1X15.16Y4.37
G1X15.27Y4.25
G1X15.39Y4.19
G1X15.47Y4.18
G1X15.36Y4.22
G1X15.2Y4.35
G1X15.11Y4.49
G1X15.14
G1X15.19Y4.44
G1X15.38Y4.3
G1X15.54Y4.23
G1X15.53Y4.25
G1X15.49Y4.27
G1X15.56
G1X15.65
G1X15.72Y4.22
G1X15.8Y4.13
G1X15.96Y3.89
G1X15.99Y3.87
G1X15.98Y3.89
G1X15.94Y3.98
G1X15.89Y4.07
G1X15.96Y4
G1X16.03Y3.93
G1X16.08Y3.84
G1X16.1Y3.79
G1X16.11
G1X16.07Y3.93
G1X16.01Y4
G1X15.99
G1Y4.03
G1X16.01Y4.06
G1X15.97
G1X15.93Y4.09
G1X15.82Y4.19
G1X15.73Y4.25
G1X15.65Y4.28
G1X15.54Y4.31
G1X15.37Y4.34
G1X15.28Y4.43
G1X15.21Y4.5
G1X15.19Y4.54
G1X15.17Y4.6
G1X15.12Y4.72
G1X15.03Y4.88
G1X15.07Y5.14
G1X15.09Y5.02
G1X15.13Y4.8
G1X15.2Y4.64
G1X15.22Y4.6
G1X15.23
G1X15.22Y4.65
G1X15.19Y4.73
G1X15.15Y4.84
G1Y4.89
G1X15.16Y4.87
G1X15.22Y4.78
G1X15.31Y4.65
G1X15.42Y4.51
G1X15.54Y4.41
G1X15.65Y4.35
G1X15.73Y4.32
G1X15.69Y4.35
G1X15.47Y4.53
G1X15.3Y4.75
G1X15.21Y5.06
G1Y5.37
G1Y5.45
G1X15.24Y5.38
G1Y5.35
G1Y5.39
G1Y5.45
G1Y5.54
G1X15.26Y5.55
G1X15.28Y5.52
G1X15.29Y5.59
G1X15.35Y5.7
G1X15.41Y5.75
G1X15.42
G1X15.44Y5.79
G1X15.46
G1X15.47
G1Y5.8
G1Y5.88
G1X15.57Y5.98
G1X15.61Y6.09
G1X15.62Y6.14
G1X15.66Y6.23
G1X15.7Y6.35
G1X15.72Y6.43
G1X15.71Y6.49
G1X15.68Y6.38
G1X15.63Y6.26
G1X15.56Y6.13
G1X15.48Y6
G1X15.41Y5.86
G1X15.35Y5.76
G1X15.31Y5.73
G1X15.28Y5.72
G1X15.23Y5.66
G1X15.18Y5.58
G1X15.08Y5.39
G1X15.06Y5.35
G1X15.05
G1Y5.39
G1Y5.43
G1Y5.47
G1X15.04
G1X15.03Y5.45
G1Y5.39
G1X15.01Y5.15
G1Y5.04
G1X14.99Y4.97
G1X14.96Y4.96
G1X14.95Y4.99
G1Y5.05
G1X14.94Y5.12
G1X14.92Y5.05
G1X14.91Y4.9
G1X14.94Y4.71
M5
G0X15.36Y4.79
M3 S30
; Layer C00
G1X15.39Y4.73
G1X15.49Y4.59
G1X15.63Y4.47
G1X15.77Y4.38
G1X15.88Y4.34
G1X15.9Y4.35
G1X15.85Y4.37
G1X15.71Y4.46
G1X15.62Y4.58
G1X15.61Y4.61
G1X15.58Y4.64
G1X15.54Y4.67
G1X15.53
G1Y4.65
G1X15.57Y4.6
G1X15.61Y4.55
G1X15.57
G1X15.54Y4.58
G1X15.49Y4.63
G1X15.43Y4.71
G1X15.36Y4.8
M5
G0X15.3Y4.99
M3 S30
; Layer C00
G1X15.32Y5.01
G1Y5.05
G1X15.33Y5.12
G1Y5.22
G1Y5.41
G1X15.36Y5.54
G1X15.37Y5.6
G1Y5.63
G1X15.34Y5.57
G1X15.31Y5.44
G1X15.29Y5.24
G1X15.28Y4.99
G1X15.3
M5
G0X15.54Y5.05
M3 S30
; Layer C00
G1Y5.06
G1Y5.19
G1Y5.32
G1Y5.34
G1Y5.31
G1Y5.2
G1Y5.08
G1Y5.05
M5
G0X15.67Y5.1
M3 S30
; Layer C00
G1X15.7Y5.05
G1X15.71Y5
G1Y4.95
G1X15.74Y4.86
G1X15.84Y4.64
G1Y4.6
G1X15.76Y4.76
G1X15.69Y5
G1X15.67Y5.1
M5
G0X15.76Y5.1
M3 S30
; Layer C00
G1Y5.24
G1Y5.33
G1X15.77Y5.25
G1X15.81Y5.13
G1X15.87Y4.96
G1X15.94Y4.78
G1X16.01Y4.66
G1X16.04Y4.59
G1Y4.55
G1X16.05Y4.53
G1X16.08
G1X16.27Y4.4
G1X16.44Y4.19
G1X16.48Y4.11
G1X16.47Y3.59
G1X16.45Y3.78
G1X16.42Y3.92
G1X16.39Y4.07
G1X16.35Y4.18
G1X16.32Y4.22
G1Y4.18
G1X16.37Y4.01
G1Y3.94
G1Y3.89
G1X16.35Y3.94
G1X16.32Y3.98
G1X16.28Y4.03
G1X16.14Y4.25
G1X16.04Y4.45
G1X16.06
G1X16.13Y4.39
G1X16.03Y4.5
G1X15.97Y4.56
G1X15.95Y4.61
G1X15.96
G1X15.98
G1Y4.62
G1X15.95Y4.67
G1X15.88Y4.77
G1X15.82Y4.87
G1X15.78Y4.98
G1X15.76Y5.1
M5
G0X15.88Y5.24
M3 S30
; Layer C00
G1Y5.27
G1Y5.35
G1X15.87Y5.74
G1X15.91Y5.82
G1X15.94Y5.87
G1X15.96
G1Y5.83
G1X15.94Y5.75
G1X15.92Y5.62
G1X15.91Y5.32
G1X15.89Y5.24
M5
G0X16.22Y5.26
M3 S30
; Layer C00
G1Y5.52
G1X16.25Y5.8
G1X16.23
G1X16.21Y5.75
G1Y5.8
G1X16.24Y6.03
G1X16.29Y6.2
G1Y6.22
G1X16.27Y6.28
G1Y6.3
G1X16.3
G1X16.31Y6.34
G1X16.33Y6.38
G1X16.34
G1X16.35Y6.35
G1Y6.28
G1X16.33Y6.18
G1X16.27Y6.03
G1X16.26Y5.96
G1Y5.89
G1X16.28Y5.96
G1X16.31Y6.06
G1X16.36Y6.09
G1X16.38Y6.06
G1X16.34Y6.01
G1X16.31Y5.98
G1X16.28Y4.98
G1X16.35Y4.85
G1X16.41Y4.76
G1X16.47Y4.71
G1X16.61Y4.57
G1X16.66Y4.44
G1X16.53Y4.52
G1X16.4Y4.65
G1X16.37Y4.7
G1X16.46Y4.64
G1X16.53Y4.59
G1X16.56Y4.58
G1X16.54Y4.61
G1X16.47Y4.67
G1X16.37Y4.77
G1X16.3Y4.88
G1X16.26Y4.96
G1X16.23
G1Y4.98
G1X16.22Y5.04
G1Y5.14
G1Y5.26
M5
G0X16.32Y5.28
M3 S30
; Layer C00
G1Y5.31
G1X16.35Y5.26
G1X16.37Y5.16
G1X16.38Y5
G1X16.41Y4.95
G1X16.46Y4.86
G1X16.5Y4.77
G1Y4.74
G1X16.45Y4.77
G1X16.39Y4.86
G1X16.35Y5
G1X16.32Y5.17
G1Y5.28
M5
G0X16.38Y5.34
M3 S30
; Layer C00
G1Y5.37
G1X16.36Y5.43
G1Y5.54
G1X16.34Y5.97
G1X16.36
G1X16.37Y5.94
G1X16.38Y5.87
G1Y5.77
G1X16.39Y5.62
G1Y5.49
G1Y5.4
G1Y5.35
G1X16.38
M5
G0X16.47Y5.36
M3 S30
; Layer C00
G1Y5.38
G1X16.5Y5.33
G1X16.53Y5.21
G1X16.56Y5.1
G1X16.6Y5.04
G1X16.63Y5
G1X16.65Y4.97
G1X16.74Y4.86
G1X16.85Y4.76
G1Y4.78
G1Y4.81
G1X16.84Y4.87
G1X16.93Y4.77
G1X16.99Y4.69
G1X17.03Y4.63
G1X17.06Y4.55
G1X17.12Y4.43
G1X17.18Y4.3
G1X17.21Y4.23
G1X17.2Y4.22
G1X17.1Y4.39
G1X16.99Y4.54
G1X16.87Y4.67
G1X16.75Y4.77
G1X16.68Y4.82
G1X16.65Y4.87
G1X16.64Y4.89
G1X16.62
G1X16.6Y4.88
G1Y4.92
G1X16.55Y4.96
G1X16.5Y5.02
G1X16.48Y5.07
G1X16.47Y5.27
G1Y5.36
M5
G0X16.57Y5.35
M3 S30
; Layer C00
G1Y5.39
G1X16.59
G1X16.6Y5.35
G1X16.62Y5.29
G1X16.64Y5.21
G1X16.66Y5.14
G1X16.68Y5.06
G1X16.73Y4.98
G1X16.77Y4.92
G1X16.79Y4.88
G1Y4.86
G1X16.77
G1X16.71Y4.94
G1X16.64Y5.07
G1X16.59Y5.22
G1X16.57Y5.35
M5
G0X16.18Y5.42
M3 S30
; Layer C00
G1X16.16Y5.48
G1X16.15Y5.61
G1X16.17Y5.69
G1X16.18Y5.65
G1Y5.56
G1Y5.42
M5
G0X15.59Y5.55
M3 S30
; Layer C00
G1X15.56Y5.48
G1X15.54Y5.46
G1X15.53Y5.48
G1X15.59Y5.67
G1X15.67Y5.82
G1X15.66Y5.76
G1X15.62Y5.64
G1X15.59Y5.55
M5
G0X15.49Y5.55
M3 S30
; Layer C00
G1X15.45Y5.47
G1X15.47Y5.55
G1X15.54Y5.77
G1X15.65Y5.98
G1X15.73Y6.1
G1X15.74Y6.04
G1Y5.99
G1X15.7Y5.93
G1X15.59Y5.76
G1X15.49Y5.55
M5
G0X15.98Y5.95
M3 S30
; Layer C00
G1Y6
G1Y6.21
G1Y6.27
G1Y6.3
G1X16Y6.32
G1Y6.48
G1X16.02Y6.6
G1Y6.68
G1X16Y6.77
G1X15.97Y6.73
G1X15.95Y6.69
G1X15.93Y6.65
G1X15.91Y6.6
G1X15.87Y6.47
G1Y6.55
G1X15.88Y6.6
G1X15.86Y6.64
G1Y6.68
G1X15.89Y6.78
G1X15.9Y7.03
G1X15.92Y7.05
G1X15.93Y7
G1Y6.87
G1X15.94Y6.73
G1X16.04Y6.81
G1Y6.77
G1Y6.75
G1Y6.74
G1X16.05Y6.76
G1Y6.82
G1X16.03Y6.91
G1X15.97Y7.26
G1X16.03Y7.29
G1X15.96
G1X15.97Y7.68
G1X15.98Y7.84
G1X15.99Y7.99
G1X16Y8.1
G1X16.01Y8.17
G1X16.03Y8.24
G1Y8.27
G1X16.01Y8.25
G1X15.99Y8.19
G1X15.97Y8.06
G1X15.95Y7.86
G1X15.9Y7.17
G1X15.88Y7.26
G1X15.86Y7.31
G1X15.84
G1Y7.28
G1Y7.21
G1X15.87Y6.87
G1X15.84Y6.95
G1X15.82Y7.01
G1X15.79Y7.04
G1Y7.02
G1Y6.98
G1X15.82Y6.77
G1Y6.58
G1X15.8Y6.56
G1Y6.53
G1Y6.49
G1X15.84Y6.59
G1Y6.5
G1Y6.42
G1X15.82Y6.36
G1X15.79Y6.31
G1X15.75Y6.38
G1Y6.34
G1X15.73Y6.28
G1X15.69Y6.19
G1X15.65Y6.12
G1X15.64Y6.09
G1X15.66Y6.11
G1X15.71Y6.19
G1X15.77Y6.26
G1X15.81Y6.29
G1X15.83Y6.26
G1X15.85Y6.2
G1X15.86Y6.12
G1Y6.24
G1X15.9Y6.46
G1X15.96Y6.6
G1Y6.57
G1Y6.51
G1Y6.46
G1X15.94Y6.44
G1X15.93Y6.42
G1Y6.36
G1Y6.27
G1X15.91Y6.19
G1Y6.15
G1X15.93Y6.18
G1X15.94
G1X15.96Y6.14
G1Y5.99
G1X15.98Y5.95
M5
G0X16.15Y6.01
M3 S30
; Layer C00
G1X16.14Y6.03
G1X16.13Y6.08
G1Y6.23
G1Y6.44
G1X16.16Y6.46
G1X16.21Y6.48
G1X16.24Y6.45
G1Y6.41
G1Y6.31
G1X16.22Y6.16
G1X16.19Y5.94
G1X16.18Y5.86
G1X16.15Y5.83
G1X16.14Y5.86
G1Y6.01
M5
G0X15.59Y6.35
M3 S30
; Layer C00
G1Y6.39
G1X15.61Y6.45
G1X15.64Y6.54
G1X15.65Y6.66
G1Y6.78
G1X15.67Y6.88
G1X15.69Y6.95
G1X15.7
G1X15.77Y6.77
G1X15.76Y6.84
G1X15.74Y6.99
G1Y7.14
G1Y7.26
G1Y7.28
G1X15.77Y7.24
G1Y7.26
G1Y7.32
G1Y7.39
G1X15.75
G1X15.74Y7.37
G1X15.72Y7.38
G1X15.7Y7.41
G1X15.68Y7.54
G1X15.66Y7.62
G1X15.64Y7.67
G1Y7.64
G1Y7.57
G1X15.67Y7.33
G1X15.54Y7.82
G1Y7.81
G1Y7.71
G1X15.56Y7.56
G1X15.62Y7.26
G1X15.64Y7.12
G1Y7.03
G1Y7
G1X15.62Y7.04
G1X15.57Y7.22
G1X15.54Y7.34
G1X15.51Y7.48
G1X15.47Y7.77
G1X15.45Y7.8
G1X15.43
G1X15.41Y7.85
G1X15.38Y7.93
G1X15.39Y7.86
G1X15.45Y7.57
G1X15.5Y7.34
G1X15.55Y6.95
G1X15.52Y6.59
G1X15.45Y6.37
G1X15.34Y6.2
G1X15.27Y6.12
G1X15.36Y6.2
G1X15.45Y6.3
G1X15.51Y6.43
G1X15.56Y6.59
G1X15.59Y6.77
G1X15.61Y6.98
G1Y6.8
G1Y6.59
G1X15.54Y6.39
G1Y6.36
G1X15.56Y6.35
G1X15.59
M5
G0X15.38Y6.45
M3 S30
; Layer C00
G1X15.42Y6.52
G1Y6.54
G1X15.39Y6.52
G1X15.33Y6.45
G1X15.22Y6.33
G1X15.01Y6.12
G1X14.92Y6.03
G1X14.91Y6.02
G1X15.14Y6.21
G1X15.38Y6.45
M5
G0X15.34Y6.5
M3 S30
; Layer C00
G1X15.41Y6.66
G1X15.4Y6.99
G1X15.38Y7.29
G1X15.34Y7.5
G1X15.3Y7.61
G1X15.29Y7.63
G1Y7.54
G1X15.32Y7.4
G1X15.36Y7.22
G1X15.34Y6.5
M5
G0X15.23Y6.52
M3 S30
; Layer C00
G1X15.19Y6.43
G1X15.12Y6.34
G1X15.03Y6.25
G1X14.95Y6.17
G1X15.03Y6.22
G1X15.14Y6.32
G1X15.22Y6.44
G1X15.28Y6.6
G1X15.31Y6.82
G1X15.34Y7.07
G1X15.31Y7.2
G1X15.27Y7.33
G1X15.21Y7.47
G1X15.16Y7.55
G1Y7.56
G1X15.18Y7.49
G1X15.26Y7.27
G1X15.25Y7.16
G1X15.23Y7.09
G1X15.19Y7.03
G1Y6.96
G1X15.15Y6.84
G1X15.08Y6.67
G1X15.05Y6.6
G1X15.03Y6.54
G1Y6.51
G1X15.06Y6.52
G1X15.04Y6.47
G1X15Y6.39
G1X14.93Y6.29
G1X14.85Y6.2
G1X14.8Y6.16
G1X14.82
G1X15.06Y6.35
G1X15.21Y6.56
G1X15.18Y6.54
G1X15.07Y6.4
G1X15.05
G1Y6.43
G1X15.07Y6.48
G1X15.13Y6.64
G1X15.19Y6.83
G1X15.24Y7.02
G1X15.27Y7.19
G1X15.28Y7.08
G1Y6.96
G1Y6.84
G1X15.26Y6.73
G1X15.25Y6.61
G1X15.23Y6.52
M5
G0X14.96Y6.66
M3 S30
; Layer C00
G1X15.09Y6.99
G1X15.12Y7
G1X15.14Y6.99
G1X15.13Y7.25
G1X15.11Y7.45
G1X15.09Y7.55
G1X15.08Y7.51
G1Y7.44
G1Y7.35
G1X15.1Y7.11
G1X15.05Y6.96
G1X15Y6.81
G1X14.93Y6.65
G1X14.88Y6.53
G1X14.86Y6.48
G1X14.96Y6.66
M5
G0X14.33Y6.89
M3 S30
; Layer C00
G1X14.4Y6.97
G1X14.44Y7
G1X14.41
G1Y7.02
G1X14.43Y7.04
G1X14.45
G1X14.48Y7.08
G1X14.52Y7.16
G1X14.57Y7.28
G1X14.6Y7.12
G1Y7.37
G1X14.59Y7.41
G1X14.58
G1X14.56Y7.38
G1X14.54Y7.34
G1X14.52Y7.3
G1X14.45Y7.14
G1X14.35Y6.97
G1X14.3Y6.9
G1X14.26Y6.84
G1X14.22Y6.8
G1X14.2
G1X14.19Y6.79
G1X14.13Y6.69
G1X13.97Y6.58
G1X13.79Y6.49
G1X13.63Y6.45
G1X13.58
G1X13.52Y6.4
G1X13.41Y6.34
G1X13.3Y6.3
G1X13.24Y6.28
G1X13.22
G1Y6.3
G1X13.2Y6.29
G1X13.12Y6.25
G1X13.02Y6.22
G1X12.78Y6.1
G1X12.54Y5.9
G1X12.34Y5.64
G1X12.2Y5.35
G1X12.16Y5.22
G1X12.14Y5.16
G1X12.2Y5.24
G1X12.29Y5.5
G1X12.38Y5.64
G1X12.49Y5.79
G1X12.6Y5.92
G1X12.72Y6.03
G1X12.83Y6.11
G1X12.93Y6.16
G1X13.02Y6.19
G1X13.16Y6.22
G1X13.38Y6.29
G1X13.62Y6.38
G1X13.83Y6.47
G1X13.97Y6.53
G1X14.08Y6.6
G1X14.16Y6.68
G1X14.33Y6.89
M5
G0X13.89Y6.97
M3 S30
; Layer C00
G1Y6.96
G1X13.86Y6.92
G1X13.68Y6.8
G1X13.52Y6.72
G1X13.69Y6.85
G1X13.89Y6.97
M5
G0X13.86Y7.05
M3 S30
; Layer C00
G1X13.92Y7.1
G1X13.98Y7.18
G1X14.03Y7.24
G1X14.07Y7.26
G1X14.08
G1X14.1Y7.33
G1X14.12Y7.36
G1X14.14Y7.38
G1X14.12
G1X14.08Y7.33
G1X13.97Y7.2
G1X13.91Y7.13
G1X13.88Y7.07
G1X13.86Y7.05
M5
G0X13.6Y7.1
M3 S30
; Layer C00
G1X13.79Y7.33
G1X13.95Y7.62
G1X14Y7.75
G1X14.04Y7.88
G1X14.06Y7.98
G1Y8.03
G1X14.04Y8
G1X14.02Y7.91
G1X13.95Y7.7
G1X13.86Y7.49
G1X13.74Y7.29
G1X13.61Y7.12
G1X13.52Y7.03
G1X13.6Y7.1
M5
G0X13.51Y7.12
M3 S30
; Layer C00
G1X13.6Y7.21
G1X13.67Y7.29
G1X13.73Y7.36
G1X13.75Y7.39
G1X13.7Y7.35
G1X13.59Y7.25
G1X13.43Y7.1
G1X13.25Y6.96
G1X13.09Y6.86
G1X12.98Y6.82
G1X12.92Y6.8
G1X12.9Y6.78
G1X12.86Y6.75
G1X12.78Y6.7
G1X12.72Y6.67
G1X12.69Y6.65
G1X12.78Y6.68
G1X12.94Y6.75
G1X13.1Y6.83
G1X13.2Y6.89
G1X13.24
G1X13.28
G1X13.33Y6.93
G1X13.37Y6.98
G1X13.41Y6.99
G1X13.43
G1Y7.01
G1X13.45Y7.04
G1X13.51Y7.12
M5
G0X13.4Y7.24
M3 S30
; Layer C00
G1X13.33Y7.2
G1X13.42Y7.32
G1X13.38
G1X13.33Y7.29
G1X13.25Y7.25
G1X13.09Y7.17
G1X12.85Y7.07
G1X12.75Y7.03
G1X12.67Y7
G1X12.61Y6.97
G1X12.58Y6.95
G1X12.61
G1X12.67Y6.97
G1X12.76Y7
G1X12.9Y7.05
G1X13Y7.06
G1X13.08
G1X12.93Y6.97
G1X12.75Y6.87
G1X12.55Y6.76
G1X12.38Y6.68
G1X12.29Y6.64
G1X12.27Y6.67
G1X12.33Y6.72
G1X12.46Y6.79
G1X12.62Y6.86
G1X12.74Y6.9
G1X12.61Y6.89
G1X12.27Y6.81
G1X11.94Y6.66
G1X11.83Y6.6
G1X11.78Y6.56
G1X11.81
G1X12.04Y6.68
G1X12.19Y6.74
G1X12.32Y6.79
G1X12.38Y6.8
G1X12.36Y6.78
G1X12.31Y6.74
G1X12.07Y6.57
G1X11.91Y6.42
G1X11.93
G1X12Y6.47
G1X12.09Y6.55
G1X12.16Y6.6
G1X12.21Y6.65
G1X12.32Y6.61
G1X12.18Y6.51
G1X12.05Y6.42
G1X11.96Y6.34
G1X11.89Y6.26
G1X11.96Y6.32
G1X12.12Y6.44
G1X12.29Y6.55
G1X12.48Y6.64
G1X12.69Y6.72
G1X12.76Y6.74
G1X12.82Y6.76
G1X12.85Y6.78
G1X12.79
G1X12.64Y6.72
G1X12.6
G1X12.85Y6.88
G1X13.14Y7.02
G1X13.16
G1Y7.05
G1Y7.06
G1X13.19
G1X13.21
G1Y7.08
G1X13.24Y7.11
G1X13.56Y7.3
G1X13.7Y7.43
G1X13.74Y7.48
G1Y7.5
G1X13.7Y7.47
G1X13.61Y7.39
G1X13.49Y7.29
G1X13.4Y7.24
M5
G0X13.32Y7.4
M3 S30
; Layer C00
G1X13.43Y7.48
G1X13.51Y7.56
G1X13.58Y7.62
G1X13.66Y7.75
G1X13.74Y7.9
G1X13.79Y8.03
G1Y8.09
G1X13.78Y8.08
G1Y8.06
G1X13.74Y7.96
G1X13.67Y7.82
G1X13.57Y7.67
G1X13.46Y7.54
G1X13.32Y7.4
M5
G0X13.17Y7.44
M3 S30
; Layer C00
G1X13.23Y7.51
G1X13.25Y7.56
G1X13.24Y7.57
G1X13.22
G1X13.2Y7.52
G1Y7.5
G1X13.15
G1Y7.48
G1Y7.45
G1X13.09Y7.39
G1X13.01Y7.32
G1X12.91Y7.25
G1X12.71Y7.12
G1X12.56Y7.06
G1X12.53
G1Y7.04
G1Y7.03
G1X12.49Y7
G1X12.43Y6.97
G1X12.2Y6.88
G1X12.13Y6.84
G1X12.17
G1X12.27Y6.86
G1X12.36Y6.88
G1X12.43Y6.91
G1X12.45Y6.93
G1Y6.94
G1X12.48Y6.96
G1X12.79Y7.13
G1X13.09Y7.35
G1X13.17Y7.44
M5
G0X13.02Y7.57
M3 S30
; Layer C00
G1X13.12Y7.66
G1X13.27Y7.87
G1X13.44Y8.11
G1X13.51Y8.23
G1X13.56Y8.32
G1X13.59Y8.39
G1Y8.41
G1X13.57Y8.38
G1X13.52Y8.29
G1X13.45Y8.18
G1X13.36Y8.09
G1X13.31Y8.04
G1Y8.02
G1X13.34
G1X13.31Y7.97
G1X13.29Y7.94
G1X13.27
G1X13.22Y7.91
G1X13.13Y7.83
G1X12.81Y7.58
G1X12.4Y7.3
G1X12.25Y7.22
G1X12.08Y7.14
G1X11.64Y6.94
G1X11.29Y6.73
G1X11.25Y6.7
G1X11.23
G1X11.17Y6.65
G1X11.05Y6.57
G1X10.89Y6.43
G1X10.77Y6.31
G1X10.7Y6.22
G1X10.68Y6.13
G1Y6.07
G1X10.71Y6.14
G1X10.75Y6.23
G1X10.83Y6.33
G1X10.93Y6.44
G1X11.05Y6.54
G1X11.15Y6.61
G1X11.2Y6.64
G1Y6.63
G1X11.18Y6.58
G1Y6.56
G1X11.22Y6.6
G1X11.31Y6.69
G1X11.43Y6.78
G1X11.58Y6.87
G1X11.78Y6.97
G1X11.95Y7.05
G1X12Y7.07
G1X12.02
G1X11.99Y7.05
G1X11.92Y7
G1X11.56Y6.74
G1X11.39Y6.6
G1X11.36Y6.58
G1X11.37
G1X11.4Y6.59
G1X11.46Y6.63
G1X11.55Y6.7
G1X11.67Y6.77
G1X11.84Y6.86
G1Y6.88
G1X11.88Y6.92
G1X11.98Y7
G1X12.12Y7.09
G1X12.26Y7.16
G1X12.34Y7.19
G1X12.44Y7.2
G1X12.5Y7.21
G1X12.44Y7.24
G1Y7.27
G1X12.52Y7.34
G1X12.66Y7.44
G1X12.84Y7.56
G1X12.94Y7.62
G1X12.96Y7.63
G1X12.93Y7.6
G1X12.89Y7.54
G1X12.94Y7.59
G1X13.02Y7.66
G1X13.21Y7.88
G1X13.26Y7.91
G1X13.25Y7.87
G1X13.18Y7.78
G1X13.09Y7.67
G1X12.97Y7.56
G1X12.81Y7.4
G1X12.92Y7.48
G1X13.02Y7.57
M5
G0X12.84Y7.72
M3 S30
; Layer C00
G1X13.03Y7.95
G1X13.26Y8.24
G1X13.43Y8.48
G1X13.48Y8.57
G1X13.44
G1X13.42Y8.56
G1X13.41Y8.53
G1X13.39Y8.47
G1X13.32Y8.37
G1X13.23Y8.24
G1X13.12Y8.1
G1X13Y7.96
G1X12.89Y7.84
G1X12.78Y7.73
G1X12.7Y7.67
G1X12.51Y7.58
G1X12.23Y7.47
G1X11.84Y7.33
G1X11.79Y7.3
G1X11.89Y7.32
G1X12.27Y7.44
G1X12.39Y7.47
G1X12.49Y7.51
G1X12.65Y7.6
G1X12.84Y7.72
M5
G0X12.76Y7.81
M3 S30
; Layer C00
G1X12.89Y7.94
G1X13.02Y8.08
G1X13.15Y8.23
G1X13.26Y8.36
G1X13.33Y8.46
G1X13.37Y8.56
G1X13.41Y8.6
G1X13.45Y8.67
G1X13.49Y8.8
G1X13.53Y8.95
G1X13.57Y9.08
G1X13.61Y9.17
G1Y9.2
G1X13.59Y9.17
G1X13.54Y9.08
G1X13.5Y8.99
G1X13.47Y8.9
G1X13.45Y8.83
G1X13.41Y8.75
G1X13.36Y8.65
G1X13.24Y8.43
G1X13.1Y8.23
G1X12.91Y8.02
G1X12.61Y7.71
G1X12.57Y7.67
G1X12.55Y7.65
G1X12.56
G1X12.64Y7.7
G1X12.76Y7.81
M5
G0X12.54Y7.93
M3 S30
; Layer C00
G1X12.61Y7.98
G1X12.72Y8.06
G1X12.83Y8.16
G1X13Y8.31
G1X13.26Y8.83
G1X13.34Y8.97
G1X13.4Y9.11
G1X13.42Y9.18
G1X13.4Y9.16
G1X13.36Y9.1
G1X13.33Y9.05
G1X13.22Y8.82
G1X12.99Y8.33
G1X12.88Y8.22
G1X12.76Y8.11
G1X12.64Y8.02
G1X12.55Y7.96
G1X12.51Y7.93
G1X12.54
M5
G0X12.51Y8.07
M3 S30
; Layer C00
G1X12.58Y8.08
G1X12.7Y8.17
G1X12.83Y8.3
G1X12.95Y8.46
G1X13.01Y8.55
G1X13.06Y8.62
G1X13.07Y8.64
G1X13.13Y8.77
G1X13.15Y8.83
G1Y8.85
G1X13.14Y8.83
G1X13.1Y8.78
G1X12.98Y8.59
G1X12.85Y8.41
G1X12.72Y8.24
G1X12.6Y8.13
G1X12.53Y8.09
G1X12.51
G1Y8.07
M5
G0X12.43Y8.09
M3 S30
; Layer C00
G1X12.46Y8.12
G1Y8.13
G1X12.41Y8.1
G1X12.3Y8.01
G1X12.14Y7.89
G1X12.02Y7.81
G1X11.92Y7.77
G1X11.84Y7.76
G1X11.74
G1X11.89Y7.72
G1X11.73Y7.66
G1X11.58Y7.61
G1X11.44Y7.56
G1X11Y7.38
G1X10.65Y7.2
G1X10.77Y7.24
G1X10.92Y7.28
G1Y7.31
G1X11Y7.35
G1X11.06Y7.37
G1X11.15Y7.4
G1X11.4Y7.49
G1X11.57Y7.55
G1X11.62Y7.56
G1X11.65
G1X11.63
G1X11.57Y7.53
G1X11.49Y7.5
G1X11.28Y7.42
G1X11.2Y7.38
G1X11.15Y7.36
G1X11.13Y7.35
G1X11.16
G1X11.22Y7.38
G1X11.68Y7.55
G1X11.92Y7.62
G1X11.95Y7.65
G1X11.99Y7.68
G1X12.1Y7.74
G1X12.25Y7.81
G1X12.15Y7.72
G1X11.9Y7.55
G1X11.64Y7.42
G1X11.43Y7.35
G1X11.29Y7.3
G1X11.21Y7.26
G1Y7.25
G1X11.32Y7.27
G1X11.49Y7.33
G1X11.65Y7.38
G1X11.76Y7.42
G1X11.82Y7.44
G1X11.88
G1X12.15Y7.51
G1X12.39Y7.6
G1X12.41Y7.62
G1X12.38
G1X12.3Y7.6
G1X12.03Y7.52
G1X11.96Y7.51
G1Y7.53
G1X12.04Y7.59
G1X12.15Y7.68
G1X12.24Y7.75
G1X12.3Y7.8
G1X12.32Y7.83
G1Y7.85
G1X12.28
G1X12.21Y7.82
G1X12Y7.72
G1X11.92Y7.68
G1X11.86Y7.65
G1X11.84
G1X11.89Y7.69
G1X12.02Y7.78
G1X12.16Y7.88
G1X12.31Y7.99
G1X12.38Y8.05
G1X12.43Y8.09
M5
G0X12.41Y8.21
M3 S30
; Layer C00
G1X12.42Y8.26
G1X12.49Y8.33
G1X12.61Y8.46
G1X12.74Y8.6
G1X12.83Y8.72
G1X12.85Y8.77
G1X12.81Y8.75
G1X12.75Y8.67
G1X12.63Y8.52
G1X12.54Y8.46
G1X12.47Y8.42
G1X12.32Y8.32
G1X12.03Y8.13
G1X12.09Y8.16
G1X12.19Y8.21
G1X12.44Y8.38
G1X12.5Y8.4
G1X12.49Y8.37
G1X12.43Y8.32
G1X12.34Y8.26
G1X12.23Y8.19
G1X12.11Y8.12
G1X12Y8.07
G1X11.92Y8.03
G1X11.87
G1Y8.04
G1X11.93Y8.07
G1X11.99Y8.11
G1X12.01Y8.12
G1X11.82Y8.05
G1X11.63Y7.94
G1X11.61Y7.93
G1X11.47Y7.89
G1X11.41Y7.85
G1X11.46
G1X11.56Y7.87
G1X11.7Y7.92
G1X11.86Y7.98
G1X12.02Y8.04
G1X12.16Y8.1
G1X12.27Y8.15
G1X12.32Y8.19
G1X12.35Y8.22
G1X12.39
G1X12.41Y8.21
M5
G0X12.15Y8.33
M3 S30
; Layer C00
G1X12.1Y8.31
G1X11.98Y8.26
G1X11.85Y8.2
G1X11.74Y8.17
G1X11.64Y8.15
G1X11.82Y8.25
G1X12.16Y8.45
G1X12.43Y8.64
G1X12.5Y8.7
G1X12.42Y8.65
G1X12.26Y8.55
G1X11.99Y8.37
G1X11.72Y8.23
G1X11.44Y8.11
G1X11.12Y8.02
G1X10.93Y7.96
G1X10.52Y7.85
G1X9.85
G1X9.71Y7.9
G1X9.61Y7.93
G1X9.56
G1X9.59Y7.91
G1X9.66Y7.88
G1X9.76Y7.85
G1X9.94Y7.82
G1Y7.8
G1X9.98Y7.79
G1X10.04
G1X10.12
G1X10.31
G1X10.5Y7.82
G1X10.75Y7.87
G1X11.05Y7.95
G1X11.35Y8.03
G1X11.62Y8.1
G1X11.81Y8.16
G1X11.94Y8.21
G1X12.01Y8.23
G1X12.04Y8.24
G1X12.07Y8.25
G1X12.12Y8.29
G1X12.15Y8.33
M5
G0X11.86Y8.36
M3 S30
; Layer C00
G1X11.83
G1X11.72Y8.33
G1X11.56Y8.28
G1X11.59Y8.3
G1X11.87Y8.45
G1X12Y8.53
G1X12.1Y8.6
G1X12.15Y8.64
G1X12.16Y8.66
G1X12.15
G1X12.08Y8.62
G1X11.96Y8.54
G1X11.73Y8.41
G1X11.46Y8.29
G1X11.16Y8.16
G1X10.53Y8.06
G1X10.49
G1Y8.05
G1X10.52
G1X10.67
G1X10.89Y8.07
G1X11.14Y8.12
G1X11.41Y8.19
G1X11.67Y8.28
G1X11.8Y8.33
G1X11.86Y8.36
M5
G0X11.77Y8.48
M3 S30
; Layer C00
G1X11.85Y8.5
G1X11.87Y8.52
G1X11.85
G1X11.79Y8.5
G1X11.7Y8.48
G1X11.49Y8.41
G1X11.41Y8.39
G1X11.35Y8.37
G1X11.32
G1X11.38Y8.4
G1X11.69Y8.52
G1X11.77Y8.55
G1Y8.57
G1X11.72
G1X11.67Y8.55
G1X11.33Y8.47
G1X10.97Y8.39
G1X10.63Y8.3
G1X10.58Y8.29
G1X10.55Y8.28
G1X10.56
G1X10.63
G1X10.75Y8.3
G1X10.92Y8.33
G1X11.21Y8.39
G1X11.14Y8.36
G1X10.84Y8.28
G1X10.45Y8.23
G1X10.16Y8.21
G1X10.55Y8.2
G1X10.49Y8.18
G1X10.44Y8.16
G1X10.46
G1X10.53
G1X10.65Y8.19
G1X11.02Y8.26
G1X11.24Y8.32
G1X11.52Y8.4
G1X11.66Y8.44
G1X11.77Y8.48
M5
G0X11.97Y8.65
M3 S30
; Layer C00
G1X12.02Y8.67
G1X12.14Y8.73
G1X12.28Y8.82
G1X12.41Y8.91
G1X12.56Y9.03
G1X12.68Y9.13
G1X12.75Y9.2
G1X12.76Y9.22
G1X12.74Y9.21
G1X12.69Y9.17
G1X12.62Y9.12
G1X12.54Y9.06
G1X12.4Y8.94
G1X12.31Y8.86
G1X12.25Y8.82
G1X12.09Y8.73
G1X11.97Y8.65
M5
G0X11.85Y8.8
M3 S30
; Layer C00
G1X11.49Y8.64
G1X11.4Y8.6
G1X11.37Y8.58
G1X11.72Y8.72
G1X12.13Y8.91
G1X12.24Y8.98
G1X12.37Y9.09
G1X12.47Y9.18
G1X12.51Y9.22
G1X12.48
G1X12.45Y9.18
G1X12.31Y9.06
G1X12.12Y8.94
G1X11.85Y8.8
M5
G0X11.8Y8.88
M3 S30
; Layer C00
G1X12Y9
G1X12.17Y9.11
G1X12.26Y9.2
G1X12.28Y9.24
G1X12.24Y9.21
G1X12.15Y9.14
G1X12.01Y9.04
G1X11.84Y8.95
G1X11.52Y8.8
G1X11.6Y8.82
G1X11.63
G1X11.58Y8.8
G1X11.52Y8.77
G1X11.35Y8.7
G1X11.14Y8.61
G1X10.87Y8.51
G1X10.68Y8.45
G1X10.54Y8.42
G1X10.39Y8.4
G1X10.32
G1X10.27
G1X10.25
G1X10.29Y8.42
G1X10.35Y8.44
G1X10.56Y8.51
G1X11.03Y8.67
G1X11.51Y8.86
G1X11.68Y8.95
G1X11.85Y9.05
G1X11.91Y9.1
G1X11.97Y9.14
G1X12Y9.17
G1Y9.19
G1X11.98
G1X11.93Y9.14
G1X11.85Y9.09
G1X11.79Y9.05
G1X11.71Y9
G1X11.59Y8.93
G1X11.43Y8.86
G1X11.25Y8.78
G1X10.83Y8.62
G1X10.41Y8.49
G1X10.18Y8.43
G1X9.93
G1X9.72
G1X9.6
G1X9.56Y8.44
G1X9.58Y8.43
G1Y8.41
G1X9.48
G1X9.33Y8.44
G1X9.28Y8.46
G1X9.34Y8.42
G1X9.41Y8.38
G1X9.5Y8.35
G1X9.63Y8.32
G1X9.77Y8.31
G1X9.89Y8.3
G1X9.82Y8.31
G1X9.81Y8.32
G1X9.86Y8.33
G1X9.97Y8.34
G1X10.13Y8.35
G1X10.49Y8.38
G1X10.79Y8.41
G1X10.96Y8.44
G1X11.06Y8.47
G1X11.02
G1X10.82Y8.45
G1X11.11Y8.57
G1X11.38Y8.68
G1X11.61Y8.78
G1X11.8Y8.88
M5
G0X11.6Y9.05
M3 S30
; Layer C00
G1X11.66Y9.08
G1X11.64
G1X11.6
G1X11.57Y9.07
G1Y9.08
G1Y9.1
G1X11.4Y9.04
G1X11.1Y8.93
G1X10.65Y8.82
G1X10.6Y8.8
G1X10.59
G1X10.61Y8.77
G1X10.59
G1X10.54Y8.75
G1X10.46Y8.73
G1X10.32Y8.7
G1X10.18Y8.68
G1X10.13Y8.67
G1X10.12Y8.66
G1X10.17
G1X10.23
G1X10.41Y8.69
G1X10.62Y8.74
G1X11.08Y8.84
G1X11.21Y8.88
G1X11.28Y8.91
G1X11.35Y8.95
G1X11.48Y9
G1X11.6Y9.05
M5
G0X11.41Y9.18
M3 S30
; Layer C00
G1X11.59Y9.26
G1X11.72Y9.32
G1X11.83Y9.38
G1X11.91Y9.44
G1X11.98Y9.5
G1Y9.52
G1X11.94Y9.49
G1X11.84Y9.42
G1X11.69Y9.34
G1X11.5Y9.25
G1X11.27Y9.16
G1X10.81Y9.01
G1X10.76Y8.98
G1X10.74
G1X10.77
G1X10.82Y8.99
G1X11Y9.04
G1X11.22Y9.11
G1X11.41Y9.18
M5
G0X11.25Y9.22
M3 S30
; Layer C00
G1X11.46Y9.3
G1X11.63Y9.38
G1X11.69Y9.41
G1X11.73Y9.43
G1X11.75Y9.45
G1X11.74
G1X11.71
G1X11.69Y9.44
G1X11.27Y9.26
G1X10.78Y9.12
G1X10.54Y9.1
G1X10.34Y9.08
G1X10.16
G1X10.01Y9.07
G1X9.74
G1X9.49Y9.1
G1X9.47
G1X9.55Y9.07
G1X9.7Y9.04
G1X10.28
G1X10.5
G1X10.53
G1X10.45
G1X10.12Y8.98
G1X10.04Y8.96
G1Y8.95
G1X10.11
G1X10.33Y8.97
G1X10.63Y9.03
G1X10.95Y9.12
G1X11.25Y9.22
M5
G0X11.23Y9.31
M3 S30
; Layer C00
G1X11.37Y9.35
G1X11.46Y9.39
G1X11.54Y9.43
G1X12.12Y9.69
G1X12.2Y9.72
G1X12.24Y9.75
G1X12.26Y9.78
G1X12.2Y9.76
G1X12.08Y9.7
G1X11.96Y9.64
G1X11.9Y9.63
G1Y9.65
G1X12.11Y9.78
G1X12.23Y9.88
G1X12.32Y9.96
G1X12.39Y10
G1X12.5Y10.12
G1X12.55Y10.23
G1X12.52Y10.24
G1X12.56Y10.28
G1Y10.3
G1X12.46Y10.22
G1X12.43
G1X12.41
G1X12.39Y10.19
G1X12.37Y10.17
G1Y10.15
G1Y10.12
G1X12.33Y10.1
G1X12.3
G1X12.26Y10.11
G1X12.38Y10.23
G1X12.5Y10.35
G1X12.61Y10.48
G1X12.69Y10.58
G1X12.72Y10.62
G1X12.68Y10.58
G1X12.59Y10.49
G1X12.51Y10.4
G1X12.46Y10.38
G1X12.4Y10.34
G1X12.37Y10.29
G1X12.36Y10.25
G1X12.23Y10.1
G1X12.2Y10.04
G1Y10.01
G1X12.24Y10.05
G1X12.28Y10.08
G1X12.3
G1Y10.06
G1X12.27Y10.02
G1X12.21Y9.97
G1X12.13Y9.92
G1X11.95Y9.79
G1X11.75Y9.67
G1X11.57Y9.57
G1X11.52Y9.54
G1X11.5
G1X11.52
G1X11.56Y9.55
G1X11.75Y9.65
G1X12.09Y9.84
G1X12.36Y10.07
G1X12.47Y10.18
G1X12.52Y10.22
G1Y10.2
G1X12.48Y10.16
G1X12.42Y10.1
G1X12.34Y10.03
G1X12.09Y9.82
G1X11.8Y9.63
G1X11.49Y9.46
G1X11.18Y9.34
G1X10.75Y9.24
G1X10.28Y9.17
G1X10.18
G1X10.31Y9.16
G1X10.56Y9.18
G1X10.9Y9.24
G1X11.08Y9.27
G1X11.23Y9.31
M5
G0X11.32Y9.65
M3 S30
; Layer C00
G1X11.33
G1X11.4Y9.68
G1X11.55Y9.76
G1X11.66Y9.83
G1X11.7Y9.86
G1X11.69Y9.87
G1X11.63Y9.84
G1X11.52Y9.78
G1X11.38Y9.69
G1X11.32Y9.65
M5
G0X11.13Y9.71
M3 S30
; Layer C00
G1X11.39Y9.8
G1X11.44Y9.82
G1X11.43
G1X11.39
G1X11.35
G1X11.34
G1X11.35Y9.85
G1X11.38Y9.86
G1X11.67Y10.05
G1X12.02Y10.3
G1X12.09Y10.37
G1X12.1Y10.41
G1Y10.43
G1X12.19Y10.47
G1X12.23Y10.52
G1X12.25Y10.56
G1X12.23
G1X12.18Y10.52
G1X12.13Y10.48
G1X12.1Y10.47
G1X12.06Y10.45
G1X11.91Y10.33
G1X11.84Y10.28
G1X11.73Y10.2
G1X11.7Y10.15
G1X11.77Y10.19
G1X12.01Y10.36
G1X12.07Y10.4
G1X12.09
G1X12.06Y10.36
G1X11.95Y10.27
G1X11.79Y10.16
G1X11.59Y10.03
G1X11.37Y9.9
G1X11.09Y9.74
G1X10.82Y9.66
G1X10.56Y9.58
G1X10.33Y9.53
G1X10.12Y9.48
G1X9.93Y9.46
G1X9.74Y9.44
G1X9.98
G1X10.19Y9.47
G1X10.38Y9.5
G1X10.5Y9.53
G1X10.55Y9.54
G1X10.51Y9.52
G1X10.37Y9.47
G1X10.19Y9.42
G1X9.93Y9.34
G1X9.89
G1Y9.33
G1X9.92
G1X10.07Y9.36
G1X10.26Y9.41
G1X10.56Y9.51
G1X10.95Y9.64
G1X11.13Y9.71
M5
G0X11.1Y9.85
M3 S30
; Layer C00
G1X11.16Y9.88
G1X11.18Y9.89
G1X11.16
G1X11.1Y9.87
G1X10.9Y9.81
G1X10.67Y9.76
G1X10.56Y9.74
G1X10.47
G1X10.41Y9.73
G1X10.38
G1X10.33Y9.74
G1X10.21Y9.73
G1X10.1Y9.71
G1X10.03Y9.69
G1X9.99Y9.66
G1Y9.62
G1X9.98Y9.64
G1X9.92Y9.65
G1X9.82
G1X9.68Y9.62
G1X9.51Y9.6
G1X9.33Y9.58
G1X9.97Y9.59
G1X10.03Y9.6
G1X10.04Y9.61
G1X10.08Y9.63
G1X10.18
G1X10.64Y9.72
G1X11.1Y9.85
M5
G0X11.06Y9.91
M3 S30
; Layer C00
G1X11.3Y10.01
G1X11.5Y10.12
G1X11.57Y10.16
G1X11.54Y10.09
G1X11.58Y10.1
G1X11.61Y10.12
G1X11.63Y10.16
G1X11.69Y10.22
G1X11.82Y10.33
G1X12.03Y10.5
G1X12.18Y10.63
G1X12.22Y10.67
G1X12.24Y10.69
G1X12.18Y10.65
G1X12.16
G1X12.18Y10.68
G1X12.36Y10.88
G1X12.45Y10.99
G1X12.52Y11.09
G1X12.46Y11.11
G1X12.52Y11.19
G1X12.41Y11.1
G1X12.37Y11.21
G1X12.36Y11.16
G1Y11.13
G1X12.38
G1Y11.11
G1X12.36Y11.06
G1X12.33Y10.99
G1X12.3Y10.92
G1Y10.9
G1X12.34Y10.92
G1Y10.9
G1X12.29Y10.84
G1X12.23Y10.77
G1X11.96Y10.56
G1X11.71Y10.42
G1X11.63Y10.39
G1X11.33Y10.24
G1X11.07Y10.13
G1X10.92Y10.05
G1X10.64Y9.93
G1X10.57Y9.89
G1X10.58
G1X10.65Y9.91
G1X11.01Y10.05
G1X11.25Y10.16
G1X11.47Y10.25
G1X11.67Y10.35
G1X11.63Y10.3
G1Y10.29
G1X11.75Y10.38
G1X11.81Y10.43
G1X11.86Y10.44
G1X11.87
G1X11.86Y10.4
G1X11.81Y10.35
G1X11.71Y10.29
G1X11.57Y10.19
G1X11.4Y10.09
G1X11.22Y9.99
G1X11.06Y9.93
G1X10.97Y9.9
G1X10.94
G1X11.01Y9.95
G1X10.93Y9.93
G1X10.9
G1Y9.91
G1X10.93Y9.9
G1X10.96Y9.87
G1X10.91Y9.88
G1X10.83
G1X10.72Y9.85
G1X10.6Y9.81
G1X10.67
G1X10.83Y9.83
G1X11.06Y9.91
M5
G0X11.03Y10.16
M3 S30
; Layer C00
G1X11.12Y10.19
G1X11.14Y10.22
G1X11.11
G1X11.14Y10.25
G1X11.2Y10.27
G1Y10.25
G1Y10.23
G1X11.22
G1X11.29Y10.27
G1X11.41Y10.33
G1X11.64Y10.46
G1X11.84Y10.58
G1X11.91Y10.63
G1X11.97Y10.68
G1X12Y10.7
G1Y10.71
G1X11.95Y10.69
G1X11.86Y10.63
G1X11.77Y10.58
G1X11.72Y10.55
G1Y10.56
G1X11.77Y10.61
G1X11.84Y10.67
G1X11.76Y10.62
G1X11.71Y10.58
G1X11.69Y10.55
G1Y10.52
G1X11.66Y10.51
G1X11.64
G1Y10.52
G1X11.47Y10.45
G1X11.27Y10.33
G1X11.35Y10.36
G1X11.38
G1X11.37Y10.34
G1X11.32Y10.31
G1X11.27Y10.28
G1X11.23
G1Y10.29
G1X11.21Y10.3
G1X11.16Y10.28
G1X11.1Y10.25
G1Y10.23
G1Y10.21
G1X11.07Y10.19
G1X11.03Y10.17
G1Y10.16
M5
G0X10.9Y10.27
M3 S30
; Layer C00
G1X11.13Y10.38
G1X11.22Y10.43
G1X11.28Y10.47
G1X11.31Y10.49
G1X11.29
G1X11.23Y10.48
G1X11.15Y10.44
G1X10.92Y10.33
G1X10.83Y10.29
G1X10.77Y10.26
G1X10.74
G1X10.76Y10.28
G1X10.83Y10.33
G1X10.93Y10.4
G1X11.06Y10.49
G1X11.33Y10.67
G1X11.55Y10.81
G1X11.69Y10.89
G1X11.75Y10.94
G1X11.73
G1X11.69Y10.92
G1X11.65Y10.9
G1X11.57Y10.85
G1X11.44Y10.79
G1X11.27Y10.7
G1X11.2Y10.66
G1X11.19Y10.64
G1X11.15Y10.6
G1X11.09Y10.56
G1X10.84Y10.36
G1X10.55Y10.13
G1X10.43Y10.05
G1X10.36Y10.01
G1X10.32Y9.98
G1X10.38Y10
G1X10.56Y10.08
G1X10.65Y10.12
G1X10.73Y10.18
G1X10.8Y10.22
G1X10.9Y10.27
M5
G0X10.58Y10.31
M3 S30
; Layer C00
G1X10.53
G1X10.44Y10.28
G1X10.13Y10.16
G1X9.82Y10.06
G1Y10.08
G1X9.88Y10.11
G1X9.95Y10.15
G1X9.98Y10.17
G1X9.96
G1X9.9Y10.14
G1X9.63Y10.02
G1X9.54Y9.98
G1X9.48Y9.95
G1X9.43Y9.94
G1X9.42Y9.92
G1Y9.9
G1X9.48Y9.92
G1X9.58Y9.95
G1X9.75Y10
G1X9.96Y10.07
G1X10.22Y10.16
G1X10.35Y10.21
G1X10.46Y10.25
G1X10.54Y10.29
G1X10.58Y10.31
M5
G0X10.51Y10.4
M3 S30
; Layer C00
G1X10.55Y10.43
G1X10.51Y10.42
G1X10.34Y10.36
G1X10.29Y10.35
G1X10.34Y10.38
G1X10.41Y10.41
G1X10.69Y10.51
G1X10.79Y10.55
G1X10.82Y10.57
G1X10.8
G1X10.74Y10.56
G1X10.64Y10.53
G1X10.48Y10.47
G1X10.01Y10.27
G1X9.47Y10.06
G1X9.4Y10.04
G1X9.38Y10.02
G1X9.4
G1X9.45Y10.04
G1X9.62Y10.1
G1X9.84Y10.17
G1X10.04Y10.25
G1X10.17Y10.31
G1X10.24Y10.33
G1X10.26
G1X10.2Y10.28
G1X10.21
G1X10.27Y10.3
G1X10.4Y10.35
G1X10.51Y10.4
M5
G0X10.42Y10.58
M3 S30
; Layer C00
G1X10.47Y10.59
G1X10.58Y10.64
G1X10.75Y10.69
G1X10.92Y10.72
G1X11.05Y10.75
G1X11.11Y10.77
G1X11.05Y10.79
G1X10.91Y10.77
G1X10.85Y10.75
G1X10.79Y10.74
G1X10.58Y10.66
G1X10.42Y10.58
M5
G0X10.29Y10.65
M3 S30
; Layer C00
G1X10.79Y10.81
G1X10.92Y10.84
G1X11.02Y10.87
G1X11.08Y10.88
G1X11.18Y10.9
G1X11.1Y10.85
G1X11.04Y10.82
G1X11.06
G1X11.11Y10.84
G1X11.53Y11
G1X11.64Y11.05
G1X11.71Y11.08
G1X11.73Y11.1
G1X11.95Y11.22
G1X12.17Y11.3
G1X12.14Y11.28
G1X12.07Y11.23
G1X12.01Y11.18
G1X11.99Y11.15
G1Y11.14
G1X11.98
G1X11.94
G1X11.84Y11.11
G1X11.76
G1Y11.09
G1X11.66Y11.01
G1X11.5Y10.95
G1X11.47Y10.94
G1Y10.92
G1X11.4Y10.87
G1X11.24Y10.81
G1X11.19Y10.8
G1X11.16Y10.78
G1X11.15Y10.77
G1X11.17Y10.76
G1Y10.74
G1X11.05Y10.67
G1X11.01Y10.64
G1X11.03
G1X11.13Y10.68
G1X11.26Y10.75
G1X11.56Y10.93
G1X11.73Y11.01
G1X11.87Y11.08
G1X11.94Y11.11
G1X11.93Y11.08
G1X11.81Y10.97
G1X11.85Y10.99
G1X11.94Y11.06
G1X12.01Y11.12
G1X12.03Y11.16
G1X12.05
G1X12.09Y11.17
G1X12.14Y11.21
G1X12.19Y11.25
G1X12.25Y11.29
G1X12.29Y11.32
G1X12.32Y11.38
G1X12.29Y11.35
G1X12.25Y11.32
G1X12.23
G1Y11.34
G1X12.25Y11.39
G1X12.28Y11.46
G1X12.3Y11.64
G1X12.33Y11.72
G1X12.35Y11.77
G1X12.31Y11.73
G1X12.28Y11.68
G1X12.24Y11.61
G1Y11.75
G1X12.25Y11.88
G1X12.27Y12
G1X12.29Y12.08
G1Y12.11
G1X12.26Y12.07
G1X12.23Y11.97
G1X12.21Y11.85
G1Y11.73
G1X12.22Y11.62
G1X12.16Y11.54
G1X12.12Y11.48
G1X12.08Y11.45
G1Y11.44
G1X12.01Y11.39
G1X11.85Y11.36
G1X11.77
G1X11.84Y11.32
G1X11.8
G1X11.78
G1Y11.31
G1X11.94Y11.33
G1X12.11Y11.39
G1X12.13Y11.4
G1X12.15
G1X12.17
G1X12.19Y11.42
G1X12.22Y11.46
G1X12.14Y11.43
G1X12.18Y11.5
G1X12.22Y11.56
G1X12.24Y11.58
G1X12.26
G1Y11.54
G1X12.22Y11.41
G1X12.15Y11.34
G1X12.11
G1X12.09Y11.32
G1X12.06
G1X12.03Y11.3
G1X11.96Y11.28
G1X11.84Y11.23
G1X11.7Y11.19
G1X11.56Y11.16
G1X11.41Y11.15
G1X11.08Y11.09
G1X10.91Y11.08
G1X10.75Y11.05
G1X10.57Y11.01
G1X10.39Y10.94
G1X10.2Y10.85
G1X10.02Y10.75
G1X9.85Y10.65
G1X9.71Y10.56
G1X9.65Y10.5
G1X9.64Y10.49
G1X9.66
G1X9.9Y10.64
G1X10.19Y10.81
G1X10.44Y10.93
G1X10.66Y11.01
G1X10.87Y11.05
G1X10.99Y11.06
G1X10.68Y10.91
G1X10.65Y10.89
G1X10.69Y10.91
G1X10.82Y10.95
G1X10.92Y10.98
G1X11.03Y11
G1X11.08Y11.04
G1X11.15Y11.06
G1X11.26Y11.08
G1X11.38
G1X11.54
G1X11.47Y11.04
G1X11.42Y11.02
G1X11.34
G1X11.25Y11
G1X11.17Y10.98
G1X10.77Y10.86
G1X10.58Y10.79
G1X10.41Y10.72
G1X10.31Y10.67
G1X10.29Y10.65
M5
G0X10.05Y10.68
M3 S30
; Layer C00
G1X9.9Y10.6
G1X9.77Y10.53
G1X9.67Y10.49
G1X9.62Y10.47
G1X9.53Y10.4
G1X9.47Y10.31
G1X9.49
G1X9.54Y10.35
G1X9.6Y10.38
G1X9.63Y10.4
G1X9.67Y10.42
G1X9.74Y10.47
G1X9.8Y10.51
G1X9.9Y10.57
G1X10.02Y10.64
G1X10.37Y10.83
G1X10.43Y10.86
G1X10.45Y10.88
G1X10.41Y10.86
G1X10.32Y10.82
G1X10.05Y10.68
M5
G0X9.86Y10.76
M3 S30
; Layer C00
G1X9.87Y10.78
G1X9.85Y10.77
G1X9.8Y10.73
G1X9.64Y10.6
G1X9.49Y10.46
G1X9.36Y10.33
G1X9.26Y10.21
G1X9.22Y10.14
G1X9.24Y10.16
G1X9.29Y10.22
G1X9.34Y10.27
G1X9.42Y10.35
G1X9.51Y10.44
G1X9.72Y10.64
G1X9.86Y10.76
M5
G0X9.63Y10.71
M3 S30
; Layer C00
G1X9.58Y10.68
G1X9.47Y10.61
G1X9.36Y10.52
G1X9.28Y10.46
G1Y10.44
G1X9.44Y10.56
G1X9.62Y10.69
G1Y10.71
M5
G0X9.37Y10.93
M3 S30
; Layer C00
G1X9.56Y11.1
G1X9.65Y11.17
G1X9.71Y11.22
G1X9.73Y11.24
G1X9.68Y11.22
G1X9.59Y11.15
G1X9.46Y11.06
G1X9.35Y10.96
G1X9.24Y10.83
G1X9.09Y10.66
G1X8.96Y10.5
G1X8.92Y10.45
G1Y10.43
G1X8.94Y10.45
G1X8.99Y10.51
G1X9.16Y10.7
G1X9.37Y10.93
M5
G0X9.29Y11.02
M3 S30
; Layer C00
G1X9.51Y11.18
G1X9.82Y11.38
G1X9.85Y11.4
G1X9.83
G1X9.78Y11.37
G1X9.62Y11.28
G1X9.41Y11.14
G1X9.23Y11
G1X9.09Y10.85
G1X9.01Y10.72
G1X8.97Y10.63
G1Y10.6
G1X8.99Y10.64
G1X9.05Y10.73
G1X9.14Y10.87
G1X9.29Y11.02
M5
G0X9.22Y11.1
M3 S30
; Layer C00
G1X9.34Y11.22
G1X9.45Y11.32
G1X9.63Y11.47
G1X9.66Y11.5
G1X9.6Y11.46
G1X9.48Y11.37
G1X9.31Y11.22
G1X9.14Y11.05
G1X9Y10.89
G1X8.94Y10.82
G1X8.96Y10.84
G1X9.22Y11.1
M5
G0X9.07Y11.25
M3 S30
; Layer C00
G1X9.27Y11.41
G1X9.44Y11.52
G1X9.54Y11.58
G1X9.59Y11.61
G1X9.57
G1X9.43Y11.54
G1X9.26Y11.43
G1X9.06Y11.26
G1X8.84Y11.06
G1X9.07Y11.25
M5
G0X8.81Y11.24
M3 S30
; Layer C00
G1X9.02Y11.45
G1X9.15Y11.57
G1X9.26Y11.67
G1X9.36Y11.75
G1X9.54Y11.87
G1X9.76Y11.97
G1X9.88Y12.02
G1X9.94Y12.05
G1X9.92Y12.06
G1X9.84Y12.03
G1X9.68Y11.97
G1X9.5Y11.89
G1X9.37Y11.81
G1X9.04Y11.52
G1X8.77Y11.22
G1Y11.2
G1X8.81Y11.24
M5
G0X8.81Y11.5
M3 S30
; Layer C00
G1X8.84Y11.52
G1X8.88Y11.55
G1X8.93Y11.62
G1X9.08Y11.8
G1X9.28Y11.96
G1X9.33Y11.99
G1X9.23Y11.96
G1X9.27Y12
G1X9.33Y12.05
G1X9.44Y12.12
G1X9.52Y12.17
G1X9.57Y12.2
G1X9.59Y12.22
G1X9.58
G1X9.54Y12.2
G1X9.46Y12.16
G1X9.35Y12.09
G1X9.23Y11.99
G1X9.01Y11.77
G1X8.83Y11.54
G1X8.81Y11.5
M5
G0X8.96Y12.07
M3 S30
; Layer C00
G1X9.03Y12.13
G1X9.25Y12.31
G1X9.51Y12.44
G1X9.87Y12.56
G1X10.27Y12.64
G1X10.4Y12.66
G1X10.3
G1X10.22
G1X10.15Y12.65
G1X9.76Y12.56
G1X9.43Y12.44
G1X9.14Y12.26
G1X8.95Y12.08
G1X8.96
M5
G0X8.71Y12.22
M3 S30
; Layer C00
G1X8.74Y12.26
G1X8.84Y12.35
G1X9Y12.47
G1X9.12Y12.56
G1X9.19Y12.61
G1X9.22Y12.64
G1X9.16Y12.61
G1X9.04Y12.53
G1X8.91Y12.44
G1X8.82Y12.36
G1X8.75Y12.3
G1X8.71Y12.24
G1Y12.22
M5
G0X8.62Y12.27
M3 S30
; Layer C00
G1X8.7Y12.36
G1X9Y12.67
G1X9.36Y12.95
G1X9.48Y13.03
G1X9.52Y13.06
G1X9.45Y13.03
G1X9.32Y12.95
G1X9.14Y12.82
G1X8.96Y12.67
G1X8.83Y12.54
G1X8.71Y12.41
G1X8.62Y12.3
G1X8.59Y12.24
G1X8.62Y12.27
M5
G0X9.63Y12.61
M3 S30
; Layer C00
G1X9.67
G1X9.87Y12.68
G1X9.99Y12.72
G1X10.05Y12.74
G1Y12.75
G1X10.01
G1X9.92Y12.73
G1X9.74Y12.67
G1X9.63Y12.61
M5
G0X9.74Y12.77
M3 S30
; Layer C00
G1X9.79
G1X9.91Y12.8
G1X10.08Y12.84
G1X10.14Y12.76
G1X10.33Y12.85
G1X10.21
G1X10.13
G1X10.11Y12.88
G1Y12.89
G1X10.08
G1X10.02Y12.86
G1X9.93Y12.83
G1X9.76Y12.78
G1X9.74
M5
G0X10.17Y12.71
M3 S30
; Layer C00
G1Y12.7
G1X10.25
G1X10.58Y12.79
G1X10.67
G1X10.69
G1Y12.83
G1X10.72
G1X10.76Y12.82
G1X10.79Y12.83
G1X10.82Y12.85
G1X10.84
G1X10.83Y12.82
G1X10.71Y12.76
G1X10.68Y12.73
G1X10.67Y12.72
G1X10.64
G1X10.62
G1X10.6Y12.71
G1X10.56Y12.69
G1X10.49Y12.66
G1X10.4Y12.62
G1X10.21Y12.56
G1X10.02Y12.5
G1X10.01Y12.49
G1X10.11
G1X10.28Y12.54
G1X10.17Y12.45
G1X10.16Y12.44
G1X10.19
G1X10.33Y12.5
G1X10.38
G1Y12.52
G1X10.39Y12.54
G1X10.44Y12.57
G1X10.51Y12.61
G1X10.61Y12.65
G1X10.79Y12.74
G1X10.89Y12.81
G1X10.91Y12.84
G1X10.87
G1X10.88Y12.86
G1X10.93Y12.9
G1X11.09Y13.05
G1X11.12Y13.08
G1X11.08Y13.06
G1X10.99Y12.99
G1X10.88Y12.9
G1X10.74Y12.89
G1X10.53Y12.85
G1X10.32Y12.78
G1X10.22Y12.74
G1X10.18Y12.72
G1X10.17Y12.71
M5
G0X10.55Y12.49
M3 S30
; Layer C00
G1X10.2Y12.36
G1X10.1Y12.32
G1X10.04Y12.29
G1Y12.28
G1X10.12Y12.29
G1X10.29Y12.35
G1X10.45Y12.41
G1X10.54Y12.43
G1X10.53Y12.41
G1X10.49Y12.39
G1X10.36Y12.33
G1X10.33Y12.31
G1X10.31
G1X10.32Y12.3
G1X10.4Y12.32
G1X10.55Y12.37
G1X10.74Y12.45
G1X10.91Y12.54
G1X11.04Y12.62
G1X11.11Y12.68
G1X11.12Y12.72
G1X11.08Y12.68
G1X11.03Y12.65
G1X11.02
G1X11.04Y12.69
G1X11.09Y12.78
G1X11.15Y12.89
G1X11.19Y12.98
G1X11.2Y13.05
G1X11.23Y12.82
G1Y12.93
G1Y13
G1X11.22Y13.04
G1X11.2Y13.05
G1X11.18Y13.02
G1X11.15Y12.97
G1X11.06Y12.87
G1X11.09
G1Y12.85
G1X11.08Y12.82
G1X11.04Y12.77
G1X10.9Y12.61
G1X10.8Y12.53
G1Y12.56
G1X10.83Y12.64
G1X10.87Y12.68
G1X10.9Y12.74
G1X10.93Y12.79
G1X10.88Y12.74
G1X10.84Y12.7
G1X10.83Y12.67
G1X10.8Y12.62
G1X10.7Y12.56
G1X10.55Y12.49
M5
G0X10.74Y12.36
M3 S30
; Layer C00
G1X10.79
G1X10.86Y12.39
G1X10.94Y12.44
G1X11Y12.5
G1X11.03Y12.52
G1X11.05
G1Y12.5
G1X10.99Y12.44
G1X10.84Y12.33
G1X10.65Y12.22
G1X10.48Y12.14
G1X10.3Y12.07
G1X10.11Y11.98
G1X10.08
G1X10.3Y12.11
G1X10.56Y12.22
G1X10.62Y12.24
G1X10.71Y12.28
G1X10.77Y12.32
G1X10.76
G1X10.72
G1Y12.34
G1X10.74Y12.36
M5
G0X10.68Y12.35
M3 S30
; Layer C00
G1X10.58Y12.3
G1X10.48Y12.24
G1X10.37Y12.18
G1X10.06Y12.02
G1X9.82Y11.86
G1X9.91Y11.9
G1X10Y11.94
G1X10.05Y11.96
G1X10.07
G1X10.05Y11.93
G1X10.06
G1X10.29Y12.03
G1X10.49Y12.11
G1Y12.09
G1X10.47Y12.06
G1X10.43Y12.01
G1X10.55Y12.06
G1X10.85Y12.19
G1X11.07Y12.31
G1X11.15Y12.38
G1X11.12Y12.28
G1X11.17Y12.33
G1X11.21Y12.38
G1X11.23Y12.44
G1Y12.5
G1X11.17Y12.44
G1X11.1Y12.37
G1X11.01Y12.31
G1X10.9Y12.24
G1X10.82Y12.29
G1X10.96Y12.38
G1X11.14Y12.55
G1X11.26Y12.74
G1X11.28Y12.8
G1Y12.82
G1X11.26Y12.8
G1X11.22Y12.74
G1X11.15Y12.66
G1X11.02Y12.55
G1X10.86Y12.45
G1X10.68Y12.35
M5
G0X10.92Y12.14
M3 S30
; Layer C00
G1X10.73Y12.05
G1X10.56Y11.96
G1X10.4Y11.88
G1X10.29Y11.81
G1X10.24Y11.77
G1X10.27
G1X10.35Y11.81
G1X10.56Y11.92
G1X10.76Y12.02
G1X10.92Y12.09
G1X10.99Y12.12
G1X11.13Y12.2
G1X11.27Y12.34
G1X11.28Y12.38
G1X11.26Y12.37
G1X11.23Y12.33
G1X11.19Y12.28
G1X11.09Y12.27
G1X11.03Y12.22
G1X10.92Y12.14
M5
G0X10.94Y12.09
M3 S30
; Layer C00
G1X10.9Y12.05
G1X10.85Y12.01
G1X10.81Y11.99
G1X10.79
G1X10.77Y11.95
G1X10.76
G1X10.72
G1X10.64Y11.93
G1X10.54Y11.88
G1X10.43Y11.83
G1X10.23Y11.71
G1X10.11Y11.62
G1X10.09Y11.59
G1X10.15Y11.62
G1X10.21Y11.65
G1X10.27Y11.69
G1X10.46Y11.78
G1X10.58Y11.8
G1X10.6
G1X10.68Y11.82
G1X10.74
G1X10.81Y11.85
G1X10.92Y11.91
G1X11.02Y11.97
G1X11.06Y11.99
G1X11.03Y11.94
G1X10.94Y11.86
G1X10.82Y11.79
G1X10.71Y11.74
G1X10.59Y11.69
G1X10.44Y11.63
G1X10.32Y11.57
G1X10.27Y11.54
G1X10.33Y11.55
G1X10.44Y11.6
G1X10.57Y11.65
G1X10.66Y11.68
G1X10.72
G1X10.76Y11.71
G1X10.79Y11.73
G1X10.86Y11.75
G1X10.92Y11.8
G1X11Y11.87
G1X11.1Y11.97
G1X11.17Y12.05
G1X11.2Y12.1
G1Y12.11
G1X11.16Y12.08
G1X10.95Y11.96
G1X10.74Y11.88
G1X10.69
G1X10.62Y11.86
G1X10.55Y11.85
G1X10.63Y11.9
G1X10.69Y11.93
G1X10.73Y11.94
G1X10.75
G1X10.74Y11.9
G1X10.76
G1X10.81Y11.94
G1X10.88Y11.99
G1X10.95Y12.06
G1X10.97Y12.1
G1X10.94Y12.09
M5
G0X11.28Y12.02
M3 S30
; Layer C00
G1X11.24Y11.95
G1X11.22Y11.91
G1X11.25Y11.92
G1X11.34Y12.02
G1X11.37Y12.09
G1X11.33Y12.08
G1X11.28Y12.02
M5
G0X11.66Y11.92
M3 S30
; Layer C00
G1X11.6Y11.81
G1X11.58Y11.75
G1X11.57Y11.72
G1X11.62Y11.76
G1X11.64
G1Y11.78
G1X11.65Y11.84
G1X11.69Y11.91
G1X11.75Y12
G1X11.79Y12.08
G1X11.81Y12.14
G1Y12.17
G1X11.78Y12.16
G1Y12.12
G1X11.76Y12.06
G1X11.72Y12
G1X11.66Y11.92
M5
G0X11.77Y11.9
M3 S30
; Layer C00
G1X11.72Y11.84
G1X11.77Y11.89
G1X11.89Y12.05
G1X11.94Y12.19
G1X11.93
G1Y12.18
G1X11.92Y12.16
G1X11.9
G1X11.88
G1Y12.12
G1X11.85Y12.01
G1X11.77Y11.9
M5
G0X11.68Y12.13
M3 S30
; Layer C00
G1X11.71
G1X11.78Y12.29
G1X11.81Y12.48
G1Y12.51
G1X11.82Y12.52
G1X11.83Y12.55
G1Y12.58
G1X11.82Y12.59
G1X11.8Y12.57
G1X11.79Y12.51
G1X11.77Y12.42
G1X11.73Y12.26
G1X11.7Y12.17
G1X11.68Y12.13
M5
G0X11.51Y12.28
M3 S30
; Layer C00
G1X11.54Y12.34
G1X11.57Y12.39
G1X11.59Y12.41
G1X11.6Y12.44
G1X11.61Y12.48
G1X11.63Y12.53
G1X11.69Y12.63
G1X11.7Y12.69
G1Y12.76
G1X11.72Y12.83
G1Y12.9
G1X11.71Y12.92
G1X11.69Y12.89
G1X11.67Y12.7
G1X11.65Y12.65
G1X11.62Y12.62
G1X11.59Y12.56
G1X11.56Y12.49
G1Y12.65
G1Y12.81
G1X11.55Y12.96
G1X11.54Y13.09
G1X11.52Y13.15
G1Y13.12
G1X11.51Y13.02
G1X11.49Y12.85
G1X11.47Y12.69
G1X11.45Y12.57
G1X11.41Y12.48
G1X11.39Y12.41
G1X11.42Y12.39
G1X11.43
G1Y12.4
G1Y12.46
G1X11.51Y12.71
G1X11.52Y12.78
G1Y12.79
G1X11.53
G1X11.54Y12.75
G1Y12.66
G1Y12.52
G1X11.52Y12.36
G1Y12.28
M5
G0X11.9Y12.49
M3 S30
; Layer C00
G1X11.94Y12.53
G1X12.02Y12.63
G1X12.08Y12.73
G1X12.1Y12.77
G1X12.05Y12.73
G1X11.95Y12.59
G1X11.9Y12.49
M5
G0X11.43Y13.02
M3 S30
; Layer C00
G1X11.45Y13.08
G1X11.47Y13.17
G1X11.5Y13.28
G1X11.52Y13.36
G1Y13.42
G1Y13.4
G1X11.5Y13.35
G1X11.48Y13.29
G1X11.43Y13.18
G1X11.41Y13.1
G1X11.4Y13.04
G1Y13.01
G1X11.43
M5
G0X10.98Y13.27
M3 S30
; Layer C00
G1X10.95Y13.26
G1X10.92Y13.24
G1X10.86Y13.19
G1X10.67Y13.06
G1X10.52Y13
G1X10.56Y13.04
G1X10.67Y13.12
G1X10.82Y13.21
G1X11.01Y13.34
G1X11.05Y13.36
G1Y13.35
G1X11.02Y13.31
G1X10.98Y13.27
M5
G0X11Y13.24
M3 S30
; Layer C00
G1X11.14Y13.42
G1X11.19Y13.59
G1X11.18Y13.61
G1Y13.58
G1X11.06Y13.42
G1X10.93Y13.31
G1X10.89Y13.29
G1X10.81Y13.25
G1X10.67Y13.19
G1X10.47Y13.12
G1X10.38Y13.09
G1X10.32Y13.06
G1X10.28Y13.04
G1X10.25Y13.01
G1X10.16Y12.98
G1X10.06Y12.95
G1X10.03Y12.93
G1X10.21Y12.96
G1X10.41Y13.03
G1X10.47Y13.07
G1X10.54Y13.09
G1X10.6Y13.11
G1X10.54Y13.07
G1X10.5Y13.04
G1Y13
G1X10.48Y12.97
G1X10.43Y12.95
G1X10.35Y12.92
G1X10.39Y12.9
G1X10.44Y12.89
G1X10.51
G1X10.62Y12.93
G1X10.78Y12.99
G1X10.93Y13.04
G1X10.99Y13.07
G1X10.97
G1X10.92
G1X10.84Y13.06
G1X10.75Y13.02
G1X10.59Y12.95
G1X10.5Y12.93
G1Y12.94
G1X10.61Y12.99
G1X10.83Y13.1
G1X10.88Y13.13
G1X10.9
G1X10.89Y13.1
G1Y13.09
G1X10.91Y13.11
G1Y13.13
G1X10.93Y13.17
G1X11Y13.24
M5
G0X10.78Y13.35
M3 S30
; Layer C00
G1X10.73Y13.31
G1X10.65Y13.27
G1X10.59Y13.23
G1X10.56Y13.21
G1X10.71Y13.28
G1X10.91Y13.41
G1X10.96Y13.46
G1Y13.48
G1X10.95Y13.47
G1X10.89Y13.44
G1X10.83Y13.39
G1X10.78Y13.35
M5
G0X10.7Y13.36
M3 S30
; Layer C00
G1X10.81Y13.43
G1X10.83Y13.45
G1X10.8
G1X10.45Y13.28
G1X10.31Y13.21
G1X10.14Y13.13
G1X10.3Y13.18
G1X10.46Y13.24
G1X10.59Y13.3
G1X10.65Y13.33
G1X10.7Y13.36
M5
G0X10.53Y13.38
M3 S30
; Layer C00
G1X10.51
G1X10.43Y13.36
G1X10.56Y13.43
G1X10.67Y13.5
G1X10.76Y13.56
G1X10.79Y13.59
G1X10.76Y13.58
G1X10.74
G1X10.77Y13.62
G1X10.95Y13.76
G1X11.03Y13.83
G1X11.08Y13.9
G1Y13.92
G1X11.07Y13.91
G1X11.04Y13.87
G1X10.88Y13.74
G1X10.72Y13.66
G1X10.67Y13.65
G1X10.63Y13.63
G1X10.6Y13.59
G1X10.65Y13.61
G1X10.67
G1Y13.6
G1X10.64Y13.58
G1X10.54
G1X10.49
G1X10.43Y13.55
G1X10.48
G1X10.52Y13.56
G1X10.54
G1X10.51Y13.53
G1X10.43Y13.49
G1X10.32Y13.45
G1X10.04Y13.37
G1X9.96Y13.34
G1X9.99
G1X10.2Y13.39
G1X10.28Y13.4
G1X10.37Y13.43
G1X10.52Y13.49
G1X10.66Y13.55
G1X10.72Y13.56
G1X10.4Y13.4
G1X9.98Y13.21
G1X9.94Y13.2
G1Y13.19
G1X9.99
G1X10.11Y13.23
G1X10.28Y13.29
G1X10.49Y13.36
G1X10.53Y13.37
M5
G0X10.34Y13.57
M3 S30
; Layer C00
G1X10.47Y13.61
G1X10.63Y13.67
G1X10.75Y13.76
G1X10.79Y13.79
G1X10.8Y13.8
G1X10.78
G1X10.73Y13.77
G1X10.68Y13.75
G1X10.65
G1X10.62
G1X10.55Y13.73
G1X10.45Y13.7
G1X10.33Y13.66
G1X10.22Y13.62
G1X10.13Y13.59
G1X10.08Y13.57
G1X10.07Y13.55
G1X10.11
G1X10.24Y13.58
G1X10.27
G1X10.34Y13.57
M5
G0X10.45Y13.89
M3 S30
; Layer C00
G1X10.56Y13.88
G1X10.67Y13.9
G1Y13.91
G1X10.61
G1X10.5Y13.9
G1X10.66Y13.98
G1X10.77Y14.04
G1X10.87Y14.1
G1X10.94Y14.16
G1Y14.18
G1X10.91Y14.15
G1X10.84Y14.11
G1X10.72Y14.04
G1X10.57Y13.97
G1X10.41Y13.9
G1X10.45Y13.89
M5
G0X10.7Y13.84
M3 S30
; Layer C00
G1Y13.83
G1X10.73Y13.84
G1X10.8Y13.88
G1X10.88Y13.93
G1X10.82Y13.97
G1X10.92Y13.94
G1X11Y14.03
G1X11.05Y14.08
G1X11.07Y14.11
G1X11.02Y14.08
G1X10.92Y14.03
G1X10.83Y13.97
G1X10.8Y13.94
G1Y13.92
G1X10.75Y13.88
G1X10.7Y13.84
M5
G0X10.47Y14.13
M3 S30
; Layer C00
G1X10.59Y14.17
G1X10.69Y14.19
G1X10.75Y14.21
G1X10.77Y14.22
G1Y14.24
G1X10.8Y14.25
G1X10.82Y14.26
G1X10.8
G1X10.74
G1X10.63Y14.23
G1X10.53Y14.2
G1X10.49Y14.18
G1X10.46Y14.16
G1X10.35Y14.12
G1X10.33Y14.11
G1X10.38
G1X10.47Y14.13
M5
G0X10.47Y14.3
M3 S30
; Layer C00
G1X10.6Y14.32
G1X10.63Y14.34
G1X10.6
G1X10.63Y14.36
G1X10.67Y14.38
G1X10.71
G1X10.74
G1X10.71Y14.36
G1X10.69Y14.34
G1X10.8Y14.38
G1X10.82
G1X10.8Y14.35
G1X10.66Y14.28
G1X10.85Y14.36
G1X11.07Y14.52
G1X11.16Y14.6
G1X11.02Y14.49
G1X10.91Y14.42
G1X10.85Y14.39
G1Y14.4
G1X10.89Y14.45
G1X11.01Y14.56
G1X11.06Y14.64
G1X11.04Y14.62
G1X10.98Y14.58
G1X10.93Y14.54
G1X10.9Y14.52
G1X10.87Y14.5
G1X10.7Y14.42
G1X10.57Y14.36
G1X10.48Y14.31
G1Y14.3
M5
G0X10.22Y14.35
M3 S30
; Layer C00
G1Y14.36
G1X10.16Y14.35
G1X10.06Y14.32
G1X9.79Y14.19
G1X9.51Y14.03
G1X9.28Y13.85
G1X9.14Y13.7
G1X9.13Y13.69
G1X9.15
G1X9.18Y13.73
G1X9.24Y13.78
G1X9.43Y13.93
G1X9.67Y14.09
G1X9.92Y14.23
G1X10.22Y14.35
M5
G0X10.4Y14.65
M3 S30
; Layer C00
G1X10.62Y14.69
G1X10.91Y14.77
G1X10.97Y14.8
G1X11Y14.83
G1Y14.84
G1X10.96
G1X10.95Y14.85
G1X10.92
G1X10.87Y14.82
G1X10.77Y14.76
G1X10.6Y14.71
G1X10.45Y14.67
G1X10.4Y14.65
M5
G0X10.32Y14.81
M3 S30
; Layer C00
G1X10.35Y14.82
G1X10.25Y14.81
G1X10.08Y14.77
G1X9.88Y14.71
G1X9.72Y14.65
G1X9.58Y14.56
G1X9.44Y14.44
G1X9.28Y14.29
G1X9.44Y14.42
G1X9.59Y14.53
G1X9.76Y14.63
G1X9.95Y14.7
G1X10.17Y14.77
G1X10.26Y14.79
G1X10.32Y14.81
M5
G0X10.29Y14.97
M3 S30
; Layer C00
G1X10.1Y14.91
G1X9.92Y14.84
G1X9.78Y14.79
G1X9.73Y14.75
G1X9.75
G1X9.81Y14.77
G1X10.09Y14.88
G1X10.43Y14.97
G1X10.65Y15.01
G1X10.55
G1X10.43Y15
G1X10.29Y14.97
M5
G0X9.96Y15.28
M3 S30
; Layer C00
G1X10.01Y15.34
G1X10.11Y15.49
G1X10.16Y15.54
G1X10.18Y15.56
G1X10.19
G1X10.17Y15.5
G1X10.14Y15.45
G1X10.26Y15.49
G1X10.21Y15.44
G1X10.15Y15.39
G1X10.07Y15.34
G1X9.96Y15.28
M5
G0X9.84Y15.24
M3 S30
; Layer C00
G1X9.7Y15.16
G1X9.73Y15.2
G1X9.91Y15.4
G1X9.97Y15.46
G1X10Y15.51
G1Y15.53
G1Y15.54
G1X10.02
G1X10.04
G1X10.07Y15.56
G1X10.1Y15.58
G1X10.12
G1X10.08Y15.53
G1X9.99Y15.4
G1X9.84Y15.24
M5
G0X9.7Y15.13
M3 S30
; Layer C00
G1Y15.11
G1X9.68Y15.07
G1X9.61Y15.02
G1X9.51Y14.94
G1X9.53Y14.99
G1X9.62Y15.07
G1X9.7Y15.13
M5
G0X9.54Y15.47
M3 S30
; Layer C00
G1X9.61Y15.59
G1X9.76Y15.77
G1X9.96Y15.95
G1X9.8Y15.84
G1X9.83Y15.89
G1Y15.93
G1Y15.96
G1X9.84
G1X9.89Y15.98
G1X9.99Y16.05
G1X10.07Y16.12
G1X10.11Y16.15
G1X10.1Y16.11
G1X10.01Y16.02
G1X9.98Y15.97
G1X9.94Y15.87
G1X9.92Y15.84
G1X9.88Y15.8
G1X9.83Y15.73
G1X9.79Y15.68
G1X9.74Y15.62
G1X9.65Y15.55
G1X9.54Y15.47
M5
G0X9.24Y15.64
M3 S30
; Layer C00
G1X9.18Y15.61
G1X9.52Y15.99
G1X9.59Y16.08
G1X9.63Y16.1
G1Y16.09
G1X9.6Y16.04
G1X9.43Y15.85
G1X9.35Y15.75
G1X9.3Y15.68
G1X9.24Y15.64
M5
G0X9.11Y15.68
M3 S30
; Layer C00
G1X9.15Y15.72
G1X9.13
G1X9.03Y15.61
G1X8.9Y15.49
G1X8.79Y15.41
G1X8.53Y15.18
G1X8.31Y14.95
G1X8.35Y14.98
G1X8.41Y15.03
G1X8.48Y15.1
G1X8.65Y15.25
G1X8.77Y15.35
G1X8.86Y15.4
G1X8.93Y15.46
G1X8.99Y15.49
G1Y15.48
G1X8.96Y15.43
G1X8.76Y15.22
G1X8.66Y15.11
G1X8.59Y15.02
G1X8.56Y14.98
G1X8.58
G1X8.61Y15.02
G1X8.66Y15.06
G1X8.73Y15.09
G1X8.91Y15.2
G1X8.97Y15.21
G1X9.03Y15.25
G1X9.13Y15.33
G1X9.26Y15.46
G1X9.09Y15.35
G1X8.98Y15.28
G1X8.92Y15.25
G1Y15.27
G1X9.08Y15.4
G1X9.13Y15.45
G1X9.24Y15.48
G1X9.29Y15.52
G1X9.2Y15.49
G1X9.04Y15.4
G1X8.98Y15.36
G1X8.94Y15.35
G1X9.15Y15.54
G1X9.39Y15.72
G1X9.4
G1Y15.74
G1X9.44Y15.81
G1X9.54Y15.94
G1X9.68Y16.1
G1X9.6Y16.18
G1X9.54Y16.14
G1X9.51Y16.11
G1X9.5Y16.09
G1X9.47Y16.04
G1X9.39Y15.94
G1X9.29Y15.83
G1X9.19Y15.74
G1X9.11Y15.68
M5
G0X9Y15.68
M3 S30
; Layer C00
G1X8.97Y15.65
G1X8.99
G1X9.19Y15.84
G1X9.28Y15.91
G1X9.34Y15.97
G1X9.41Y16.01
G1X9.46Y16.06
G1X9.48Y16.08
G1X9.43Y16.06
G1X9.35Y16
G1X9.25Y15.92
G1X9.2Y15.9
G1Y15.92
G1X9.24Y16
G1X9.3Y16.1
G1X9.37Y16.19
G1X9.43Y16.24
G1X9.47Y16.25
G1X9.48
G1Y16.27
G1X9.46Y16.3
G1X9.41Y16.26
G1X9.38Y16.23
G1X9.37
G1X9.48Y16.36
G1X9.6Y16.45
G1X9.59Y16.42
G1X9.5Y16.33
G1Y16.3
G1X9.54Y16.32
G1X9.62Y16.39
G1X9.69Y16.46
G1X9.73Y16.5
G1X9.74
G1Y16.45
G1X9.72Y16.4
G1X9.91Y16.51
G1X9.98Y16.55
G1X10.03Y16.58
G1X10.07
G1X10.09Y16.57
G1X10.07Y16.53
G1X10.01Y16.48
G1X9.78Y16.33
G1X9.69Y16.25
G1X9.61Y16.19
G1X9.7Y16.1
G1X9.74Y16.17
G1X9.85Y16.3
G1X10.02Y16.42
G1X10.1Y16.46
G1X10.11Y16.48
G1X10.13Y16.51
G1X10.19Y16.59
G1X10.28Y16.7
G1X10.2Y16.63
G1X10.14Y16.59
G1X10.1
G1X10.13Y16.62
G1X10.27Y16.77
G1X10.21Y16.75
G1Y16.77
G1X10.24Y16.83
G1X10.32Y16.92
G1X10.55Y17.16
G1X10.84Y17.41
G1X11.02Y17.56
G1Y17.57
G1X10.98Y17.55
G1X10.91Y17.5
G1X10.65Y17.3
G1X10.41Y17.06
G1X10.28Y16.92
G1X10.16Y16.8
G1X10.11Y16.74
G1Y16.73
G1X10.15Y16.74
G1X10.13Y16.69
G1X10.06Y16.63
G1X9.98Y16.61
G1X9.95Y16.6
G1X9.94Y16.56
G1X9.91
G1X9.88Y16.58
G1X9.92Y16.62
G1X9.96Y16.65
G1X10.02Y16.66
G1Y16.69
G1X10.05Y16.73
G1X10.1Y16.8
G1X10.14Y16.84
G1X10.15Y16.86
G1X10.13Y16.85
G1X10.05Y16.78
G1X9.93Y16.67
G1X9.82Y16.57
G1X9.76Y16.54
G1X9.78Y16.58
G1X9.86Y16.66
G1X9.94Y16.74
G1X9.98Y16.79
G1X9.95Y16.78
G1X9.9Y16.74
G1X9.81Y16.67
G1X9.7Y16.59
G1X9.6Y16.51
G1X9.51Y16.44
G1X9.45Y16.39
G1X9.43Y16.36
G1X9.41
G1X9.38
G1X9.34Y16.33
G1X9.33Y16.3
G1Y16.28
G1X9.32Y16.26
G1X9.3Y16.23
G1Y16.2
G1X9.31Y16.18
G1X9.22Y16.14
G1X9.19Y16.05
G1Y16
G1X9.13Y15.94
G1X9.09Y15.89
G1X9.14Y15.91
G1X9.1Y15.86
G1X9.01Y15.77
G1X8.97Y15.75
G1X8.96
G1X8.9Y15.69
G1X8.78Y15.61
G1X8.68Y15.54
G1X8.59Y15.46
G1X8.49Y15.36
G1X8.34Y15.2
G1X8.27Y15.11
G1X8.23Y15.06
G1X8.22Y15.04
G1X8.23
G1X8.28Y15.08
G1X8.36Y15.15
G1X8.46Y15.25
G1X8.58Y15.37
G1X8.74Y15.51
G1X8.89Y15.63
G1X8.95Y15.67
G1X8.98Y15.68
G1X9
M5
G0X8.82Y15.72
M3 S30
; Layer C00
G1X9.02Y15.9
G1X9.16Y16.06
G1X9.13Y16.05
G1X9.04Y15.98
G1X8.99Y15.96
G1X8.94Y15.93
G1X8.87Y15.87
G1X8.8Y15.82
G1X8.79
G1X8.82Y15.87
G1X8.9Y15.97
G1X9.06Y16.17
G1X9.19Y16.31
G1X9.3Y16.42
G1X9.39Y16.5
G1X9.48Y16.56
G1X9.54Y16.59
G1X9.56
G1X9.54Y16.55
G1X9.64Y16.62
G1X9.68Y16.64
G1X9.72Y16.68
G1X9.74Y16.75
G1X9.75
G1X9.78
G1X9.82Y16.79
G1X9.87Y16.84
G1X9.93Y16.88
G1X10Y16.93
G1Y16.88
G1X10.01Y16.87
G1X10.07Y16.97
G1X10.1Y16.99
G1X10.11
G1Y17.01
G1Y17.06
G1X10.15Y17.13
G1X10.18Y17.2
G1Y17.22
G1X10.15Y17.19
G1X10.03Y17.01
G1X9.98Y16.96
G1X9.94Y16.94
G1X9.89
G1X9.88Y16.93
G1X9.85Y16.9
G1X9.77Y16.86
G1X9.65Y16.81
G1X9.67Y16.85
G1X9.71Y16.88
G1X9.74
G1X9.75
G1Y16.91
G1Y16.94
G1X9.81Y16.99
G1X9.9Y17.06
G1X9.95Y17.11
G1X9.98Y17.15
G1X9.99Y17.17
G1X9.97
G1X9.94
G1X9.92Y17.14
G1X9.89Y17.13
G1X9.85Y17.12
G1X9.79Y17.11
G1X9.73Y17.09
G1X9.68Y17.08
G1X9.7Y17.11
G1X9.68
G1X9.63Y17.09
G1X9.55Y17.05
G1X9.58Y17.09
G1X9.6Y17.12
G1Y17.14
G1X9.69Y17.17
G1X9.75Y17.24
G1Y17.28
G1Y17.29
G1X9.68Y17.24
G1X9.62Y17.18
G1X9.55Y17.11
G1X9.49Y17.06
G1X9.43Y17.04
G1X9.34Y17.01
G1X9.18Y16.93
G1X9.05Y16.86
G1X8.99Y16.82
G1X8.98Y16.8
G1Y16.79
G1X9.05Y16.81
G1X9.19Y16.89
G1X9.31Y16.97
G1X9.38Y17
G1X9.41Y17.01
G1Y16.99
G1X9.39Y16.97
G1X9.21Y16.87
G1X9.11Y16.8
G1X9.05Y16.74
G1X9.07Y16.71
G1X9.11Y16.74
G1X9.26Y16.85
G1X9.29Y16.86
G1X9.31
G1X9.36Y16.9
G1X9.5Y16.98
G1X9.6Y17.01
G1X9.58Y16.98
G1X9.51Y16.93
G1X9.3Y16.77
G1X9.17Y16.64
G1X9.14Y16.6
G1X8.97Y16.44
G1X8.92Y16.38
G1X8.93Y16.37
G1X9.07Y16.48
G1X9.12Y16.5
G1X9.14
G1Y16.52
G1X9.15Y16.56
G1X9.22Y16.63
G1X9.32Y16.72
G1X9.43Y16.82
G1X9.56Y16.92
G1X9.67Y17
G1X9.76Y17.06
G1X9.82Y17.08
G1Y17.06
G1X9.77Y17.01
G1X9.7Y16.95
G1X9.49Y16.8
G1X9.37Y16.7
G1X9.27Y16.61
G1X9.23Y16.56
G1X9.18Y16.49
G1X9.12Y16.44
G1X9.11Y16.42
G1X9.13
G1X9.19Y16.46
G1X9.24Y16.52
G1X9.26Y16.57
G1X9.36Y16.61
G1X9.44Y16.66
G1X9.49Y16.7
G1X9.45
G1Y16.71
G1X9.47Y16.74
G1X9.53Y16.79
G1X9.62Y16.86
G1X9.58Y16.8
G1X9.55Y16.75
G1Y16.73
G1X9.57
G1X9.64Y16.76
G1X9.74Y16.81
G1X9.68Y16.76
G1X9.62Y16.71
G1X9.54Y16.66
G1X9.48Y16.61
G1X9.38Y16.52
G1X9.26Y16.41
G1X9.12Y16.28
G1X8.84Y16.02
G1X8.59Y15.8
G1X8.36Y15.63
G1X8.13Y15.49
G1X8.1
G1X8.15Y15.53
G1X8.23Y15.6
G1X8.33Y15.68
G1X8.45Y15.77
G1X8.54Y15.84
G1X8.59Y15.88
G1X8.61Y15.91
G1X8.59Y15.9
G1X8.52Y15.86
G1X8.43Y15.79
G1X8.48Y15.85
G1X8.55Y15.92
G1X8.66Y16.01
G1X8.76Y16.1
G1X8.8Y16.15
G1X8.78
G1X8.72Y16.11
G1X8.59Y16
G1X8.4Y15.83
G1X8.08Y15.5
G1X7.8Y15.15
G1X7.7Y15.03
G1X7.89Y15.22
G1X7.97Y15.29
G1X8.03Y15.35
G1X8.08Y15.39
G1X8.14Y15.42
G1X8.23Y15.49
G1X8.33Y15.57
G1X8.41Y15.62
G1X8.45Y15.65
G1X8.42Y15.61
G1X8.34Y15.53
G1X8.19Y15.39
G1X8.05Y15.25
G1X7.97Y15.17
G1X7.96Y15.13
G1X7.98Y15.14
G1X8.24Y15.4
G1X8.35Y15.5
G1X8.43Y15.58
G1X8.48Y15.64
G1X8.5Y15.67
G1Y15.68
G1X8.54
G1X8.69Y15.83
G1X8.78Y15.89
G1X8.77Y15.87
G1X8.73Y15.82
G1X8.47Y15.52
G1X8.41Y15.45
G1Y15.43
G1X8.42Y15.44
G1X8.45Y15.47
G1X8.5Y15.51
G1X8.57Y15.57
G1X8.61Y15.6
G1X8.63
G1X8.65Y15.63
G1X8.66Y15.65
G1X8.71Y15.66
G1X8.72Y15.68
G1Y15.71
G1X8.74Y15.74
G1Y15.76
G1X8.75Y15.78
G1X8.77Y15.8
G1Y15.78
G1X8.89Y15.86
G1X8.97Y15.91
G1X8.99
G1X8.95Y15.87
G1X8.83Y15.76
G1X8.8Y15.73
G1Y15.71
G1X8.82Y15.72
M5
G0X8.32Y15.89
M3 S30
; Layer C00
G1X8.51Y16.07
G1X8.63Y16.19
G1X8.68Y16.25
G1X8.67Y16.27
G1X8.64Y16.25
G1X8.53Y16.14
G1X8.49Y16.12
G1X8.45Y16.09
G1X8.37Y16.01
G1X8.3Y15.93
G1X8.29Y15.9
G1X8.18Y15.78
G1X8Y15.62
G1X7.95Y15.59
G1X7.93
G1X7.95Y15.63
G1X8.01Y15.7
G1X8.05Y15.76
G1X8.07Y15.8
G1Y15.82
G1X8.08Y15.85
G1X8.11Y15.89
G1X8.09Y15.85
G1Y15.81
G1X8.13Y15.85
G1X8.18Y15.93
G1X8.27Y16.06
G1X8.34Y16.17
G1X8.38Y16.24
G1Y16.27
G1X8.37Y16.25
G1X8.34Y16.22
G1X8.3Y16.16
G1X8.24Y16.09
G1X8.12Y15.96
G1X8.01Y15.8
G1X7.93Y15.65
G1X7.92Y15.58
G1X7.91Y15.56
G1X7.87Y15.52
G1X7.82Y15.46
G1X7.61Y15.24
G1X7.51Y15.14
G1X7.55Y15.16
G1X7.62Y15.23
G1X8Y15.58
G1X8.32Y15.89
M5
G0X8Y15.93
M3 S30
; Layer C00
G1X8.17Y16.18
G1X8.2Y16.25
G1Y16.28
G1X8.15Y16.26
G1X8.08Y16.19
G1X7.96Y16.04
G1X7.83Y15.91
G1X7.74Y15.82
G1X7.69Y15.79
G1X7.46Y15.59
G1X7.2Y15.3
G1X7.15Y15.21
G1X7.21Y15.29
G1X7.33Y15.41
G1X7.5Y15.57
G1X7.69Y15.74
G1X7.83Y15.87
G1X7.94Y15.98
G1X8.11Y16.16
G1X8.14Y16.18
G1X8.02Y16.01
G1X7.86Y15.82
G1X7.79Y15.75
G1Y15.74
G1X7.83Y15.76
G1X7.85
G1X8Y15.93
M5
G0X7.82Y16.13
M3 S30
; Layer C00
G1X7.86Y16.17
G1X7.93Y16.26
G1X8.02Y16.37
G1X8.1Y16.44
G1X8.15Y16.47
G1X8.19Y16.52
G1X8.21
G1X8.26Y16.54
G1X8.3Y16.58
G1X8.49Y16.74
G1X8.65Y16.85
G1X8.62Y16.81
G1X8.45Y16.61
G1X8.42Y16.55
G1X8.43Y16.56
G1X8.47Y16.59
G1X8.59Y16.71
G1X8.72Y16.82
G1X8.78Y16.86
G1X8.81
G1X8.85Y16.89
G1X8.89Y16.92
G1X8.85Y16.91
G1X8.82
G1X8.81
G1Y16.94
G1X8.83
G1X8.86Y16.96
G1X8.88Y17
G1X8.91Y17.05
G1X8.84Y16.99
G1X8.69Y16.9
G1X8.52Y16.84
G1X8.46Y16.8
G1X8.24Y16.6
G1X8.2Y16.57
G1X8.22Y16.62
G1X8.26Y16.7
G1X8.42Y16.88
G1X8.64Y17.03
G1X8.72Y17.08
G1X8.75Y17.1
G1X8.73
G1X8.7Y17.09
G1X8.67Y17.07
G1X8.65Y17.08
G1Y17.1
G1X8.68
G1X8.77Y17.14
G1X8.79
G1X9.03Y17.23
G1X9.28Y17.36
G1X9.3Y17.38
G1X9.32
G1X9.36
G1X9.55Y17.45
G1X9.66Y17.47
G1X9.75Y17.49
G1X9.78
G1X9.75Y17.46
G1X9.67Y17.42
G1X9.55Y17.36
G1X9.25Y17.21
G1X9.13Y17.15
G1X9.05Y17.1
G1X9.01Y17.07
G1X8.99Y17.05
G1X8.96
G1X8.93
G1Y17.02
G1Y16.99
G1X8.89Y16.96
G1X8.93Y16.98
G1X9.06Y17.06
G1X9.35Y17.21
G1X9.63Y17.34
G1X9.7Y17.36
G1X9.59Y17.27
G1X9.47Y17.19
G1X9.34Y17.11
G1X9.21Y17.06
G1X9.14
G1X9.13
G1Y17.04
G1X9.16Y17.01
G1X9.11Y17.02
G1X9.09
G1Y17
G1X8.98Y16.98
G1X8.9Y16.92
G1X8.88Y16.87
G1X8.92Y16.86
G1X8.96
G1X9Y16.88
G1X9.2Y17
G1X9.39Y17.08
G1X9.47Y17.13
G1X9.6Y17.23
G1X9.73Y17.34
G1X9.8Y17.39
G1Y17.41
G1Y17.43
G1X9.82Y17.45
G1X9.86Y17.46
G1X9.83Y17.48
G1X9.82Y17.49
G1X9.83Y17.5
G1X9.89Y17.52
G1X9.99Y17.54
G1X10.03Y17.56
G1X10.04Y17.58
G1Y17.62
G1X10Y17.58
G1X9.98Y17.55
G1X9.95
G1X9.83
G1X9.8
G1Y17.57
G1X9.79Y17.56
G1X9.72Y17.53
G1X9.6Y17.49
G1X9.46Y17.45
G1X9.38Y17.42
G1X9.34Y17.41
G1X9.3Y17.39
G1X9.22Y17.37
G1X9.08Y17.3
G1X8.93Y17.24
G1X8.77Y17.19
G1X8.69Y17.14
G1X8.56Y17.06
G1X8.4Y16.95
G1X7.94Y16.61
G1X7.9Y16.58
G1X7.88
G1X7.89Y16.6
G1X8Y16.71
G1X8.1Y16.82
G1X8.13Y16.85
G1X8.07Y16.8
G1X7.75Y16.5
G1X7.37Y16.3
G1X7.09Y16.15
G1X6.9Y16.04
G1X6.8Y15.98
G1X6.77Y15.95
G1X6.79
G1X6.82Y15.96
G1X6.85Y15.98
G1X6.93Y16.02
G1X7.42Y16.27
G1X7.6Y16.37
G1X7.69Y16.41
G1X7.73Y16.42
G1Y16.41
G1X7.68Y16.37
G1X7.62Y16.32
G1X7.54Y16.26
G1X7.36Y16.15
G1X7.19Y16.05
G1X7.03Y15.96
G1X6.87Y15.86
G1X6.74Y15.77
G1X6.67Y15.71
G1X6.69
G1X6.92Y15.86
G1X7.08Y15.96
G1X7.22Y16.03
G1X7.3Y16.06
G1X7.34
G1X7.39Y16.11
G1X7.45Y16.14
G1X7.53Y16.18
G1X7.47Y16.13
G1X7.3Y16
G1X7.03Y15.81
G1X6.99Y15.77
G1X7.04Y15.8
G1X7.07
G1X7.46Y16.06
G1X7.87Y16.38
G1X7.94Y16.47
G1X7.81Y16.37
G1X7.7Y16.29
G1X7.6Y16.23
G1X7.53Y16.2
G1X7.88Y16.51
G1X8.04Y16.65
G1X8.14Y16.73
G1X8.19Y16.76
G1X8.21
G1X8.22Y16.74
G1X8.18Y16.67
G1X8.08Y16.54
G1X7.94Y16.38
G1X7.82Y16.25
G1X7.69Y16.12
G1X7.58Y16.01
G1X7.52Y15.92
G1X7.49Y15.87
G1X7.5
G1X7.53Y15.89
G1X7.7Y16.07
G1X7.81Y16.18
G1X7.82Y16.17
G1Y16.15
G1Y16.14
G1Y16.13
M5
G0X8.37Y16.4
M3 S30
; Layer C00
G1X8.38Y16.41
G1X8.43Y16.45
G1X8.49Y16.49
G1X8.7Y16.63
G1X8.79Y16.7
G1X8.82Y16.73
G1Y16.76
G1X8.89Y16.82
G1Y16.85
G1X8.84Y16.84
G1X8.73Y16.76
G1X8.59Y16.64
G1X8.45Y16.5
G1X8.4Y16.45
G1X8.37Y16.41
G1Y16.4
M5
G0X8.63Y16.43
M3 S30
; Layer C00
G1X8.67Y16.44
G1X8.69
G1X8.71
G1X8.72Y16.46
G1X8.87Y16.59
G1X9Y16.67
G1X8.98Y16.64
G1X8.92Y16.57
G1X8.84Y16.49
G1X8.95Y16.59
G1X9.03Y16.67
G1Y16.71
G1X9.01
G1X8.97Y16.69
G1X8.93Y16.66
G1X8.9Y16.64
G1Y16.66
G1X8.93Y16.7
G1X8.96Y16.75
G1Y16.78
G1X8.93
G1X8.88Y16.77
G1X8.82Y16.73
G1X8.94Y16.76
G1X8.73Y16.55
G1X8.66Y16.47
G1X8.63Y16.43
M5
G0X8.51Y16.87
M3 S30
; Layer C00
G1X8.55
G1X8.63Y16.93
G1X8.77Y17.01
G1X9.04Y17.16
G1X9.11Y17.21
G1X9.15Y17.24
G1X9.07Y17.21
G1X8.92Y17.13
G1X8.72Y17.02
G1X8.6Y16.95
G1X8.53Y16.9
G1X8.51Y16.87
M5
G0X8.1Y17.15
M3 S30
; Layer C00
G1X7.94Y17.1
G1X7.85Y17.09
G1X7.99Y17.15
G1X8.08Y17.19
G1X8.15Y17.22
G1X8.18
G1X8.2
G1X8.1Y17.15
M5
G0X7.95Y17.18
M3 S30
; Layer C00
G1X7.75Y17.09
G1X7.41Y17.06
G1X7.49Y17.1
G1X7.61Y17.15
G1X7.77Y17.2
G1X8.04Y17.27
G1X8.32Y17.35
G1X8.35Y17.37
G1X8.34
G1X8.3
G1X8.18Y17.35
G1X8.15
G1X8.17Y17.37
G1X8.22Y17.39
G1X8.62Y17.49
G1X9.03Y17.57
G1X9.01Y17.55
G1X8.93Y17.5
G1X8.71Y17.4
G1X8.43Y17.33
G1X8.18Y17.26
G1X7.95Y17.18
M5
G0X7.76Y17.26
M3 S30
; Layer C00
G1X7.71Y17.23
G1X7.64Y17.21
G1X7.51Y17.16
G1X7.32Y17.08
G1X7.18Y17.01
G1X7.09Y16.98
G1X7.04Y16.97
G1Y16.99
G1X7.24Y17.1
G1X7.46Y17.18
G1X7.5
G1X7.54Y17.21
G1X7.63Y17.26
G1X7.76Y17.29
G1X7.79
G1X7.76Y17.26
M5
G0X7.82Y17.35
M3 S30
; Layer C00
G1X7.84Y17.37
G1X7.89Y17.39
G1X7.96Y17.42
G1X8.07Y17.45
G1X8.13Y17.47
G1X8.17
G1X8.19Y17.46
G1X8.17Y17.43
G1X8.11Y17.41
G1X7.91Y17.36
G1X7.85
G1X7.82Y17.35
M5
G0X7.9Y17.45
M3 S30
; Layer C00
G1Y17.46
G1X7.93Y17.47
G1X7.99Y17.49
G1X8.06Y17.51
G1X8.12Y17.54
G1X8.14Y17.57
G1X8.12Y17.59
G1X8.06Y17.62
G1X8Y17.64
G1X7.68Y17.55
G1X7.49Y17.49
G1X7.37Y17.47
G1X7.35
G1X7.38Y17.49
G1X7.43Y17.51
G1X7.72Y17.61
G1X7.99Y17.67
G1X8Y17.69
G1X8.01Y17.7
G1X8.09Y17.67
G1X8.13
G1X8.16
G1X8.09Y17.72
G1X8.13Y17.7
G1X8.21Y17.71
G1X8.35Y17.76
G1X8.48Y17.8
G1X8.58Y17.82
G1X8.65
G1X8.71Y17.8
G1X8.75Y17.78
G1X8.7
G1X8.48Y17.74
G1X8.33Y17.69
G1X8.31Y17.66
G1X8.24Y17.64
G1X8.13Y17.61
G1X8.18Y17.55
G1X8.24Y17.57
G1X8.31Y17.59
G1X8.41
G1X8.53Y17.6
G1X8.38Y17.63
G1X8.48Y17.65
G1X8.56Y17.67
G1X8.59Y17.69
G1X8.65Y17.71
G1X8.98Y17.79
G1X9.14Y17.84
G1X9.24Y17.88
G1X9.3Y17.89
G1X9.31
G1X9.29Y17.86
G1X9.08Y17.77
G1X8.83Y17.71
G1X8.76
G1X8.72Y17.68
G1X8.7Y17.66
G1X8.81Y17.67
G1X8.87
G1X8.89
G1X8.86Y17.65
G1X8.78Y17.62
G1X8.7Y17.6
G1X8.79
G1X8.86
G1X8.81Y17.58
G1X8.73Y17.56
G1X8.6Y17.53
G1X8.42Y17.5
G1X8.32Y17.47
G1X8.29Y17.45
G1X8.28Y17.43
G1X8.22Y17.48
G1X8.18Y17.52
G1X8.05Y17.48
G1X7.96Y17.45
G1X7.9
M5
G0X7.8Y17.69
M3 S30
; Layer C00
G1X7.87Y17.73
G1X7.93Y17.75
G1X8.02Y17.78
G1X8.41Y17.9
G1X8.64Y17.96
G1X8.73Y17.97
G1X8.8Y17.98
G1X8.84
G1Y17.97
G1X8.8Y17.95
G1X8.73Y17.93
G1X8.65Y17.92
G1X8.57Y17.9
G1X8.43Y17.86
G1X8.04Y17.74
G1X7.97Y17.72
G1X7.8Y17.69
M5
G0X7.74Y17.72
M3 S30
; Layer C00
G1X7.66Y17.7
G1X7.6
G1X7.55
G1X7.53Y17.68
G1X7.51Y17.65
G1X7.49
G1X7.48
G1Y17.68
G1X7.46
G1X7.42
G1X7.34Y17.65
G1X7.24Y17.61
G1X7.15Y17.59
G1X7.08
G1X7.07
G1X7.13Y17.62
G1X7.37Y17.69
G1X7.43Y17.71
G1X7.49Y17.73
G1X7.67Y17.8
G1X7.7Y17.82
G1X7.67
G1X7.58Y17.79
G1X7.46Y17.76
G1X7.18Y17.67
G1X7Y17.62
G1X6.94Y17.6
G1X6.89
G1Y17.62
G1X6.85Y17.6
G1X6.8Y17.56
G1X6.75
G1X6.7
G1X6.76
G1X6.79Y17.58
G1X6.82Y17.64
G1X6.9Y17.66
G1X6.95
G1X7.39Y17.78
G1X7.71Y17.85
G1X7.8
G1X7.82Y17.88
G1X7.85
G1X7.89Y17.85
G1X8.1Y17.91
G1X8.26Y17.95
G1X8.36Y17.96
G1X8.41
G1X8.37Y17.95
G1X8.29Y17.92
G1X8.16Y17.87
G1X7.95Y17.81
G1X7.91Y17.8
G1X7.84Y17.79
G1X7.76Y17.77
G1X7.67Y17.75
G1X7.58Y17.71
G1X7.77Y17.75
G1X7.78
G1X7.74Y17.72
M5
G0X7.67Y17.89
M3 S30
; Layer C00
G1X7.43Y17.84
G1X7.37Y17.83
G1X7.29Y17.81
G1X7.35Y17.85
G1X7.42Y17.89
G1X7.53Y17.93
G1X7.67Y17.97
G1X7.85Y18
G1X8.01Y18.03
G1X8.1
G1X8.12
G1X8.05Y18
G1X7.94Y17.97
G1X8.16Y18
G1X8.24Y18.01
G1X8.28Y18.02
G1Y18.03
G1X8.31Y18.05
G1X8.37
G1X8.48Y18.07
G1X8.61Y18.11
G1X8.75Y18.14
G1X8.89Y18.15
G1X9.04
G1X8.98Y18.12
G1X8.92Y18.09
G1X8.86
G1X8.82Y18.07
G1X8.77Y18.02
G1X8.73
G1X8.67
G1X8.77Y18.06
G1X8.69Y18.05
G1X8.61Y18.04
G1X8.54
G1X8.45Y18.02
G1X8.12Y17.96
G1X7.67Y17.89
M5
G0X7.7Y18
M3 S30
; Layer C00
G1X7.69
G1X7.64Y18.02
G1X7.52
G1X7.59Y18.05
G1X7.56Y18.06
G1X7.44
G1X7.07
G1X6.94
G1X6.86Y18.07
G1X6.83Y18.08
G1X6.89Y18.1
G1X7.01Y18.11
G1X7.18Y18.13
G1X7.35Y18.16
G1X7.64Y18.18
G1X7.85Y18.15
G1X7.84Y18.13
G1X7.79Y18.12
G1X7.73Y18.1
G1X7.63Y18.08
G1X7.68Y18.03
G1X7.7Y18
M5
G0X7.82Y18.09
M3 S30
; Layer C00
G1X7.89Y18.12
G1X7.98Y18.15
G1X8.09Y18.18
G1X8.21Y18.19
G1X7.81Y18.2
G1X7.67
G1X7.58
G1X7.64Y18.22
G1X7.7
G1X7.8Y18.24
G1X7.95
G1X8.11
G1X8.51
G1X8.91Y18.33
G1X9.07Y18.37
G1X9.12Y18.38
G1X9.15
G1X9.18
G1X9.14Y18.36
G1X8.98Y18.3
G1X8.76Y18.24
G1X8.65Y18.21
G1X8.55Y18.19
G1X8.48
G1X8.42
G1Y18.18
G1X8.39Y18.16
G1X8.31Y18.15
G1X8.15Y18.12
G1X7.82Y18.09
M5
G0X7.46Y18
M3 S30
; Layer C00
G1X7.24Y17.98
G1X7.01Y18
G1X7
G1X6.98Y17.99
G1X6.92Y17.96
G1X6.78
G1X6.66
G1X6.62Y17.97
G1X6.68Y17.98
G1X6.79Y17.99
G1X6.92
G1X6.87Y18.01
G1Y18.02
G1X6.91
G1X6.98Y18.03
G1X7.09
G1X7.2
G1X7.28
G1X7.32Y18.02
G1Y18
G1X7.45Y18.01
G1X7.46
M5
G0X7.36Y17.94
M3 S30
; Layer C00
G1X7.34Y17.91
G1X7.26Y17.88
G1X7.13
G1X6.97
G1X7.12Y17.9
G1X7.24Y17.92
G1X7.36Y17.94
M5
G0X7.16Y18.22
M3 S30
; Layer C00
G1X6.78Y18.2
G1X6.31
G1X6.2Y18.23
G1X6.03Y18.28
G1X5.65Y18.39
G1X5.82Y18.37
G1X5.97
G1X6.07
G1X6.13Y18.36
G1X6.19Y18.34
G1X6.32Y18.3
G1X6.52Y18.27
G1X6.74Y18.25
G1X6.96Y18.24
G1X7.24
G1X7.16Y18.22
M5
G0X7.26Y18.43
M3 S30
; Layer C00
G1X7.57
G1X7.72
G1X7.52Y18.46
G1X7.35Y18.47
G1X7.25Y18.49
G1X7.2Y18.5
G1X7.23Y18.44
G1X7.19Y18.48
G1X7.12Y18.5
G1X7Y18.51
G1X6.85
G1X6.98Y18.49
G1X7.26Y18.43
M5
G0X7.52Y18.79
M3 S30
; Layer C00
G1X7.57
G1X7.78
G1X7.99
G1X8.03
G1X8.01
G1X7.77
G1X7.54
G1X7.52
M5
G0X7.27Y18.97
M3 S30
; Layer C00
G1X7.24Y18.99
G1X7.17Y19.01
G1X6.84Y19.1
G1X6.66Y19.15
G1X6.58Y19.18
G1X6.53Y19.2
G1X6.52
G1X6.53Y19.18
G1X6.87Y19.05
G1X7.26Y18.97
M5
G0X7.07Y18.95
M3 S30
; Layer C00
G1X6.97Y18.96
G1X6.86Y18.98
G1X6.74Y19.03
G1X6.66Y19.06
G1X6.61Y19.08
G1X6.6
G1Y19.06
G1X6.64Y19.04
G1X6.78Y18.99
G1X6.82Y18.96
G1X6.87
G1X6.96Y18.95
G1X7.07
M5
G0X7.04Y19.11
M3 S30
; Layer C00
G1X7.21
G1X7.36
G1X7.46Y19.14
G1X7.53Y19.18
G1X7.47Y19.16
G1X7.33Y19.14
G1X7.19
G1X7.05Y19.15
G1X6.9Y19.19
G1X6.89
G1X6.94Y19.15
G1X7.04Y19.11
M5
G0X6.74Y19.31
M3 S30
; Layer C00
G1X6.71Y19.32
G1X6.64Y19.33
G1X6.51
G1X6.35
G1X6.19
G1X6.09
G1X6.06
G1X6.08Y19.31
G1X6.25Y19.3
G1X6.47
G1X6.57
G1X6.66
G1X6.72
G1X6.74Y19.31
M5
G0X6.5Y19.11
M3 S30
; Layer C00
G1X6.44Y19.13
G1X6.38Y19.15
G1X6.32Y19.17
G1X6.22Y19.19
G1X6.09Y19.21
G1X5.95Y19.23
G1X5.88
G1X5.96Y19.2
G1X6.07Y19.18
G1X6.22Y19.16
G1X6.38Y19.11
G1X6.5Y19.08
G1X6.56
G1X6.55
G1X6.5Y19.11
M5
G0X6.33Y18.97
M3 S30
; Layer C00
G1X6.3Y18.99
G1X6.04Y19.05
G1X5.73Y19.08
G1X5.6
G1X5.41Y19.12
G1X5.24Y19.16
G1X5.14Y19.18
G1Y19.17
G1X5.19Y19.15
G1X5.26Y19.13
G1X5.36Y19.11
G1X5.59Y19.06
G1X5.72
G1X5.95Y19.04
G1X6.12Y18.99
G1X6.14Y18.97
G1X6.27Y18.95
G1X6.47Y18.9
G1X6.5
G1X6.48Y18.91
G1X6.33Y18.97
M5
G0X6.27Y18.9
M3 S30
; Layer C00
G1X6.21Y18.91
G1X6.14Y18.93
G1X6.12Y18.95
G1X6.08Y18.96
G1X5.97
G1X5.76Y18.93
G1X5.51Y18.91
G1X6.05Y18.89
G1X6.26
G1X6.3
G1X6.27
M5
G0X6.2Y18.74
M3 S30
; Layer C00
G1X6.17Y18.75
G1X6.11
G1X6.02Y18.76
G1X5.9
G1X5.65
G1X5.42
G1X5.17Y18.74
G1X5.69
G1X6.05
G1X6.16
G1X6.2
M5
G0X5.76Y18.25
M3 S30
; Layer C00
G1X5.35Y18.26
G1X4.95Y18.25
G1X4.97
G1X5.06Y18.24
G1X5.19
G1X5.36
G1X5.53
G1X5.67
G1X5.75
M5
G0X5.8Y18.16
M3 S30
; Layer C00
G1X5.84
G1X5.9
G1X5.98Y18.17
G1X6.14
G1X6.21Y18.15
G1X6.25Y18.14
G1X6.37Y18.12
G1X6.41Y18.11
G1X6.4Y18.09
G1X6.34
G1X6.25
G1X6.15
G1X5.94Y18.11
G1X5.8Y18.15
M5
G0X5.64Y17.87
M3 S30
; Layer C00
G1X5.61
G1X5.53Y17.85
G1X5.36Y17.81
G1X5.1Y17.76
G1X4.83Y17.71
G1X4.53Y17.67
G1X4.73
G1X4.9Y17.69
G1X5.16Y17.73
G1X5.29
G1X5.42
G1Y17.76
G1X5.43Y17.79
G1X5.48Y17.8
G1X5.54Y17.81
G1X5.58Y17.83
G1X5.62Y17.84
G1X5.66
G1X5.7Y17.82
G1X5.64Y17.87
M5
G0X5.28Y17.55
M3 S30
; Layer C00
G1X5.21Y17.57
G1X5.16Y17.54
G1X5.09Y17.51
G1X4.99Y17.49
G1X4.9Y17.47
G1X4.88
G1X4.95
G1X5.07
G1X5.23Y17.51
G1X5.2Y17.53
G1Y17.54
G1X5.24
G1X5.31Y17.52
G1X5.28Y17.55
M5
G0X5.37Y17.33
M3 S30
; Layer C00
G1X5.31Y17.32
G1X5.24Y17.29
G1X5.01Y17.19
G1X4.9Y17.15
G1X4.84Y17.13
G1X4.83Y17.11
G1X4.9Y17.13
G1X5.03Y17.17
G1X5.19Y17.23
G1X5.32Y17.29
G1X5.37Y17.32
G1X5.39Y17.33
G1X5.37
M5
G0X5.46Y17.3
M3 S30
; Layer C00
G1X5.4Y17.26
G1X5.37Y17.23
G1X5.38
G1X5.4
G1X5.43Y17.25
G1X5.53Y17.29
G1X5.58Y17.31
G1X5.63
G1Y17.32
G1X5.62Y17.34
G1X5.56Y17.36
G1X5.46Y17.3
M5
G0X5.49Y17.19
M3 S30
; Layer C00
G1X5.41Y17.17
G1X5.28Y17.12
G1X5.14Y17.05
G1X5.04Y16.98
G1X4.99Y16.93
G1Y16.89
G1X5.01Y16.93
G1X5.07Y16.99
G1X5.19Y17.05
G1X5.34Y17.11
G1X5.48Y17.15
G1X5.57Y17.17
G1X5.61Y17.19
G1X5.56
G1X5.49
M5
G0X5.52Y17.05
M3 S30
; Layer C00
G1X5.31Y17.02
G1X5.4
G1X5.51
G1X5.67Y17.05
G1X5.78Y17.09
G1X5.8Y17.11
G1X5.76
G1X5.73Y17.09
G1X5.66Y17.07
G1X5.52Y17.05
M5
G0X5.39Y16.73
M3 S30
; Layer C00
G1X5.15Y16.65
G1X4.97Y16.57
G1X4.81Y16.49
G1X4.67Y16.42
G1X4.57Y16.34
G1X4.52Y16.29
G1X4.56Y16.31
G1X4.67Y16.37
G1X4.87Y16.49
G1X5.09Y16.59
G1X5.31Y16.67
G1X5.5Y16.71
G1X5.63Y16.73
G1X5.39
M5
G0X5.61Y16.64
M3 S30
; Layer C00
G1X5.31Y16.56
G1X5.03Y16.44
G1X4.94Y16.4
G1X4.92Y16.38
G1X4.95
G1X5.4Y16.56
G1X5.7Y16.64
G1X5.77Y16.66
G1X5.82Y16.67
G1X5.84Y16.68
G1X5.74
G1X5.61Y16.64
M5
G0X5.95Y16.51
M3 S30
; Layer C00
G1X5.98
G1X6.06Y16.53
G1X6.16Y16.57
G1X6.29Y16.61
G1X6.41Y16.65
G1X6.5Y16.68
G1X6.56Y16.7
G1X6.53
G1X6.45Y16.68
G1X6.23Y16.61
G1X6.11Y16.57
G1X6.02Y16.54
G1X5.97Y16.52
G1X5.95Y16.51
M5
G0X6.21Y16.32
M3 S30
; Layer C00
G1X6.09Y16.26
G1X5.95Y16.18
G1X5.87Y16.13
G1X6.07Y16.21
G1X6.31Y16.34
G1X6.32Y16.36
G1X6.29
G1X6.21Y16.32
M5
G0X6.31Y16.18
M3 S30
; Layer C00
G1X6.11Y16.07
G1X5.9Y15.9
G1X5.78Y15.8
G1X5.74Y15.75
G1X5.75
G1X5.78Y15.76
G1X5.82Y15.8
G1X5.89Y15.85
G1X6.17Y16.06
G1X6.46Y16.24
G1X6.4Y16.23
G1X6.31Y16.18
M5
G0X6.67Y16.26
M3 S30
; Layer C00
G1X6.7Y16.27
G1X6.76Y16.3
G1X6.86Y16.33
G1X7.08Y16.43
G1X7.16Y16.47
G1X7.22Y16.49
G1X7.24
G1X7.21Y16.46
G1X7.11Y16.4
G1X6.97Y16.32
G1X6.74Y16.18
G1X6.72Y16.16
G1X6.76Y16.18
G1X6.85Y16.22
G1X7.02Y16.31
G1X7.2Y16.43
G1X7.35Y16.53
G1X7.4Y16.59
G1X7.42Y16.62
G1X7.48Y16.67
G1X7.54Y16.7
G1X7.57Y16.73
G1X7.54
G1X7.37Y16.63
G1X7.16Y16.51
G1X6.9Y16.38
G1X6.79Y16.33
G1X6.71Y16.29
G1X6.67Y16.27
M5
G0X6.56Y15.97
M3 S30
; Layer C00
G1X6.54Y15.96
G1X6.49Y15.93
G1X6.33Y15.83
G1X6.17Y15.72
G1X6.07Y15.64
G1X6.02Y15.58
G1X6.08Y15.63
G1X6.18Y15.71
G1X6.55Y15.95
G1X6.57Y15.96
M5
G0X7.54Y15.48
M3 S30
; Layer C00
G1X7.49Y15.44
G1X7.4Y15.36
G1X7.3Y15.24
G1X7.22Y15.14
G1X7.15Y15.05
G1X7.22Y15.13
G1X7.3Y15.22
G1X7.51Y15.44
G1X7.54Y15.48
M5
G0X7.49Y16.6
M3 S30
; Layer C00
G1X7.52Y16.61
G1X7.69Y16.72
G1X7.81Y16.82
G1X7.8
G1X7.76
G1X7.71Y16.78
G1X7.63Y16.72
G1X7.55Y16.65
G1X7.5Y16.61
G1Y16.6
M5
G0X7.07Y16.82
M3 S30
; Layer C00
G1X7.03
G1X6.98
G1Y16.83
G1X7.04Y16.88
G1X7.36Y17.06
G1X7.55Y17.03
G1X7.59
G1X7.56Y17.01
G1X7.3Y16.93
G1X7.17Y16.88
G1X7.09Y16.85
G1X7.08Y16.83
G1Y16.82
M5
G0X6.72Y17.01
M3 S30
; Layer C00
G1X6.79Y17.06
G1X6.8Y17.07
G1X6.75Y17.05
G1X6.65Y17.01
G1X6.52Y16.95
G1X6.39Y16.91
G1X6.29Y16.88
G1X6.24
G1X6.26Y16.89
G1X6.32Y16.92
G1X6.41Y16.96
G1X6.68Y17.06
G1X6.77Y17.1
G1X6.81Y17.12
G1X6.79
G1X6.77
G1X6.53Y17.03
G1X6.3Y16.95
G1X6.01Y16.84
G1X5.96Y16.82
G1X5.94
G1X5.95Y16.81
G1X5.99
G1X6.06Y16.82
G1X6.3Y16.86
G1X6.33
G1X6.37
G1X6.47Y16.9
G1X6.6Y16.95
G1X6.72Y17.01
M5
G0X6.69Y17.18
M3 S30
; Layer C00
G1X6.63
G1X6.43Y17.15
G1X6.7Y17.24
G1X6.93Y17.32
G1X7.09Y17.38
G1X7.17Y17.41
G1X7.24Y17.43
G1X7.29
G1X6.99Y17.29
G1X6.69Y17.18
M5
G0X6.48Y18.03
M3 S30
; Layer C00
G1X6.36Y18.02
G1X6.43Y18.05
G1X6.5Y18.07
G1X6.57Y18.08
G1X6.62
G1Y18.06
G1X6.57Y18.04
G1X6.48Y18.03
M5
G0X5.17Y18.38
M3 S30
; Layer C00
G1X5.14
G1X5.02
G1X5.07Y18.41
G1X5.09Y18.42
G1X5.04
G1X4.98Y18.41
G1X4.89Y18.39
G1X4.68
G1X4.64Y18.38
G1X4.62
G1X4.63Y18.36
G1X4.67
G1X4.75
G1X4.85
G1X4.97
G1X5.08
G1X5.14Y18.37
G1X5.17Y18.38
M5
G0X4.41Y18.02
M3 S30
; Layer C00
G1X4.4
G1X4.25
G1X4.11
G1X4.1
G1X4.13
G1X4.25
G1X4.38
G1X4.41
M5
G0X4.23Y17.77
M3 S30
; Layer C00
G1X3.46
G1X3.23Y17.85
G1X3.18Y17.87
G1X3.16
G1X3.37Y17.77
G1X3.59Y17.69
G1Y17.71
G1X3.6
G1X3.65
G1X3.72
G1X3.81
G1X4.01
G1X4.14Y17.74
G1X4.23Y17.77
M5
G0X3.94Y17.84
M3 S30
; Layer C00
G1X3.86
G1X3.71Y17.86
G1X3.63
G1X3.57
G1X3.54
G1Y17.85
G1X3.77Y17.83
G1X3.94
M5
G0X3.58Y18.23
M3 S30
; Layer C00
G1X3.5Y18.24
G1X3.33Y18.25
G1X3.24
G1X3.18
G1X3.15
G1X3.41Y18.23
G1X3.58
M5
G0X3.64Y18.61
M3 S30
; Layer C00
G1X3.75
G1X3.81
G1Y18.63
G1X3.53Y18.65
G1X3.2
G1X3.1Y18.62
G1X3.04Y18.58
G1X3Y18.54
G1X3.12Y18.6
G1X3.49
G1X3.64
M5
G0X3.58Y18.77
M3 S30
; Layer C00
G1X3.9Y18.75
G1X4.07Y18.74
G1X3.95Y18.77
G1X3.62Y18.82
G1X3.32Y18.79
G1X3.23Y18.76
G1X3.19Y18.75
G1X3.22
G1X3.3
G1X3.58Y18.77
M5
G0X3.64Y18.91
M3 S30
; Layer C00
G1X3.77Y18.88
G1X3.91Y18.86
G1X4.02
G1X4.1
G1X4.03
G1X3.94Y18.88
G1X3.81Y18.91
G1X3.67Y18.93
G1X3.57Y18.94
G1X3.49
G1X3.55Y18.93
G1X3.64Y18.91
M5
G0X3.68Y19.06
M3 S30
; Layer C00
G1X3.83Y19.03
G1X3.96Y19
G1X4.06Y18.98
G1X4.14Y18.97
G1X4.03Y19
G1X3.92Y19.03
G1X3.8Y19.05
G1X3.68Y19.06
M5
G0X3.85Y19.17
M3 S30
; Layer C00
G1X3.89Y19.14
G1X4.12Y19.06
G1X4.32Y19.02
G1Y19.03
G1X4.12Y19.09
G1X3.91Y19.16
G1X3.86Y19.17
G1X3.85
M5
G0X4.28Y19.22
M3 S30
; Layer C00
G1X4.29Y19.21
G1X4.38Y19.19
G1X4.44Y19.17
G1X4.63Y19.12
G1X4.75
G1X4.74Y19.15
G1X4.66
G1X4.56Y19.17
G1X4.45Y19.2
G1X4.38Y19.23
G1X4.32Y19.24
G1X4.29
G1X4.28Y19.22
M5
G0X4.62Y19.02
M3 S30
; Layer C00
G1X4.68
G1X4.89
G1X5.09
G1X5.13
G1X5.11
G1X4.87
G1X4.65
G1X4.62
M5
G0X5.39Y19.5
M3 S30
; Layer C00
G1X5.42Y19.49
G1X5.49
G1X5.59Y19.48
G1X5.71
G1X5.85
G1X5.94
G1X5.98Y19.49
G1Y19.5
G1X5.66Y19.52
G1X5.39Y19.5
M5
G0X5.96Y19.66
M3 S30
; Layer C00
G1X6.01Y19.62
G1X6.08Y19.57
G1X6.31
G1X6.18Y19.6
G1X6.07Y19.62
G1X5.99Y19.67
G1X5.95Y19.7
G1X5.93
G1X5.96Y19.66
M5
G0X6.29Y19.67
M3 S30
; Layer C00
G1X6.43
G1X6.55Y19.69
G1X6.65Y19.72
G1X6.73Y19.75
G1X6.65
G1X6.56Y19.77
G1X6.48Y19.79
G1X6.39Y19.82
G1X6.37
G1X6.4Y19.8
G1X6.46Y19.76
G1X6.55Y19.72
G1X6.29Y19.67
M5
G0X6.54Y19.85
M3 S30
; Layer C00
G1X6.79Y19.83
G1X6.98
G1X6.9Y19.85
G1X6.73
G1X6.64Y19.86
G1X6.57
G1X6.54
G1Y19.85
M5
G0X6.91Y20
M3 S30
; Layer C00
G1X6.94
G1X7.05
G1X7.16
G1X7.18
G1X7.17
G1X7.04
G1X6.92
M5
G0X7.03Y20.11
M3 S30
; Layer C00
G1X7.32Y20.08
G1X7.62Y20.1
G1X7.66Y20.12
G1Y20.13
G1X7.62Y20.15
G1X7.56
G1X7.39Y20.17
G1X7.14Y20.23
G1X7.24Y20.18
G1X7.38Y20.1
G1X7.1Y20.12
G1X7.05
G1X7.03
G1Y20.11
M5
G0X7.29Y20.31
M3 S30
; Layer C00
G1X7.42Y20.27
G1X7.59Y20.26
G1X7.77Y20.25
G1X7.55Y20.28
G1X7.37Y20.31
G1X7.28Y20.34
G1X7.24Y20.35
G1X7.21Y20.36
G1X7.22Y20.34
G1X7.29Y20.31
M5
G0X7.64Y20.41
M3 S30
; Layer C00
G1X7.66Y20.39
G1X7.71Y20.37
G1X7.83Y20.34
G1X8.03Y20.33
G1X8.26Y20.32
G1X8.03Y20.34
G1X7.84Y20.36
G1X7.73Y20.38
G1X7.67Y20.4
G1X7.64
M5
G0X7.84Y20.61
M3 S30
; Layer C00
G1X8.11Y20.52
G1X8.26Y20.49
G1X8.72Y20.54
G1X8.58
G1X8.43Y20.56
G1X8.3Y20.58
G1X8.2Y20.6
G1X8.16
G1X8.18
G1X8.25Y20.56
G1X8.36Y20.53
G1X8.22
G1X7.97Y20.59
G1X7.74Y20.69
G1X7.69Y20.72
G1X7.65Y20.73
G1Y20.71
G1X7.84Y20.61
M5
G0X8.36Y20.7
M3 S30
; Layer C00
G1X8.4
G1X8.56Y20.69
G1X8.72
G1X8.75
G1X8.73
G1X8.55Y20.7
G1X8.38
G1X8.36
M5
G0X8.49Y20.77
M3 S30
; Layer C00
G1X8.52
G1X8.69Y20.76
G1X8.93Y20.75
G1X9
G1X9.03
G1X9
G1X8.7Y20.78
G1X8.49
M5
G0X8.77Y20.87
M3 S30
; Layer C00
G1X8.92Y20.85
G1X9.05Y20.83
G1X9.26Y20.8
G1X9.2Y20.83
G1X9.1Y20.85
G1X8.95Y20.86
G1X8.77Y20.87
M5
G0X8.89Y21.04
M3 S30
; Layer C00
G1X8.95
G1X9.07
G1X9.23
G1X9.42
G1X9.89Y21.06
G1X10.06Y21.04
G1X10.22Y21
G1X10.47Y20.94
G1X10.52Y20.93
G1Y20.94
G1X10.45Y20.97
G1X10.19Y21.05
G1X9.92Y21.09
G1X9.67Y21.11
G1X9.49Y21.08
G1X9.36Y21.07
G1X9.03Y21.06
G1X8.94
G1X8.9Y21.05
G1Y21.04
M5
G0X9.05Y20.99
M3 S30
; Layer C00
G1X9.13Y20.96
G1X9.27Y20.89
G1X9.4Y20.83
G1X9.53Y20.76
G1X9.45Y20.81
G1X9.26Y20.92
G1X9.06Y21
M5
G0X9.74Y21.26
M3 S30
; Layer C00
G1X9.79Y21.24
G1X9.9Y21.22
G1X10.03Y21.18
G1X10.13Y21.15
G1X10.17
G1X9.99Y21.22
G1X9.75Y21.27
G1X9.74Y21.26
M5
G0X9.83Y21.48
M3 S30
; Layer C00
G1X9.94Y21.45
G1X10Y21.43
G1X10.04
G1Y21.4
G1X10.09Y21.38
G1X10.29Y21.28
G1X10.46Y21.2
G1X10.7Y21.08
G1X10.92Y20.91
G1X10.94Y20.9
G1X11.13Y20.82
G1X11.36Y20.7
G1X11.45Y20.64
G1X11.39
G1X11.36
G1X11.34Y20.66
G1X11.31Y20.68
G1X11.25Y20.7
G1X11.12Y20.72
G1X11.18Y20.69
G1X11.28Y20.64
G1X11.17Y20.66
G1X11.09Y20.67
G1X11.05Y20.69
G1X10.99Y20.71
G1X10.86Y20.72
G1X10.69Y20.73
G1X10.85Y20.7
G1X10.97Y20.66
G1X11.07Y20.63
G1X11.13Y20.59
G1X11.05Y20.6
G1X10.98
G1X10.94
G1X10.91Y20.59
G1X10.84Y20.6
G1X10.74Y20.63
G1X10.47Y20.72
G1X10.27Y20.78
G1X10.29Y20.8
G1X10.32Y20.82
G1X10.25Y20.83
G1X10.18
G1X10.12
G1X10.06Y20.81
G1X10.18Y20.78
G1X10.26Y20.75
G1X10.29Y20.73
G1X10.33Y20.71
G1X10.44Y20.67
G1X10.59Y20.63
G1X10.77Y20.58
G1X10.89Y20.55
G1X10.72
G1X10.89Y20.5
G1X10.74Y20.51
G1X10.6Y20.53
G1X10.47Y20.55
G1X10.36Y20.58
G1X10.4Y20.6
G1Y20.61
G1X10.32Y20.62
G1X10.24
G1X10.2
G1Y20.6
G1X10.26Y20.59
G1X10.23Y20.58
G1X10.17
G1X9.82Y20.56
G1X10.09Y20.55
G1X10.33Y20.52
G1X10.54Y20.49
G1X10.74Y20.45
G1X10.99Y20.42
G1X11.23Y20.38
G1X11.41Y20.32
G1X11.55Y20.26
G1X11.67Y20.23
G1X11.77
G1X11.59Y20.28
G1X11.49Y20.32
G1X11.47Y20.34
G1X11.52
G1X11.49Y20.36
G1X11.42Y20.38
G1X11.3Y20.41
G1X11.14Y20.43
G1X10.95Y20.45
G1X10.74Y20.46
G1X11.23Y20.53
G1X11.64Y20.39
G1X11.72Y20.37
G1X11.75
G1Y20.39
G1X11.72Y20.4
G1X11.69
G1X11.54Y20.45
G1X11.44Y20.51
G1X11.45
G1X11.51
G1X11.58Y20.49
G1X11.68Y20.45
G1X11.77Y20.41
G1X11.81Y20.39
G1Y20.4
G1X11.72Y20.48
G1X11.81Y20.47
G1X11.88
G1X11.86Y20.49
G1X11.81Y20.5
G1X11.74
G1X11.8Y20.53
G1X11.85
G1X11.9
G1X11.94Y20.51
G1X11.96Y20.52
G1X11.95Y20.55
G1X11.91Y20.6
G1X11.85Y20.66
G1X11.88Y20.67
G1X11.93
G1X12
G1X12.07Y20.65
G1X12.1
G1X12.09Y20.66
G1X11.94Y20.77
G1X11.78Y20.9
G1X11.76
G1X11.77Y20.88
G1X11.75
G1X11.71Y20.9
G1X11.62Y20.95
G1X11.34Y21.17
G1X11.12Y21.4
G1X11.07Y21.47
G1X11.05Y21.48
G1X11.04Y21.46
G1X11.02
G1X11.03Y21.44
G1X11.1Y21.37
G1X11.21Y21.26
G1X11.31Y21.16
G1X11.4Y21.09
G1X11.51Y21
G1X11.66Y20.91
G1X11.85Y20.79
G1X11.92Y20.74
G1Y20.72
G1X11.86
G1X11.75Y20.76
G1X11.59Y20.8
G1X11.46Y20.94
G1X11.32Y21.08
G1X11.09Y21.32
G1X11.03Y21.37
G1X10.99Y21.41
G1X10.97
G1X10.95
G1X10.96Y21.43
G1Y21.46
G1X10.95Y21.49
G1X10.93Y21.52
G1Y21.54
G1Y21.57
G1X10.83Y21.75
G1X10.76Y21.94
G1X10.73Y22.07
G1X10.74Y21.94
G1X10.79Y21.76
G1X10.86Y21.55
G1X10.91Y21.46
G1X10.95Y21.39
G1X10.99Y21.35
G1X11.02Y21.33
G1X11.1Y21.28
G1X11.17Y21.19
G1X11.15
G1X11.08Y21.24
G1X11.13Y21.19
G1X11.24Y21.09
G1X11.36Y21
G1X11.43Y20.93
G1X11.46Y20.89
G1X11.41Y20.9
G1X11.31Y20.96
G1X11.21Y21.02
G1X11.18Y21.06
G1X11.11Y21.12
G1X11Y21.18
G1X10.96Y21.2
G1X10.9Y21.26
G1X10.84Y21.35
G1X10.79Y21.45
G1X10.72Y21.61
G1X10.67Y21.77
G1X10.65Y21.89
G1X10.66Y21.93
G1X10.68
G1Y21.96
G1X10.65Y22.04
G1X10.63Y22.18
G1X10.62Y22.35
G1X10.61Y21.88
G1X10.69Y21.59
G1X10.7Y21.53
G1X10.67Y21.56
G1X10.62Y21.67
G1X10.57Y21.83
G1X10.52Y22.02
G1X10.45Y22.65
G1X10.36Y23.01
G1X10.31Y23.13
G1X10.29Y23.16
G1X10.31Y23.08
G1X10.35Y22.93
G1X10.43Y22.6
G1X10.46Y22.28
G1Y22.14
G1X10.42Y22.26
G1X10.4Y22.36
G1Y22.41
G1Y22.42
G1Y22.43
G1X10.38Y22.45
G1Y22.48
G1X10.26Y22.76
G1X10.12Y23
G1X10.09Y23.02
G1X10.11Y22.99
G1X10.29Y22.53
G1X10.46Y21.99
G1X10.49Y21.89
G1X10.52Y21.81
G1Y21.77
G1Y21.72
G1X10.55Y21.81
G1X10.6Y21.64
G1X10.51Y21.71
G1X10.44Y21.77
G1X10.41Y21.81
G1X10.39
G1X10.38
G1X10.33Y22.08
G1X10.23Y22.39
G1X10.18Y22.51
G1X10.12Y22.62
G1X10.06Y22.7
G1X10.02Y22.75
G1Y22.74
G1X10.05Y22.69
G1X10.18Y22.45
G1X10.28Y22.19
G1X10.33Y21.91
G1Y21.87
G1Y21.85
G1X10.25Y21.9
G1X10.19Y21.98
G1Y22.02
G1X10.15Y21.92
G1X10.25Y21.86
G1X10.31Y21.81
G1X10.34Y21.76
G1Y21.72
G1X10.38Y21.78
G1X10.47Y21.69
G1X10.53Y21.62
G1X10.59Y21.59
G1X10.62Y21.55
G1X10.67Y21.49
G1X10.73Y21.36
G1X10.77Y21.29
G1X10.81Y21.24
G1X10.85Y21.2
G1X10.92Y21.13
G1X11.02Y21.06
G1X11.13Y20.98
G1X11.05Y21.05
G1X10.98Y21.13
G1Y21.16
G1X11.03Y21.14
G1X11.12Y21.07
G1X11.37Y20.9
G1X11.76Y20.7
G1X11.82Y20.64
G1X11.85Y20.6
G1X11.81Y20.61
G1X11.75Y20.64
G1X11.67Y20.68
G1X11.58Y20.72
G1X11.52Y20.73
G1X11.58Y20.69
G1X11.64Y20.66
G1X11.68Y20.63
G1X11.62Y20.64
G1X11.56Y20.65
G1X11.52
G1X11.47Y20.64
G1X11.54Y20.68
G1X11.37Y20.76
G1X11.22Y20.84
G1X11.1Y20.93
G1X11.04Y20.98
G1X11Y21
G1Y20.99
G1X11.04Y20.94
G1X11.06Y20.9
G1Y20.88
G1X10.82Y21.12
G1X10.61Y21.43
G1Y21.45
G1X10.56Y21.46
G1X10.52Y21.49
G1X10.47Y21.54
G1X10.41Y21.61
G1X10.36Y21.66
G1X10.34
G1X10.32
G1X10.27Y21.68
G1X9.96Y21.84
G1X9.67Y21.92
G1X9.63
G1Y21.9
G1X9.67Y21.88
G1X9.73Y21.87
G1X9.99Y21.78
G1X10.23Y21.65
G1X10.28Y21.61
G1X10.23Y21.63
G1X9.97Y21.69
G1X9.7Y21.71
G1X9.52
G1X9.44Y21.7
G1X9.5
G1X9.64Y21.69
G1X9.82Y21.68
G1X10.01Y21.65
G1X10.18Y21.6
G1X10.33Y21.54
G1X10.41Y21.5
G1X10.47Y21.45
G1X10.51Y21.42
G1Y21.41
G1Y21.39
G1X10.55Y21.34
G1X10.63Y21.25
G1X10.75Y21.12
G1X10.83Y21.04
G1X10.86Y20.99
G1X10.83Y21.01
G1X10.68Y21.13
G1X10.63Y21.15
G1X10.62
G1Y21.17
G1X10.6Y21.21
G1X10.53Y21.26
G1X10.43Y21.32
G1X10.47Y21.27
G1X10.5Y21.24
G1Y21.22
G1X10.33Y21.29
G1X10.17Y21.38
G1X10.06Y21.46
G1X9.94Y21.52
G1Y21.5
G1X9.96Y21.47
G1X9.91Y21.49
G1X9.82Y21.5
G1X9.66Y21.51
G1X9.45Y21.52
G1X9.66Y21.5
G1X9.83Y21.48
M5
G0X10.19Y21.14
M3 S30
; Layer C00
G1X10.27Y21.1
G1X10.36Y21.06
G1X10.34Y21.08
G1X10.3Y21.11
G1X10.35
G1X10.4Y21.1
G1X10.44Y21.07
G1X10.48Y21.04
G1Y21.07
G1Y21.09
G1X10.46
G1X10.44
G1X10.39Y21.14
G1X10.32Y21.16
G1X10.3Y21.15
G1Y21.13
G1Y21.11
G1X10.21Y21.14
G1X10.19
M5
G0X10.57Y20.97
M3 S30
; Layer C00
G1X10.63Y20.94
G1X10.89Y20.84
G1X11.08Y20.78
G1X11.05Y20.81
G1X10.95Y20.86
G1X10.85Y20.91
G1X10.82
G1X10.8Y20.9
G1X10.72Y20.93
G1X10.67Y20.96
G1X10.62
G1X10.57
M5
G0X10.47Y20.79
M3 S30
; Layer C00
G1X10.39Y20.8
G1X10.46Y20.77
G1X10.58Y20.74
G1X10.64
G1X10.57Y20.77
G1X10.47Y20.79
M5
G0X10.29Y20.45
M3 S30
; Layer C00
G1X10.12Y20.47
G1X9.94
G1X9.72
G1X9.96Y20.45
G1X10.22Y20.43
G1X10.47Y20.37
G1X10.52Y20.36
G1X10.5Y20.38
G1X10.42Y20.42
G1X10.29Y20.45
M5
G0X10.59Y20.36
M3 S30
; Layer C00
G1X10.6Y20.34
G1X10.88Y20.3
G1X11.17Y20.21
G1X11.28Y20.18
G1X11.33Y20.16
G1X11.31Y20.18
G1X11.13Y20.26
G1X11.1Y20.28
G1X11.14
G1X11.24
G1X11.38Y20.27
G1X11.28Y20.29
G1X11.1Y20.32
G1X10.88Y20.35
G1X10.77
G1X10.68Y20.36
G1X10.62
G1X10.59
M5
G0X10.61Y20.23
M3 S30
; Layer C00
G1X10.39
G1X10.21Y20.21
G1X10.1Y20.19
G1X10.07
G1X10.1Y20.18
G1X10.26Y20.17
G1X10.16Y20.15
G1X10.03Y20.14
G1X9.86
G1X9.72Y20.12
G1X9.66Y20.11
G1X9.61Y20.09
G1X9.51Y20.08
G1X9.5
G1X9.59
G1X9.76
G1X10.24
G1X10.45
G1X10.58
G1X10.63
G1X10.68Y20.1
G1X10.8
G1X10.96Y20.09
G1X10.88Y20.11
G1X10.75Y20.13
G1X10.38Y20.17
G1X10.3Y20.18
G1X10.32Y20.19
G1X10.4
G1X10.52
G1X10.82Y20.2
G1X11.02
G1X11.04
G1X10.97Y20.22
G1X10.81
G1X10.61
M5
G0X10.72Y20
M3 S30
; Layer C00
G1X10.71Y19.99
G1X10.69Y19.97
G1X10.4Y19.94
G1X10.22Y19.88
G1X10.14Y19.84
G1X10.03Y19.81
G1X9.89Y19.79
G1X9.74Y19.78
G1X9.55
G1X9.71Y19.76
G1X9.84Y19.75
G1X9.95
G1X10.13Y19.8
G1X10.22Y19.82
G1X10.28
G1X10.33
G1X10.13Y19.71
G1X10.07Y19.68
G1X10.05Y19.67
G1X10.07
G1X10.14Y19.69
G1X10.4Y19.82
G1X10.48Y19.85
G1X10.5
G1X10.51Y19.87
G1X10.48Y19.88
G1X10.41
G1X10.3
G1X10.82Y19.98
G1X10.76Y19.99
G1X10.72
M5
G0X10.74Y19.91
M3 S30
; Layer C00
G1X10.67Y19.89
G1X10.61
G1X10.6
G1Y19.87
G1Y19.86
G1Y19.85
G1X10.56Y19.84
G1X10.52Y19.82
G1X10.53Y19.81
G1X10.78Y19.89
G1X10.92Y19.92
G1X11.06Y19.94
G1X10.95
G1X10.84Y19.93
G1X10.74Y19.91
M5
G0X10.77Y19.83
M3 S30
; Layer C00
G1X10.71Y19.8
G1X10.6Y19.75
G1X10.49Y19.68
G1X10.35Y19.59
G1X10.3Y19.57
G1X10.28
G1Y19.56
G1X10.32Y19.54
G1X10.29Y19.5
G1X10.3
G1X10.37Y19.55
G1X10.49Y19.65
G1X10.63Y19.74
G1X10.74Y19.8
G1X10.77Y19.83
M5
G0X10.18Y19.96
M3 S30
; Layer C00
G1X10.09
G1X9.95
G1X9.76Y19.93
G1X9.53Y19.9
G1X9.77Y19.91
G1X9.97Y19.92
G1X10.1Y19.94
G1X10.18Y19.96
M5
G0X10.12Y19.63
M3 S30
; Layer C00
G1X10.08
G1X10.01Y19.6
G1X9.87Y19.58
G1X9.67Y19.57
G1X9.43
G1X9.56Y19.55
G1X9.74Y19.54
G1X9.94Y19.56
G1X10.02Y19.57
G1X10.09Y19.59
G1X10.12Y19.61
G1Y19.63
M5
G0X10.16Y19.52
M3 S30
; Layer C00
G1X10.11Y19.5
G1X10.16
G1X10.12Y19.48
G1X10.05Y19.45
G1X9.96Y19.42
G1X9.72Y19.35
G1X8.99Y19.31
G1X8.36Y19.27
G1X8.72Y19.28
G1X9.09Y19.3
G1X9.45Y19.31
G1X9.82Y19.33
G1X10.04Y19.41
G1X10.19Y19.47
G1X10.25Y19.51
G1X10.22Y19.54
G1X10.16Y19.52
M5
G0X10.01Y19.47
M3 S30
; Layer C00
G1X9.95
G1X9.44Y19.45
G1X9.07Y19.43
G1X8.92Y19.42
G1X8.82
G1X8.65Y19.39
G1X8.89Y19.4
G1X9.63Y19.43
G1X9.76
G1X9.87Y19.44
G1X9.93Y19.45
G1X10.01Y19.47
M5
G0X10.01Y19.32
M3 S30
; Layer C00
G1X9.79Y19.27
G1X9.6Y19.21
G1X9.46Y19.14
G1X9.38Y19.11
G1X9.25Y19.08
G1X9.09Y19.06
G1X8.87Y19.02
G1X9.01
G1X9.18Y19.04
G1X9.36Y19.07
G1X9.5Y19.09
G1X9.53Y19.1
G1X9.49Y19.11
G1X9.51Y19.12
G1X9.57Y19.15
G1X9.69Y19.18
G1X9.78Y19.2
G1X9.85Y19.21
G1X9.89
G1X9.9
G1X9.86Y19.18
G1X9.79Y19.14
G1X9.55Y19.02
G1X9.27Y18.99
G1X9.17Y18.98
G1X9.08Y18.96
G1X9.01
G1X8.99Y18.94
G1Y18.93
G1X9.01
G1X9.07Y18.94
G1X9.18Y18.95
G1X9.33Y18.97
G1X9.26Y18.92
G1X9.33Y18.93
G1X9.42Y18.96
G1X9.55Y19.01
G1X9.71Y19.07
G1X9.9Y19.13
G1X10.04Y19.19
G1X10.09Y19.23
G1X10.11Y19.26
G1X10.16Y19.28
G1X10.22Y19.3
G1X10.24Y19.32
G1X10.22Y19.34
G1X10.17Y19.32
G1X10.12Y19.3
G1X10.04Y19.28
G1X9.94Y19.27
G1X10.01Y19.32
M5
G0X10.6Y19.24
M3 S30
; Layer C00
G1X10.62
G1X10.8Y19.28
G1X10.88Y19.29
G1X10.94
G1X10.9Y19.32
G1X10.82Y19.33
G1X10.7Y19.29
G1X10.62Y19.26
G1X10.6Y19.24
M5
G0X11.06Y18.78
M3 S30
; Layer C00
G1X10.93Y18.73
G1X10.86Y18.7
G1X10.89
G1X11.21Y18.81
G1X11.27Y18.83
G1X11.29Y18.85
G1X11.28
G1X11.2Y18.83
G1X11.06Y18.78
M5
G0X11.79Y18.61
M3 S30
; Layer C00
G1X11.84Y18.63
G1X12Y18.66
G1X12.17Y18.69
G1X12.14Y18.71
G1X12.11Y18.73
G1X12.14
G1X12.25Y18.77
G1X12.3Y18.8
G1X12.23Y18.78
G1X12.08Y18.74
G1X11.93Y18.68
G1X11.84Y18.64
G1X11.79Y18.61
M5
G0X12.32Y18.4
M3 S30
; Layer C00
G1X12.52Y18.38
G1X12.72Y18.39
G1X12.67Y18.4
G1X12.52
G1X12.37
G1X12.32
M5
G0X12.32Y18.26
M3 S30
; Layer C00
G1X12.28
G1X12.51Y18.24
G1X12.67
G1X12.59Y18.26
G1X12.45
G1X12.32
M5
G0X12.11Y18.2
M3 S30
; Layer C00
G1X12.06
G1X11.98Y18.18
G1X11.87Y18.16
G1X11.68Y18.14
G1X11.42Y18.12
G1X11.29
G1X11.19
G1X11.12Y18.1
G1X11.08Y18.09
G1X11.03Y18.06
G1X11.08Y18.07
G1X11.13Y18.08
G1X11.21
G1X11.31Y18.09
G1X11.44
G1X11.65Y18.11
G1X11.86Y18.13
G1X12.03Y18.16
G1X12.11Y18.19
M5
G0X12.19Y17.97
M3 S30
; Layer C00
G1X11.94Y17.92
G1X11.77Y17.87
G1X11.82
G1X11.95Y17.9
G1X12.18Y17.94
G1X12.43Y17.96
G1X12.71Y17.98
G1X12.48
G1X12.3
G1X12.19
M5
G0X12.63Y17.88
M3 S30
; Layer C00
G1X12.66
G1X12.77
G1X12.88
G1X12.9
G1X12.89
G1X12.76
G1X12.64
M5
G0X12.67Y17.7
M3 S30
; Layer C00
G1X12.84
G1X12.97
G1X13.04Y17.68
G1X13.01
G1X12.94Y17.67
G1X12.7Y17.66
G1X12.57
G1X12.46
G1X12.38
G1X12.34
G1X12.32
G1X12.34Y17.67
G1X12.4Y17.68
G1X12.51Y17.69
G1X12.67
M5
G0X12.54Y17.36
M3 S30
; Layer C00
G1X12.57Y17.33
G1X12.71Y17.17
G1X12.58Y17.21
G1X12.67Y17.07
G1X12.63Y17.09
G1X12.58
G1X12.51Y17.06
G1X12.45Y17.03
G1X12.41
G1X12.39Y17.04
G1Y17.08
G1X12.41Y17.12
G1X12.37Y17.07
G1X12.35Y17.04
G1Y17.01
G1X12.29Y17.03
G1X12.24Y17.06
G1X12.22Y17.09
G1X12.31Y17.26
G1X12.43Y17.39
G1Y17.38
G1Y17.35
G1Y17.32
G1X12.52Y17.36
G1X12.54
M5
G0X12.3Y17.35
M3 S30
; Layer C00
G1X12.28Y17.32
G1X12.25Y17.28
G1Y17.27
G1Y17.24
G1X12.2Y17.17
G1X12.16Y17.1
G1X12.15Y17.06
G1Y17.04
G1X12.18
G1X12.21
G1Y17.01
G1Y16.98
G1X12.18
G1Y16.94
G1Y16.91
G1X12.23Y16.89
G1Y16.86
G1X12.27Y16.73
G1X12.33Y16.63
G1X12.35Y16.61
G1X12.36Y16.58
G1Y16.54
G1X12.42Y16.59
G1X12.45Y16.57
G1X12.47Y16.54
G1X12.48Y16.51
G1X12.5Y16.49
G1X12.53Y16.47
G1X12.58Y16.46
G1X12.56Y16.5
G1X12.54Y16.54
G1X12.56Y16.56
G1X12.61Y16.52
G1Y16.44
G1X12.6Y16.42
G1X12.55
G1X12.48
G1X12.38Y16.47
G1X12.27Y16.53
G1X12.18Y16.61
G1X12.12Y16.68
G1X12.11Y16.74
G1Y16.77
G1X12.1Y16.79
G1X12.08Y16.84
G1X12.06Y17.01
G1X12.04Y17.04
G1X12.01Y17.05
G1X12.04Y17.09
G1X12.07Y17.16
G1X12.04Y17.2
G1X12.03
G1Y17.22
G1X12.05Y17.24
G1X12.07
G1X12.09
G1X12.17Y17.3
G1X12.21
G1X12.23
G1X12.25Y17.33
G1X12.27Y17.35
G1X12.29Y17.36
G1X12.3Y17.35
M5
G0X12Y17.38
M3 S30
; Layer C00
G1X11.91Y17.27
G1X11.87Y17.24
G1X11.84
G1Y17.27
G1X11.87Y17.32
G1X11.9Y17.35
G1X11.91Y17.38
G1X11.95Y17.42
G1X12.02Y17.47
G1X12.05
G1X12Y17.38
M5
G0X11.92Y17.15
M3 S30
; Layer C00
G1X11.89Y17.11
G1X11.86Y17.07
G1Y17.05
G1X11.89Y17.06
G1X11.93Y17.09
G1X11.96Y17.06
G1X11.99Y17
G1X12.01Y16.9
G1X12.02Y16.77
G1X11.98Y16.89
G1X11.93Y16.97
G1X11.89Y17
G1X11.86
G1X11.85Y17.02
G1X11.84
G1X11.78Y16.98
G1X11.76
G1X11.83Y17.07
G1X11.92Y17.15
M5
G0X11.47Y17.26
M3 S30
; Layer C00
G1X11.41Y17.31
G1X11.44Y17.39
G1X11.46Y17.45
G1X11.47Y17.49
G1X11.59Y17.59
G1X11.74Y17.66
G1Y17.65
G1X11.71Y17.61
G1X11.67Y17.56
G1X11.8Y17.65
G1X11.84Y17.61
G1X11.8Y17.6
G1X11.68Y17.54
G1X11.67
G1X11.66Y17.57
G1X11.59Y17.52
G1X11.55Y17.48
G1Y17.45
G1X11.57
G1X11.61Y17.47
G1X11.66Y17.5
G1X11.63Y17.45
G1X11.57Y17.37
G1X11.47Y17.26
M5
G0X11.03Y17.36
M3 S30
; Layer C00
G1Y17.37
G1X11.07Y17.43
G1X11.01Y17.4
G1X10.7Y17.13
G1X10.43Y16.82
G1X10.41Y16.77
G1X10.44Y16.8
G1X10.63Y17.01
G1X10.76Y17.15
G1X10.87Y17.26
G1X10.96Y17.33
G1X11.01Y17.36
G1X11Y17.34
G1X10.86Y17.18
G1X10.77Y17.06
G1X10.71Y16.96
G1X10.69Y16.91
G1X10.72Y16.93
G1X10.77Y17.02
G1X10.85Y17.14
G1X10.95Y17.25
G1X11.02Y17.33
G1X11.03Y17.36
M5
G0X10.78Y17.61
M3 S30
; Layer C00
G1X11.02Y17.73
G1X11.18Y17.8
G1X11.34Y17.85
G1X11.46Y17.88
G1X11.51
G1Y17.86
G1X11.53
G1X11.55
G1Y17.89
G1X11.52Y17.91
G1X11.47
G1X11.4
G1X11.31Y17.9
G1X11.12Y17.82
G1X10.88Y17.69
G1X10.65Y17.55
G1X10.49Y17.42
G1X10.43Y17.35
G1X10.55Y17.44
G1X10.78Y17.61
M5
G0X10.69Y17.66
M3 S30
; Layer C00
G1X10.62Y17.59
G1X10.77Y17.69
G1X10.98Y17.81
G1X11.29Y17.92
G1X11.45Y17.96
G1X11.28
G1X11.35Y18
G1X11.4Y18.03
G1X11.38
G1X11.32
G1X11.21Y17.99
G1X11.08Y17.95
G1X10.96Y17.91
G1X10.86Y17.87
G1X10.83Y17.84
G1X10.84
G1X10.93Y17.87
G1X10.95
G1X10.93Y17.85
G1X10.78Y17.74
G1X10.69Y17.66
M5
G0X10.46Y17.95
M3 S30
; Layer C00
G1X10.52Y18
G1X10.61Y18.08
G1X10.73Y18.15
G1X10.81Y18.2
G1X10.84Y18.22
G1X10.8
G1X10.72Y18.18
G1X10.53Y18.06
G1X10.44Y17.95
G1X10.46
M5
G0X10.26Y18.08
M3 S30
; Layer C00
G1X10.33Y18.14
G1X10.43Y18.25
G1X10.4Y18.22
G1X10.32Y18.16
G1X10.11Y17.96
G1X9.96Y17.77
G1X9.87Y17.7
G1X9.71Y17.65
G1X9.63Y17.63
G1X9.57Y17.6
G1X9.55Y17.58
G1X9.6Y17.6
G1X9.67Y17.62
G1X9.74Y17.64
G1X9.67Y17.58
G1X9.63Y17.54
G1X9.7Y17.57
G1X9.84Y17.64
G1X9.99Y17.71
G1X10.07Y17.73
G1X10.1
G1X10.08Y17.75
G1X10.03
G1X9.97
G1X10.03Y17.83
G1X10.12Y17.94
G1X10.26Y18.08
M5
G0X9.84Y17.97
M3 S30
; Layer C00
G1Y17.96
G1X9.83Y17.93
G1X9.67Y17.81
G1X9.5Y17.75
G1X9.41Y17.73
G1X9.3Y17.69
G1X9.18Y17.65
G1X9.15
G1X9.2Y17.69
G1X9.34Y17.76
G1X9.5Y17.84
G1X9.65Y17.9
G1X9.77Y17.95
G1X9.84Y17.97
M5
G0X9.72Y18.04
M3 S30
; Layer C00
G1X9.68Y18
G1X9.64
G1X9.6
G1X9.66Y18.04
G1X9.7Y18.07
G1Y18.08
G1X9.65Y18.06
G1X9.5Y17.97
G1X9.44Y17.94
G1X9.39Y17.92
G1X9.37Y17.93
G1X9.39Y17.95
G1X9.47Y18
G1X9.46
G1X9.27Y17.95
G1X9.13Y17.91
G1X9.02Y17.89
G1X8.91Y17.86
G1X8.79Y17.85
G1X8.73
G1X8.77Y17.87
G1X8.96Y17.91
G1X9.11Y17.95
G1X9.31Y18.01
G1X9.53Y18.09
G1X9.58Y18.11
G1Y18.13
G1X9.55
G1X9.46
G1X9.48Y18.15
G1X9.52Y18.16
G1X9.74Y18.23
G1X9.82Y18.27
G1X9.87Y18.29
G1X9.81Y18.28
G1X9.76
G1X9.8Y18.3
G1X9.88Y18.35
G1X9.97Y18.4
G1X10.02
G1X10.01Y18.37
G1X9.95Y18.31
G1X9.85Y18.22
G1X9.73Y18.15
G1X9.71Y18.12
G1Y18.09
G1X9.74
G1Y18.07
G1X9.72Y18.04
M5
G0X9.4Y18.13
M3 S30
; Layer C00
G1X9.27Y18.08
G1X9.15Y18.05
G1X9.02Y18.02
G1X8.92
G1X8.88
G1X8.92Y18.04
G1X9.13Y18.11
G1X9.18Y18.13
G1X9.21Y18.15
G1X9.23
G1Y18.13
G1X9.18Y18.1
G1X9.4Y18.13
M5
G0X9.18Y18.23
M3 S30
; Layer C00
G1X9.14Y18.21
G1X9.07
G1X8.95
G1X8.79
G1X8.92Y18.25
G1X9.02Y18.28
G1X9.1Y18.29
G1X9.21Y18.32
G1X9.37Y18.39
G1X9.5Y18.44
G1X9.57Y18.47
G1X9.6
G1Y18.46
G1X9.42Y18.35
G1X9.22Y18.27
G1X9.19
G1Y18.25
G1Y18.23
M5
G0X9.18Y18.01
M3 S30
; Layer C00
G1Y18
G1X9.13Y17.98
G1X9.05Y17.95
G1X8.95Y17.93
G1X8.87
G1X9.03Y17.98
G1X9.18Y18.01
M5
G0X9.38Y17.86
M3 S30
; Layer C00
G1X9.42Y17.88
G1X9.44
G1Y17.84
G1X9.41Y17.81
G1X9.34
G1X9.28Y17.78
G1X9.22Y17.75
G1X9.19Y17.73
G1X9.21Y17.76
G1X9.29Y17.81
G1X9.38Y17.86
M5
G0X9.4Y17.62
M3 S30
; Layer C00
G1Y17.6
G1X9.34Y17.57
G1X9.23Y17.51
G1X9.07Y17.45
G1X8.85Y17.37
G1X8.82
G1X8.81Y17.38
G1Y17.41
G1X8.85Y17.42
G1X8.92Y17.45
G1X9.03Y17.5
G1X9.24Y17.57
G1X9.4Y17.62
M5
G0X8.77Y18.33
M3 S30
; Layer C00
G1X8.61Y18.3
G1X8.41Y18.27
G1X8.38
G1X8.37Y18.28
G1X8.39Y18.3
G1X8.45Y18.32
G1X8.54
G1X8.65Y18.33
G1X8.77
M5
G0X8.79Y18.39
M3 S30
; Layer C00
G1X9.42Y18.52
G1X9.55Y18.55
G1X9.6Y18.57
G1Y18.59
G1X9.63Y18.61
G1X9.67Y18.64
G1X9.59Y18.61
G1X9.52Y18.58
G1X9.49
G1X9.5Y18.59
G1X9.57Y18.63
G1X9.66Y18.67
G1X9.72Y18.68
G1X9.76
G1X9.82Y18.73
G1X9.89Y18.78
G1X9.83Y18.75
G1X9.78Y18.73
G1X9.75Y18.7
G1X9.74
G1X9.72
G1Y18.73
G1X9.76Y18.76
G1X9.89Y18.83
G1X10.02Y18.91
G1X10.12Y18.98
G1X10.14Y19.01
G1X10.06
G1X9.78Y18.96
G1X9.71
G1X9.74Y18.98
G1X9.82Y19.01
G1X9.92Y19.05
G1X10.03Y19.08
G1X10.24Y19.19
G1X10.39Y19.31
G1X10.35Y19.3
G1X10Y19.14
G1X9.71Y19.01
G1X9.48Y18.93
G1X9.26Y18.88
G1X9.04Y18.85
G1X8.82Y18.83
G1X9
G1X9.17
G1X9.32Y18.86
G1X9.41Y18.89
G1X9.47
G1X9.48
G1Y18.87
G1X9.46Y18.85
G1X9.5Y18.87
G1X9.78Y18.93
G1X10.03Y18.96
G1X10.01Y18.94
G1X9.91Y18.91
G1X9.76Y18.86
G1X9.58Y18.8
G1X9.44Y18.75
G1X9.34Y18.73
G1X9.28
G1X9.34Y18.68
G1X9.6Y18.75
G1X9.65
G1X9.54Y18.67
G1X9.36Y18.58
G1X9.31Y18.56
G1Y18.53
G1Y18.51
G1X9.26
G1X9.21
G1X9.28Y18.55
G1X9.05
G1X8.99
G1X8.81Y18.52
G1X8.65Y18.5
G1X8.36Y18.43
G1X8.09Y18.39
G1X7.99Y18.37
G1X7.91Y18.34
G1X7.88Y18.32
G1X7.89
G1X8.02Y18.34
G1X8.38Y18.38
G1X8.5Y18.4
G1X8.54Y18.42
G1Y18.44
G1Y18.45
G1X8.56
G1X8.59Y18.44
G1X8.62Y18.45
G1X8.86Y18.5
G1X9.15Y18.52
G1X9.21
G1X9.15Y18.5
G1X9.05Y18.49
G1X8.91Y18.47
G1X8.76Y18.45
G1X8.68Y18.43
G1X8.56Y18.39
G1X8.39Y18.35
G1X8.18Y18.31
G1X7.96Y18.29
G1X7.83Y18.28
G1X7.71Y18.27
G1X7.62Y18.25
G1X7.57
G1X7.4Y18.21
G1X7.31Y18.22
G1X7.33Y18.24
G1X7.38Y18.25
G1X7.39Y18.27
G1X7.37
G1X7.3
G1X7.19
G1X6.89
G1X6.77
G1X6.69Y18.28
G1X6.64Y18.29
G1X6.58Y18.32
G1X6.77Y18.31
G1X6.9
G1X6.92
G1X6.88Y18.32
G1X6.86Y18.35
G1Y18.38
G1X6.94Y18.36
G1X7.01Y18.34
G1X7.07Y18.33
G1X7.11
G1X7.09Y18.35
G1Y18.36
G1Y18.38
G1X6.7Y18.46
G1X6.4Y18.56
G1X6.3
G1X6.19Y18.54
G1X6.14
G1Y18.53
G1X6.22
G1X6.54Y18.47
G1X6.78Y18.39
G1X6.75
G1X6.68Y18.4
G1X6.46Y18.43
G1X6.2Y18.46
G1X6Y18.47
G1X5.95
G1X5.92
G1X6.08Y18.44
G1X6.32Y18.41
G1X6.57Y18.38
G1X6.79Y18.36
G1X6.82Y18.34
G1X6.79
G1X6.7
G1X6.56
G1X6.38Y18.37
G1X6.06Y18.42
G1X5.67Y18.44
G1X5.44Y18.45
G1X5.35Y18.37
G1X5.48Y18.39
G1X5.41Y18.34
G1X5.53
G1X5.83Y18.3
G1X6.1Y18.23
G1Y18.22
G1X6.05Y18.21
G1X5.86Y18.19
G1X5.07Y18.15
G1X4.93Y18.13
G1X4.83
G1X4.79Y18.12
G1X4.82
G1X4.92Y18.11
G1X5.07
G1X5.73Y18.13
G1X5.88Y18.09
G1X6.02Y18.07
G1X6.15Y18.06
G1X6.29
G1X6.21Y18.03
G1X6.11Y18.02
G1X5.85Y18
G1X5.8Y17.98
G1X5.78
G1X5.7Y17.97
G1X5.58
G1X5.63Y18
G1X5.66Y18.03
G1X5.28Y17.95
G1X4.93Y17.85
G1X5.07Y17.87
G1X5.16
G1Y17.89
G1X5.24
G1X5.29Y17.92
G1X5.37Y17.94
G1X5.49Y17.97
G1X5.63Y17.95
G1X5.81Y17.94
G1X6.03
G1X6.22Y17.96
G1X6.35
G1X6.44
G1X6.49
G1X6.48Y17.95
G1X6.42Y17.93
G1X6.32Y17.91
G1X5.93Y17.85
G1X5.59Y17.79
G1X5.5Y17.78
G1X5.48
G1X5.54Y17.76
G1X5.63
G1X5.68
G1X5.76Y17.77
G1X5.91Y17.79
G1X6.27Y17.82
G1X6.35Y17.83
G1X6.4Y17.84
G1X6.49Y17.86
G1X6.79Y17.89
G1X6.88Y17.91
G1X6.94Y17.93
G1X6.93Y17.89
G1X6.89Y17.87
G1X6.82Y17.84
G1X6.7Y17.81
G1X6.53Y17.77
G1X6.39Y17.73
G1X6.3Y17.71
G1X6.28
G1Y17.72
G1X6.31Y17.74
G1X6.37Y17.76
G1X6.44Y17.79
G1X6.46Y17.8
G1X6.41
G1X6.26Y17.77
G1X6.17Y17.75
G1X5.91Y17.71
G1X5.63Y17.67
G1X5.42Y17.62
G1X5.26Y17.57
G1X5.37Y17.59
G1X5.47
G1X5.53Y17.6
G1X5.6Y17.61
G1X5.8Y17.65
G1X5.87Y17.66
G1X5.81Y17.63
G1X5.7Y17.59
G1X5.54Y17.55
G1X5.48Y17.52
G1X5.45Y17.48
G1X5.35Y17.42
G1X5.26Y17.37
G1X5.2Y17.35
G1X5.18
G1X5.19Y17.36
G1X5.17
G1X5.08Y17.33
G1X4.96Y17.28
G1X4.73Y17.18
G1X4.79Y17.19
G1X4.88Y17.22
G1X5.01Y17.27
G1X5.11Y17.31
G1X5.16Y17.33
G1X5.17
G1Y17.32
G1Y17.29
G1X5.26Y17.34
G1X5.49Y17.46
G1X5.74Y17.54
G1X5.82Y17.56
G1X5.87Y17.58
G1X5.94Y17.62
G1X6.06Y17.66
G1X6.2Y17.68
G1X6.37Y17.7
G1X6.58
G1X6.4Y17.65
G1X6.23Y17.61
G1X6.09Y17.59
G1X6Y17.58
G1X5.96Y17.57
G1X5.91Y17.55
G1X5.81Y17.53
G1X5.72Y17.51
G1X5.67Y17.49
G1X5.71
G1X5.82
G1X5.93
G1X6.08Y17.52
G1X6.27Y17.55
G1X6.65Y17.62
G1X6.55Y17.61
G1X6.49
G1X6.56Y17.64
G1X6.79Y17.7
G1X6.9Y17.73
G1X6.99Y17.75
G1X7.06
G1X6.85Y17.67
G1X6.78Y17.64
G1X6.73Y17.6
G1X6.68Y17.58
G1X6.61Y17.56
G1X6.51Y17.51
G1X6.36Y17.46
G1X6.02Y17.36
G1X5.92Y17.32
G1X5.87Y17.29
G1X5.93Y17.3
G1X5.99Y17.32
G1X6.04
G1X6.06
G1Y17.36
G1X6.1
G1X6.16
G1X6.28Y17.37
G1X6.43Y17.4
G1X6.61Y17.43
G1X7.34Y17.58
G1X7.67Y17.65
G1X7.72Y17.67
G1X7.68Y17.64
G1X7.64Y17.63
G1X7.56Y17.6
G1X7.45Y17.58
G1X7.02Y17.48
G1X7.16
G1X7.25Y17.49
G1X7.13Y17.46
G1X6.93Y17.4
G1X6.67Y17.34
G1X6.29Y17.26
G1X6.22Y17.24
G1X6.18Y17.23
G1X6.31
G1X6.63Y17.29
G1X6.69
G1X6.64Y17.27
G1X6.37Y17.18
G1X6.28Y17.14
G1X6.2Y17.11
G1Y17.13
G1Y17.16
G1X6.16Y17.13
G1X6.09Y17.11
G1X5.98Y17.09
G1X5.85Y17.08
G1X5.95Y17.04
G1X5.84Y17.01
G1X5.77Y16.99
G1X5.75Y16.97
G1X5.81Y16.98
G1X5.94Y17.02
G1X6.12Y17.07
G1X6.3Y17.1
G1X6.42Y17.11
G1X6.48
G1X6.49
G1X6.43Y17.09
G1X6.38Y17.07
G1X6.36Y17.05
G1Y17.02
G1X6.42Y17.05
G1X6.51Y17.08
G1X6.75Y17.15
G1X6.9Y17.2
G1X7.07Y17.27
G1X7.25Y17.35
G1X7.52Y17.44
G1X7.83Y17.53
G1X7.97Y17.56
G1X8.04
G1X8.02Y17.55
G1X7.93Y17.51
G1X7.44Y17.33
G1X7.05Y17.15
G1X6.95Y17.09
G1X6.9Y17.07
G1Y17.09
G1X6.94Y17.14
G1X7.01Y17.2
G1X6.84Y17.15
G1X6.86Y17.04
G1X6.35Y16.77
G1X6.24Y16.71
G1X6.16Y16.67
G1X6.14Y16.65
G1X6.38Y16.75
G1X6.66Y16.9
G1X6.71Y16.93
G1X6.8Y16.97
G1X6.88Y17.01
G1X6.93Y17.05
G1X7.38Y17.26
G1X7.87Y17.43
G1X7.84Y17.41
G1X7.73Y17.36
G1X7.57Y17.29
G1X7.4Y17.22
G1X7.13Y17.1
G1X6.9Y16.97
G1X6.81Y16.9
G1X6.88
G1X6.94Y16.92
G1X6.97
G1X7Y16.94
G1X7.03
G1Y16.93
G1X6.99Y16.89
G1X6.9Y16.82
G1X6.82Y16.75
G1X6.76Y16.7
G1X6.75Y16.67
G1X6.83Y16.71
G1X6.93Y16.78
G1X6.96Y16.79
G1X7
G1X7.04
G1Y16.78
G1X7.05
G1X7.18Y16.83
G1X7.25Y16.85
G1X7.3Y16.87
G1X7.36Y16.92
G1X7.37
G1X7.34Y16.88
G1X7.28Y16.81
G1X7.21Y16.75
G1Y16.73
G1X7.25Y16.76
G1X7.36Y16.84
G1X7.6Y16.98
G1X7.81Y17.04
G1X7.89
G1X7.63Y16.91
G1X7.41Y16.8
G1X7.25Y16.7
G1X7.18Y16.64
G1X7.17Y16.62
G1X7.21Y16.64
G1X7.31Y16.7
G1X7.5Y16.81
G1X7.78Y16.94
G1X7.92Y17.01
G1X8.05Y17.06
G1X8.14Y17.1
G1X8.24Y17.13
G1X8.28Y17.15
G1X8.31Y17.18
G1X8.27Y17.17
G1X8.26
G1X8.28Y17.19
G1X8.33Y17.22
G1X8.39Y17.24
G1X8.43Y17.26
G1Y17.29
G1X8.42Y17.32
G1X8.45Y17.29
G1X8.48Y17.28
G1X8.51
G1X8.64Y17.31
G1X8.73
G1X8.61Y17.24
G1X8.46Y17.18
G1X8.09Y16.96
G1X7.71Y16.7
G1X7.68Y16.66
G1X7.73Y16.68
G1X7.75
G1X7.71Y16.65
G1X7.65Y16.61
G1X7.49Y16.51
G1X7.27Y16.39
G1X6.97Y16.24
G1X6.7Y16.13
G1X6.48Y16.05
G1X6.29Y15.95
G1X6.11Y15.84
G1X5.96Y15.72
G1X5.82Y15.59
G1X5.99Y15.72
G1X6.16Y15.84
G1X6.31Y15.93
G1X6.45Y15.99
G1X6.59Y16.04
G1X6.91Y16.16
G1X7.26Y16.33
G1X7.36Y16.39
G1X7.24Y16.26
G1X7.37Y16.35
G1X7.52Y16.46
G1X7.66Y16.56
G1X7.78Y16.65
G1X7.85Y16.71
G1X7.87Y16.75
G1X7.83Y16.73
G1Y16.74
G1X7.87Y16.77
G1X7.93Y16.81
G1X8Y16.85
G1X8.03Y16.86
G1X8.06Y16.88
G1X8.15Y16.94
G1X8.28Y17.04
G1X8.32Y16.98
G1X8.35Y17.02
G1X8.4Y17.06
G1X8.47Y17.11
G1X8.53Y17.15
G1X8.55Y17.18
G1X8.57
G1X8.61
G1X8.71Y17.23
G1X8.84Y17.24
G1X8.85Y17.25
G1Y17.27
G1X8.92Y17.35
G1X9.01Y17.41
G1Y17.4
G1Y17.38
G1X8.97Y17.34
G1X9Y17.33
G1X9.02
G1Y17.34
G1X8.99Y17.37
G1X9.03Y17.36
G1X9.07
G1X9.11Y17.38
G1X9.14Y17.41
G1X9.16
G1X9.22
G1X9.27Y17.45
G1X9.3Y17.48
G1X9.37Y17.51
G1X9.68Y17.75
G1X10Y18.08
G1X10.02
G1X10.04Y18.09
G1Y18.11
G1Y18.12
G1X10.06Y18.13
G1X10.09
G1Y18.15
G1Y18.18
G1X10.14Y18.23
G1X10.21Y18.3
G1X10.14Y18.25
G1X10.09Y18.21
G1X10.03Y18.19
G1Y18.18
G1X9.99Y18.11
G1X9.85Y18.04
G1X9.76Y18.02
G1Y18.06
G1X9.81Y18.13
G1X9.86
G1X9.87Y18.11
G1Y18.13
G1X9.9Y18.18
G1X9.97Y18.24
G1X10.08Y18.33
G1X10.22Y18.46
G1X10.28Y18.52
G1X10.33Y18.57
G1X10.37Y18.6
G1Y18.62
G1X10.34Y18.61
G1X10.3Y18.59
G1X10.05Y18.47
G1X9.83Y18.4
G1X9.85
G1X9.87Y18.42
G1Y18.44
G1Y18.46
G1X9.92Y18.5
G1X9.99Y18.54
G1X10.07Y18.59
G1X10.25Y18.69
G1X10.41Y18.76
G1X10.49Y18.79
G1Y18.8
G1X10.29Y18.75
G1X10.07Y18.65
G1X9.87Y18.52
G1X9.82Y18.47
G1Y18.45
G1Y18.43
G1X9.77Y18.4
G1X9.7Y18.36
G1X9.75Y18.37
G1X9.79Y18.38
G1X9.81
G1X9.66Y18.3
G1X9.44Y18.21
G1X9.39Y18.19
G1X9.42Y18.25
G1X9.32Y18.22
G1X9.21Y18.2
G1X9.27Y18.23
G1X9.37Y18.27
G1X9.63Y18.34
G1X9.66Y18.36
G1X9.63
G1X9.72Y18.43
G1X9.62Y18.4
G1X9.7Y18.48
G1X9.79Y18.56
G1X9.91Y18.67
G1X10.01Y18.75
G1X10.04Y18.8
G1X10.09Y18.84
