; LightBurn 0.9.24
; GRBL device profile, absolute coords
; Bounds: X3 Y1 to X29.33 Y34
G00 G17 G40 G21 G54
G90
M4
; Cut @ 6000 mm/min, 20% power
M8
M5
G0X5.85Y4.75
M3 S30
; Layer C00
G1X5.87S20F6000
G1X5.89Y4.78
G1X5.91Y4.84
G1Y4.92
G1X5.92Y5.03
G1X5.95Y5.62
G1X6.04Y6.27
G1X6.17Y6.89
G1X6.33Y7.44
G1X6.63Y8.1
G1X6.97Y8.71
G1X7.13Y8.95
G1X7.26Y9.1
G1X7.31Y9.15
G1X7.35Y9.16
G1X7.37Y9.15
G1X7.38Y9.1
G1X7.4Y9.05
G1X7.44Y9.03
G1X7.52Y9.05
G1X7.64Y9.1
G1X7.76Y9.15
G1X7.82Y9.16
G1Y9.12
G1X7.81Y9.01
G1X7.79Y8.85
G1X7.76Y8.66
G1X7.69Y8.07
G1X7.65Y7.41
G1Y7.12
G1Y6.88
G1Y6.79
G1Y6.72
G1X7.67Y6.68
G1X7.68
G1X7.72Y6.72
G1X7.78Y6.84
G1X7.87Y7
G1X8.12Y7.57
G1X8.27Y7.86
G1X8.42Y8.1
G1X8.59Y8.31
G1X8.67Y8.39
G1X8.72Y8.43
G1X8.74
G1Y8.37
G1X8.76Y8.29
G1X8.8Y8.25
G1X8.81Y8.21
G1Y8.11
G1X8.77Y7.96
G1X8.72Y7.75
G1X8.49Y6.8
G1X8.34Y5.92
G1X8.29Y5.5
G1X8.26Y5.1
G1Y4.73
G1Y4.38
G1X8.28Y4.17
G1X8.3Y3.98
G1X8.31Y3.84
G1X8.32Y3.76
G1X8.36Y3.7
G1X8.4Y3.72
G1X8.43Y3.8
G1X8.57Y4.42
G1X8.72Y4.91
G1X8.8Y5.13
G1X8.88Y5.3
G1X8.95Y5.42
G1X8.99Y5.46
G1X9.01Y5.43
G1X9.04Y5.35
G1X9.06Y5.23
G1X9.11Y4.92
G1X9.14Y4.79
G1X9.16Y4.69
G1X9.18Y4.64
G1X9.21
G1X9.26Y4.71
G1X9.32Y4.82
G1X9.53Y5.2
G1X9.63Y5.36
G1X9.72Y5.44
G1X9.77Y5.43
G1X9.8Y5.33
G1X9.83Y5.16
G1X9.86Y5.01
G1X9.92Y4.94
G1X9.99Y4.97
G1X10.08Y5.08
G1X10.16Y5.18
G1X10.21Y5.22
G1X10.23Y5.19
G1X10.26Y5.09
G1X10.28Y4.95
G1X10.31Y4.78
G1X10.4Y4.24
G1X10.53Y3.75
G1X10.67Y3.3
G1X10.85Y2.9
G1X10.94Y2.71
G1X11.02Y2.58
G1X11.09Y2.49
G1X11.13Y2.44
G1X11.17
G1X11.19Y2.48
G1Y2.57
G1Y2.7
G1X11.18Y2.88
G1Y3.11
G1X11.19Y3.38
G1X11.22Y3.66
G1X11.24Y3.94
G1X11.27Y4.2
G1X11.31Y4.41
G1X11.34Y4.55
G1X11.41Y4.74
G1X11.5Y4.95
G1X11.55Y5.03
G1X11.59Y5.11
G1X11.62Y5.16
G1X11.64Y5.17
G1X11.66Y5.13
G1X11.7Y5.01
G1X11.75Y4.83
G1X11.8Y4.61
G1X11.96Y3.99
G1X12.14Y3.42
G1X12.31Y2.92
G1X12.49Y2.51
G1X12.57Y2.36
G1X12.63Y2.25
G1X12.68Y2.16
G1X12.73Y2.11
G1X12.76Y2.09
G1X12.78Y2.11
G1Y2.16
G1X12.76Y2.24
G1X12.67Y2.73
G1X12.6Y3.18
G1X12.57Y3.38
G1X12.55Y3.56
G1X12.54Y3.72
G1Y3.84
G1Y4.18
G1X12.75Y3.82
G1X12.94Y3.54
G1X13.15Y3.28
G1X13.25Y3.17
G1X13.33Y3.08
G1X13.4Y3.02
G1X13.44Y3
G1X13.46Y3.02
G1X13.48Y3.08
G1Y3.16
G1Y3.26
G1Y3.51
G1X13.67Y3.24
G1X13.94Y2.9
G1X14.21Y2.64
G1X14.32Y2.56
G1X14.39Y2.53
G1X14.43Y2.55
G1X14.42Y2.63
G1X14.36Y2.82
G1X14.32Y2.97
G1X14.3Y3.07
G1Y3.13
G1X14.33Y3.15
G1X14.37Y3.13
G1X14.43Y3.05
G1X14.5Y2.93
G1X14.7Y2.62
G1X14.88Y2.35
G1X15.06Y2.1
G1X15.23Y1.89
G1X15.59Y1.51
G1X15.99Y1.17
G1X16.14Y1.06
G1X16.26Y0.99
G1X16.35Y0.96
G1X16.41
G1X16.49Y1
G1X16.62Y1.11
G1X16.77Y1.25
G1X16.94Y1.42
G1X17.29Y1.8
G1X17.56Y2.16
G1X17.8Y2.52
G1X17.99Y2.87
G1X18.06Y2.99
G1X18.12Y3.1
G1X18.16Y3.17
G1X18.19Y3.19
G1Y3.17
G1Y3.12
G1Y3.03
G1X18.16Y2.81
G1Y2.72
G1Y2.65
G1Y2.62
G1X18.21Y2.63
G1X18.28Y2.69
G1X18.38Y2.79
G1X18.5Y2.91
G1X18.73Y3.19
G1X18.89Y3.42
G1X19.02Y3.66
G1X19.03Y3.33
G1Y3.2
G1X19.05Y3.1
G1X19.07Y3.03
G1X19.09Y3
G1X19.13Y3.03
G1X19.19Y3.1
G1X19.28Y3.21
G1X19.37Y3.35
G1X19.59Y3.68
G1X19.78Y4.02
G1X19.97Y4.38
G1X19.99Y3.91
G1X19.97Y3.44
G1X19.9Y2.96
G1X19.83Y2.65
G1X19.81Y2.54
G1Y2.47
G1Y2.39
G1X19.84Y2.38
G1X19.87Y2.41
G1X19.93Y2.5
G1X20.01Y2.64
G1X20.09Y2.81
G1X20.27Y3.21
G1X20.43Y3.59
G1X20.49Y3.79
G1X20.57Y4.05
G1X20.64Y4.34
G1X20.7Y4.63
G1X20.84Y5.29
G1X21.02Y4.96
G1X21.2Y4.58
G1X21.32Y4.22
G1X21.4Y3.84
G1X21.45Y3.43
G1X21.46Y3.23
G1X21.48Y3.07
G1X21.5Y2.97
G1X21.52Y2.94
G1X21.57Y3
G1X21.65Y3.15
G1X21.75Y3.36
G1X21.87Y3.64
G1X21.92Y3.77
G1X21.98Y3.95
G1X22.03Y4.16
G1X22.09Y4.37
G1X22.14Y4.59
G1X22.18Y4.78
G1X22.21Y4.94
G1X22.23Y5.12
G1X22.25Y5.17
G1X22.3
G1X22.36Y5.12
G1X22.42Y5.09
G1X22.47Y5.11
G1X22.51Y5.19
G1X22.55Y5.32
G1X22.56Y5.4
G1X22.58Y5.45
G1X22.61Y5.48
G1X22.64
G1X22.68Y5.47
G1X22.73Y5.43
G1X22.79Y5.36
G1X22.94Y5.18
G1X23Y5.11
G1X23.05Y5.06
G1X23.08Y5.04
G1X23.11Y5.05
G1X23.14Y5.1
G1X23.17Y5.19
G1X23.2Y5.29
G1X23.26Y5.53
G1X23.28Y5.75
G1Y5.87
G1X23.29Y5.92
G1X23.32
G1X23.36Y5.87
G1X23.46Y5.73
G1X23.55Y5.55
G1X23.65Y5.35
G1X23.73Y5.12
G1X23.87Y4.61
G1X23.96Y4.1
G1X23.98Y3.97
G1X23.99Y3.87
G1X24.01Y3.81
G1X24.03Y3.78
G1X24.04
G1X24.06Y3.81
G1X24.08Y3.87
G1X24.09Y3.95
G1X24.11Y4.17
G1X24.13Y4.47
G1Y4.82
G1Y5.22
G1X24.06Y5.92
G1X23.95Y6.64
G1X23.78Y7.35
G1X23.58Y8.01
G1X23.54Y8.12
G1X23.51Y8.2
G1X23.49Y8.27
G1Y8.31
G1X23.51Y8.34
G1X23.63Y8.32
G1X23.67Y8.33
G1X23.7Y8.37
G1X23.71Y8.45
G1X23.75Y8.59
G1X23.84Y8.48
G1X23.96Y8.31
G1X24.09Y8.1
G1X24.21Y7.86
G1X24.32Y7.6
G1X24.52Y7.04
G1X24.65Y6.47
G1X24.68Y6.34
G1X24.7Y6.23
G1X24.73Y6.16
G1X24.75Y6.14
G1X24.77Y6.16
G1X24.79Y6.23
G1X24.81Y6.35
G1X24.83Y6.49
G1Y6.88
G1Y7.34
G1X24.8Y7.76
G1X24.74Y8.17
G1X24.67Y8.58
G1X24.55Y9.06
G1Y9.09
G1X24.57Y9.11
G1X24.61Y9.1
G1X24.65
G1X24.68Y9.12
G1X24.7Y9.19
G1X24.74Y9.41
G1X24.75Y9.49
G1X24.76Y9.54
G1X24.77Y9.56
G1X24.8Y9.54
G1X24.86Y9.49
G1X24.93Y9.42
G1X25.02Y9.32
G1X25.21Y9.1
G1X25.4Y8.86
G1X25.73Y8.34
G1X25.99Y7.8
G1X26.1Y7.49
G1X26.2Y7.16
G1X26.3Y6.8
G1X26.39Y6.39
G1X26.44Y6.15
G1X26.48Y5.95
G1X26.52Y5.82
G1X26.53Y5.76
G1X26.55
G1X26.57Y5.78
G1X26.6Y5.84
G1X26.62Y5.92
G1X26.68Y6.15
G1X26.74Y6.48
G1X26.78Y6.75
G1X26.8Y7.02
G1Y7.31
G1Y7.68
G1X26.78Y7.97
G1X26.76Y8.24
G1X26.74Y8.46
G1X26.7Y8.7
G1Y8.76
G1Y8.81
G1X26.72Y8.83
G1X26.74
G1X26.77Y8.8
G1X26.81Y8.74
G1X26.85Y8.67
G1X26.92Y8.55
G1X26.97Y8.5
G1X27Y8.53
G1X27.03Y8.62
G1X27.05Y8.75
G1Y8.92
G1Y9.32
G1X26.99Y9.73
G1X26.93Y10.02
G1Y10.1
G1Y10.15
G1Y10.16
G1X26.96
G1X27Y10.12
G1X27.05Y10.07
G1X27.16Y9.98
G1X27.23Y9.94
G1X27.26Y9.99
G1Y10.1
G1X27.25Y10.27
G1X27.21Y10.47
G1X27.09Y10.92
G1X26.93Y11.31
G1X26.89Y11.39
G1X26.88Y11.44
G1Y11.46
G1X26.91
G1X26.95Y11.44
G1X27.02Y11.39
G1X27.1Y11.32
G1X27.2Y11.22
G1X27.45Y10.94
G1X27.69Y10.63
G1X27.91Y10.28
G1X28.11Y9.92
G1X28.18Y9.78
G1X28.25Y9.66
G1X28.3Y9.59
G1X28.33Y9.56
G1X28.36
G1Y9.63
G1Y9.69
G1X28.33Y9.79
G1X28.25Y10.09
G1X28.03Y10.76
G1X27.71Y11.41
G1X27.31Y12.04
G1X26.82Y12.67
G1X26.72Y12.78
G1X26.65Y12.88
G1X26.6Y12.94
G1X26.59Y12.97
G1X26.65
G1X26.77Y12.94
G1X26.9Y12.91
G1X26.97Y12.92
G1X26.98Y13.02
G1X26.94Y13.2
G1X26.91Y13.29
G1X26.89Y13.37
G1Y13.43
G1Y13.45
G1X26.93
G1X27Y13.43
G1X27.1Y13.37
G1X27.23Y13.29
G1X27.5Y13.08
G1X27.78Y12.83
G1X27.93Y12.69
G1X28.06Y12.58
G1X28.16Y12.51
G1X28.2Y12.5
G1Y12.54
G1Y12.62
G1X28.18Y12.72
G1X28.12Y12.96
G1X28.1Y13.06
G1X28.09Y13.12
G1Y13.15
G1X28.15Y13.12
G1X28.28Y13.03
G1X28.48Y12.83
G1X28.69Y12.55
G1X28.89Y12.21
G1X29.07Y11.84
G1X29.14Y11.66
G1X29.21Y11.52
G1X29.26Y11.43
G1X29.29Y11.38
G1X29.31
G1X29.33Y11.41
G1Y11.49
G1X29.31Y11.61
G1X29.25Y11.96
G1X29.15Y12.37
G1X29.02Y12.78
G1X28.88Y13.15
G1X28.76Y13.37
G1X28.61Y13.64
G1X28.43Y13.92
G1X28.23Y14.2
G1X28.05Y14.45
G1X27.88Y14.65
G1X27.81Y14.72
G1X27.76Y14.77
G1X27.72Y14.8
G1X27.69
G1Y14.76
G1X27.71Y14.68
G1X27.74Y14.56
G1X27.84Y14.29
G1X27.88Y14.17
G1X27.9Y14.09
G1Y14.05
G1X27.86Y14.06
G1X27.77Y14.11
G1X27.64Y14.19
G1X27.13Y14.52
G1X26.81Y14.7
G1X26.69Y14.77
G1X26.58Y14.82
G1X26.51Y14.84
G1X26.47
G1X26.49Y14.8
G1X26.55Y14.69
G1X26.64Y14.55
G1X26.88Y14.2
G1X26.97Y14.06
G1X27.03Y13.96
G1X27.05Y13.91
G1X26.97Y13.92
G1X26.83Y13.98
G1X26.71Y14.04
G1X26.52Y14.12
G1X26.3Y14.21
G1X26.06Y14.3
G1X25.8Y14.4
G1X25.6Y14.47
G1X25.46Y14.51
G1X25.38Y14.52
G1X25.35Y14.51
G1X25.36Y14.47
G1X25.43Y14.4
G1X25.54Y14.3
G1X25.72Y14.13
G1X25.92Y13.91
G1X26.01Y13.8
G1X26.08Y13.7
G1X26.14Y13.62
G1X26.16Y13.56
G1X26.14Y13.51
G1X26.03Y13.48
G1X25.84Y13.44
G1X25.67Y13.4
G1X25.55Y13.36
G1X25.5Y13.32
G1X25.52Y13.29
G1X25.59Y13.23
G1X25.69Y13.15
G1X25.82Y13.07
G1X26.05Y12.89
G1X26.25Y12.72
G1X26.32Y12.65
G1X26.37Y12.59
G1X26.4Y12.55
G1Y12.52
G1X26.37
G1X26.3
G1X26.21Y12.54
G1X25.81Y12.63
G1X25.59Y12.67
G1X25.45
G1X25.4Y12.65
G1X25.42Y12.62
G1X25.47Y12.57
G1X25.55Y12.5
G1X25.65Y12.43
G1X25.93Y12.2
G1X26.18Y11.95
G1X26.38Y11.7
G1X26.51Y11.46
G1X26.58Y11.25
G1X26.61Y11.13
G1X26.59Y11.1
G1X26.54Y11.06
G1X26.46Y11.02
G1X26.17Y10.91
G1X26.08Y10.86
G1Y10.81
G1X26.09Y10.72
G1X26.12Y10.58
G1X26.2Y10.27
G1X26.22Y10.14
G1X26.24Y10.05
G1Y10.01
G1X26.21
G1X26.16Y10.03
G1X26.08Y10.06
G1X25.86Y10.18
G1X25.76Y10.22
G1X25.7
G1X25.67Y10.2
G1Y10.11
G1X25.71Y9.98
G1X25.77Y9.79
G1X25.96Y9.26
G1X26.04Y9.03
G1X26.08Y8.87
G1X26.1Y8.83
G1Y8.81
G1X26.07Y8.84
G1X25.99Y8.91
G1X25.89Y9.03
G1X25.78Y9.18
G1X25.45Y9.57
G1X25.1Y9.94
G1X24.78Y10.23
G1X24.47Y10.49
G1X24.33Y10.58
G1X24.22Y10.66
G1X24.15Y10.7
G1X24.11
G1X24.1Y10.67
G1Y10.61
G1X24.11Y10.52
G1X24.15Y10.32
G1X24.17Y10.24
G1Y10.18
G1Y10.15
G1X24.13
G1X24.07Y10.16
G1X23.98Y10.19
G1X23.77Y10.27
G1X23.69Y10.29
G1X23.62Y10.31
G1X23.59
G1Y10.26
G1X23.64Y10.16
G1X23.7Y10.02
G1X23.87Y9.67
G1X23.94Y9.49
G1X23.99Y9.34
G1X24.02Y9.23
G1X24.05Y9.04
G1X23.71Y9.35
G1X23.45Y9.56
G1X23.2Y9.75
G1X23.09Y9.81
G1X23Y9.86
G1X22.93Y9.89
G1X22.9
G1Y9.85
G1Y9.79
G1X22.92Y9.71
G1X22.98Y9.5
G1X23Y9.42
G1Y9.35
G1Y9.32
G1X22.97Y9.31
G1X22.9
G1X22.81Y9.33
G1X22.59Y9.38
G1X22.49Y9.4
G1X22.43
G1X22.39
G1Y9.36
G1X22.44Y9.27
G1X22.5Y9.15
G1X22.59Y9
G1X22.87Y8.49
G1X23.08Y8.01
G1X23.22Y7.56
G1X23.31Y7.11
G1X23.34Y6.85
G1X23.11Y7.02
G1X22.95Y7.13
G1X22.81Y7.2
G1X22.7Y7.24
G1X22.64
G1Y7.2
G1X22.65Y7.13
G1X22.67Y7.02
G1X22.7Y6.9
G1X22.75Y6.63
G1X22.77Y6.4
G1Y6.21
G1X22.53Y6.46
G1X22.44Y6.56
G1X22.36Y6.64
G1X22.29Y6.7
G1X22.26Y6.72
G1X22.23Y6.65
G1X22.19Y6.5
G1X22.16Y6.28
G1X21.94Y6.47
G1X21.85Y6.55
G1X21.77Y6.61
G1X21.7Y6.65
G1X21.67Y6.67
G1X21.63
G1Y6.64
G1Y6.6
G1Y6.53
G1X21.69Y6.31
G1X21.74Y5.95
G1X21.76Y5.57
G1Y5.26
G1X21.71Y4.99
G1X21.69Y4.89
G1X21.67Y4.81
G1X21.64Y4.77
G1X21.61
G1X21.59Y4.82
G1X21.54Y4.91
G1X21.48Y5.04
G1X21.42Y5.2
G1X21.26Y5.54
G1X21.12Y5.81
G1X20.94Y6.06
G1X20.73Y6.32
G1X20.63Y6.44
G1X20.54Y6.53
G1X20.47Y6.6
G1X20.43Y6.62
G1X20.4Y6.59
G1X20.38Y6.52
G1Y6.41
G1X20.35Y6
G1X20.33Y5.81
G1X20.29Y5.69
G1X20.25Y5.66
G1X20.21
G1X20.2Y5.69
G1X20.07Y5.87
G1X19.92Y5.98
G1X19.9Y5.94
G1X19.88Y5.87
G1X19.85Y5.76
G1X19.82Y5.63
G1X19.73Y5.34
G1X19.62Y5.09
G1X19.48Y4.87
G1X19.38Y5.15
G1X19.3Y5.36
G1X19.23Y5.51
G1X19.17Y5.58
G1X19.12Y5.57
G1X19.08Y5.46
G1X19.04Y5.27
G1X18.98Y5.04
G1X18.89Y4.8
G1X18.84Y4.7
G1X18.8Y4.62
G1X18.76Y4.57
G1X18.73Y4.55
G1X18.7Y4.6
G1X18.69Y4.74
G1X18.67Y4.95
G1X18.63Y5.17
G1X18.61Y5.26
G1X18.58Y5.34
G1X18.56Y5.4
G1X18.54Y5.41
G1X18.52Y5.39
G1X18.49Y5.34
G1X18.46Y5.26
G1X18.43Y5.16
G1X18.21Y4.51
G1X17.91Y3.84
G1X17.74Y3.56
G1X17.48Y3.22
G1X17.21Y2.88
G1X16.96Y2.63
G1X16.73Y2.41
G1X16.62Y2.62
G1X16.53Y2.84
G1X16.45Y3.12
G1X16.39Y3.41
G1X16.37Y3.66
G1X16.35Y3.82
G1X16.32Y3.9
G1X16.28
G1X16.26
G1Y3.84
G1X16.19Y3.35
G1X16.12Y3
G1X16.04Y2.72
G1X16Y2.6
G1X15.96Y2.51
G1X15.91Y2.45
G1X15.87Y2.41
G1X15.83
G1X15.75Y2.45
G1X15.65Y2.52
G1X15.54Y2.61
G1X15.3Y2.84
G1X15.08Y3.08
G1X14.89Y3.36
G1X14.69Y3.71
G1X14.49Y4.11
G1X14.32Y4.52
G1X14.25Y4.69
G1X14.19Y4.83
G1X14.14Y4.93
G1X14.1Y4.97
G1X14.07Y4.95
G1X14.03Y4.88
G1X13.98Y4.76
G1X13.93Y4.62
G1X13.89Y4.48
G1X13.84Y4.37
G1X13.81Y4.29
G1X13.79Y4.26
G1X13.75Y4.29
G1X13.7Y4.38
G1X13.65Y4.51
G1X13.6Y4.67
G1X13.51Y5.03
G1X13.45Y5.35
G1X13.44Y5.5
G1X13.42Y5.63
G1X13.4Y5.7
G1X13.38Y5.73
G1X13.36Y5.69
G1X13.33Y5.63
G1X13.29Y5.53
G1X13.26Y5.41
G1X13.17Y5.11
G1X13.09Y4.76
G1X13Y4.38
G1X12.87Y4.63
G1X12.75Y4.89
G1X12.66Y5.17
G1X12.6Y5.46
G1X12.57Y5.92
G1X12.54Y6.01
G1X12.47Y5.99
G1X12.36Y5.9
G1X12.27Y5.79
G1X12.23Y5.7
G1X12.21Y5.67
G1X12.17Y5.66
G1X12.15Y5.68
G1X12.14Y5.76
G1Y5.87
G1Y6.02
G1X12.17Y6.34
G1X12.23Y6.64
G1X12.26Y6.75
G1X12.27Y6.83
G1Y6.88
G1X12.25Y6.91
G1X12.22
G1X12.18Y6.88
G1X12.11Y6.83
G1X12.03Y6.75
G1X11.74Y6.42
G1X11.48Y6.05
G1X11.36Y5.83
G1X11.24Y5.59
G1X11.12Y5.32
G1X10.99Y5.02
G1X10.91Y4.84
G1X10.84Y4.69
G1X10.79Y4.6
G1X10.76Y4.58
G1X10.73Y4.64
G1X10.71Y4.76
G1X10.68Y4.92
G1X10.66Y5.11
G1X10.65Y5.31
G1X10.64Y5.5
G1Y5.67
G1Y5.8
G1X10.69Y6.08
G1X10.78Y6.49
G1X10.79Y6.59
G1X10.8Y6.67
G1Y6.7
G1X10.76
G1X10.7Y6.65
G1X10.61Y6.58
G1X10.51Y6.48
G1X10.4Y6.39
G1X10.32Y6.31
G1X10.25Y6.25
G1X10.23Y6.23
G1X10.21Y6.27
G1Y6.35
G1X10.2Y6.44
G1X10.16Y6.47
G1X10.12Y6.45
G1X10.04Y6.39
G1X9.93Y6.3
G1X9.8Y6.2
G1X9.49Y5.92
G1X9.52Y6.16
G1X9.55Y6.36
G1X9.63Y6.61
G1X9.72Y6.88
G1X9.83Y7.16
G1X9.85Y7.22
G1Y7.24
G1X9.82
G1X9.77Y7.21
G1X9.7Y7.15
G1X9.62Y7.06
G1X9.51Y6.95
G1X9.22Y6.64
G1X9.1Y6.51
G1X9Y6.42
G1X8.97Y6.39
G1Y6.45
G1Y6.57
G1X9Y6.75
G1X9.03Y6.96
G1X9.11Y7.41
G1X9.2Y7.78
G1X9.25Y7.93
G1X9.32Y8.11
G1X9.41Y8.32
G1X9.51Y8.53
G1X9.73Y8.96
G1X9.93Y9.31
G1X10Y9.41
G1X10.03Y9.48
G1X10.02Y9.5
G1X9.97Y9.51
G1X9.91Y9.5
G1X9.82Y9.46
G1X9.71Y9.41
G1X9.59Y9.34
G1X9.3Y9.18
G1Y9.42
G1Y9.51
G1X9.29Y9.58
G1X9.27Y9.64
G1X9.26Y9.65
G1X9.22Y9.63
G1X9.14Y9.56
G1X9.03Y9.46
G1X8.9Y9.34
G1X8.63Y9.06
G1X8.33Y8.72
G1X8.27Y8.66
G1X8.23Y8.62
G1X8.21
G1Y8.66
G1X8.24Y8.76
G1X8.29Y8.9
G1X8.36Y9.07
G1X8.52Y9.42
G1X8.69Y9.72
G1X8.81Y9.92
G1X8.88Y10.05
G1X8.9Y10.12
G1X8.87Y10.14
G1X8.82Y10.12
G1X8.72Y10.07
G1X8.57Y10
G1X8.06Y9.77
G1X7.96Y9.72
G1X7.91Y9.7
G1Y9.75
G1X7.93Y9.86
G1X7.98Y10.01
G1X8.05Y10.17
G1X8.11Y10.33
G1X8.12Y10.41
G1X8.09
G1X8.03Y10.39
G1X7.95Y10.35
G1X7.85Y10.28
G1X7.61Y10.09
G1X7.34Y9.85
G1X7.05Y9.54
G1X6.76Y9.18
G1X6.48Y8.76
G1X6.22Y8.31
G1X6Y7.9
G1X5.98Y8.12
G1Y8.3
G1X6Y8.49
G1X6.04Y8.7
G1X6.1Y8.93
G1X6.27Y9.42
G1X6.52Y9.96
G1Y9.98
G1X6.49
G1X6.44
G1X6.38Y9.97
G1X6.22Y9.9
G1X6.05Y9.82
G1X5.86Y9.69
G1X5.89Y9.88
G1X5.95Y10.1
G1X6.05Y10.36
G1X6.1Y10.48
G1X6.14Y10.58
G1X6.16Y10.66
G1X6.17Y10.71
G1X6.15Y10.74
G1X6.07
G1X5.95Y10.71
G1X5.72Y10.64
G1X5.69
G1Y10.67
G1Y10.73
G1X5.77Y10.92
G1X5.89Y11.15
G1X6.04Y11.39
G1X6.21Y11.64
G1X6.39Y11.88
G1X6.58Y12.11
G1X6.77Y12.31
G1X6.94Y12.47
G1X7.02Y12.54
G1X7.08Y12.6
G1X7.11Y12.65
G1Y12.67
G1X7.07Y12.69
G1X7Y12.68
G1X6.9Y12.65
G1X6.78Y12.61
G1X6.5Y12.5
G1X6.22Y12.36
G1X6.09Y12.29
G1X5.99Y12.23
G1X5.91Y12.19
G1X5.88
G1Y12.22
G1X5.91Y12.29
G1X5.96Y12.39
G1X6.03Y12.51
G1X6.21Y12.77
G1X6.41Y13.01
G1X6.51Y13.13
G1X6.59Y13.24
G1X6.65Y13.32
G1Y13.35
G1X6.62Y13.36
G1X6.54
G1X6.44Y13.35
G1X6.19Y13.31
G1X6.09Y13.29
G1X6.01
G1X5.98
G1Y13.32
G1Y13.39
G1X6.01Y13.47
G1X6.05Y13.57
G1X6.16Y13.78
G1X6.27Y13.97
G1X6.33Y14.06
G1X6.38Y14.13
G1X6.41Y14.19
G1Y14.23
G1X6.39Y14.26
G1X6.29
G1X6.18Y14.22
G1X6.03Y14.17
G1X5.86Y14.11
G1X5.68Y14.05
G1X5.5Y13.98
G1X5.35Y13.92
G1X5.23Y13.87
G1X5.17Y13.83
G1X5.13Y13.81
G1X5.11
G1Y13.82
G1X5.13Y13.87
G1X5.22Y14.04
G1X5.36Y14.27
G1X5.54Y14.53
G1X5.73Y14.76
G1X5.84Y14.89
G1X5.92Y14.99
G1X5.96Y15.06
G1Y15.09
G1X5.93
G1X5.86Y15.08
G1X5.75Y15.03
G1X5.59Y14.96
G1X5.33Y14.83
G1X5.03Y14.64
G1X4.7Y14.41
G1X4.32Y14.13
G1X4.27Y14.09
G1X4.23
G1X4.21
G1Y14.13
G1Y14.19
G1X4.24Y14.28
G1X4.28Y14.39
G1X4.31Y14.51
G1Y14.58
G1Y14.61
G1X4.28
G1X4.23Y14.56
G1X4.16Y14.48
G1X4.08Y14.36
G1X3.98Y14.2
G1X3.66Y13.62
G1X3.42Y13.08
G1X3.23Y12.53
G1X3.1Y11.92
G1X3.03Y11.56
G1X3.01Y11.44
G1Y11.35
G1Y11.26
G1X3.04Y11.25
G1X3.06Y11.27
G1X3.1Y11.34
G1X3.14Y11.44
G1X3.19Y11.57
G1X3.43Y12.15
G1X3.73Y12.71
G1X3.9Y12.97
G1X4.06Y13.2
G1X4.23Y13.4
G1X4.38Y13.56
G1X4.46Y13.62
G1X4.49Y13.64
G1X4.5Y13.63
G1X4.49Y13.58
G1X4.33Y13.06
G1X4.25Y12.59
G1X4.27Y12.46
G1X4.29Y12.41
G1X4.34Y12.42
G1X4.39Y12.51
G1X4.51Y12.68
G1X4.69Y12.88
G1X4.9Y13.06
G1X5.1Y13.19
G1X5.19Y13.24
G1X5.27Y13.28
G1X5.32Y13.3
G1X5.35
G1Y13.27
G1Y13.2
G1X5.32Y13.1
G1X5.26Y12.85
G1X5.24Y12.75
G1X5.22Y12.68
G1Y12.64
G1X5.26Y12.6
G1X5.34Y12.62
G1X5.43
G1X5.46Y12.61
G1X5.43Y12.55
G1X5.16Y12.04
G1X4.87Y11.48
G1X4.63Y10.97
G1X4.45Y10.49
G1X4.31Y10.03
G1X4.25Y9.84
G1X4.21Y9.67
G1X4.18Y9.54
G1X4.16Y9.43
G1Y9.36
G1Y9.31
G1X4.18Y9.28
G1X4.2Y9.27
G1X4.24Y9.29
G1X4.28Y9.41
G1X4.34Y9.55
G1X4.43Y9.73
G1X4.54Y9.94
G1X4.66Y10.15
G1X4.77Y10.34
G1X4.86Y10.5
G1X4.93Y10.59
G1X5.06Y10.74
G1X4.96Y10.49
G1X4.88Y10.23
G1X4.82Y9.95
G1X4.8Y9.82
G1X4.79Y9.71
G1Y9.63
G1X4.8Y9.59
G1X4.86Y9.6
G1X4.94Y9.69
G1X5.04Y9.83
G1X5.16Y9.96
G1X5.26Y10.05
G1X5.33Y10.09
G1X5.36Y10.03
G1X5.35Y9.88
G1X5.29Y9.51
G1X5.24Y9.16
G1X5.21Y8.84
G1X5.18Y8.55
G1Y8.31
G1Y8.1
G1Y7.95
G1X5.21Y7.85
G1X5.24Y7.79
G1X5.27Y7.81
G1X5.29Y7.86
G1X5.32Y7.94
G1X5.42Y8.25
G1X5.47Y8.41
G1X5.52Y8.53
G1X5.55Y8.59
G1X5.58Y8.61
G1X5.6Y8.58
G1Y8.51
G1Y8.38
G1X5.59Y8.2
G1X5.55Y7.35
G1X5.57Y6.43
G1X5.6Y5.99
G1X5.65Y5.58
G1X5.71Y5.22
G1X5.77Y4.92
G1X5.8Y4.83
G1X5.83Y4.78
G1X5.85Y4.75
M5
G0X14.02Y10.64
M3 S30
; Layer C00
G1X13.95Y10.68
G1X13.91Y10.72
G1X13.89Y10.76
G1X13.87Y10.87
G1X13.8Y10.96
G1X13.71Y11.02
G1X13.62
G1X13.56
G1X13.52
G1X13.49Y11.06
G1X13.47Y11.12
G1X13.42Y11.23
G1X13.35Y11.32
G1X13.27Y11.44
G1X13.2Y11.6
G1X13.17Y11.72
G1Y11.79
G1X13.21Y11.86
G1X13.37Y12.04
G1X13.42Y12.11
G1X13.43Y12.17
G1Y12.25
G1X13.41Y12.33
G1Y12.38
G1X13.44Y12.4
G1X13.5
G1X13.56Y12.41
G1X13.66Y12.45
G1X13.79Y12.5
G1X13.95Y12.58
G1X14.33Y12.78
G1X14.78Y13.05
G1X14.98Y13.17
G1X15.15Y13.27
G1X15.27Y13.33
G1X15.33Y13.36
G1X15.44Y13.34
G1X15.63Y13.29
G1X15.85Y13.24
G1X16.06Y13.22
G1X16.26Y13.24
G1X16.49Y13.3
G1X16.75Y13.38
G1X17.25Y13.07
G1X17.73Y12.78
G1X18.15Y12.55
G1X18.33Y12.46
G1X18.49Y12.39
G1X18.61Y12.34
G1X18.71Y12.31
G1X18.79Y12.29
G1X18.83Y12.26
G1X18.85Y12.22
G1Y12.15
G1X18.86Y12.03
G1X18.95Y11.94
G1X19.02Y11.89
G1X19.05Y11.83
G1X19.04Y11.76
G1X19Y11.63
G1X18.91Y11.4
G1X18.79Y11.16
G1X18.72Y11.03
G1X18.66Y10.96
G1X18.61Y10.93
G1X18.36Y10.97
G1X18.22Y10.93
G1X18.08Y10.82
G1X17.92Y10.63
G1X17.86Y10.57
G1X17.74Y10.55
G1X17.65
G1X17.52Y10.57
G1X17.36Y10.59
G1X17.15Y10.63
G1X17.06Y10.61
G1X16.98Y10.51
G1X16.94Y10.45
G1X16.91Y10.41
G1X16.86Y10.4
G1X16.81
G1X16.72
G1X16.64Y10.38
G1X16.6Y10.36
G1X16.55
G1X16.48Y10.4
G1X16.38Y10.47
G1X16.23Y10.57
G1X16.11Y10.61
G1X15.99Y10.58
G1X15.84Y10.5
G1X15.65Y10.37
G1X15.51Y10.5
G1X15.41Y10.58
G1X15.34Y10.61
G1X15.27Y10.59
G1X15.17Y10.52
G1X15.06Y10.46
G1X14.96Y10.43
G1X14.88Y10.44
G1X14.85Y10.49
G1X14.82Y10.56
G1X14.75Y10.64
G1X14.69Y10.69
G1X14.64Y10.71
G1X14.58Y10.68
G1X14.4Y10.56
G1X14.33Y10.54
G1X14.25Y10.55
G1X14.12Y10.6
G1X14.02Y10.64
M5
G0X13.44Y10.2
M3 S30
; Layer C00
G1Y10.05
G1Y9.98
G1X13.46Y9.93
G1X13.5Y9.9
G1X13.63Y9.85
G1X13.67Y9.81
G1X13.69Y9.72
G1Y9.44
G1X13.71Y9.36
G1X13.73Y9.33
G1X13.77
G1X13.92Y9.4
G1X13.96
G1X13.98Y9.35
G1Y9.23
G1X13.95Y8.85
G1Y8.71
G1Y8.63
G1X13.97Y8.6
G1X14.01Y8.62
G1X14.08Y8.69
G1X14.16Y8.79
G1X14.26Y8.91
G1X14.41Y9.09
G1X14.51Y9.19
G1X14.58Y9.22
G1X14.6Y9.17
G1X14.63Y9.12
G1X14.69Y9.14
G1X14.79Y9.22
G1X14.89Y9.35
G1X15.05Y9.58
G1X15.16Y9.4
G1X15.24Y9.27
G1X15.3Y9.22
G1X15.33Y9.24
G1X15.36Y9.29
G1X15.41Y9.37
G1X15.53Y9.61
G1X15.58Y9.67
G1X15.61
G1X15.73Y9.54
G1X15.79Y9.52
G1X15.84Y9.53
G1X15.98Y9.63
G1X16.02Y9.64
G1X16.07Y9.62
G1X16.21Y9.5
G1X16.26Y9.47
G1X16.3Y9.49
G1X16.36Y9.53
G1X16.42Y9.57
G1X16.47Y9.56
G1X16.5Y9.52
G1X16.53Y9.47
G1X16.58Y9.4
G1X16.64Y9.29
G1X16.72Y9.17
G1X16.78Y9.08
G1X16.83Y9.02
G1X16.86Y9
G1X16.89Y9.03
G1X16.92Y9.1
G1X16.96Y9.19
G1X17Y9.29
G1X17.04Y9.4
G1X17.09Y9.48
G1X17.13Y9.54
G1X17.16Y9.56
G1X17.25Y9.52
G1X17.37Y9.42
G1X17.44Y9.35
G1X17.5Y9.32
G1X17.54Y9.31
G1X17.59Y9.32
G1X17.64Y9.33
G1X17.71Y9.3
G1X17.79Y9.21
G1X17.92Y9.05
G1X18.22Y8.65
G1X18.27Y8.6
G1X18.3
G1X18.31Y8.64
G1X18.33Y8.73
G1X18.36Y8.87
G1X18.44Y9.48
G1X18.47Y9.62
G1X18.49Y9.71
G1X18.54Y9.79
G1X18.69Y9.82
G1X18.74Y9.85
G1X18.76Y9.89
G1X18.78Y9.96
G1X18.83Y10.07
G1X18.94Y10.16
G1X19.08Y10.25
G1X19.2Y10.38
G1X19.32Y10.52
G1X19.47Y10.38
G1X19.58Y10.28
G1X19.67Y10.24
G1X19.73
G1Y10.32
G1X19.68Y10.48
G1X19.64Y10.6
G1X19.62Y10.7
G1Y10.77
G1X19.64Y10.86
G1X19.72Y10.92
G1X19.82Y11.02
G1X19.85Y11.15
G1Y11.3
G1X20.32Y11.26
G1X20.53
G1X20.68
G1X20.78
G1X20.82Y11.28
G1Y11.32
G1X20.78Y11.37
G1X20.71Y11.43
G1X20.61Y11.5
G1X20.38Y11.65
G1X20.13Y11.78
G1X19.98Y11.86
G1X19.91Y11.94
G1X19.92Y12.03
G1X20.01Y12.15
G1X20.12Y12.26
G1X19.95Y12.42
G1X19.88Y12.5
G1X19.84Y12.56
G1X19.82Y12.61
G1Y12.65
G1X19.87Y12.71
G1X19.96Y12.83
G1X20.32Y13.3
G1X20.4Y13.41
G1X20.47Y13.51
G1X20.51Y13.58
G1X20.55Y13.67
G1X20.53Y13.7
G1X20.51
G1X20.41Y13.63
G1X20.12Y13.43
G1X19.88Y13.25
G1X19.62Y13.07
G1X19.39Y12.92
G1X19.21Y12.81
G1X19.1Y12.77
G1X18.91Y12.76
G1X18.68Y12.81
G1X18.4Y12.93
G1X18.06Y13.11
G1X17.58Y13.4
G1X17.13Y13.68
G1X16.93Y13.82
G1X16.75Y13.94
G1X16.6Y14.04
G1X16.48Y14.12
G1X16.32Y14.28
G1X16.19Y14.46
G1X16.1Y14.64
G1X16.05Y14.88
G1X16.01Y14.91
G1X15.98Y14.88
G1X15.96Y14.82
G1X15.95Y14.68
G1X15.91Y14.53
G1X15.83Y14.39
G1X15.72Y14.25
G1X15.58Y14.1
G1X15.39Y13.94
G1X15.16Y13.78
G1X14.89Y13.59
G1X14.51Y13.36
G1X14.17Y13.17
G1X13.86Y13.02
G1X13.58Y12.92
G1X13.34Y12.86
G1X13.12Y12.84
G1X12.93Y12.86
G1X12.75Y12.92
G1X12.64Y12.99
G1X12.47Y13.09
G1X12.28Y13.22
G1X11.9Y13.5
G1X11.74Y13.6
G1X11.62Y13.67
G1X11.57Y13.69
G1Y13.66
G1X11.61Y13.57
G1X11.69Y13.44
G1X11.93Y13.09
G1X12.01Y12.95
G1X12.04Y12.84
G1Y12.74
G1X12Y12.61
G1X11.94Y12.53
G1X11.89Y12.48
G1X11.88Y12.42
G1X11.91Y12.36
G1X11.98Y12.28
G1X12.05Y12.2
G1X12.06Y12.15
G1X12Y12.12
G1X11.87
G1X11.66
G1X11.78Y11.99
G1X11.84Y11.92
G1X11.87Y11.87
G1X11.86Y11.84
G1X11.64Y11.67
G1X11.47Y11.51
G1X11.39Y11.43
G1X11.33Y11.37
G1X11.28Y11.32
G1X11.27Y11.29
G1X11.32Y11.26
G1X11.46
G1X11.67Y11.29
G1X12.19Y11.35
G1X12.17Y11.22
G1Y11.14
G1X12.19Y11.06
G1X12.26Y10.98
G1X12.39Y10.89
G1X12.44Y10.85
G1X12.46Y10.81
G1Y10.77
G1X12.41Y10.67
G1Y10.63
G1X12.44Y10.59
G1X12.5Y10.54
G1X12.63Y10.49
G1X12.76
G1X12.84Y10.51
G1X12.87Y10.5
G1Y10.44
G1X12.86Y10.33
G1X12.82Y10.13
G1X13.44Y10.2
M5
G0X12.73Y13.65
M3 S30
; Layer C00
G1X12.77Y13.67
G1X12.78Y13.7
G1X12.77Y13.74
G1X12.73Y13.75
G1X12.7Y13.74
G1X12.68Y13.7
G1X12.7Y13.67
G1X12.73Y13.65
M5
G0X13.31Y13.82
M3 S30
; Layer C00
G1X13.37Y13.8
G1X13.42Y13.82
G1Y13.85
G1X13.4Y13.9
G1X13.35Y13.93
G1X13.31
G1X13.29Y13.88
G1X13.31Y13.82
M5
G0X13.74Y14.02
M3 S30
; Layer C00
G1X13.79Y14
G1X13.84Y14.02
G1X13.87Y14.05
G1Y14.09
G1X13.84Y14.12
G1X13.79Y14.14
G1X13.75Y14.12
G1X13.72Y14.09
G1Y14.05
G1X13.74Y14.02
M5
G0X13.6Y15.06
M3 S30
; Layer C00
G1X13.67Y15.07
G1X13.72Y15.11
G1X13.74Y15.17
G1Y15.22
G1X13.7Y15.24
G1X13.65Y15.23
G1X13.57Y15.18
G1X13.51Y15.12
G1X13.53Y15.08
G1X13.6Y15.06
M5
G0X14.01Y15.22
M3 S30
; Layer C00
G1X14.05Y15.21
G1X14.09Y15.23
G1X14.1Y15.27
G1X14.09Y15.31
G1X14.05Y15.33
G1X14.01
G1X13.99Y15.27
G1X14.01Y15.22
M5
G0X13.35Y15.92
M3 S30
; Layer C00
G1X13.38Y15.93
G1X13.39Y15.96
G1X13.37Y15.99
G1X13.34Y16.01
G1X13.3
G1Y15.97
G1X13.32Y15.93
G1X13.35Y15.92
M5
G0X12.98Y15.88
M3 S30
; Layer C00
G1Y15.93
G1X12.96Y15.95
G1X12.95Y15.96
G1X12.93
G1X12.91Y15.93
G1X12.89Y15.87
G1X12.9Y15.84
G1X12.94Y15.82
G1X12.97Y15.84
G1Y15.88
M5
G0X12.61Y15.76
M3 S30
; Layer C00
G1X12.59Y15.79
G1X12.54Y15.8
G1X12.5Y15.77
G1X12.49Y15.72
G1X12.5Y15.69
G1X12.54
G1X12.59Y15.71
G1X12.61Y15.76
M5
G0X12.2Y15.63
M3 S30
; Layer C00
G1X12.17Y15.66
G1X12.13Y15.68
G1X12.09Y15.67
G1X12.05Y15.63
G1Y15.59
G1X12.08Y15.56
G1X12.13Y15.55
G1X12.18
G1X12.2Y15.59
G1Y15.63
M5
G0X11.93Y16.06
M3 S30
; Layer C00
G1X11.96Y16.09
G1X11.98Y16.14
G1X11.96Y16.19
G1X11.93Y16.21
G1X11.89Y16.19
G1X11.87Y16.14
G1X11.89Y16.09
G1X11.93Y16.06
M5
G0X12.19Y16.28
M3 S30
; Layer C00
G1X12.23
G1X12.27Y16.32
G1Y16.38
G1Y16.43
G1X12.23Y16.45
G1X12.19Y16.44
G1X12.15Y16.4
G1X12.14Y16.35
G1X12.15Y16.3
G1X12.19Y16.28
M5
G0X12.49Y16.48
M3 S30
; Layer C00
G1X12.52Y16.46
G1X12.59
G1X12.68Y16.49
G1X12.72Y16.53
G1Y16.58
G1X12.64Y16.59
G1X12.57
G1X12.51Y16.56
G1X12.48Y16.52
G1Y16.48
M5
G0X13.56Y16.82
M3 S30
; Layer C00
G1X13.7Y16.6
G1X13.92Y16.38
G1X14.06Y16.25
G1X14.21Y16.15
G1X14.38Y16.08
G1X14.62Y16
G1X14.95Y15.89
G1X15.21Y15.77
G1X15.44Y15.63
G1X15.86Y15.3
G1X15.99Y15.23
G1X16.11
G1X16.25Y15.3
G1X16.37Y15.38
G1X16.42Y15.44
G1X16.45Y15.48
G1X16.53Y15.55
G1X16.65Y15.63
G1X16.81Y15.72
G1X17.16Y15.91
G1X17.73Y16.18
G1X17.93Y16.3
G1X18.11Y16.44
G1X18.27Y16.6
G1X18.4Y16.78
G1X18.5Y16.97
G1X18.57Y17.18
G1X18.62Y17.4
G1Y17.5
G1Y17.57
G1Y17.62
G1X18.6Y17.65
G1X18.53
G1X18.4Y17.56
G1X18.28Y17.49
G1X18.16Y17.47
G1X18.05Y17.49
G1X17.97Y17.55
G1X17.88Y17.64
G1X17.77Y17.72
G1X17.64Y17.77
G1X17.48
G1X17.28Y17.72
G1X17.01Y17.6
G1X16.74Y17.49
G1X16.49Y17.43
G1X16.4Y17.41
G1X16.33Y17.39
G1X16.29Y17.37
G1X16.28Y17.35
G1X16.35Y17.3
G1X16.51Y17.28
G1X16.71Y17.29
G1X16.93Y17.34
G1X17.15Y17.39
G1X17.31Y17.41
G1X17.4Y17.39
G1X17.42Y17.34
G1X17.36Y17.26
G1X17.24Y17.19
G1X17.06Y17.1
G1X16.9Y16.98
G1X16.77Y16.83
G1X16.66Y16.66
G1X16.58Y16.51
G1X16.48Y16.39
G1X16.39Y16.32
G1X16.33
G1X16.29Y16.39
G1X16.24Y16.51
G1X16.18Y16.63
G1X16.13Y16.67
G1X16.07Y16.63
G1X15.95Y16.44
G1X15.89Y16.38
G1X15.83Y16.36
G1X15.76Y16.38
G1X15.69Y16.43
G1X15.6Y16.51
G1X15.49Y16.64
G1X15.37Y16.81
G1X15.27Y16.92
G1X15.17Y17.02
G1X15.05Y17.09
G1X14.9Y17.16
G1X14.78Y17.22
G1X14.69Y17.27
G1X14.62Y17.3
G1X14.6Y17.33
G1X14.63Y17.38
G1X14.72Y17.4
G1X14.87Y17.39
G1X15.3Y17.29
G1X15.5Y17.27
G1X15.66Y17.28
G1X15.75Y17.33
G1X15.8Y17.39
G1Y17.43
G1X15.72Y17.45
G1X15.59
G1X15.34Y17.49
G1X15.04Y17.59
G1X14.88Y17.66
G1X14.75Y17.72
G1X14.64Y17.75
G1X14.55Y17.77
G1X14.4
G1X14.26Y17.7
G1X14.12Y17.6
G1X14.04Y17.49
G1X13.97Y17.4
G1X13.89Y17.37
G1X13.78Y17.42
G1X13.63Y17.55
G1X13.43Y17.73
G1X13.45Y17.37
G1X13.48Y17.07
G1X13.56Y16.82
M5
G0X14.09Y18.29
M3 S30
; Layer C00
G1X14.13Y18.31
G1X14.19Y18.35
G1X14.25Y18.4
G1X14.39Y18.55
G1X14.48Y18.72
G1X14.53Y18.91
G1X14.55Y19.15
G1Y19.28
G1X14.53Y19.38
G1X14.51Y19.43
G1X14.48Y19.44
G1X14.45Y19.41
G1X14.41Y19.34
G1X14.37Y19.23
G1X14.33Y19.07
G1X14.24Y18.76
G1X14.14Y18.51
G1X14.1Y18.43
G1X14.08Y18.37
G1X14.07Y18.32
G1Y18.3
G1X14.09
M5
G0X14.09Y20.26
M3 S30
; Layer C00
G1X14.14Y20.28
G1X14.18Y20.34
G1X14.32Y20.7
G1X14.44Y20.98
G1X14.56Y21.2
G1X14.66Y21.36
G1X14.76Y21.48
G1X14.81Y21.59
G1Y21.67
G1X14.82Y21.76
G1Y21.89
G1Y22.05
G1Y22.23
G1Y22.37
G1X14.8Y22.47
G1X14.78Y22.53
G1X14.75Y22.55
G1X14.71Y22.54
G1X14.66Y22.48
G1X14.6Y22.4
G1X14.42Y22.19
G1X14.21Y22.08
G1X14.11Y22.05
G1X14.01
G1X13.92Y22.08
G1X13.84Y22.14
G1X13.76Y22.27
G1X13.74Y22.44
G1X13.79Y22.63
G1X13.9Y22.83
G1X14.03Y23.08
G1X14.09Y23.35
G1Y23.62
G1X14Y23.86
G1X13.92Y23.99
G1X13.86Y24.07
G1X13.81Y24.1
G1X13.78Y24.08
G1X13.75Y24
G1X13.72Y23.86
G1X13.65Y23.67
G1X13.5Y23.48
G1X13.29Y23.29
G1X13.03Y23.12
G1X12.87Y23.01
G1X12.78Y22.94
G1X12.74Y22.86
G1Y22.76
G1X12.75Y22.56
G1X12.81Y22.37
G1X12.9Y22.18
G1X13.02Y22
G1X13.15Y21.83
G1X13.31Y21.69
G1X13.48Y21.57
G1X13.66Y21.49
G1X13.87Y21.44
G1X14.01Y21.41
G1X14.06Y21.4
G1X14.08Y21.33
G1Y21.26
G1Y21.16
G1X14.07Y20.83
G1X14.05Y20.56
G1Y20.39
G1X14.06Y20.29
G1X14.09Y20.26
M5
G0X14.92Y20.66
M3 S30
; Layer C00
G1X14.95Y20.64
G1X15.05Y20.63
G1X15.22
G1X15.44
G1X15.66
G1X15.98Y20.64
G1X16.05
G1X16.34
G1X16.72
G1X16.89
G1X17.04Y20.66
G1X17.14
G1X17.17Y20.68
G1X17.14Y20.71
G1X17.03Y20.76
G1X16.88Y20.83
G1X16.45Y21
G1X16.29Y21.08
G1X16.2Y21.15
G1X16.14Y21.25
G1X16.08Y21.36
G1X16.04Y21.41
G1X16Y21.36
G1X15.93Y21.24
G1X15.86Y21.14
G1X15.77Y21.06
G1X15.62Y20.98
G1X15.21Y20.81
G1X15.06Y20.74
G1X14.96Y20.69
G1X14.92Y20.66
M5
G0X13.17Y20.82
M3 S30
; Layer C00
G1X13.15Y20.78
G1X13.09Y20.73
G1X12.93Y20.66
G1X12.71Y20.64
G1X12.49Y20.66
G1X12.29Y20.74
G1X12.17Y20.84
G1X12.06Y20.97
G1X12Y21.1
G1Y21.2
G1X12.03Y21.26
G1X12.08
G1X12.14Y21.22
G1X12.2Y21.12
G1X12.35Y20.96
G1X12.55Y20.86
G1X12.78Y20.83
G1X12.99Y20.89
G1X13.09Y20.92
G1X13.15Y20.88
G1X13.18Y20.85
G1Y20.82
M5
G0X12.79Y21.08
M3 S30
; Layer C00
G1X12.75Y21.09
G1X12.74Y21.13
G1X12.75Y21.2
G1X12.77Y21.24
G1X12.79Y21.25
G1X12.82
G1X12.85Y21.23
G1X12.88Y21.17
G1X12.84Y21.11
G1X12.79Y21.08
M5
G0X13.28Y21.26
M3 S30
; Layer C00
G1X13.17Y21.43
G1X13.1Y21.51
G1X12.99Y21.6
G1X12.86Y21.67
G1X12.72Y21.71
G1X12.56Y21.74
G1X12.38
G1X12.17
G1X11.94Y21.7
G1X11.67Y21.65
G1X11.26Y21.59
G1X10.93Y21.56
G1X10.74Y21.55
G1X10.64Y21.52
G1Y21.47
G1X10.66Y21.39
G1X10.69Y21.27
G1X10.83Y20.84
G1X10.89Y20.61
G1X10.9Y20.5
G1Y20.43
G1X10.85Y20.39
G1X10.76Y20.35
G1X10.66Y20.32
G1X10.56
G1X10.48Y20.36
G1X10.39Y20.45
G1X10.3Y20.6
G1X10.2Y20.8
G1X10.08Y21.08
G1X9.82Y21.73
G1X9.72Y21.96
G1X9.64Y22.12
G1X9.58Y22.23
G1X9.54Y22.27
G1X9.52Y22.25
G1Y22.17
G1Y22.03
G1X9.58Y21.43
G1X9.62Y20.88
G1Y20.65
G1Y20.46
G1Y20.31
G1X9.61Y20.22
G1X9.57Y20.11
G1X9.51Y20.03
G1X9.4Y19.97
G1X9.1Y19.83
G1X8.99Y19.78
G1X8.92Y19.74
G1X8.9Y19.72
G1X8.92Y19.7
G1X9Y19.69
G1X9.11Y19.68
G1X9.69Y19.66
G1X10.05Y19.63
G1X10.2Y19.61
G1X10.31Y19.58
G1X10.4Y19.55
G1X10.45Y19.52
G1X10.49Y19.47
G1X10.5Y19.41
G1X10.47Y19.32
G1X10.39Y19.16
G1X10.24Y18.89
G1X10.39Y18.62
G1X10.48Y18.49
G1X10.56Y18.38
G1X10.66Y18.3
G1X10.78Y18.23
G1X10.93Y18.15
G1X11Y18.07
G1Y17.98
G1X10.94Y17.83
G1X10.89Y17.73
G1X10.84Y17.68
G1X10.77Y17.67
G1X10.64Y17.68
G1X10.4Y17.69
G1X10.2Y17.64
G1X10.02Y17.51
G1X9.84Y17.3
G1X9.72Y17.14
G1X9.63Y17.05
G1X9.55Y17.01
G1X9.45
G1X9.29
G1X9.16Y17.04
G1X9.08Y17.06
G1X9.05Y17.04
G1X9.08Y16.98
G1X9.18Y16.86
G1X9.32Y16.68
G1X9.71Y16.21
G1X9.87Y16
G1X9.98Y15.84
G1X10.04Y15.73
G1Y15.67
G1X10.01Y15.64
G1X9.92
G1X9.63Y15.7
G1X9.55
G1Y15.67
G1X9.6Y15.63
G1X9.66Y15.57
G1X9.75Y15.49
G1X9.97Y15.33
G1X10.21Y15.18
G1X10.48Y15.04
G1X10.79Y14.92
G1X10.94Y14.87
G1X11.06Y14.84
G1X11.15Y14.82
G1X11.2
G1Y14.86
G1X11.14Y14.92
G1X11.06Y15
G1X10.96Y15.1
G1X10.75Y15.3
G1X10.57Y15.55
G1X10.41Y15.85
G1X10.26Y16.2
G1X10.19Y16.45
G1X10.17Y16.67
G1X10.2Y16.84
G1X10.28Y16.96
G1X10.39Y17.02
G1X10.54
G1X10.72Y16.95
G1X10.91Y16.81
G1X11.11Y16.61
G1X11.25Y16.43
G1X11.31Y16.32
G1X11.37Y16.27
G1X11.41Y16.25
G1X11.43Y16.29
G1Y16.36
G1Y16.47
G1X11.41Y16.61
G1X11.37Y16.79
G1X11.33Y16.98
G1Y17.15
G1X11.4Y17.34
G1X11.61Y17.76
G1X11.67Y17.91
G1X11.71Y18.04
G1X11.72Y18.15
G1X11.74Y18.3
G1X11.78Y18.43
G1X11.86Y18.54
G1X12.03Y18.71
G1X12.06Y18.76
G1Y18.81
G1Y18.85
G1X11.95Y18.91
G1X11.75Y18.95
G1X11.62
G1X11.51Y18.93
G1X11.42Y18.89
G1X11.31Y18.81
G1X11.19Y18.72
G1X11.12Y18.68
G1X11.08Y18.69
G1X11.03Y18.74
G1X10.99Y18.82
G1X10.98Y18.88
G1X11.02Y18.93
G1X11.11Y19.03
G1X11.25Y19.16
G1X11.41Y19.32
G1X11.55Y19.44
G1X11.66Y19.53
G1X11.74Y19.6
G1X11.81Y19.65
G1X11.93Y19.69
G1X12.07
G1X12.28Y19.67
G1X12.47Y19.61
G1X12.61Y19.56
G1X12.71Y19.54
G1X12.74Y19.57
G1Y19.61
G1X12.69Y19.68
G1X12.61Y19.76
G1X12.4Y19.92
G1X12.15Y20.06
G1X11.9Y20.19
G1X11.71Y20.34
G1X11.54Y20.5
G1X11.41Y20.71
G1X11.37Y20.8
G1X11.35Y20.87
G1Y20.92
G1X11.37Y20.96
G1X11.43Y21.01
G1X11.48
G1X11.53Y20.97
G1X11.59Y20.86
G1X11.8Y20.59
G1X12.09Y20.37
G1X12.41Y20.22
G1X12.72Y20.16
G1X12.94
G1X13.16Y19.7
G1X13.25Y19.52
G1X13.33Y19.38
G1X13.4Y19.28
G1X13.44Y19.24
G1X13.48Y19.27
G1Y19.35
G1X13.46Y19.43
G1X13.44Y19.55
G1X13.42Y19.7
G1X13.41Y19.87
G1X13.37Y20.27
G1X13.77Y20.06
G1X13.85Y20.02
G1X13.89
G1Y20.06
G1X13.86Y20.15
G1X13.79Y20.32
G1X13.68Y20.54
G1X13.54Y20.79
G1X13.41Y21.04
G1X13.28Y21.26
M5
G0X15.06Y22.05
M3 S30
; Layer C00
G1X15.26Y21.92
G1X15.44Y21.82
G1X15.61Y21.77
G1X15.76
G1X16.02Y21.86
G1X16.12Y21.84
G1X16.22Y21.81
G1X16.35
G1X16.49Y21.83
G1X16.63Y21.88
G1X16.82Y21.98
G1X16.92Y22.09
G1X16.95Y22.16
G1X16.96Y22.26
G1Y22.38
G1X16.97Y22.54
G1Y22.79
G1X16.94Y22.95
G1X16.89Y23.08
G1X16.71Y23.38
G1X16.66Y23.49
G1Y23.63
G1X16.68Y23.85
G1X16.76Y24.35
G1X16.89Y24.82
G1X17.06Y25.25
G1X17.27Y25.63
G1X17.51Y25.96
G1X17.77Y26.22
G1X18.06Y26.41
G1X18.36Y26.52
G1X18.52
G1X18.68Y26.48
G1X18.82Y26.38
G1X18.94Y26.23
G1X19Y26.15
G1X19.05Y26.1
G1X19.1Y26.06
G1X19.14
G1X19.29Y26.09
G1X19.33Y26.08
G1X19.41Y26.02
G1X19.5Y25.93
G1X19.6Y25.82
G1X19.7Y25.71
G1X19.78Y25.63
G1X19.84Y25.57
G1X19.9Y25.54
G1X19.98Y25.53
G1X20.02Y25.61
G1X20.09Y25.76
G1X20.19Y25.98
G1X20.32Y26.25
G1X20.4Y26.14
G1X20.45Y26.08
G1X20.5Y26.05
G1X20.56Y26.07
G1X20.65Y26.11
G1X20.81Y26.19
G1Y25.87
G1Y25.75
G1Y25.65
G1X20.83Y25.57
G1X20.85Y25.54
G1X20.87
G1X20.93Y25.55
G1X21.01Y25.57
G1X21.11Y25.6
G1X21.37Y25.69
G1X21.97Y25.91
G1X22.23Y26
G1X22.45Y26.06
G1X22.63Y26.11
G1X22.78Y26.13
G1X22.89
G1X22.98Y26.1
G1X23.05Y26.06
G1X23.09Y26
G1Y25.95
G1X23.05Y25.91
G1X22.95Y25.89
G1X22.9Y25.87
G1X22.87Y25.83
G1Y25.77
G1Y25.52
G1X22.86Y25.46
G1X22.79Y25.48
G1X22.56Y25.57
G1X22.49Y25.59
G1X22.45
G1X22.42
G1Y25.55
G1X22.43Y25.5
G1X22.47Y25.43
G1X22.52Y25.33
G1X22.79Y24.88
G1X23.12Y24.48
G1X23.49Y24.14
G1X23.88Y23.87
G1X24.34Y23.67
G1X24.83Y23.52
G1X25.05Y23.48
G1X25.23Y23.46
G1X25.35
G1X25.4Y23.51
G1X25.38Y23.56
G1X25.34Y23.58
G1X25.27Y23.6
G1X25.15Y23.65
G1X24.99Y23.72
G1X24.8Y23.81
G1X24.39Y24.03
G1X24.05Y24.29
G1X23.78Y24.58
G1X23.57Y24.93
G1X23.49Y25.07
G1X23.44Y25.18
G1X23.41Y25.27
G1X23.4Y25.3
G1X23.47
G1X23.63Y25.24
G1X23.78Y25.19
G1X23.86
G1Y25.22
G1X23.85Y25.3
G1X23.81Y25.42
G1X23.76Y25.55
G1X23.64Y25.89
G1X23.82
G1X24.04Y25.87
G1X24.28Y25.83
G1X24.39Y25.8
G1X24.47Y25.79
G1X24.51
G1X24.52Y25.81
G1X24.5Y25.85
G1X24.45Y25.9
G1X24.36Y25.96
G1X24.23Y26.05
G1X23.98Y26.2
G1X23.71Y26.34
G1X23.42Y26.47
G1X23.14Y26.57
G1X22.86Y26.67
G1X22.16Y26.47
G1X21.88Y26.4
G1X21.64Y26.34
G1X21.47Y26.3
G1X21.39Y26.28
G1X21.35Y26.29
G1X21.33Y26.34
G1X21.31Y26.44
G1Y26.72
G1X21.3Y26.82
G1X21.28Y26.89
G1X21.25Y26.93
G1X21.2Y26.94
G1X21.15
G1X21.08Y26.9
G1X20.86Y26.75
G1X20.79Y26.71
G1X20.77Y26.74
G1X20.75Y26.8
G1X20.71Y26.89
G1X20.64Y27.12
G1X20.61Y27.21
G1X20.58Y27.27
G1X20.55Y27.29
G1X20.51Y27.26
G1X20.44Y27.16
G1X20.33Y27.01
G1X20.08Y26.66
G1X19.97Y26.51
G1X19.89Y26.41
G1X19.85Y26.38
G1X19.83Y26.4
G1X19.78Y26.45
G1X19.72Y26.53
G1X19.53Y26.77
G1X19.44Y26.84
G1X19.37
G1X19.29Y26.79
G1X19.24Y26.75
G1X19.18Y26.76
G1X19.08Y26.83
G1X18.81Y27.04
G1X18.73Y27.11
G1X18.65Y27.15
G1X18.58Y27.16
G1X18.51
G1X18.43Y27.14
G1X18.32Y27.09
G1X18.18Y27.03
G1X17.82Y26.82
G1X17.48Y26.56
G1X17.18Y26.25
G1X16.91Y25.91
G1X16.68Y25.52
G1X16.49Y25.1
G1X16.34Y24.64
G1X16.24Y24.16
G1X16.2Y23.92
G1X16.18Y23.72
G1X16.17Y23.57
G1Y23.44
G1X16.22Y23.24
G1X16.34Y23.07
G1X16.47Y22.87
G1X16.52Y22.71
G1Y22.63
G1X16.5Y22.59
G1X16.45
G1X16.38Y22.6
G1X16.04Y22.64
G1X15.67Y22.61
G1X15.58Y22.59
G1X15.53
G1X15.51Y22.63
G1Y22.7
G1X15.56Y22.86
G1X15.69Y23.06
G1X15.88Y23.3
G1X15.82Y23.81
G1X15.77Y24.17
G1X15.7Y24.51
G1X15.61Y24.83
G1X15.5Y25.14
G1X15.37Y25.43
G1X15.22Y25.71
G1X15.05Y25.97
G1X14.85Y26.22
G1X14.52Y26.54
G1X14.12Y26.84
G1X13.92Y26.96
G1X13.73Y27.06
G1X13.56Y27.12
G1X13.43Y27.15
G1X13.38Y27.13
G1X13.3Y27.08
G1X13.2Y27.01
G1X12.93Y26.79
G1X12.82Y26.73
G1X12.75
G1X12.68Y26.79
G1X12.63Y26.84
G1X12.59Y26.86
G1X12.56Y26.84
G1X12.51Y26.78
G1X12.44Y26.69
G1X12.28Y26.49
G1X12.17Y26.35
G1X12.15Y26.33
G1X12.12Y26.37
G1X12.05Y26.47
G1X11.69Y27
G1X11.58Y27.15
G1X11.5Y27.25
G1X11.46Y27.29
G1X11.45Y27.27
G1X11.42Y27.21
G1X11.38Y27.12
G1X11.35Y27
G1X11.31Y26.89
G1X11.28Y26.8
G1X11.25Y26.74
G1X11.23Y26.71
G1X11.15Y26.75
G1X11Y26.84
G1X10.85Y26.92
G1X10.78Y26.93
G1X10.76Y26.9
G1X10.74Y26.82
G1X10.73Y26.71
G1X10.7Y26.47
G1X10.68Y26.36
G1X10.66Y26.29
G1Y26.25
G1X10.59Y26.26
G1X10.44Y26.29
G1X10.21Y26.35
G1X9.67Y26.5
G1X9.43Y26.56
G1X9.25Y26.6
G1X9.16Y26.62
G1X9.09Y26.61
G1X8.98Y26.58
G1X8.84Y26.53
G1X8.68Y26.48
G1X8.38Y26.36
G1X8.15Y26.25
G1X7.94Y26.12
G1X7.77Y26.01
G1X7.64Y25.92
G1X7.55Y25.85
G1X7.5Y25.8
G1Y25.77
G1X7.54Y25.76
G1X7.62Y25.77
G1X7.86Y25.82
G1X8.08Y25.86
G1X8.25Y25.88
G1X8.33
G1Y25.83
G1X8.32Y25.75
G1X8.29Y25.64
G1X8.2Y25.37
G1X8.17Y25.26
G1X8.16Y25.18
G1Y25.14
G1X8.24Y25.15
G1X8.55Y25.29
G1X8.63Y25.3
G1Y25.26
G1X8.59Y25.18
G1X8.54Y25.07
G1X8.47Y24.93
G1X8.21Y24.53
G1X7.88Y24.19
G1X7.69Y24.04
G1X7.47Y23.91
G1X7.24Y23.79
G1X6.98Y23.68
G1X6.76Y23.58
G1X6.63Y23.5
G1X6.6Y23.47
G1Y23.45
G1X6.65Y23.44
G1X6.75
G1X7Y23.46
G1X7.26Y23.5
G1X7.52Y23.58
G1X7.79Y23.69
G1X8.05Y23.81
G1X8.31Y23.96
G1X8.54Y24.12
G1X8.75Y24.3
G1X9.04Y24.63
G1X9.34Y25.04
G1X9.46Y25.23
G1X9.55Y25.39
G1X9.61Y25.51
G1Y25.57
G1X9.53
G1X9.41Y25.54
G1X9.27Y25.47
G1X9.19
G1X9.16Y25.52
G1X9.17Y25.65
G1X9.19Y25.76
G1Y25.82
G1X9.14Y25.85
G1X9.05Y25.87
G1X8.96Y25.9
G1X8.91Y25.93
G1X8.9Y25.97
G1X8.92Y26
G1X8.97Y26.03
G1X9.04Y26.06
G1X9.14Y26.08
G1X9.27
G1X9.42
G1X9.63Y26.02
G1X9.76Y25.98
G1X9.91Y25.93
G1X10.08Y25.87
G1X10.58Y25.69
G1X10.94Y25.56
G1X11.07Y25.51
G1X11.1
G1X11.15Y25.54
G1X11.19Y25.62
G1X11.21Y25.76
G1X11.22Y26.06
G1X11.25Y26.12
G1X11.31
G1X11.47Y26.02
G1X11.51
G1X11.55Y26.05
G1X11.6Y26.11
G1X11.69Y26.24
G1X12.08Y25.44
G1X12.22Y25.58
G1X12.36Y25.74
G1X12.61Y26.02
G1X12.67Y26.07
G1X12.72
G1X12.79Y26.04
G1X12.85Y26.01
G1X12.89
G1X12.93Y26.02
G1X12.96Y26.07
G1X13.05Y26.18
G1X13.19Y26.34
G1X13.35Y26.46
G1X13.5Y26.52
G1X13.68Y26.5
G1X13.92Y26.41
G1X14.18Y26.25
G1X14.43Y26.02
G1X14.66Y25.74
G1X14.86Y25.41
G1X15.04Y25.04
G1X15.18Y24.64
G1X15.28Y24.21
G1X15.34Y23.77
G1X15.35Y23.56
G1Y23.43
G1X15.29Y23.31
G1X15.1Y23.02
G1X15.05Y22.9
G1Y22.83
G1X15.04Y22.74
G1Y22.63
G1X15.06Y22.05
M5
G0X17.2Y22.04
M3 S30
; Layer C00
G1Y21.88
G1Y21.76
G1Y21.67
G1X17.22Y21.59
G1X17.25Y21.49
G1X17.31Y21.41
G1X17.42Y21.27
G1X17.54Y21.06
G1X17.66Y20.81
G1X17.8Y20.42
G1X17.84Y20.33
G1X17.88Y20.28
G1X17.92Y20.26
G1X17.95Y20.28
G1X17.97Y20.37
G1Y20.44
G1Y20.54
G1Y20.66
G1X17.92Y21.39
G1X18.19Y21.45
G1X18.42Y21.52
G1X18.63Y21.62
G1X18.81Y21.75
G1X18.96Y21.91
G1X19.08Y22.1
G1X19.19Y22.34
G1X19.26Y22.58
G1X19.29Y22.77
G1Y22.86
G1X19.24Y22.93
G1X19.16Y23.01
G1X19Y23.11
G1X18.71Y23.31
G1X18.5Y23.5
G1X18.36Y23.69
G1X18.3Y23.87
G1X18.27Y24.01
G1X18.23Y24.08
G1X18.18
G1X18.11Y24.01
G1X18.02Y23.88
G1X17.95Y23.68
G1X17.92Y23.46
G1X17.94Y23.25
G1X18.01Y23.03
G1X18.21Y22.67
G1X18.26Y22.53
G1X18.28Y22.4
G1X18.27Y22.29
G1X18.23Y22.19
G1X18.17Y22.11
G1X18.08Y22.06
G1X17.97Y22.04
G1X17.83Y22.07
G1X17.67Y22.15
G1X17.53Y22.27
G1X17.42Y22.4
G1X17.36Y22.49
G1X17.31Y22.54
G1X17.27Y22.55
G1X17.24Y22.53
G1X17.22Y22.47
G1X17.21Y22.37
G1Y22.22
G1X17.2Y22.04
M5
G0X19.22Y21.17
M3 S30
; Layer C00
G1X19.26Y21.2
G1X19.3Y21.18
G1X19.33Y21.13
G1X19.32Y21.08
G1X19.28Y21.05
G1X19.23Y21.07
G1X19.21Y21.12
G1Y21.17
M5
G0X18.95Y20.87
M3 S30
; Layer C00
G1X19.14Y20.83
G1X19.3Y20.8
G1X19.48
G1X19.65Y20.87
G1X19.79Y20.97
G1X19.89Y21.1
G1X19.95Y21.18
G1X20.03Y21.19
G1X20.07Y21.15
G1Y21.06
G1X19.97Y20.86
G1X19.81Y20.72
G1X19.61Y20.63
G1X19.38Y20.59
G1X19.18Y20.61
G1X19.02Y20.65
G1X18.92Y20.72
G1X18.89Y20.8
G1Y20.85
G1X18.91Y20.87
G1X18.95
M5
G0X18.65Y20.99
M3 S30
; Layer C00
G1X18.53Y20.78
G1X18.44Y20.59
G1X18.36Y20.42
G1X18.29Y20.28
G1X18.24Y20.16
G1X18.21Y20.07
G1X18.19Y20.01
G1Y19.99
G1X18.27Y20
G1X18.42Y20.08
G1X18.57Y20.17
G1X18.66Y20.21
G1Y20.18
G1X18.67Y20.11
G1Y20.01
G1Y19.88
G1X18.64Y19.59
G1X18.59Y19.25
G1Y19.21
G1X18.61Y19.2
G1X18.64Y19.23
G1X18.69Y19.29
G1X18.75Y19.38
G1X18.82Y19.51
G1X18.91Y19.67
G1X19.15Y20.14
G1X19.41
G1X19.72Y20.19
G1X20.01Y20.33
G1X20.27Y20.54
G1X20.46Y20.79
G1X20.53Y20.91
G1X20.58Y20.97
G1X20.64
G1X20.7Y20.92
G1X20.72Y20.84
G1X20.71Y20.74
G1X20.65Y20.63
G1X20.56Y20.5
G1X20.29Y20.25
G1X19.95Y20.04
G1X19.71Y19.9
G1X19.49Y19.74
G1X19.4Y19.66
G1X19.33Y19.59
G1X19.3Y19.54
G1Y19.51
G1X19.34
G1X19.42
G1X19.52Y19.54
G1X19.79Y19.63
G1X19.92Y19.66
G1X20.04
G1X20.15Y19.64
G1X20.26Y19.59
G1X20.38Y19.51
G1X20.52Y19.39
G1X20.69Y19.24
G1X20.85Y19.08
G1X20.99Y18.95
G1X21.08Y18.86
G1X21.11Y18.82
G1X21.09Y18.77
G1X21.04Y18.7
G1X21Y18.66
G1X20.96Y18.64
G1X20.92
G1X20.86Y18.66
G1X20.79Y18.71
G1X20.76Y18.76
G1X20.71Y18.81
G1X20.61Y18.86
G1X20.46Y18.89
G1X20.31Y18.91
G1X20.14Y18.88
G1X20.03Y18.82
G1X19.98Y18.76
G1Y18.72
G1X20Y18.68
G1X20.07Y18.63
G1X20.19Y18.52
G1X20.28Y18.38
G1X20.33Y18.24
G1X20.35Y18.08
G1X20.37Y17.98
G1X20.41Y17.85
G1X20.47Y17.69
G1X20.56Y17.51
G1X20.77Y17.12
G1X20.71Y16.77
G1X20.62Y16.32
G1Y16.23
G1X20.66Y16.22
G1X20.74Y16.28
G1X21.01Y16.63
G1X21.2Y16.82
G1X21.38Y16.94
G1X21.54Y16.98
G1X21.66Y16.97
G1X21.76Y16.92
G1X21.83Y16.85
G1X21.88Y16.76
G1X21.9Y16.64
G1Y16.49
G1X21.86Y16.32
G1X21.8Y16.12
G1X21.66Y15.79
G1X21.49Y15.49
G1X21.3Y15.24
G1X21.09Y15.02
G1X21Y14.94
G1X20.92Y14.86
G1X20.88Y14.81
G1X20.87Y14.78
G1X20.91
G1X20.98
G1X21.08Y14.81
G1X21.21Y14.85
G1X21.48Y14.95
G1X21.73Y15.06
G1X22Y15.22
G1X22.24Y15.39
G1X22.33Y15.46
G1X22.41Y15.53
G1X22.45Y15.58
G1X22.47Y15.62
G1X22.45Y15.66
G1X22.38
G1X22.27Y15.61
G1X22.18Y15.59
G1X22.1
G1X22.04Y15.6
G1X22.01Y15.63
G1Y15.68
G1X22.06Y15.77
G1X22.16Y15.91
G1X22.4Y16.22
G1X22.69Y16.57
G1X22.82Y16.72
G1X22.93Y16.85
G1X23Y16.95
G1X23.03Y16.99
G1X22.99Y17.02
G1X22.91Y17
G1X22.78Y16.97
G1X22.67Y16.94
G1X22.58
G1X22.5Y16.96
G1X22.43Y17
G1X22.36Y17.07
G1X22.28Y17.17
G1X22.19Y17.3
G1X22.04Y17.48
G1X21.87Y17.59
G1X21.67Y17.64
G1X21.43
G1X21.29Y17.63
G1X21.2Y17.65
G1X21.14Y17.74
G1X21.06Y17.91
G1X21.04Y17.98
G1X21.06Y18.04
G1X21.12Y18.09
G1X21.25Y18.16
G1X21.37Y18.23
G1X21.48Y18.32
G1X21.57Y18.42
G1X21.66Y18.54
G1X21.72Y18.64
G1X21.77Y18.73
G1X21.8Y18.81
G1X21.82Y18.85
G1X21.78Y18.95
G1X21.61Y19.23
G1X21.57Y19.34
G1Y19.42
G1X21.63Y19.49
G1X21.75Y19.53
G1X21.92Y19.57
G1X22.17Y19.59
G1X22.72Y19.62
G1X22.89Y19.64
G1X23.03Y19.65
G1X23.12Y19.67
G1X23.16Y19.69
G1X23.17Y19.71
G1X23.14Y19.73
G1X22.92Y19.81
G1X22.74Y19.88
G1X22.63Y19.94
G1X22.55Y20
G1X22.5Y20.08
G1X22.46Y20.19
G1X22.44Y20.33
G1Y20.53
G1Y20.77
G1X22.49Y21.38
G1X22.5Y21.63
G1X22.51Y21.82
G1Y21.98
G1Y22.1
G1Y22.17
G1Y22.22
G1X22.48Y22.23
G1Y22.22
G1X22.45Y22.18
G1X22.42Y22.11
G1X22.38Y22.02
G1X22.29Y21.8
G1X22.18Y21.52
G1X22.08Y21.26
G1X21.98Y21.02
G1X21.89Y20.82
G1X21.81Y20.65
G1X21.74Y20.52
G1X21.67Y20.41
G1X21.61Y20.33
G1X21.56Y20.29
G1X21.46Y20.27
G1X21.31Y20.3
G1X21.22Y20.34
G1X21.18Y20.39
G1X21.17Y20.45
G1X21.18Y20.57
G1X21.24Y20.8
G1X21.34Y21.1
G1X21.38Y21.23
G1X21.42Y21.34
G1X21.43Y21.43
G1Y21.47
G1X21.4Y21.48
G1X21.33Y21.5
G1X21.24
G1X21.13
G1X20.79Y21.54
G1X20.36Y21.61
G1X19.95Y21.68
G1X19.6Y21.69
G1X19.3Y21.65
G1X19.07Y21.56
G1X18.98Y21.49
G1X18.88Y21.38
G1X18.77Y21.22
G1X18.65Y20.99
M5
G0X17.65Y19.46
M3 S30
; Layer C00
G1X17.61Y19.41
G1X17.58Y19.26
G1Y19.05
G1X17.61Y18.85
G1X17.66Y18.68
G1X17.76Y18.54
G1X17.89Y18.4
G1X17.95Y18.35
G1X18.01Y18.32
G1X18.05Y18.31
G1X18.07Y18.32
G1Y18.4
G1X17.97Y18.57
G1X17.93Y18.69
G1X17.88Y18.84
G1X17.83Y19.01
G1X17.79Y19.16
G1X17.75Y19.27
G1X17.72Y19.36
G1X17.69Y19.42
G1X17.65Y19.46
M5
G0X19.21Y16.54
M3 S30
; Layer C00
G1X19.19Y16.51
G1X19.22Y16.46
G1X19.29Y16.41
G1X19.37Y16.39
G1X19.42Y16.41
G1Y16.46
G1X19.39Y16.5
G1X19.32Y16.53
G1X19.26Y16.54
G1X19.21
M5
G0X19.87Y16.25
M3 S30
; Layer C00
G1X19.86Y16.2
G1X19.87Y16.17
G1X19.91
G1X19.95Y16.19
G1X19.98Y16.24
G1X19.96Y16.28
G1X19.91
G1X19.87Y16.25
M5
G0X19.36Y15.89
M3 S30
; Layer C00
G1X19.29Y15.91
G1X19.26
G1X19.24Y15.89
G1X19.25Y15.84
G1X19.29Y15.77
G1X19.36Y15.74
G1X19.42
G1X19.44Y15.79
G1X19.42Y15.85
G1X19.36Y15.89
M5
G0X19.03Y15.88
M3 S30
; Layer C00
G1X19Y15.92
G1X18.96Y15.95
G1X18.92Y15.93
G1Y15.88
G1X18.94Y15.85
G1X18.99Y15.83
G1X19.03Y15.84
G1Y15.88
M5
G0X18.69Y15.96
M3 S30
; Layer C00
G1X18.68Y16
G1X18.64Y16.03
G1X18.59
G1X18.52
G1X18.45Y16
G1X18.44Y15.96
G1X18.48Y15.93
G1X18.56Y15.92
G1X18.65Y15.93
G1X18.69Y15.96
M5
G0X19.76Y15.61
M3 S30
; Layer C00
G1X19.75Y15.56
G1X19.76Y15.51
G1X19.8Y15.49
G1X19.83Y15.51
G1X19.85Y15.56
G1X19.83Y15.61
G1X19.8Y15.63
G1X19.76Y15.61
M5
G0X18.37Y15.17
M3 S30
; Layer C00
G1X18.35Y15.19
G1X18.31
G1X18.27Y15.17
G1X18.25Y15.13
G1X18.26Y15.09
G1X18.29Y15.06
G1X18.34
G1X18.37Y15.07
G1X18.38Y15.12
G1Y15.17
M5
G0X18.03Y15.23
M3 S30
; Layer C00
G1X18.01Y15.27
G1X17.93Y15.33
G1X17.85Y15.36
G1X17.8Y15.34
G1X17.78Y15.3
G1X17.79Y15.27
G1X17.83Y15.25
G1X17.92Y15.22
G1X18
G1X18.03Y15.23
M5
G0X19.25Y13.98
M3 S30
; Layer C00
G1Y13.95
G1X19.27Y13.91
G1X19.31Y13.89
G1X19.34Y13.91
G1Y13.93
G1X19.33Y13.96
G1X19.29Y13.98
G1X19.25
M5
G0X19.57Y13.78
M3 S30
; Layer C00
G1X19.55Y13.75
G1X19.57Y13.72
G1X19.62Y13.7
G1X19.67Y13.72
G1X19.7Y13.75
G1X19.67Y13.78
G1X19.62Y13.8
G1X19.57Y13.78
M5
G0X23.33Y17.32
M3 S30
; Layer C00
G1X23.38Y17.36
G1X23.43Y17.45
G1X23.53Y17.61
G1X23.69Y17.78
G1X23.78Y17.87
G1X23.84Y17.96
G1X23.88Y18.04
G1Y18.12
G1Y18.19
G1X23.91Y18.24
G1X23.94Y18.27
G1X23.99
G1X24.06Y18.26
G1X24.16Y18.22
G1X24.29Y18.16
G1X24.45Y18.08
G1X24.84Y17.85
G1X25.19Y17.62
G1X25.53Y17.34
G1X25.9Y17
G1X26.09Y16.82
G1X26.25Y16.68
G1X26.36Y16.58
G1X26.42Y16.55
G1Y16.59
G1X26.38Y16.7
G1X26.29Y16.86
G1X26.16Y17.08
G1X25.82Y17.58
G1X25.44Y18.1
G1X25.19Y18.41
G1X25.07Y18.58
G1Y18.6
G1X25.09
G1X25.15Y18.57
G1X25.23Y18.52
G1X25.44Y18.37
G1X25.84Y18.07
G1X25.95Y17.99
G1X26.03Y17.94
G1X26.07Y17.93
G1Y17.98
G1X26.02Y18.09
G1X25.94Y18.23
G1X25.83Y18.4
G1X25.7Y18.57
G1X25.58Y18.73
G1X25.46Y18.87
G1X25.36Y18.97
G1X25.3Y19.02
G1X25.28Y19.06
G1Y19.09
G1X25.32Y19.12
G1X25.36Y19.15
G1Y19.2
G1X25.31Y19.27
G1X25.14Y19.49
G1X25.08Y19.56
G1X25.06Y19.61
G1Y19.63
G1X25.1
G1X25.17Y19.6
G1X25.27Y19.54
G1X25.51Y19.41
G1X25.59Y19.37
G1X25.65Y19.35
G1X25.68
G1X25.69Y19.37
G1Y19.41
G1X25.67Y19.47
G1X25.59Y19.62
G1X25.57Y19.67
G1X25.56Y19.69
G1Y19.7
G1X25.59
G1X25.64Y19.66
G1X25.96Y19.42
G1X26.05Y19.36
G1X26.09
G1X26.11Y19.4
G1X26.08Y19.46
G1X26.02Y19.57
G1X25.92Y19.72
G1X25.8Y19.89
G1X25.53Y20.23
G1X25.28Y20.51
G1X24.87Y20.86
G1X24.39Y21.21
G1X24.17Y21.35
G1X23.98Y21.46
G1X23.84Y21.52
G1X23.77
G1Y21.49
G1X23.82Y21.43
G1X23.89Y21.33
G1X24.16Y21.02
G1X24.31Y20.83
G1X24.4Y20.69
G1X24.44Y20.62
G1X24.42Y20.61
G1X24.36
G1X24.26
G1X24.15Y20.62
G1X23.87Y20.66
G1X24.29Y20.09
G1X24.16Y20.07
G1X24.07Y20.05
G1X24.04Y20.02
G1X24.05Y19.99
G1X24.09Y19.92
G1X24.14Y19.82
G1X24.28Y19.6
G1X24.38Y19.44
G1Y19.42
G1X24.37
G1X24.3Y19.43
G1X24.2Y19.46
G1X24.08Y19.49
G1X23.86Y19.55
G1X23.69Y19.58
G1X23.57
G1X23.53Y19.54
G1X23.57Y19.48
G1X23.66Y19.39
G1X23.78Y19.26
G1X23.92Y19.08
G1X24.04Y18.91
G1X24.09Y18.81
G1X24.06
G1X23.97Y18.79
G1X23.84
G1X23.53
G1X23.39Y18.78
G1X23.3Y18.77
G1X23.26Y18.76
G1Y18.73
G1X23.28Y18.67
G1X23.32Y18.59
G1X23.38Y18.49
G1X23.48Y18.32
G1X23.52Y18.18
G1X23.51Y18.08
G1X23.44Y18.01
G1X23.36Y17.91
G1X23.29Y17.75
G1X23.26Y17.57
G1Y17.42
G1X23.29Y17.34
G1X23.33Y17.32
M5
G0X27.36Y18.25
M3 S30
; Layer C00
G1X27.63Y17.74
G1X27.87Y17.21
G1X27.98Y16.93
G1X28.09Y16.67
G1X28.17Y16.46
G1X28.28Y16.18
G1X28.33Y16.1
G1X28.38Y16.07
G1X28.43Y16.09
G1X28.44Y16.17
G1Y16.32
G1X28.4Y16.53
G1X28.35Y16.79
G1X28.21Y17.36
G1X28.05Y17.9
G1X27.98Y18.1
G1X27.94Y18.26
G1X27.91Y18.37
G1Y18.42
G1X27.96Y18.39
G1X28.09Y18.3
G1X28.2Y18.2
G1X28.29Y18.13
G1X28.36Y18.07
G1X28.41Y18.03
G1X28.49Y18
G1X28.53Y18.03
G1X28.55Y18.07
G1X28.53Y18.14
G1X28.49Y18.26
G1X28.41Y18.41
G1X28.22Y18.74
G1X27.96Y19.13
G1X27.83Y19.31
G1X27.71Y19.48
G1X27.61Y19.62
G1X27.53Y19.71
G1X27.47Y19.78
G1X27.45Y19.83
G1X27.48Y19.85
G1X27.54Y19.84
G1X27.62
G1X27.64Y19.89
G1X27.62Y19.99
G1X27.55Y20.13
G1X27.39Y20.34
G1X27.17Y20.57
G1X27.05Y20.69
G1X26.98Y20.77
G1X26.96Y20.83
G1X26.97Y20.87
G1X26.98Y20.93
G1X26.92Y21.02
G1X26.85Y21.1
G1X26.76Y21.19
G1X26.64Y21.3
G1X26.28Y21.64
G1X26.11Y21.81
G1X26.05Y21.87
G1X26Y21.93
G1X25.96Y21.97
G1Y21.98
G1X25.98Y22.02
G1X26.03Y22.06
G1X26.06Y22.08
G1X26.09Y22.13
G1X26.1Y22.2
G1X26.11Y22.41
G1X26.13Y22.5
G1X26.18Y22.57
G1X26.27Y22.64
G1X26.43Y22.76
G1X26.6Y22.85
G1X26.7Y22.91
G1X26.75Y22.96
G1Y23.02
G1X26.68Y23.12
G1X26.64Y23.21
G1X26.61Y23.37
G1Y23.47
G1X26.6Y23.6
G1Y23.76
G1X26.58Y24.22
G1X26.56Y24.45
G1X26.54Y24.65
G1X26.51Y24.82
G1X26.42Y25.12
G1X26.28Y25.41
G1X26.04Y25.72
G1X25.73Y26.01
G1X25.59Y26.13
G1X25.46Y26.2
G1X25.38Y26.23
G1X25.35Y26.19
G1X25.39Y26.11
G1X25.48Y25.97
G1X25.62Y25.75
G1X25.77Y25.47
G1X25.85Y25.28
G1X25.9Y25.11
G1X25.93Y24.91
G1X25.94Y24.63
G1Y24.08
G1X25.85Y23.58
G1X25.68Y23.11
G1X25.44Y22.66
G1X25.29Y22.43
G1X24.6Y22.87
G1X24.02Y23.21
G1X23.37Y23.55
G1X23.07Y23.7
G1X22.82Y23.81
G1X22.62Y23.89
G1X22.51Y23.92
G1X22.46
G1X22.43Y23.89
G1Y23.87
G1X22.44Y23.83
G1X22.55Y23.73
G1X22.74Y23.6
G1X23.07Y23.4
G1X23.43Y23.15
G1X23.82Y22.86
G1X24.22Y22.55
G1X25.03Y21.88
G1X25.76Y21.2
G1X25.96Y21.01
G1X26.11Y20.86
G1X26.22Y20.74
G1X26.3Y20.66
G1X26.34Y20.6
G1Y20.57
G1X26.33
G1X26.28
G1X26.23Y20.59
G1X26.19Y20.58
G1X26.18Y20.55
G1Y20.5
G1X26.23Y20.37
G1X26.34Y20.2
G1X26.51Y19.98
G1X26.56Y19.91
G1X26.58Y19.87
G1Y19.83
G1X26.52Y19.84
G1X26.44Y19.85
G1X26.39Y19.83
G1X26.41Y19.78
G1X26.47Y19.67
G1X26.57Y19.5
G1X27.06Y18.76
G1X27.36Y18.25
M5
G0X27.93Y23.73
M3 S30
; Layer C00
G1X27.96Y23.75
G1Y23.83
G1Y23.95
G1X27.92Y24.1
G1X27.82Y24.49
G1X27.66Y24.95
G1X27.5Y25.33
G1X27.28Y25.76
G1X27.04Y26.17
G1X26.81Y26.52
G1X26.68Y26.68
G1X26.51Y26.87
G1X26.31Y27.08
G1X26.09Y27.31
G1X25.86Y27.53
G1X25.64Y27.74
G1X25.43Y27.93
G1X25.25Y28.08
G1X25.13Y28.18
G1X25.07Y28.23
G1X25.09Y28.25
G1X25.17
G1X25.28
G1X25.45Y28.22
G1X25.65Y28.19
G1X25.88Y28.14
G1X26.37Y28.03
G1X26.85Y27.89
G1X27.08Y27.83
G1X27.27Y27.78
G1X27.41Y27.74
G1X27.48
G1Y27.76
G1X27.45Y27.8
G1X27.39Y27.87
G1X27.29Y27.94
G1X27.01Y28.13
G1X26.67Y28.35
G1X26.3Y28.54
G1X25.9Y28.71
G1X25.46Y28.87
G1X24.96Y29.02
G1X24.72Y29.08
G1X24.64Y29.11
G1X24.59Y29.13
G1X24.56Y29.16
G1X24.6Y29.19
G1X24.71Y29.21
G1X24.91Y29.23
G1X25.18Y29.24
G1X25.79Y29.27
G1X26.03Y29.28
G1X26.12Y29.29
G1X26.2
G1X26.24Y29.31
G1X26.26
G1X26.23Y29.34
G1X26.16Y29.37
G1X26.05Y29.41
G1X25.91Y29.45
G1X25.47Y29.57
G1X25.03Y29.65
G1X24.59Y29.69
G1X24.15Y29.7
G1X23.7Y29.67
G1X23.24Y29.61
G1X22.78Y29.5
G1X22.3Y29.37
G1X21.85Y29.22
G1X21.99Y29.36
G1X22.18Y29.5
G1X22.46Y29.65
G1X22.6Y29.73
G1X22.69Y29.78
G1X22.73Y29.83
G1X22.72Y29.85
G1X22.66Y29.87
G1X22.58
G1X22.46Y29.86
G1X22.31Y29.84
G1X21.95Y29.77
G1X21.54Y29.66
G1X21.12Y29.52
G1X20.72Y29.36
G1X20.51Y29.28
G1X20.39Y29.23
G1X20.32
G1X20.3Y29.25
G1X20.27Y29.29
G1X20.18Y29.31
G1X20.02Y29.29
G1X19.81Y29.24
G1X19.72
G1X19.71Y29.28
G1X19.76Y29.37
G1X19.86Y29.49
G1X20.01Y29.63
G1X20.19Y29.78
G1X20.4Y29.94
G1X20.62Y30.09
G1X20.79Y30.19
G1X20.93Y30.28
G1X21.02Y30.35
G1X21.06Y30.39
G1X21.04Y30.41
G1X20.98
G1X20.89Y30.42
G1X20.79
G1X20.53Y30.4
G1X20.27Y30.35
G1X19.92Y30.23
G1X19.49Y30.05
G1X18.97Y29.81
G1X18.95Y29.82
G1X18.96Y29.89
G1X18.97Y29.94
G1Y29.97
G1X18.94Y29.99
G1X18.82
G1X18.8Y30.02
G1X18.83Y30.1
G1X18.91Y30.23
G1X19.15Y30.53
G1X19.45Y30.82
G1X19.8Y31.07
G1X20.19Y31.29
G1X20.29Y31.34
G1X20.36Y31.38
G1X20.39Y31.42
G1Y31.45
G1X20.37Y31.46
G1X20.32Y31.47
G1X20.23
G1X20.11
G1X19.81Y31.41
G1X19.46Y31.31
G1X19.09Y31.18
G1X18.74Y31.03
G1X18.6Y30.96
G1X18.49Y30.92
G1X18.41Y30.89
G1X18.38
G1X18.42Y30.97
G1X18.51Y31.11
G1X18.57Y31.2
G1X18.61Y31.26
G1X18.63Y31.31
G1Y31.35
G1X18.6Y31.37
G1X18.55
G1X18.48
G1X18.28Y31.35
G1X18.2
G1X18.15Y31.36
G1X18.13Y31.38
G1X18.15Y31.43
G1X18.19Y31.5
G1X18.26Y31.59
G1X18.34Y31.68
G1X18.56Y31.9
G1X18.82Y32.12
G1X18.97Y32.24
G1X19.06Y32.33
G1X19.12Y32.39
G1Y32.43
G1X19.08
G1X18.99Y32.42
G1X18.86Y32.37
G1X18.68Y32.29
G1X18.29Y32.09
G1X17.91Y31.85
G1X17.56Y31.57
G1X17.24Y31.27
G1X17.09Y31.12
G1X16.97Y31.01
G1X16.88Y30.94
G1X16.83
G1X16.74Y30.93
G1X16.63Y30.88
G1X16.5Y30.8
G1X16.54Y30.97
G1Y31.1
G1X16.53Y31.15
G1X16.44Y31.1
G1X16.27Y31
G1X16.06Y30.85
G1X15.95Y30.94
G1X15.75Y31.08
G1X15.58Y31.15
G1Y31.09
G1Y30.97
G1X15.62Y30.79
G1X15.48Y30.9
G1X15.41Y30.95
G1X15.36Y30.97
G1X15.33
G1X15.3Y30.95
G1X15.26
G1X15.17Y31.01
G1X15.02Y31.14
G1X14.83Y31.33
G1X14.51Y31.63
G1X14.21Y31.87
G1X13.9Y32.08
G1X13.54Y32.26
G1X13.29Y32.38
G1X13.12Y32.44
G1X13.01Y32.47
G1X12.96Y32.45
G1X12.98Y32.4
G1X13.06Y32.34
G1X13.36Y32.1
G1X13.68Y31.79
G1X13.82Y31.65
G1X13.92Y31.52
G1X13.98Y31.42
G1Y31.37
G1X13.91
G1X13.74Y31.39
G1X13.57Y31.41
G1X13.48Y31.4
G1Y31.37
G1X13.5Y31.31
G1X13.54Y31.23
G1X13.65Y31.06
G1X13.69Y30.99
G1X13.72Y30.94
G1Y30.92
G1X13.69
G1X13.62Y30.95
G1X13.52Y30.99
G1X13.41Y31.04
G1X13.04Y31.2
G1X12.68Y31.33
G1X12.33Y31.42
G1X12.04Y31.47
G1X11.92
G1X11.82
G1X11.75
G1X11.72Y31.46
G1X11.74Y31.43
G1X11.8Y31.39
G1X11.89Y31.33
G1X11.99Y31.28
G1X12.3Y31.1
G1X12.6Y30.88
G1X12.87Y30.64
G1X13.11Y30.37
G1X13.24Y30.2
G1X13.28Y30.15
G1X13.3Y30.11
G1Y30.06
G1X13.24Y30.05
G1X13.16Y30.01
G1X13.14Y29.93
G1X13.13Y29.87
G1X13.1Y29.86
G1X12.79Y30
G1X12.5Y30.13
G1X12.23Y30.23
G1X11.99Y30.32
G1X11.76Y30.39
G1X11.55Y30.43
G1X11.37Y30.46
G1X11.2Y30.47
G1X11.13
G1X11.09Y30.46
G1X11.08Y30.44
G1Y30.41
G1X11.12Y30.37
G1X11.19Y30.32
G1X11.28Y30.26
G1X11.69Y29.99
G1X11.92Y29.83
G1X12.09Y29.69
G1X12.25Y29.52
G1X12.38Y29.36
G1X12.43Y29.27
G1X12.41Y29.26
G1X12.35
G1X12.27Y29.27
G1X12.16Y29.3
G1X11.97Y29.34
G1X11.87Y29.36
G1X11.83Y29.34
G1X11.82Y29.24
G1X11.81Y29.22
G1X11.76Y29.24
G1X11.64Y29.28
G1X11.28Y29.44
G1X10.8Y29.62
G1X10.38Y29.75
G1X10.03Y29.82
G1X9.69Y29.87
G1X9.56Y29.88
G1X9.45
G1X9.38
G1X9.35Y29.86
G1X9.37Y29.84
G1X9.44Y29.79
G1X9.53Y29.74
G1X9.64Y29.69
G1X9.87Y29.57
G1X10.08Y29.43
G1X10.16Y29.37
G1X10.22Y29.31
G1X10.25Y29.28
G1X10.23Y29.27
G1X10.18
G1X10.07Y29.31
G1X9.92Y29.35
G1X9.75Y29.41
G1X9.22Y29.56
G1X8.76Y29.66
G1X8.3Y29.71
G1X7.79
G1X7.43
G1X7.15Y29.69
G1X6.89Y29.65
G1X6.63Y29.59
G1X6.31Y29.51
G1X6.08Y29.44
G1X5.94Y29.39
G1X5.88Y29.35
G1X5.9Y29.32
G1X6.02Y29.3
G1X6.21Y29.29
G1X6.49
G1X6.93Y29.28
G1X7.27Y29.26
G1X7.4Y29.24
G1X7.5Y29.22
G1X7.56Y29.2
G1X7.59Y29.18
G1X7.56Y29.16
G1X7.5Y29.13
G1X7.41Y29.1
G1X7.3Y29.08
G1X6.74Y28.93
G1X6.19Y28.73
G1X5.65Y28.47
G1X5.13Y28.17
G1X4.91Y28.03
G1X4.75Y27.92
G1X4.65Y27.84
G1X4.61Y27.78
G1X4.62Y27.76
G1X4.69
G1X4.82Y27.79
G1X5.21Y27.91
G1X5.44Y27.97
G1X5.7Y28.04
G1X5.97Y28.1
G1X6.24Y28.16
G1X6.48Y28.21
G1X6.69Y28.25
G1X6.85Y28.28
G1X7.11Y28.31
G1X6.8Y28.06
G1X6.31Y27.62
G1X5.87Y27.19
G1X5.49Y26.75
G1X5.15Y26.3
G1X4.86Y25.83
G1X4.62Y25.34
G1X4.41Y24.82
G1X4.23Y24.26
G1X4.18Y24.06
G1X4.15Y23.91
G1Y23.81
G1Y23.76
G1X4.2
G1X4.26Y23.85
G1X4.65Y24.55
G1X5.11Y25.29
G1X5.38Y25.63
G1X5.69Y25.98
G1X6Y26.27
G1X6.38Y26.59
G1X6.56Y26.73
G1X6.71Y26.85
G1X6.83Y26.93
G1X6.89Y26.95
G1X6.91Y26.92
G1Y26.84
G1X6.89Y26.77
G1X6.9Y26.74
G1X6.95Y26.72
G1X7.04Y26.7
G1X7.15Y26.68
G1X7.2Y26.61
G1Y26.53
G1Y26.43
G1X7.18Y26.3
G1X7.16Y26.12
G1X7.15Y26
G1Y25.92
G1Y25.87
G1X7.17Y25.85
G1X7.2Y25.87
G1X7.24Y25.93
G1X7.29Y26.01
G1X7.35Y26.14
G1X7.46Y26.44
G1X7.52Y26.77
G1Y26.94
G1X7.54Y27.08
G1X7.56Y27.18
G1X7.58Y27.26
G1X7.64Y27.36
G1X7.75Y27.44
G1X7.83Y27.49
G1X7.88Y27.55
G1X7.92Y27.62
G1X7.94Y27.71
G1X7.96Y27.81
G1X7.99Y27.87
G1X8.04Y27.9
G1X8.22Y27.92
G1X8.27Y27.94
G1Y27.99
G1X8.25Y28.14
G1Y28.18
G1X8.28Y28.22
G1X8.36Y28.26
G1X8.38Y28.29
G1Y28.34
G1X8.36Y28.48
G1X8.38Y28.52
G1X8.43Y28.55
G1X8.53Y28.57
G1X8.74Y28.59
G1X9Y28.58
G1X9.16Y28.56
G1X9.25
G1X9.29Y28.59
G1X9.31Y28.69
G1X9.35Y28.71
G1X9.44
G1X9.74Y28.69
G1X9.84
G1X9.89Y28.71
G1X9.91Y28.73
G1X9.94Y28.75
G1X10.01Y28.73
G1X10.13Y28.68
G1X10.27Y28.61
G1X10.58Y28.42
G1X10.85Y28.23
G1X10.96Y28.15
G1X11.05Y28.08
G1X11.13Y28.04
G1X11.17
G1X11.19Y28.09
G1Y28.19
G1X11.18Y28.35
G1X11.14Y28.54
G1X11.11Y28.65
G1X11.27Y28.55
G1X11.42Y28.41
G1X11.58Y28.22
G1X11.66Y28.11
G1X11.72Y28.06
G1X11.75Y28.05
G1X11.78Y28.08
G1X11.81Y28.2
G1X11.8Y28.35
G1X11.77Y28.54
G1X11.93Y28.52
G1X12.14Y28.46
G1X12.39Y28.36
G1X12.57Y28.28
G1X12.68Y28.25
G1X12.72Y28.28
G1X12.74Y28.42
G1X12.79Y28.44
G1X12.83Y28.43
G1X12.9Y28.4
G1X12.99Y28.36
G1X13.22Y28.25
G1X13.39Y28.17
G1X13.42Y28.16
G1X13.44Y28.18
G1Y28.23
G1Y28.31
G1Y28.41
G1X13.41Y28.61
G1X13.36Y28.79
G1X13.33Y28.88
G1X13.31Y28.95
G1X13.3Y29
G1Y29.03
G1X13.36
G1X13.61Y28.93
G1X13.69Y28.9
G1X13.75
G1X13.86Y28.95
G1X13.92
G1X14Y28.9
G1X14.21Y28.77
G1X14.29Y28.73
G1X14.35Y28.7
G1X14.38
G1Y28.74
G1Y28.81
G1X14.35Y28.93
G1X14.32Y29.07
G1X14.23Y29.42
G1X14.11Y29.81
G1Y29.85
G1X14.12Y29.88
G1X14.16Y29.89
G1X14.22
G1X14.3Y29.9
G1X14.34Y29.94
G1X14.32Y30.01
G1X14.27Y30.15
G1X14.26Y30.19
G1X14.27Y30.22
G1X14.31
G1X14.47Y30.24
G1X14.52Y30.26
G1X14.56Y30.31
G1X14.58Y30.4
G1X14.62Y30.52
G1X14.67Y30.56
G1X14.71Y30.52
G1X14.77Y30.45
G1X14.83Y30.35
G1X14.9Y30.22
G1X15.03Y29.95
G1X15.11Y29.71
G1X15.14Y29.62
G1X15.16Y29.53
G1X15.19Y29.48
G1X15.21Y29.46
G1X15.36Y29.59
G1X15.46Y29.79
G1Y29.82
G1X15.47Y29.83
G1X15.5
G1X15.54Y29.8
G1X15.61Y29.76
G1X15.67Y29.79
G1X15.73Y29.83
G1X15.77Y29.84
G1X15.8Y29.81
G1X15.83Y29.56
G1X15.88Y29.44
G1X15.91Y29.42
G1X15.95
G1X15.97Y29.45
G1X16Y29.51
G1X16.03Y29.58
G1X16.06Y29.6
G1X16.1Y29.58
G1X16.13Y29.51
G1X16.17Y29.43
G1X16.21
G1X16.26Y29.49
G1X16.29Y29.63
G1X16.31Y29.75
G1X16.34Y29.81
G1X16.37
G1X16.47Y29.73
G1X16.51Y29.72
G1X16.55
G1X16.59Y29.75
G1X16.63Y29.78
G1X16.65
G1X16.67Y29.77
G1Y29.73
G1X16.7Y29.64
G1X16.79Y29.52
G1X16.85Y29.46
G1X16.89Y29.43
G1X16.92
G1X16.94Y29.46
G1X17.04Y29.8
G1X17.18Y30.15
G1X17.34Y30.41
G1X17.41Y30.49
G1X17.47Y30.53
G1X17.51Y30.51
G1X17.53Y30.43
G1Y30.31
G1X17.57Y30.24
G1X17.64Y30.21
G1X17.74
G1X17.82Y30.23
G1X17.86
G1X17.87Y30.2
G1X17.86Y30.15
G1X17.8Y30.01
G1X17.79Y29.91
G1X17.82Y29.86
G1X17.89Y29.85
G1X18.02
G1X17.87Y29.31
G1X17.82Y29.1
G1X17.77Y28.92
G1X17.74Y28.78
G1Y28.71
G1X17.76Y28.68
G1X17.8
G1X17.88Y28.73
G1X18.13Y28.89
G1X18.22Y28.93
G1X18.27
G1X18.31Y28.9
G1X18.35Y28.86
G1X18.39
G1X18.47Y28.87
G1X18.58Y28.93
G1X18.74Y29
G1X18.82Y29.01
G1Y28.96
G1X18.73Y28.67
G1X18.68Y28.47
G1X18.66Y28.3
G1Y28.19
G1X18.69Y28.16
G1X18.74
G1X18.83Y28.19
G1X19.18Y28.36
G1X19.31Y28.39
G1X19.37Y28.38
G1X19.39Y28.3
G1X19.41Y28.24
G1X19.45Y28.21
G1X19.53Y28.24
G1X19.67Y28.31
G1X19.87Y28.4
G1X20.1Y28.47
G1X20.35Y28.53
G1X20.32Y28.31
G1X20.31Y28.2
G1Y28.12
G1X20.33Y28.07
G1X20.36Y28.04
G1X20.41Y28.03
G1X20.45Y28.07
G1X20.47Y28.11
G1X20.54Y28.19
G1X20.62Y28.28
G1X20.72Y28.38
G1X20.96Y28.62
G1X20.94Y28.33
G1X20.93Y28.22
G1Y28.12
G1Y28.05
G1Y28.01
G1X20.97
G1X21.03Y28.04
G1X21.12Y28.1
G1X21.23Y28.18
G1X21.5Y28.38
G1X21.81Y28.56
G1X21.96Y28.63
G1X22.08Y28.68
G1X22.18Y28.71
G1X22.23
G1X22.35Y28.68
G1X22.56
G1X22.69
G1X22.77
G1X22.8Y28.66
G1Y28.61
G1Y28.55
G1X22.85Y28.53
G1X22.89
G1X22.96
G1X23.18Y28.56
G1X23.42Y28.57
G1X23.61Y28.55
G1X23.68Y28.53
G1X23.73Y28.5
G1X23.74Y28.45
G1Y28.39
G1X23.76Y28.29
G1X23.86Y28.13
G1Y28.04
G1X23.85Y27.98
G1X23.86Y27.94
G1X23.91Y27.91
G1X24.08Y27.85
G1X24.13Y27.82
G1X24.15Y27.77
G1Y27.61
G1X24.16Y27.55
G1X24.2Y27.51
G1X24.28Y27.47
G1X24.42Y27.38
G1X24.51Y27.26
G1X24.54Y27.19
G1X24.56Y27.09
G1X24.58Y26.97
G1X24.59Y26.81
G1X24.65Y26.42
G1X24.77Y26.09
G1X24.83Y25.97
G1X24.88Y25.88
G1X24.92Y25.83
G1X24.95Y25.81
G1X24.97Y25.82
G1X24.98Y25.87
G1Y25.96
G1X24.94Y26.32
G1X24.92Y26.52
G1Y26.62
G1X24.94Y26.66
G1X24.99Y26.68
G1X25.19
G1X25.23
G1X25.24Y26.73
G1X25.23Y26.81
G1X25.2Y26.96
G1X25.41Y26.81
G1X25.75Y26.56
G1X26.07Y26.29
G1X26.38Y25.99
G1X26.67Y25.67
G1X26.94Y25.33
G1X27.2Y24.97
G1X27.44Y24.58
G1X27.67Y24.17
G1X27.76Y24
G1X27.84Y23.86
G1X27.9Y23.76
G1X27.93Y23.73
M5
G0X9.75Y23.92
M3 S30
; Layer C00
G1Y23.94
G1X9.72Y23.97
G1X9.69
G1X9.62
G1X9.53Y23.95
G1X9.42Y23.91
G1X9.14Y23.79
G1X8.8Y23.63
G1X8.03Y23.21
G1X7.27Y22.73
G1X7.09Y22.61
G1X6.85Y22.45
G1X6.81Y22.42
G1X6.78Y22.45
G1X6.73Y22.51
G1X6.66Y22.6
G1X6.59Y22.72
G1X6.44Y22.96
G1X6.33Y23.15
G1X6.23Y23.42
G1X6.17Y23.76
G1X6.13Y24.14
G1Y24.52
G1X6.17Y24.86
G1X6.26Y25.17
G1X6.41Y25.51
G1X6.63Y25.9
G1X6.71Y26.03
G1X6.77Y26.14
G1X6.81Y26.22
G1X6.83Y26.25
G1X6.8Y26.28
G1X6.71Y26.24
G1X6.56Y26.12
G1X6.35Y25.93
G1X6.14Y25.7
G1X5.95Y25.48
G1X5.8Y25.25
G1X5.68Y25.02
G1X5.59Y24.77
G1X5.52Y24.52
G1X5.48Y24.26
G1X5.46Y23.73
G1X5.41Y23.54
G1X5.33Y23.37
G1X5.2Y23.19
G1X5.1Y23.06
G1X5.06Y22.98
G1X5.08
G1X5.14Y22.97
G1X5.23
G1X5.33Y22.98
G1X5.6Y23.01
G1X5.69Y22.79
G1X5.75Y22.57
G1Y22.35
G1X5.71Y22.13
G1X6.17Y21.94
G1X5.56Y21.38
G1X5.45Y21.28
G1X5.37Y21.19
G1X5.31Y21.13
G1X5.24Y21.02
G1Y20.95
G1Y20.89
G1X5.2Y20.82
G1X5.11Y20.72
G1X4.98Y20.59
G1X4.75Y20.35
G1X4.6Y20.15
G1X4.55Y20.04
G1X4.54Y19.98
G1X4.59Y19.94
G1X4.7Y19.91
G1X4.72Y19.89
G1Y19.85
G1X4.67Y19.79
G1X4.61Y19.7
G1X4.17Y19.12
G1X3.81Y18.53
G1X3.72Y18.37
G1X3.67Y18.24
G1X3.65Y18.15
G1X3.66Y18.1
G1X3.71
G1X3.78Y18.13
G1X3.89Y18.2
G1X4.14Y18.39
G1X4.23Y18.45
G1X4.28Y18.49
G1X4.31
G1X4.29Y18.44
G1X4.25Y18.32
G1X4.13Y17.94
G1X3.97Y17.4
G1X3.83Y16.83
G1X3.79Y16.65
G1X3.77Y16.52
G1X3.75Y16.41
G1Y16.33
G1Y16.22
G1X3.78Y16.16
G1X3.81Y16.13
G1X3.84
G1X3.87Y16.17
G1X3.9Y16.24
G1X4.18Y16.95
G1X4.45Y17.57
G1X4.75Y18.18
G1X5.09Y18.77
G1X5.48Y19.35
G1X5.6Y19.54
G1X5.7Y19.67
G1X5.76Y19.78
G1X5.8Y19.85
G1Y19.89
G1Y19.91
G1X5.76
G1X5.61Y19.9
G1X5.57
G1X5.58Y19.94
G1X5.63Y20
G1X5.7Y20.1
G1X5.88Y20.32
G1X5.95Y20.41
G1X5.99Y20.48
G1X6.02Y20.53
G1Y20.6
G1X5.94Y20.64
G1X5.89Y20.67
G1X5.91Y20.73
G1X5.95Y20.79
G1X6.02Y20.86
G1X6.11Y20.96
G1X6.24Y21.09
G1X6.49Y21.34
G1X6.79Y21.62
G1X7.13Y21.92
G1X7.5Y22.23
G1X7.88Y22.54
G1X8.25Y22.83
G1X8.61Y23.1
G1X8.92Y23.32
G1X9.43Y23.66
G1X9.58Y23.77
G1X9.68Y23.84
G1X9.73Y23.89
G1X9.75Y23.92
M5
G0X8.33Y21.65
M3 S30
; Layer C00
G1X8.31
G1X8.26
G1X8.2Y21.62
G1X8.11Y21.57
G1X8Y21.51
G1X7.87Y21.43
G1X7.71Y21.33
G1X7.26Y21.01
G1X6.88Y20.69
G1X6.58Y20.37
G1X6.28Y19.99
G1X6.16Y19.81
G1X6.06Y19.66
G1X6.01Y19.54
G1X6Y19.48
G1X6.03
G1X6.09Y19.51
G1X6.17Y19.56
G1X6.26Y19.63
G1X6.35Y19.7
G1X6.43Y19.76
G1X6.49Y19.8
G1X6.51
G1Y19.74
G1X6.4Y19.51
G1Y19.45
G1X6.47Y19.47
G1X6.61Y19.55
G1X6.78Y19.64
G1X6.92Y19.7
G1X6.99Y19.72
G1X7Y19.7
G1X6.97Y19.64
G1X6.88Y19.51
G1X6.8Y19.41
G1X6.76Y19.33
G1X6.75Y19.27
G1X6.76Y19.24
G1X6.79Y19.21
G1Y19.17
G1X6.76Y19.13
G1X6.48Y18.8
G1X6.24Y18.48
G1X6.14Y18.33
G1X6.07Y18.2
G1X6.03Y18.11
G1Y18.06
G1X6.07
G1X6.14Y18.11
G1X6.24Y18.18
G1X6.6Y18.45
G1X6.8Y18.6
G1X6.88Y18.65
G1X6.94Y18.69
G1X6.98Y18.71
G1X7
G1Y18.69
G1X6.98Y18.66
G1X6.89Y18.53
G1X6.75Y18.34
G1X6.58Y18.12
G1X6.25Y17.68
G1X5.98Y17.28
G1X5.87Y17.1
G1X5.78Y16.95
G1X5.72Y16.82
G1X5.68Y16.73
G1Y16.71
G1X5.71
G1X5.75Y16.74
G1X5.81Y16.79
G1X5.9Y16.86
G1X6Y16.95
G1X6.13Y17.06
G1X6.28Y17.2
G1X6.72Y17.59
G1X7.16Y17.91
G1X7.57Y18.17
G1X7.96Y18.35
G1X8.09Y18.41
G1X8.16
G1X8.19Y18.37
G1Y18.27
G1Y18.18
G1X8.23Y18.11
G1X8.27Y18.04
G1X8.35Y17.96
G1X8.5Y17.8
G1X8.63Y17.61
G1X8.71Y17.49
G1X8.75Y17.44
G1X8.78Y17.45
G1X8.82Y17.51
G1X8.84Y17.65
G1X8.8Y17.84
G1X8.74Y18.02
G1X8.64Y18.13
G1X8.57Y18.21
G1X8.55Y18.3
G1X8.6Y18.43
G1X8.72Y18.61
G1X8.89Y18.86
G1X8.77Y18.89
G1X8.58Y18.9
G1X8.32
G1X8.19
G1X8.08
G1X8.01
G1X7.99
G1X8.2Y19.25
G1X8.46Y19.55
G1X8.52Y19.59
G1X8.54Y19.65
G1X8.5Y19.7
G1X8.38
G1X8.18Y19.66
G1X7.93Y19.58
G1X7.83Y19.55
G1X7.76Y19.53
G1X7.71Y19.52
G1X7.69
G1X7.7Y19.56
G1X7.75Y19.63
G1X7.81Y19.73
G1X7.99Y20.01
G1X8.04Y20.11
G1Y20.16
G1X8.02Y20.19
G1X7.95
G1X7.84Y20.17
G1Y20.23
G1X7.91Y20.34
G1X8.09Y20.6
G1X8.14Y20.68
G1X8.17Y20.74
G1Y20.77
G1X8.08
G1X7.9Y20.75
G1X7.73Y20.72
G1X7.64
G1X7.65Y20.77
G1X7.72Y20.88
G1X7.85Y21.05
G1X8.04Y21.27
G1X8.16Y21.4
G1X8.25Y21.51
G1X8.32Y21.59
G1X8.34Y21.63
G1Y21.65
M9
G1S0
M5
G90
; return to user-defined finish pos
G0 X0 Y0
M2
