; LightBurn 0.9.24
; GRBL device profile, absolute coords
; Bounds: X2.17 Y2.7 to X32.17 Y32.75
G00 G17 G40 G21 G54
G90
M4
; Cut @ 6000 mm/min, 20% power
M8
M5
G0X9.39Y6.76
M3 S30
; Layer C00
G1X8.89Y7.05S20F6000
G1X8.38Y7.39
G1X7.87Y7.77
G1X7.34Y8.19
G1X6.82Y8.65
G1X6.32Y9.12
G1X5.88Y9.58
G1X5.5Y10.03
G1X5.17Y10.5
G1X4.86Y10.99
G1X4.59Y11.53
G1X4.33Y12.12
G1X4.07Y12.79
G1X3.89Y13.31
G1X3.74Y13.8
G1X3.62Y14.27
G1X3.53Y14.74
G1X3.46Y15.21
G1X3.41Y15.7
G1X3.39Y16.22
G1Y16.78
G1X3.41Y17.52
G1X3.47Y18.25
G1X3.56Y18.96
G1X3.69Y19.66
G1X3.86Y20.35
G1X4.06Y21.03
G1X4.3Y21.69
G1X4.57Y22.33
G1X4.87Y22.95
G1X5.21Y23.55
G1X5.58Y24.13
G1X5.98Y24.69
G1X6.41Y25.22
G1X6.87Y25.73
G1X7.36Y26.21
G1X7.88Y26.67
G1X8.18Y26.91
G1X8.54Y27.18
G1X8.92Y27.45
G1X9.3Y27.72
G1X9.65Y27.96
G1X9.95Y28.15
G1X10.07Y28.23
G1X10.17Y28.28
G1X10.24Y28.32
G1X10.28Y28.33
G1X10.32Y28.3
G1X10.35Y28.23
G1Y28.11
G1Y27.96
G1X10.36Y27.66
G1X10.45Y27.35
G1X10.61Y27.06
G1X10.84Y26.8
G1X10.94Y26.69
G1X10.95Y26.62
G1X10.92Y26.6
G1X10.86Y26.57
G1X10.77Y26.55
G1X10.65Y26.51
G1X10.48Y26.46
G1X10.34Y26.4
G1X10.2Y26.3
G1X10.05Y26.17
G1X9.9Y26
G1X9.73Y25.76
G1X9.52Y25.46
G1X9.27Y25.08
G1X9.02Y24.7
G1X8.76Y24.33
G1X8.64Y24.17
G1X8.52Y24.02
G1X8.43Y23.9
G1X8.34Y23.81
G1X8.13Y23.61
G1X7.9Y23.46
G1X7.66Y23.36
G1X7.41Y23.31
G1X7.17
G1X6.93Y23.36
G1X6.71Y23.46
G1X6.49Y23.61
G1X6.4Y23.69
G1X6.34Y23.71
G1X6.32Y23.68
G1Y23.6
G1X6.35Y23.42
G1X6.43Y23.22
G1X6.57Y23.01
G1X6.74Y22.8
G1X6.94Y22.59
G1X6.37Y21.87
G1Y17.44
G1X6.07Y16.98
G1X5.92Y16.78
G1X5.77Y16.6
G1X5.6Y16.46
G1X5.43Y16.35
G1X5.25Y16.26
G1X5.07Y16.21
G1X4.87Y16.18
G1X4.68Y16.19
G1X4.56Y16.21
G1X4.47
G1X4.41
G1X4.37
G1Y16.16
G1X4.46Y16.06
G1X4.55Y15.99
G1X4.68Y15.92
G1X4.84Y15.86
G1X5.03Y15.8
G1X5.44Y15.71
G1X5.86Y15.68
G1X6.22
G1Y15.22
G1Y15.02
G1X6.27Y14.81
G1X6.33Y14.63
G1X6.4Y14.48
G1X6.51Y14.34
G1X6.66Y14.17
G1X6.87Y13.97
G1X7.12Y13.74
G1X7.41Y13.49
G1X7.73Y13.23
G1X8.07Y12.96
G1X8.42Y12.68
G1X8.69Y12.47
G1X8.91Y12.26
G1X9.09Y12.06
G1X9.22Y11.85
G1X9.32Y11.62
G1X9.38Y11.38
G1X9.41Y11.1
G1X9.43Y10.78
G1X9.42Y10.49
G1X9.39Y10.23
G1X9.33Y10
G1X9.25Y9.81
G1X9.14Y9.64
G1X9Y9.49
G1X8.83Y9.36
G1X8.63Y9.24
G1X8.28Y9.07
G1X8.77
G1X9.02Y9.08
G1X9.26Y9.12
G1X9.49Y9.19
G1X9.71Y9.28
G1X9.92Y9.39
G1X10.1Y9.53
G1X10.27Y9.68
G1X10.41Y9.85
G1X10.67Y10.23
G1X10.84Y9.78
G1X10.92Y9.58
G1X11Y9.42
G1X11.09Y9.29
G1X11.2Y9.17
G1X11.35Y9.05
G1X11.55Y8.92
G1X11.81Y8.77
G1X12.16Y8.57
G1X12.59Y8.31
G1X12.93Y8.08
G1X13.17Y7.85
G1X13.33Y7.62
G1X13.4Y7.39
G1Y7.14
G1X13.32Y6.86
G1X13.18Y6.55
G1X13.01Y6.32
G1X12.81Y6.14
G1X12.55Y6.01
G1X12.26Y5.94
G1X11.94Y5.91
G1X11.58Y5.94
G1X11.19Y6.01
G1X10.77Y6.13
G1X10.33Y6.29
G1X9.87Y6.5
G1X9.39Y6.76
M5
G0X15.28Y15.88
M3 S30
; Layer C00
G1X14.91Y15.98
G1X14.55Y16.11
G1X14.21Y16.25
G1X13.91Y16.4
G1X13.64Y16.54
G1X13.41Y16.7
G1X13.2Y16.86
G1X12.85Y17.21
G1X12.59Y17.6
G1X12.42Y17.99
G1X12.35Y18.36
G1X12.37Y18.71
G1X12.48Y19.02
G1X12.56Y19.18
G1X12.57Y19.32
G1X12.56Y19.39
G1X12.53Y19.48
G1X12.48Y19.58
G1X12.41Y19.71
G1X12.32Y19.92
G1X12.26Y20.14
G1X12.22Y20.37
G1X12.2Y20.6
G1X12.22Y20.83
G1X12.26Y21.06
G1X12.32Y21.28
G1X12.41Y21.48
G1X12.62Y21.86
G1X12.57Y21.23
G1X12.55Y21.03
G1Y20.87
G1Y20.74
G1X12.57Y20.62
G1X12.65Y20.38
G1X12.79Y20.1
G1X12.94Y19.88
G1X13.1Y19.68
G1X13.27Y19.51
G1X13.47Y19.36
G1X13.67Y19.24
G1X13.9Y19.15
G1X14.13Y19.09
G1X14.39Y19.05
G1X14.7
G1X15Y19.1
G1X15.17Y19.16
G1X15.38Y19.24
G1X15.64Y19.36
G1X16.29Y19.66
G1X16.55Y19.78
G1X16.76Y19.87
G1X16.93Y19.93
G1X17.24Y19.98
G1X17.57
G1X18.03Y19.9
G1X18.51Y19.75
G1X19Y19.53
G1X19.49Y19.25
G1X19.96Y18.92
G1X20.4Y18.55
G1X20.79Y18.14
G1X21.13Y17.71
G1X21.51Y17.15
G1X21.98Y17.19
G1X22.22
G1X22.46
G1X22.71Y17.14
G1X22.94Y17.08
G1X23.2Y17.01
G1X23.46Y16.96
G1X23.72Y16.93
G1X23.98
G1X24.23Y16.95
G1X24.48Y17
G1X24.73Y17.07
G1X24.97Y17.17
G1X25.19Y17.26
G1X25.37Y17.33
G1X25.52Y17.39
G1X25.59Y17.4
G1X25.67Y17.37
G1X25.77Y17.25
G1X25.88Y17.08
G1X26Y16.85
G1X26.13Y16.57
G1X26.25Y16.25
G1X26.38Y15.91
G1X26.5Y15.54
G1X26.61Y15.18
G1X26.72Y14.86
G1X26.83Y14.56
G1X26.94Y14.29
G1X27.17Y13.82
G1X27.42Y13.45
G1X27.7Y13.15
G1X28.01Y12.93
G1X28.36Y12.77
G1X28.75Y12.66
G1X28.85Y12.64
G1X28.91
G1X28.95Y12.63
G1X28.96
G1X28.94Y12.66
G1X28.89Y12.69
G1X28.69Y12.8
G1X28.34Y13.01
G1X28.02Y13.29
G1X27.74Y13.58
G1X27.53Y13.88
G1X27.48Y13.98
G1X27.45Y14.05
G1X27.43Y14.1
G1Y14.13
G1X27.48
G1X27.61Y14.1
G1X28.05Y14
G1X28.53Y13.92
G1X28.75Y13.89
G1X28.95
G1X29.12Y13.88
G1X29.24Y13.89
G1X29.53Y14.02
G1X29.83Y14.24
G1X30.09Y14.51
G1X30.27Y14.79
G1X30.36Y15.07
G1X30.4Y15.38
G1X30.39Y15.66
G1X30.32Y15.86
G1X30.28Y15.88
G1X30.25Y15.85
G1X30.24Y15.76
G1Y15.6
G1X30.19Y15.26
G1X30.05Y14.94
G1X29.85Y14.64
G1X29.58Y14.4
G1X29.34Y14.28
G1X29.05Y14.22
G1X28.74
G1X28.41Y14.26
G1X28.08Y14.36
G1X27.78Y14.49
G1X27.52Y14.67
G1X27.31Y14.89
G1X27.22Y15.05
G1X27.11Y15.29
G1X27Y15.57
G1X26.9Y15.87
G1X26.76Y16.3
G1X26.62Y16.7
G1X26.49Y17.05
G1X26.36Y17.37
G1X26.22Y17.65
G1X26.09Y17.89
G1X25.95Y18.09
G1X25.82Y18.26
G1X25.69Y18.41
G1X25.59Y18.54
G1X25.51Y18.64
G1X25.49Y18.69
G1X25.51Y18.73
G1X25.58Y18.75
G1X25.69
G1X25.82Y18.74
G1X26.11Y18.67
G1X26.38Y18.55
G1X26.51Y18.48
G1X26.63Y18.44
G1X26.73Y18.43
G1X26.82Y18.45
G1X26.9Y18.51
G1X26.97Y18.6
G1X27.03Y18.73
G1X27.1Y18.9
G1X27.14Y19.07
G1X27.16Y19.22
G1X27.14Y19.38
G1X27.05Y19.71
G1Y19.86
G1X27.07Y20
G1X27.14Y20.16
G1X27.2Y20.29
G1X27.23Y20.42
G1Y20.55
G1X27.21Y20.67
G1X27.17Y20.78
G1X27.1Y20.89
G1X27.01Y20.97
G1X26.9Y21.05
G1X26.84Y21.07
G1X26.75Y21.09
G1X26.63Y21.12
G1X26.49Y21.15
G1X26.17Y21.2
G1X25.82Y21.25
G1X25.44Y21.3
G1X25.03Y21.38
G1X24.66Y21.47
G1X24.36Y21.57
G1X24.08Y21.69
G1X23.73Y21.86
G1X23.36Y22.06
G1X22.97Y22.28
G1X22.6Y22.5
G1X22.27Y22.71
G1X22Y22.9
G1X21.81Y23.05
G1X21.57Y23.28
G1X21.87Y23.41
G1X22.08Y23.54
G1X22.21Y23.73
G1X22.27Y23.98
G1X22.24Y24.25
G1X22.2Y24.36
G1X22.14Y24.45
G1X22.06Y24.53
G1X21.93Y24.6
G1X21.75Y24.66
G1X21.51Y24.73
G1X21.2Y24.8
G1X20.81Y24.89
G1X20.36Y24.99
G1X19.95Y25.1
G1X19.57Y25.22
G1X19.23Y25.36
G1X18.91Y25.5
G1X18.62Y25.66
G1X18.36Y25.84
G1X18.13Y26.02
G1X17.95Y26.19
G1X17.8Y26.35
G1X17.68Y26.51
G1X17.59Y26.67
G1X17.52Y26.82
G1X17.48Y26.98
G1X17.47Y27.13
G1X17.48Y27.29
G1X17.53Y27.6
G1X17.24Y27.29
G1X17.13Y27.16
G1X17.04Y27.03
G1X16.98Y26.92
G1X16.96Y26.84
G1X16.94Y26.74
G1X16.88Y26.72
G1X16.82Y26.74
G1X16.74Y26.78
G1X16.62Y26.85
G1X16.48Y26.94
G1X16.28Y27.05
G1X16.01Y27.17
G1X15.72Y27.31
G1X15.43Y27.42
G1X15.11Y27.56
G1X14.83Y27.71
G1X14.6Y27.87
G1X14.4Y28.04
G1X14.25Y28.23
G1X14.13Y28.42
G1X14.07Y28.62
G1X14.04Y28.84
G1X14.06Y29.02
G1X14.1Y29.19
G1X14.16Y29.34
G1X14.24Y29.48
G1X14.45Y29.71
G1X14.72Y29.86
G1X15.03Y29.93
G1X15.35Y29.92
G1X15.51Y29.88
G1X15.67Y29.81
G1X15.83Y29.72
G1X15.98Y29.6
G1X16.28Y29.34
G1X16.2Y29.58
G1X16.13Y29.78
G1X16.08Y29.94
G1X16.09Y29.97
G1X16.16Y30
G1X16.27Y30.02
G1X16.43Y30.03
G1X16.62Y30.05
G1X16.84
G1X17.09Y30.06
G1X17.36
G1X17.93Y30.04
G1X18.52Y30.01
G1X19.08Y29.97
G1X19.57Y29.9
G1X20.6Y29.69
G1X21.6Y29.42
G1X22.57Y29.07
G1X23.5Y28.65
G1X24.39Y28.18
G1X25.23Y27.64
G1X26.04Y27.04
G1X26.79Y26.39
G1X27.5Y25.69
G1X28.15Y24.93
G1X28.74Y24.13
G1X29.28Y23.28
G1X29.75Y22.4
G1X30.16Y21.47
G1X30.5Y20.5
G1X30.77Y19.51
G1X30.85Y19.04
G1X30.92Y18.5
G1X30.96Y17.91
G1X30.99Y17.29
G1Y16.66
G1X30.97Y16.05
G1X30.93Y15.48
G1X30.86Y14.98
G1X30.71Y14.21
G1X30.51Y13.45
G1X30.27Y12.7
G1X29.98Y11.96
G1X29.65Y11.24
G1X29.29Y10.54
G1X28.89Y9.89
G1X28.45Y9.27
G1X28.34Y9.12
G1X28.19Y8.95
G1X28.03Y8.77
G1X27.86Y8.57
G1X27.47Y8.17
G1X27.08Y7.76
G1X26.7Y7.4
G1X26.38Y7.1
G1X26.26Y7
G1X26.15Y6.92
G1X26.08Y6.87
G1X26.05
G1X26.04Y6.93
G1X26.06Y7.04
G1X26.09Y7.2
G1X26.15Y7.39
G1X26.23Y7.7
G1X26.29Y8.04
G1X26.34Y8.42
G1X26.36Y8.81
G1Y9.21
G1X26.35Y9.6
G1X26.31Y9.97
G1X26.25Y10.3
G1X26.15Y10.69
G1X26.03Y11.08
G1X25.88Y11.45
G1X25.71Y11.81
G1X25.51Y12.16
G1X25.3Y12.49
G1X25.06Y12.81
G1X24.8Y13.11
G1X24.52Y13.4
G1X24.23Y13.67
G1X23.91Y13.93
G1X23.57Y14.17
G1X23.21Y14.39
G1X22.84Y14.6
G1X22.45Y14.79
G1X22.04Y14.95
G1X21.65Y15.09
G1X21.27Y15.2
G1X20.88Y15.3
G1X20.45Y15.38
G1X19.97Y15.44
G1X19.42Y15.5
G1X18.8Y15.54
G1X17.69Y15.6
G1X17.34Y15.62
G1X17.02Y15.64
G1X16.71Y15.67
G1X16.17Y15.72
G1X15.7Y15.79
G1X15.28Y15.88
M5
G0X21.18Y18.86
M3 S30
; Layer C00
G1X20.34Y19.59
G1X19.95Y19.91
G1X19.58Y20.19
G1X19.23Y20.43
G1X18.89Y20.63
G1X18.57Y20.79
G1X18.25Y20.92
G1X17.93Y21.02
G1X17.35Y21.17
G1X17.57Y21.4
G1X17.81Y21.6
G1X18.1Y21.76
G1X18.42Y21.88
G1X18.76Y21.97
G1X19.11Y22
G1X19.46Y21.99
G1X19.8Y21.93
G1X20.12Y21.82
G1X20.22Y21.77
G1X20.34Y21.69
G1X20.5Y21.6
G1X20.67Y21.48
G1X21.04Y21.21
G1X21.42Y20.9
G1X23Y19.62
G1X23.12Y19.51
G1X23.21Y19.42
G1X23.28Y19.33
G1X23.36Y19.17
G1X23.38Y19
G1X23.33Y18.72
G1X23.22Y18.48
G1X23.17Y18.4
G1X23.14Y18.33
G1Y18.28
G1X23.17Y18.27
G1X23.29Y18.31
G1X23.45Y18.43
G1X23.62Y18.61
G1X23.79Y18.84
G1X23.89Y18.97
G1X23.97Y19.02
G1X24.06Y19
G1X24.21Y18.91
G1X24.51Y18.69
G1X24.83Y18.41
G1X24.97Y18.27
G1X25.08Y18.14
G1X25.16Y18.04
G1X25.19Y17.98
G1X25.16Y17.91
G1X25.08Y17.84
G1X24.96Y17.78
G1X24.81Y17.71
G1X24.44Y17.62
G1X24.06Y17.58
G1X23.58Y17.62
G1X23.07Y17.73
G1X22.58Y17.9
G1X22.14Y18.1
G1X22.05Y18.17
G1X21.92Y18.26
G1X21.76Y18.38
G1X21.58Y18.53
G1X21.18Y18.86
M5
G0X24.63Y20.33
M3 S30
; Layer C00
G1X24.59Y20.47
G1X24.61Y20.6
G1X24.71Y20.69
G1X24.79
G1X24.92Y20.66
G1X25.08Y20.6
G1X25.25Y20.54
G1X25.42Y20.46
G1X25.56Y20.38
G1X25.65Y20.31
G1X25.69Y20.26
G1X25.66Y20.23
G1X25.57Y20.21
G1X25.45Y20.19
G1X25.3
G1X24.99
G1X24.74Y20.24
G1X24.63Y20.33
M5
G0X20.11Y23.5
M3 S30
; Layer C00
G1X20.05Y23.48
G1X19.93
G1X19.76
G1X19.31Y23.5
G1X18.77Y23.54
G1X18.21Y23.61
G1X17.7Y23.68
G1X17.48Y23.72
G1X17.3Y23.76
G1X17.17Y23.8
G1X17.1Y23.83
G1X16.99Y23.99
G1X16.96Y24.19
G1X17.03Y24.38
G1X17.18Y24.54
G1X17.35Y24.65
G1X17.44Y24.69
G1X17.48Y24.68
G1X17.69Y24.6
G1X18.26Y24.36
G1X18.75Y24.15
G1X19.25Y23.93
G1X19.67Y23.75
G1X19.84Y23.67
G1X19.98Y23.6
G1X20.07Y23.56
G1X20.11Y23.53
G1Y23.5
M5
G0X13.33Y27.05
M3 S30
; Layer C00
G1X13.29Y27.04
G1X13.23
G1X13.14
G1X13.03Y27.05
G1X12.76Y27.09
G1X12.46Y27.14
G1X12.15Y27.21
G1X11.87Y27.27
G1X11.64Y27.34
G1X11.5Y27.4
G1X11.25Y27.61
G1X11.08Y27.86
G1X11.01Y28.11
G1Y28.36
G1X11.1Y28.59
G1X11.26Y28.78
G1X11.37Y28.84
G1X11.49Y28.9
G1X11.63Y28.93
G1X11.79
G1X11.94
G1X12.03Y28.96
G1X12.08Y28.99
G1Y29.05
G1Y29.12
G1X12.18Y29.19
G1X12.36Y29.28
G1X12.61Y29.37
G1X12.83Y29.44
G1X13.01Y29.5
G1X13.14Y29.54
G1X13.23Y29.56
G1X13.32
G1X13.34Y29.51
G1X13.29Y29.38
G1X13.19Y29.19
G1X13.13Y29.05
G1X13.08Y28.85
G1X13.06Y28.63
G1Y28.39
G1Y28.14
G1X13.09Y27.89
G1X13.14Y27.66
G1X13.2Y27.47
G1X13.26Y27.31
G1X13.31Y27.18
G1X13.33Y27.09
G1Y27.05
M5
G0X10.4Y29.75
M3 S30
; Layer C00
G1X9.48Y29.26
G1X8.59Y28.7
G1X7.75Y28.09
G1X6.95Y27.42
G1X6.19Y26.7
G1X5.49Y25.93
G1X4.85Y25.12
G1X4.26Y24.26
G1X3.74Y23.36
G1X3.28Y22.42
G1X2.89Y21.45
G1X2.71Y20.9
G1X2.56Y20.37
G1X2.43Y19.83
G1X2.33Y19.3
G1X2.26Y18.75
G1X2.21Y18.17
G1X2.18Y17.57
G1X2.17Y16.93
G1X2.19Y16.06
G1X2.25Y15.23
G1X2.36Y14.43
G1X2.52Y13.66
G1X2.72Y12.91
G1X2.98Y12.15
G1X3.29Y11.4
G1X3.65Y10.64
G1X4.2Y9.68
G1X4.83Y8.75
G1X5.54Y7.86
G1X6.33Y7.02
G1X7.18Y6.23
G1X8.09Y5.51
G1X9.04Y4.86
G1X10.03Y4.29
G1X10.98Y3.84
G1X11.99Y3.46
G1X13.03Y3.14
G1X14.1Y2.89
G1X15.19Y2.71
G1X16.27Y2.61
G1X17.35Y2.58
G1X18.39Y2.63
G1X19.09Y2.71
G1X19.77Y2.81
G1X20.43Y2.93
G1X21.07Y3.08
G1X21.7Y3.25
G1X22.31Y3.44
G1X22.91Y3.66
G1X23.5Y3.91
G1X24.07Y4.18
G1X24.63Y4.47
G1X25.18Y4.8
G1X25.71Y5.15
G1X26.24Y5.52
G1X26.75Y5.92
G1X27.26Y6.35
G1X27.75Y6.81
G1X28.54Y7.61
G1X29.25Y8.43
G1X29.87Y9.29
G1X30.42Y10.17
G1X30.9Y11.1
G1X31.31Y12.07
G1X31.65Y13.1
G1X31.93Y14.19
G1X32.03Y14.77
G1X32.11Y15.44
G1X32.15Y16.17
G1X32.17Y16.94
G1X32.15Y17.7
G1X32.1Y18.44
G1X32.03Y19.11
G1X31.92Y19.7
G1X31.71Y20.55
G1X31.45Y21.37
G1X31.15Y22.16
G1X30.8Y22.94
G1X30.41Y23.68
G1X29.98Y24.4
G1X29.52Y25.1
G1X29.01Y25.76
G1X28.46Y26.39
G1X27.88Y26.99
G1X27.26Y27.56
G1X26.61Y28.1
G1X25.92Y28.59
G1X25.2Y29.05
G1X24.45Y29.48
G1X23.67Y29.86
G1X22.68Y30.27
G1X21.69Y30.61
G1X20.69Y30.88
G1X19.67Y31.08
G1X18.64Y31.21
G1X17.59Y31.27
G1X16.52
G1X15.42Y31.19
G1X14.37Y31.05
G1X13.34Y30.83
G1X12.33Y30.54
G1X11.35Y30.18
G1X10.4Y29.75
M9
G1S0
M5
G90
; return to user-defined finish pos
G0 X0 Y0
M2
