; LightBurn 0.9.24
; GRBL device profile, absolute coords
; Bounds: X3.59 Y2.97 to X24.42 Y32.18
G00 G17 G40 G21 G54
G90
M4
; Cut @ 6000 mm/min, 20% power
M8
M5
G0X10.86Y4.2
M3 S30
; Layer C00
G1X10.83Y4.26S20F6000
G1X10.78Y4.38
G1X10.72Y4.56
G1X10.76Y4.58
G1X10.85Y4.6
G1X10.96Y4.64
G1X11.13Y4.71
G1X11.17
G1X11.2Y4.68
G1X11.24Y4.58
G1X11.28Y4.46
G1X11.31Y4.38
G1Y4.32
G1X11.27Y4.27
G1X11.18Y4.22
G1X11.01Y4.19
G1X10.92
G1X10.86
M5
G0X13.52Y4.56
M3 S30
; Layer C00
G1X13.56Y4.59
G1X13.73Y4.67
G1X13.81Y4.72
G1X13.86Y4.76
G1X13.89Y4.77
G1X13.92Y4.74
G1X13.97Y4.66
G1X14.04Y4.54
G1X14.1Y4.43
G1X14.12Y4.36
G1Y4.32
G1X14.05Y4.25
G1X13.95Y4.2
G1X13.82Y4.19
G1X13.72Y4.2
G1X13.61Y4.38
G1X13.52Y4.56
M5
G0X17.16Y3.9
M3 S30
; Layer C00
G1X17.21
G1X17.29Y3.89
G1X17.4Y3.88
G1X17.53Y3.87
G1Y3.68
G1X17.52Y3.64
G1X17.43Y3.62
G1X17.27Y3.63
G1X17.18Y3.65
G1X17.17Y3.78
G1Y3.84
G1Y3.9
M5
G0X17.58Y3.87
M3 S30
; Layer C00
G1X17.63Y3.9
G1X17.69Y3.93
G1X17.72Y3.98
G1Y4.04
G1X17.73Y4.11
G1X17.76Y4.98
G1X17.82Y6.39
G1X17.83Y6.65
G1X17.85Y7.26
G1Y7.35
G1X17.87Y7.88
G1X17.91Y8.93
G1Y9.03
G1X17.92Y9.07
G1X17.97Y9.08
G1X18.07
G1X18.2Y9.09
G1Y8.65
G1X18.21Y8.19
G1X18.23Y7.27
G1Y5.45
G1Y4.04
G1Y4.02
G1X18.25Y4.01
G1X18.28Y3.98
G1Y3.89
G1Y3.8
G1X18.25Y3.76
G1X18.19Y3.67
G1X18.14Y3.48
G1Y3.41
G1X18.12Y3.38
G1X18.04Y3.42
G1X17.81Y3.58
G1X17.7Y3.64
G1X17.58Y3.71
G1Y3.87
M5
G0X17.61Y3.65
M3 S30
; Layer C00
G1X17.88Y3.47
G1X18.11Y3.31
G1X18.3Y3.17
G1X18.44Y3.06
G1X18.51Y2.99
G1X18.54Y2.95
G1X18.52Y2.93
G1X18.48Y2.91
G1X18.36Y2.89
G1X18.16Y2.9
G1X17.95Y2.92
G1X17.87Y2.94
G1X17.6Y2.97
G1X17.22Y3.03
G1X17.13Y3.04
G1X17.09Y3.07
G1X17.07Y3.15
G1Y3.3
G1Y3.48
G1X17.09Y3.57
G1X17.1Y3.61
G1X17.15Y3.59
G1X17.33Y3.57
G1X17.51
G1X17.54Y3.6
G1X17.59Y3.65
G1X17.61
M5
G0X18.23Y3.59
M3 S30
; Layer C00
G1X18.25Y3.67
G1X18.28Y3.71
G1X18.3
G1X18.41Y3.68
G1X18.54Y3.67
G1X18.69Y3.68
G1X18.76Y3.73
G1X18.78Y3.74
G1X18.86Y3.71
G1X19Y3.61
G1X19.36Y3.36
G1X19.64Y3.14
G1X19.68Y3.09
G1Y3.07
G1X19.62
G1X19.51Y3.06
G1X19.36
G1X19.19
G1X19.01
G1X18.84
G1X18.69Y3.07
G1X18.58Y3.09
G1X18.53
G1X18.49Y3.11
G1X18.43Y3.14
G1X18.25Y3.28
G1X18.21Y3.33
G1X18.2Y3.39
G1X18.21Y3.49
G1X18.23Y3.59
M5
G0X18.36Y3.76
M3 S30
; Layer C00
G1X18.34Y3.8
G1Y3.88
G1Y3.98
G1X18.6Y4
G1X18.67
G1X18.73
G1Y3.88
G1Y3.78
G1X18.71Y3.75
G1X18.53Y3.73
G1X18.36Y3.76
M5
G0X19.43Y9.08
M3 S30
; Layer C00
G1X19.36Y9.1
G1X19.28Y9.18
G1X19.23Y9.47
G1X19.25Y9.72
G1Y9.75
G1Y9.82
G1X19.23Y10.43
G1Y10.7
G1X19.21Y11.17
G1Y11.58
G1X19.29Y11.56
G1X19.36Y11.55
G1X19.44
G1X19.48
G1X19.51Y11.53
G1Y11.48
G1X19.5Y11.39
G1X19.48Y11.09
G1Y10.71
G1X19.51Y10.04
G1X19.53Y9.91
G1X19.6Y9.9
G1X19.92Y9.83
G1X20.25Y9.73
G1X20.31Y9.7
G1X20.38Y9.66
G1X20.46Y9.6
G1Y9.57
G1X20.26Y9.61
G1X20Y9.71
G1X19.96
G1X19.95
G1X20.04Y9.65
G1X20.22Y9.55
G1X20.36Y9.46
G1X20.44Y9.38
G1X20.42Y9.36
G1X20.39Y9.38
G1X20.19Y9.51
G1X19.97Y9.61
G1X19.99Y9.58
G1X20.05Y9.54
G1X20.27Y9.4
G1X20.33Y9.36
G1X20.4Y9.29
G1X20.44Y9.23
G1X20.4Y9.22
G1X20.34Y9.25
G1X20.19Y9.36
G1X20.02Y9.47
G1X19.94Y9.51
G1X19.88Y9.54
G1X19.84
G1X19.9Y9.49
G1X20.18Y9.31
G1X20.28Y9.23
G1X20.34Y9.17
G1X20.36Y9.13
G1X20.34Y9.1
G1X20.28Y9.11
G1X20.17Y9.16
G1X19.77Y9.37
G1X19.62Y9.43
G1X19.53Y9.44
G1X19.45Y9.42
G1X19.42Y9.38
G1X19.4Y9.32
G1Y9.25
G1X19.44Y9.11
G1Y9.08
M5
G0X19.11Y9.72
M3 S30
; Layer C00
G1X19Y9.7
G1X18.81Y9.69
G1X18.2Y9.68
G1X17.67Y9.69
G1X17.52Y9.71
G1X17.35
G1X17.17Y9.74
G1X16.96Y9.78
G1X16.82Y9.82
G1X16.75Y9.84
G1Y9.87
G1Y9.94
G1X16.78Y10.73
G1Y11.47
G1Y11.51
G1Y12.58
G1Y12.61
G1X16.79Y12.59
G1X16.8Y12.54
G1X16.85Y12.38
G1X16.9Y12.26
G1X16.96Y12.2
G1X17.07Y12.14
G1X17.17Y12.1
G1X17.28Y12.07
G1X17.41Y12.04
G1X17.79Y11.98
G1X18.25Y11.9
G1X18.4Y11.87
G1X18.53Y11.84
G1X18.72Y11.81
G1X18.89Y11.79
G1X18.92Y11.77
G1X19.04Y11.68
G1X19.09Y11.64
G1X19.14Y11.61
G1Y11.19
G1X19.15Y10.77
G1X19.16Y10.63
G1Y10.48
G1X19.19Y9.76
G1X19.17Y9.75
G1X19.11Y9.72
M5
G0X19.42Y11.61
M3 S30
; Layer C00
G1X19.3
G1X19.2Y11.66
G1X19.11Y11.7
G1X18.97Y11.8
G1X18.89Y11.83
G1X18.74Y11.86
G1X18.57Y11.89
G1X18.51Y11.91
G1X18.43Y11.93
G1X17.84Y12.04
G1X17.47Y12.09
G1X17.33Y12.12
G1X17.22Y12.15
G1X17.13Y12.19
G1X17Y12.25
G1X16.94Y12.33
G1X16.93Y12.37
G1X16.91Y12.4
G1X16.89Y12.46
G1X16.86Y12.59
G1X16.82Y12.78
G1X16.76Y13.02
G1X16.67Y13.5
G1Y13.53
G1X16.69Y13.54
G1X16.77
G1X16.87
G1X16.99Y13.51
G1X17.08Y13.49
G1X17.16
G1X17.18Y13.46
G1X17.19Y13.42
G1Y13.34
G1X17.27Y12.92
G1X17.35Y12.58
G1X17.46Y12.53
G1X17.66Y12.47
G1X17.92Y12.41
G1X18.17Y12.37
G1X18.33Y12.34
G1X18.47Y12.32
G1X18.68Y12.27
G1X18.77Y12.26
G1X18.88
G1X18.99
G1X19Y12.3
G1X19.05Y12.38
G1X19.12Y12.43
G1X19.15Y12.42
G1Y12.39
G1X19.18Y12.34
G1X19.22Y12.31
G1X19.42Y12.29
G1X19.61Y12.32
G1X19.63Y12.35
G1Y12.4
G1X19.66
G1X19.69
G1X19.73Y12.37
G1X19.77Y12.33
G1Y12.28
G1X19.76Y12.22
G1X19.71Y12.18
G1X19.64Y12.15
G1X19.52
G1X19.48Y12.13
G1X19.46Y12.12
G1X19.48Y12.09
G1X19.54
G1X19.64
G1X19.75Y12.13
G1X19.78
G1Y12.1
G1X19.76Y12.05
G1X19.7Y12.01
G1X19.62Y11.98
G1X19.52
G1X19.46
G1X19.47Y11.94
G1X19.59Y11.92
G1X19.73Y11.95
G1X19.76
G1Y11.88
G1X19.72Y11.84
G1X19.67Y11.81
G1X19.59Y11.8
G1X19.5Y11.81
G1X19.44
G1X19.42Y11.79
G1X19.47Y11.76
G1X19.59Y11.74
G1X19.68
G1Y11.7
G1X19.66Y11.66
G1Y11.64
G1X19.57Y11.61
G1X19.42
M5
G0X19.4Y12.35
M3 S30
; Layer C00
G1X19.28
G1X19.24Y12.37
G1X19.22Y12.4
G1Y12.48
G1Y12.64
G1Y13.15
G1X19.3
G1X19.45Y13.16
G1X19.57Y13.18
G1Y13.15
G1Y13.06
G1Y12.77
G1Y12.48
G1Y12.39
G1X19.56Y12.36
G1X19.51Y12.35
G1X19.4
M5
G0X16.61Y13.55
M3 S30
; Layer C00
G1X16.6
G1X16.58
G1Y13.57
G1Y13.58
G1X16.6
G1Y13.56
M5
G0X16.69Y15.49
M3 S30
; Layer C00
G1X16.75
G1X16.78Y15.53
G1X16.77Y15.55
G1X16.72Y15.56
G1X16.62Y15.58
G1X16.56Y15.65
G1X16.5Y15.77
G1X16.49Y15.87
G1X16.52Y16.02
G1X16.57Y16.11
G1X16.65Y16.16
G1X16.78Y16.18
G1X16.86Y16.19
G1Y16.21
G1X16.74Y16.23
G1X16.59Y16.2
G1X16.49Y16.12
G1X16.44Y16
G1X16.42Y15.83
G1X16.46Y15.67
G1X16.5Y15.6
G1X16.54Y15.55
G1X16.61Y15.51
G1X16.69Y15.49
M5
G0X18.1Y15.41
M3 S30
; Layer C00
G1X18.12Y15.4
G1X18.17Y15.45
G1X18.28Y15.56
G1X18.39Y15.64
G1X18.51Y15.68
G1X18.66Y15.69
G1X18.83Y15.67
G1X18.98Y15.61
G1X19.09Y15.54
G1X19.21Y15.41
G1X19.24Y15.4
G1Y15.41
G1Y15.45
G1X19.18Y15.53
G1X19.1Y15.61
G1X19Y15.68
G1X18.89Y15.73
G1X18.69Y15.76
G1X18.48Y15.74
G1X18.33Y15.68
G1X18.21Y15.6
G1X18.12Y15.49
G1X18.1Y15.41
M5
G0X19.11Y15.95
M3 S30
; Layer C00
G1X19.23Y15.9
G1X19.36
G1X19.45Y15.95
G1X19.51Y16.03
G1Y16.12
G1X19.44Y16.22
G1X19.29Y16.33
G1X19.23Y16.37
G1X19.19Y16.39
G1X19.17
G1Y16.37
G1X19.19Y16.33
G1X19.29Y16.25
G1X19.38Y16.18
G1X19.43Y16.11
G1Y16.05
G1X19.4Y15.99
G1X19.36Y15.96
G1X19.31
G1X19.24
G1X19.16Y16
G1X19.07Y16.03
G1X19.04Y16.01
G1X19.11Y15.95
M5
G0X18.68Y16.77
M3 S30
; Layer C00
G1X18.71Y16.78
G1Y16.82
G1Y16.86
G1X18.7Y16.87
G1X18.68
G1X18.65Y16.89
G1X18.64Y16.88
G1X18.63Y16.86
G1X18.61
G1X18.58Y16.85
G1X18.61Y16.8
G1X18.64Y16.77
G1X18.68
M5
G0X18.8Y16.82
M3 S30
; Layer C00
G1Y16.69
G1X18.77Y16.58
G1X18.72Y16.49
G1X18.64Y16.41
G1X18.51Y16.33
G1X18.34Y16.29
G1X18.22Y16.27
G1X18.11Y16.28
G1X17.91Y16.34
G1X17.75Y16.44
G1X17.67Y16.52
G1X17.62Y16.6
G1X17.6Y16.68
G1X17.58Y16.79
G1Y16.91
G1X17.61Y17.03
G1X17.65Y17.12
G1X17.67Y17.18
G1X17.77Y17.27
G1X17.93Y17.37
G1X18.03Y17.43
G1X18.2
G1X18.35Y17.41
G1X18.44Y17.38
G1X18.59Y17.28
G1X18.71Y17.15
G1X18.76Y17
G1X18.8Y16.82
M5
G0X18.85Y16.8
M3 S30
; Layer C00
G1X18.83Y17
G1X18.76Y17.16
G1X18.65Y17.3
G1X18.53Y17.39
G1X18.42Y17.44
G1X18.28Y17.47
G1X18.14
G1X18.02
G1X17.9Y17.43
G1X17.8Y17.37
G1X17.71Y17.3
G1X17.63Y17.22
G1X17.6Y17.15
G1X17.56Y17.06
G1X17.53Y16.94
G1Y16.82
G1Y16.71
G1X17.55Y16.62
G1X17.59Y16.54
G1X17.65Y16.46
G1X17.74Y16.37
G1X17.84Y16.3
G1X17.95Y16.26
G1X18.1Y16.22
G1X18.21
G1X18.34Y16.23
G1X18.54Y16.29
G1X18.69Y16.4
G1X18.76Y16.48
G1X18.81Y16.58
G1X18.84Y16.68
G1X18.85Y16.8
M5
G0X20.02Y16.85
M3 S30
; Layer C00
G1Y16.8
G1X20.07
G1X20.1
G1X20.12
G1Y16.86
G1X20.11Y16.91
G1X20.06Y16.9
G1X20.02Y16.89
G1Y16.85
M5
G0X20.25Y16.89
M3 S30
; Layer C00
G1Y16.75
G1X20.19Y16.6
G1X20.08Y16.47
G1X19.92Y16.36
G1X19.74Y16.3
G1X19.61
G1X19.48Y16.33
G1X19.36Y16.39
G1X19.24Y16.47
G1X19.14Y16.59
G1X19.09Y16.74
G1Y16.85
G1Y16.95
G1X19.12Y17.05
G1X19.17Y17.15
G1X19.26Y17.25
G1X19.38Y17.33
G1X19.53Y17.38
G1X19.66Y17.39
G1X19.77
G1X19.92Y17.34
G1X20.06Y17.25
G1X20.16Y17.15
G1X20.22Y17.02
G1X20.25Y16.89
M5
G0X18.3Y17.68
M3 S30
; Layer C00
G1X18.34Y17.73
G1Y17.74
G1X18.32
G1X18.27Y17.71
G1X18.18Y17.66
G1X17.96Y17.55
G1X17.68Y17.45
G1Y17.42
G1X17.7Y17.41
G1X17.74
G1X17.81Y17.43
G1X17.93Y17.47
G1X18.07Y17.53
G1X18.2Y17.61
G1X18.3Y17.68
M5
G0X18.19Y18.27
M3 S30
; Layer C00
G1X18.42
G1X18.62Y18.26
G1X18.74Y18.24
G1X18.97Y18.16
G1X19.18Y18.06
G1X19.38Y17.93
G1X19.56Y17.78
G1X19.63Y17.71
G1X19.68Y17.66
G1X19.71Y17.62
G1Y17.6
G1X19.59Y17.65
G1X19.45Y17.72
G1X19.39Y17.74
G1X19.37Y17.73
G1X19.4Y17.69
G1X19.48Y17.64
G1X19.59Y17.59
G1X19.77Y17.53
G1X19.81Y17.49
G1X19.83Y17.45
G1X19.8
G1X19.73
G1X19.55Y17.43
G1X19.41Y17.4
G1X19.3Y17.36
G1X19.22Y17.29
G1X19.14Y17.2
G1X19.1Y17.13
G1X19.06Y17.03
G1X19.03Y16.87
G1Y16.78
G1X19.07Y16.65
G1X19.13Y16.53
G1X19.2Y16.44
G1X19.32Y16.35
G1X19.44Y16.29
G1X19.54Y16.26
G1X19.68Y16.25
G1X19.81
G1X19.88Y16.27
G1X19.98Y16.32
G1X20.03
G1Y16.29
G1Y16.18
G1Y16.05
G1X20.02Y15.92
G1X19.98Y15.79
G1X19.92Y15.62
G1X19.82Y15.44
G1X19.72Y15.25
G1X19.49Y15
G1X19.22Y14.8
G1X19.06Y14.72
G1X18.88Y14.64
G1X18.63Y14.57
G1X18.41Y14.54
G1X18.09Y14.53
G1X17.79
G1X17.57Y14.56
G1X17.41Y14.58
G1X17.31Y14.62
G1X17.25Y14.67
G1X17.1Y14.92
G1X17Y15.04
G1X16.9Y15.09
G1X16.8Y15.11
G1X16.68Y15.06
G1X16.59Y15
G1X16.56Y14.96
G1X16.5Y15
G1X16.32Y15.17
G1X16.15Y15.43
G1X16.12Y15.51
G1X16.15Y15.58
G1X16.18Y15.62
G1X16.2Y15.69
G1X16.21Y15.78
G1X16.22Y15.91
G1X16.24Y16.14
G1X16.28Y16.35
G1X16.34Y16.55
G1X16.42Y16.73
G1X16.47Y16.83
G1X16.49Y16.9
G1X16.62Y17.17
G1X16.82Y17.49
G1X16.99Y17.71
G1X17.13Y17.87
G1X17.26Y17.98
G1X17.39Y18.07
G1X17.5Y18.12
G1X17.61Y18.16
G1X17.75Y18.2
G1X17.94Y18.23
G1X18.19Y18.27
M5
G0X19.16Y18.58
M3 S30
; Layer C00
G1X19.08Y18.67
G1X18.96Y18.79
G1X18.85Y18.88
G1X18.75Y18.95
G1X18.63Y19.01
G1X18.44Y19.07
G1X18.27Y19.11
G1X18.16Y19.13
G1X17.4Y19.16
G1X17.34
G1X17.29
G1X17.12Y19.11
G1X16.96Y19.06
G1X16.86Y19.03
G1X16.68Y18.98
G1X16.62Y18.95
G1X16.54Y18.9
G1X16.43Y18.81
G1X16.33Y18.73
G1X16.11Y18.58
G1X16Y18.49
G1X15.9Y18.4
G1X15.8Y18.32
G1X15.72Y18.24
G1X15.66Y18.18
G1X15.63Y18.14
G1X15.61Y18.09
G1X15.58Y18.02
G1X15.53Y17.91
G1X15.5Y17.82
G1X15.45Y17.74
G1X15.37Y17.55
G1X15.33Y17.34
G1X15.32Y17.21
G1X15.3Y17.11
G1X15.28Y16.88
G1Y16.7
G1X15.31Y16.61
G1X15.41Y16.32
G1X15.45Y16.2
G1X15.51Y16.02
G1X15.59Y15.85
G1X15.68Y15.71
G1X15.79Y15.59
G1X15.92Y15.48
G1X16.02Y15.46
G1X16.06
G1X16.08Y15.41
G1X16.25Y15.16
G1X16.46Y14.96
G1X16.5Y14.93
G1X16.52Y14.91
G1Y14.88
G1X16.5Y14.82
G1X16.49Y14.76
G1Y14.66
G1X16.48Y14.59
G1Y13.98
G1Y13.68
G1Y13.64
G1Y13.62
G1Y13.6
G1X16.49Y13.56
G1X16.55Y13.52
G1X16.62Y13.47
G1X16.7Y12.98
G1Y11.3
G1Y10.44
G1Y10.15
G1Y10.06
G1X16.68Y9.97
G1Y9.85
G1X16.7Y9.8
G1X16.74Y9.78
G1X16.81Y9.75
G1X16.87Y9.73
G1X16.9
G1Y9.7
G1Y9.63
G1X16.91Y9.4
G1X16.93Y8.57
G1X16.95Y7.82
G1X17Y6.71
G1X17.01Y6.31
G1Y5.8
G1X17.02Y4.58
G1Y4.1
G1X17.03Y3.95
G1Y3.93
G1X17.05Y3.91
G1X17.08
G1X17.1Y3.89
G1X17.11Y3.79
G1Y3.7
G1X17.08Y3.66
G1X17.04Y3.62
G1X17.01Y3.55
G1X17Y3.44
G1Y3.28
G1Y3.12
G1X17.03Y3.03
G1X17.09Y2.98
G1X17.21Y2.96
G1X17.4Y2.93
G1X17.84Y2.87
G1X18.28Y2.84
G1X18.43
G1X18.54Y2.87
G1X18.59Y2.91
G1X18.6Y2.97
G1Y3.01
G1X18.68
G1X18.75Y3
G1X19.03
G1X19.47
G1X19.61
G1X19.67
G1X19.71Y3.02
G1X19.75Y3.05
G1Y3.08
G1Y3.11
G1X19.71Y3.15
G1X19.64Y3.22
G1X19.51Y3.32
G1X19.25Y3.52
G1X19.01Y3.67
G1X18.81Y3.8
G1X18.79Y3.84
G1Y3.92
G1X18.78Y4.02
G1X18.82Y4.03
G1X18.85Y4.06
G1X18.88Y4.1
G1X18.89Y4.15
G1X18.9Y4.26
G1Y4.35
G1X18.93Y5.63
G1X18.95Y6.3
G1X18.97Y6.81
G1X18.98Y6.99
G1X19.04Y7.7
G1X19.07Y8.38
G1X19.08Y8.62
G1X19.1Y8.93
G1Y9
G1X19.12Y9.42
G1X19.13Y9.56
G1Y9.64
G1X19.15Y9.67
G1Y9.63
G1Y9.53
G1X19.17Y9.32
G1X19.21Y9.17
G1X19.28Y9.08
G1X19.38Y9.02
G1X19.45
G1X19.5Y9.05
G1Y9.09
G1X19.47Y9.24
G1X19.46Y9.3
G1X19.49Y9.36
G1X19.55Y9.39
G1X19.63Y9.36
G1X19.77Y9.3
G1X19.93Y9.22
G1X20.09Y9.14
G1X20.19Y9.09
G1X20.26Y9.06
G1X20.32Y9.05
G1X20.37Y9.06
G1X20.41Y9.09
G1X20.44Y9.15
G1X20.49Y9.2
G1Y9.29
G1Y9.32
G1X20.51Y9.37
G1X20.46Y9.44
G1X20.43Y9.48
G1X20.41Y9.5
G1X20.43
G1X20.45Y9.51
G1X20.5Y9.53
G1X20.52Y9.55
G1Y9.59
G1X20.51Y9.63
G1X20.4Y9.7
G1X20.23Y9.79
G1X19.91Y9.88
G1X19.6Y9.95
G1X19.58Y9.98
G1Y10.07
G1X19.56Y10.45
G1Y10.6
G1X19.55Y11.02
G1Y11.39
G1Y11.43
G1X19.56Y11.48
G1X19.57Y11.54
G1X19.63Y11.57
G1X19.71Y11.63
G1X19.72Y11.72
G1Y11.76
G1X19.75Y11.78
G1X19.8Y11.86
G1Y11.94
G1Y11.99
G1X19.81Y12.02
G1X19.83Y12.09
G1X19.82Y12.18
G1Y12.22
G1Y12.29
G1X19.8Y12.36
G1X19.76Y12.42
G1X19.69Y12.45
G1X19.66
G1X19.65Y12.47
G1Y12.5
G1X19.64Y12.69
G1Y13.05
G1Y13.11
G1Y13.15
G1X19.68Y13.19
G1X19.76Y13.2
G1X19.82Y13.22
G1X19.85Y13.25
G1X19.87Y13.27
G1Y13.29
G1X19.82Y13.55
G1X19.78Y13.88
G1X19.76Y14.05
G1X19.73Y14.32
G1X19.67Y14.63
G1X19.59Y14.86
G1X19.54Y14.91
G1X19.51Y14.9
G1Y14.87
G1X19.53Y14.83
G1X19.6Y14.6
G1X19.66Y14.34
G1X19.67Y14.17
G1X19.72Y13.69
G1X19.79Y13.29
G1Y13.28
G1X19.77Y13.27
G1X19.72Y13.26
G1X19.4Y13.23
G1X19.31Y13.22
G1X19.25
G1X19.22
G1Y13.26
G1Y13.37
G1X19.19Y14.01
G1Y14.12
G1X19.18Y14.16
G1X19.16
G1X19.15Y14.13
G1Y14.08
G1X19.14Y14
G1Y12.96
G1Y12.65
G1Y12.57
G1X19.13Y12.49
G1X19.09Y12.48
G1X19.01Y12.42
G1X18.96Y12.34
G1X18.95Y12.31
G1X18.88
G1X18.79
G1X18.69Y12.33
G1X18.38Y12.39
G1X18.15Y12.43
G1X17.81Y12.5
G1X17.51Y12.58
G1X17.44Y12.62
G1X17.4Y12.64
G1X17.31Y13.01
G1X17.24Y13.42
G1Y13.43
G1X17.28
G1X17.33
G1X17.36Y13.47
G1X17.35Y13.53
G1X17.33Y13.62
G1X17.3Y13.76
G1X17.28Y13.91
G1X17.25Y14.22
G1Y14.27
G1X17.24Y14.28
G1X17.22
G1Y14.24
G1X17.21Y14.16
G1Y14.02
G1X17.22Y13.81
G1X17.25Y13.65
G1X17.27Y13.56
G1Y13.52
G1X17.21Y13.53
G1X17.11Y13.55
G1X17.05Y13.57
G1X16.87Y13.6
G1X16.64Y13.63
G1X16.53
G1X16.54Y13.67
G1Y13.72
G1Y13.84
G1X16.55Y14.02
G1Y14.42
G1X16.56Y14.73
G1Y14.79
G1X16.6Y14.9
G1X16.66Y14.98
G1X16.75Y15.03
G1X16.85Y15.04
G1X16.92Y15.01
G1X17Y14.94
G1X17.08Y14.83
G1X17.17Y14.68
G1X17.25Y14.53
G1X17.31
G1X17.4Y14.52
G1X17.55Y14.49
G1X17.77Y14.46
G1X17.97Y14.45
G1X18.21
G1X18.52Y14.49
G1X18.81Y14.55
G1X19.04Y14.64
G1X19.12Y14.68
G1X19.19Y14.72
G1X19.27Y14.76
G1X19.34Y14.81
G1X19.45Y14.88
G1X19.61Y15.02
G1X19.75Y15.19
G1X19.89Y15.43
G1X20.02Y15.71
G1X20.09Y15.94
G1X20.11Y16.21
G1Y16.32
G1Y16.38
G1X20.12Y16.41
G1X20.21Y16.53
G1X20.25Y16.63
G1X20.28Y16.73
G1Y16.85
G1Y16.97
G1X20.25Y17.08
G1X20.2Y17.19
G1X20.12Y17.27
G1X20.05Y17.34
G1X19.92Y17.42
G1X19.89Y17.46
G1X19.83Y17.57
G1X19.7Y17.73
G1X19.55Y17.89
G1X19.4Y18.01
G1X19.3Y18.08
G1Y18.16
G1Y18.28
G1X19.27Y18.39
G1X19.22Y18.49
G1X19.16Y18.58
M5
G0X13.86Y15.88
M3 S30
; Layer C00
G1X14.14Y15.66
G1X14.54Y15.37
G1X14.59Y15.32
G1X14.61Y15.3
G1Y15.28
G1X14.57Y15.23
G1X14.51Y15.15
G1X14.32Y14.93
G1X14.15Y14.72
G1X13.95Y14.51
G1X13.68Y14.21
G1X13.56Y14.08
G1X13.48Y14
G1X13.45Y13.97
G1X13.43Y14.01
G1X13.37Y14.28
G1X13.32Y14.48
G1X13.12Y15.07
G1X13.08Y15.21
G1X13.04Y15.31
G1X12.88Y15.68
G1X12.85Y15.76
G1X12.79Y15.89
G1X12.72Y16.03
G1X12.44Y16.6
G1X12.39Y16.68
G1X12.26Y16.88
G1X12.24Y16.93
G1X12.26
G1X12.32Y16.9
G1X12.64Y16.7
G1X12.91Y16.54
G1X12.97Y16.51
G1X13.05Y16.46
G1X13.12Y16.42
G1X13.2Y16.36
G1X13.86Y15.88
M5
G0X11.98Y15.95
M3 S30
; Layer C00
G1X11.97Y16.04
G1X11.95Y16.09
G1X11.93Y16.13
G1X11.88Y16.15
G1X11.8Y16.18
G1X11.54Y16.27
G1X11.45Y16.3
G1X11.39Y16.33
G1X11.33Y16.35
G1X11.31Y16.38
G1X11.33Y16.43
G1X11.38Y16.52
G1X11.47Y16.68
G1X11.58Y16.83
G1X11.6Y16.85
G1X11.55Y16.91
G1X11.43Y17.01
G1X11.01Y17.43
G1X10.58Y17.89
G1X10.52Y17.97
G1X10.47Y18.01
G1X10.45Y18.03
G1X10.43
G1Y17.99
G1X10.5Y17.9
G1X10.66Y17.71
G1X10.84Y17.51
G1X11.04Y17.3
G1X11.27Y17.08
G1X11.51Y16.85
G1X11.47Y16.8
G1X11.43Y16.74
G1X11.28Y16.49
G1X11.24Y16.41
G1X11.23Y16.36
G1X11.29Y16.31
G1X11.4Y16.26
G1X11.68Y16.15
G1X11.9Y16.06
G1Y16.04
G1X11.91Y15.99
G1Y15.9
G1X11.93Y15.49
G1X11.95Y15.09
G1X11.96Y14.69
G1Y14.49
G1X11.98Y14.33
G1X12Y14.23
G1X12.01Y14.2
G1X12.04Y14.19
G1X12.06
G1Y14.32
G1X12.05Y14.44
G1X12.03Y14.96
G1X12.02Y15.22
G1X12.01Y15.33
G1X12Y15.63
G1X11.98Y15.95
M5
G0X12.68Y16.01
M3 S30
; Layer C00
G1X12.9Y15.51
G1X13.08Y15.04
G1X13.19Y14.67
G1X13.26Y14.45
G1X13.32Y14.25
G1X13.36Y14.08
G1X13.38Y13.96
G1X13.39Y13.88
G1X13.31Y13.8
G1X13.18Y13.67
G1X13.06Y13.58
G1X13.02Y13.55
G1X13.01Y13.46
G1X12.98Y13.43
G1X12.91Y13.37
G1X12.86Y13.36
G1X12.82Y13.39
G1X12.77Y13.45
G1X12.56Y13.65
G1X12.36Y13.8
G1X12.27Y13.85
G1X12.21Y13.88
G1X12.13Y13.91
G1X12.02Y13.95
G1X11.98Y14.03
G1X11.93Y14.17
G1X11.78Y14.61
G1X11.73Y14.75
G1X11.61Y15.01
G1X11.54Y15.19
G1X11.48Y15.32
G1X11.36Y15.56
G1X11.32Y15.66
G1X11.28Y15.76
G1X11.23Y15.88
G1X11.15Y16.05
G1X11.03Y16.29
G1X10.8Y16.76
G1X10.62Y17.16
G1X10.48Y17.46
G1X10.41Y17.65
G1X10.32Y17.88
G1X10.27Y18.02
G1X10.24Y18.12
G1Y18.18
G1X10.23Y18.25
G1Y18.34
G1X10.24Y18.39
G1X10.27Y18.41
G1X10.31
G1X10.4
G1X10.52Y18.39
G1X10.66Y18.38
G1X10.98Y18.35
G1X11.17Y18.33
G1X11.33Y18.3
G1X11.44Y18.28
G1X11.54Y18.24
G1X11.65Y18.18
G1X11.8Y18.09
G1X11.98Y17.97
G1X12.31Y17.77
G1X12.75Y17.47
G1X13.16Y17.18
G1X13.3Y17.07
G1X13.6Y16.85
G1X13.73Y16.75
G1X13.84Y16.66
G1X13.92Y16.59
G1X14.01Y16.51
G1X14.43Y16.19
G1X14.65Y16
G1X14.75Y15.91
G1X14.83Y15.85
G1X14.9Y15.8
G1X14.95Y15.77
G1X15.03Y15.71
G1X15.13Y15.63
G1X15.26Y15.48
G1X15.31Y15.36
G1X15.29Y15.28
G1X15.21Y15.14
G1X15.15Y15.04
G1X15.07Y14.92
G1X14.83Y14.59
G1X14.71Y14.43
G1X14.57Y14.26
G1X14.34Y13.98
G1X14.08Y13.65
G1X13.89Y13.4
G1X13.67Y13.08
G1X13.61Y13.16
G1X13.45Y13.35
G1X13.25Y13.5
G1X13.13Y13.57
G1X13.28Y13.71
G1X13.41Y13.83
G1X13.51Y13.94
G1X13.76Y14.22
G1X14.04Y14.52
G1X14.19Y14.69
G1X14.29Y14.81
G1X14.37Y14.91
G1X14.54Y15.1
G1X14.62Y15.2
G1X14.67Y15.28
G1X14.69Y15.32
G1X14.66Y15.35
G1X14.5Y15.47
G1X14.26Y15.65
G1X14.06Y15.79
G1X13.94Y15.89
G1X13.71Y16.06
G1X13.52Y16.19
G1X13.19Y16.44
G1X12.9Y16.61
G1X12.71Y16.72
G1X12.21Y17.02
G1X11.82Y17.23
G1X11.68Y17.31
G1X11.57Y17.38
G1X11.51Y17.41
G1X11.49
G1X11.47
G1X11.51Y17.37
G1X11.63Y17.29
G1X11.8Y17.18
G1X12.01Y17.06
G1X12.12Y16.99
G1X12.17Y16.94
G1X12.27Y16.79
G1X12.36Y16.64
G1X12.47Y16.42
G1X12.68Y16.01
M5
G0X11.14Y15.93
M3 S30
; Layer C00
G1X11.32Y15.49
G1X11.45Y15.24
G1X11.5Y15.12
G1X11.63Y14.83
G1X11.69Y14.65
G1X11.76Y14.47
G1X11.82Y14.27
G1X11.87Y14.14
G1X11.9Y14.06
G1X11.92Y14.01
G1X11.94Y13.98
G1Y13.96
G1X11.91Y13.94
G1X11.85
G1X11.67Y13.88
G1X11.53Y13.79
G1X11.46Y13.69
G1X11.47Y13.63
G1X11.51Y13.61
G1X11.57
G1X11.65
G1X11.93Y13.65
G1X12
G1X12.04Y13.61
G1X12.06Y13.54
G1Y13.52
G1X12.01
G1X11.83Y13.5
G1X11.61Y13.42
G1X11.44Y13.32
G1X11.34Y13.2
G1X11.32Y13.16
G1Y13.13
G1X11.34Y13.1
G1X11.38Y13.07
G1X11.42Y13.06
G1X11.5Y13.07
G1X11.58Y13.1
G1X11.67Y13.14
G1X11.8Y13.18
G1X11.99Y13.21
G1X12.07Y13.22
G1X12.13
G1X12.15
G1X12.16Y13.21
G1Y13.19
G1X12.12Y13.18
G1X12Y13.12
G1X11.87Y13.04
G1X11.76Y12.95
G1X11.67Y12.85
G1X11.64Y12.81
G1X11.5
G1X11.39
G1X11.33
G1X11.31Y12.84
G1X11.26Y12.97
G1X11.24
G1Y12.95
G1X11.25Y12.9
G1X11.27Y12.82
G1X11.24
G1X11.2Y12.84
G1X11.15Y12.94
G1X11.11Y13.02
G1X11.08Y13.06
G1X11.07Y13.03
G1X11.11Y12.93
G1X11.14Y12.85
G1X11.1
G1X11.05
G1X11.02Y12.88
G1X11Y12.93
G1X10.92Y13.36
G1X10.84Y13.73
G1X10.8Y13.9
G1X10.77Y14.05
G1X10.73Y14.16
G1X10.71Y14.23
G1X10.68Y14.3
G1X10.67Y14.34
G1Y14.38
G1X10.63Y14.54
G1X10.56Y14.88
G1X10.52Y15.07
G1X10.36Y15.62
G1X10.15Y16.14
G1X10.06Y16.35
G1X9.98Y16.55
G1X9.91Y16.71
G1X9.77Y17.04
G1X9.71Y17.19
G1X9.66Y17.32
G1X9.62Y17.43
G1X9.57Y17.61
G1X9.55Y17.79
G1X9.53Y17.98
G1Y18.02
G1X9.55
G1X9.59Y17.98
G1X9.64Y17.95
G1X9.73
G1X9.89Y17.99
G1X10.06Y18.11
G1X10.13Y18.17
G1X10.17Y18.2
G1Y18.18
G1X10.18Y18.14
G1X10.2Y18.06
G1X10.23Y17.97
G1X10.28Y17.84
G1X10.34Y17.67
G1X10.4Y17.49
G1X10.47Y17.35
G1X10.72Y16.79
G1X10.84Y16.55
G1X10.94Y16.33
G1X11.02Y16.19
G1X11.14Y15.93
M5
G0X10.3Y15.61
M3 S30
; Layer C00
G1X10.47Y15.01
G1X10.54Y14.68
G1X10.59Y14.38
G1X10.62Y14.06
G1X10.65Y13.66
G1Y13.53
G1Y13.37
G1X10.62Y13.18
G1X10.59Y12.94
G1X10.53Y12.65
G1X10.45Y12.29
G1X10.4Y12.13
G1X10.36Y11.99
G1X10.33Y11.89
G1X10.31Y11.84
G1X10.3
G1Y11.87
G1Y11.94
G1X10.33Y12.07
G1X10.36Y12.23
G1X10.38Y12.4
G1X10.4Y12.6
G1X10.42Y12.97
G1X10.43Y13.02
G1Y13.44
G1X10.41Y13.89
G1X10.38Y14.07
G1X10.35Y14.4
G1X10.34Y14.55
G1Y14.58
G1Y14.57
G1X10.37Y14.53
G1X10.4Y14.47
G1X10.45Y14.37
G1X10.5Y14.28
G1X10.53Y14.26
G1X10.5Y14.38
G1X10.44Y14.53
G1X10.38Y14.62
G1X10.29Y14.76
G1X10.18Y14.95
G1X9.97Y15.32
G1X9.86Y15.5
G1X9.77Y15.62
G1X9.74Y15.69
G1X9.75Y15.73
G1X9.83Y15.85
G1X9.86Y15.92
G1X9.94Y16.08
G1Y16.13
G1Y16.16
G1X9.89Y16.19
G1X9.84Y16.22
G1X9.55Y16.41
G1X9.47Y16.47
G1X9.39Y16.53
G1X9.43Y17.24
G1Y17.52
G1Y17.64
G1Y17.74
G1Y17.82
G1X9.42Y17.87
G1X9.4Y17.91
G1X9.39
G1Y17.85
G1Y17.74
G1Y17.55
G1X9.38Y17.31
G1X9.37Y17.11
G1Y17.04
G1X9.35Y17.02
G1X9.33Y17.05
G1X9.25Y17.21
G1X9.22Y17.26
G1X9.2Y17.28
G1X9.19
G1Y17.26
G1X9.21Y17.19
G1X9.25Y17.1
G1X9.34Y16.92
G1X9.36Y16.88
G1Y16.81
G1X9.34Y16.52
G1X9.39Y16.48
G1X9.54Y16.36
G1X9.63Y16.29
G1X9.68Y16.19
G1X9.75Y16.02
G1X9.78Y15.91
G1X9.76Y15.86
G1X9.69Y15.71
G1X9.68Y15.67
G1X9.69Y15.64
G1X9.74Y15.58
G1X9.87Y15.38
G1X10.02Y15.12
G1X10.09Y14.99
G1X10.17Y14.86
G1X10.23Y14.74
G1X10.27Y14.62
G1X10.29Y14.46
G1X10.32Y14.16
G1Y14.12
G1X10.35Y13.87
G1Y13.61
G1X10.25Y13.42
G1X10.08Y13.18
G1X9.69Y12.75
G1X9.27Y12.38
G1X9.05Y12.2
G1X8.77Y11.94
G1X8.73Y11.92
G1X8.71
G1Y11.95
G1X8.64Y12.1
G1X8.53Y12.29
G1X8.49Y12.35
G1X8.39Y12.46
G1X8.37Y12.48
G1X8.38Y12.49
G1X8.76Y12.74
G1X9.1Y13
G1X9.25Y13.13
G1X9.62Y13.47
G1X9.94Y13.87
G1X10.08Y14.06
G1X10.06Y14.1
G1X10.03Y14.18
G1X9.99Y14.3
G1X9.93Y14.47
G1X9.84Y14.72
G1X9.73Y14.99
G1X9.64Y15.23
G1X9.56Y15.41
G1X9.36Y15.99
G1X9.25Y16.26
G1X9.18Y16.43
G1X9.13Y16.57
G1X9.07Y16.74
G1X8.94Y17.16
G1X8.89Y17.32
G1X8.83Y17.53
G1Y17.7
G1X8.86Y17.76
G1X8.92Y17.82
G1X9.02Y17.91
G1X9.15Y18.01
G1X9.28Y18.1
G1X9.37Y18.17
G1X9.44Y18.22
G1X9.46Y18.17
G1X9.47Y18.11
G1X9.48Y18.05
G1X9.5Y17.81
G1X9.53Y17.55
G1X9.56Y17.44
G1X9.61Y17.3
G1X9.68Y17.11
G1X9.78Y16.87
G1X9.89Y16.6
G1X9.97Y16.41
G1X10.06Y16.21
G1X10.3Y15.61
M5
G0X9.82Y15.96
M3 S30
; Layer C00
G1X9.81Y15.99
G1X9.75Y16.15
G1X9.73Y16.2
G1X9.72Y16.21
G1X9.73
G1X9.75
G1X9.76
G1X9.79Y16.18
G1X9.84Y16.16
G1X9.89Y16.13
G1X9.91Y16.11
G1X9.87Y16.03
G1X9.82Y15.96
M5
G0X10.7Y14.11
M3 S30
; Layer C00
G1Y14.08
G1X10.73Y14
G1X10.79Y13.71
G1X10.84Y13.48
G1X10.88Y13.27
G1X10.91Y13.11
G1X10.93Y12.96
G1X10.97Y12.71
G1X11Y12.53
G1X11.01Y12.37
G1Y12.27
G1X10.99Y12.22
G1X10.96Y12.17
G1X10.91Y12.09
G1X10.84Y11.98
G1X10.76Y11.84
G1X10.67Y11.69
G1X10.49Y11.36
G1X10.27Y10.94
G1X10.08Y10.59
G1X9.92Y10.29
G1X9.89Y10.24
G1Y10.3
G1X9.92Y10.4
G1X10.16Y11.15
G1X10.21Y11.33
G1X10.29Y11.62
G1X10.37Y11.85
G1X10.43Y12.01
G1X10.48Y12.14
G1X10.55Y12.45
G1X10.63Y12.77
G1X10.67Y13.07
G1X10.71Y13.43
G1Y13.5
G1Y13.62
G1X10.69Y14.02
G1Y14.09
G1Y14.11
M5
G0X11.56Y13.75
M3 S30
; Layer C00
G1X11.67Y13.83
G1X11.8Y13.88
G1X11.96
G1X12.07Y13.87
G1X12.2Y13.82
G1X12.33Y13.75
G1X12.45Y13.67
G1X12.66Y13.48
G1X12.92Y13.2
G1X13.11Y13.01
G1X13.17Y12.94
G1X13.2Y12.9
G1Y12.86
G1X13.14Y12.8
G1X13.05Y12.78
G1X12.95Y12.8
G1X12.84Y12.85
G1X12.78Y12.89
G1X12.73Y12.9
G1X12.67Y12.88
G1X12.57Y12.84
G1X12.45Y12.77
G1X12.26Y12.66
G1X12.18Y12.62
G1X12.13Y12.6
G1X12.1
G1X12.13Y12.64
G1X12.22Y12.73
G1X12.35Y12.84
G1X12.49Y12.94
G1X12.57Y12.99
G1X12.61Y13.02
G1X12.63Y13.05
G1Y13.08
G1X12.61Y13.1
G1X12.55
G1X12.46Y13.08
G1X12.34Y13.05
G1X12.12Y12.96
G1X11.89Y12.84
G1X11.76Y12.76
G1X11.7Y12.74
G1X11.69Y12.77
G1X11.74Y12.86
G1X11.89Y12.99
G1X12.07Y13.1
G1X12.2Y13.14
G1X12.37Y13.19
G1X12.41Y13.21
G1Y13.22
G1Y13.24
G1X12.36Y13.26
G1X12.19Y13.28
G1X12
G1X11.79Y13.23
G1X11.55Y13.15
G1X11.43Y13.11
G1X11.39Y13.13
G1Y13.18
G1X11.44Y13.24
G1X11.52Y13.31
G1X11.64Y13.38
G1X11.85Y13.45
G1X12.05
G1X12.21
G1X12.3
G1X12.34
G1X12.35Y13.47
G1X12.21Y13.6
G1X11.99Y13.7
G1X11.92
G1X11.69Y13.67
G1X11.6
G1X11.53
G1X11.51
G1X11.56Y13.75
M5
G0X12.11Y13.58
M3 S30
; Layer C00
G1X12.13
G1X12.18Y13.55
G1X12.22Y13.53
G1X12.23Y13.51
G1X12.19Y13.5
G1X12.14
G1X12.12Y13.53
G1Y13.57
G1Y13.58
M5
G0X12.23Y13.23
M3 S30
; Layer C00
G1X12.24Y13.22
G1Y13.21
G1X12.22
G1X12.21
G1Y13.22
G1X12.23
M5
G0X12.4Y13.01
M3 S30
; Layer C00
G1X12.47Y13.03
G1X12.51Y13.04
G1X12.53
G1Y13.03
G1X12.51Y13.01
G1X12.43Y12.96
G1X12.35Y12.91
G1X12.32
G1X12.3Y12.94
G1X12.32Y12.98
G1X12.4Y13.01
M5
G0X12.24Y12.96
M3 S30
; Layer C00
G1X12.25Y12.94
G1X12.27Y12.91
G1Y12.86
G1X12.26Y12.83
G1X12.21Y12.81
G1X12.09Y12.8
G1X12
G1X11.96
G1X12.09Y12.89
G1X12.24Y12.96
M5
G0X12.11Y12.73
M3 S30
; Layer C00
G1Y12.71
G1X12.05Y12.63
G1X12.04Y12.59
G1Y12.56
G1X12.08Y12.54
G1X12.11Y12.52
G1Y12.5
G1X12.07Y12.48
G1X11.97Y12.46
G1X11.83
G1X11.7
G1X11.61Y12.49
G1X11.56Y12.52
G1X11.52Y12.64
G1Y12.74
G1Y12.76
G1X11.56
G1X11.6
G1X11.62Y12.73
G1X11.65Y12.7
G1X11.69Y12.69
G1X11.73
G1X11.8Y12.72
G1X11.87Y12.75
G1X11.97
G1X12.06
G1X12.11Y12.73
M5
G0X12.39Y12.67
M3 S30
; Layer C00
G1X12.56Y12.77
G1X12.73Y12.84
G1X12.77Y12.82
G1X12.94Y12.74
G1X13.04Y12.72
G1X13.13Y12.73
G1X13.2Y12.78
G1X13.26Y12.86
G1X13.25Y12.93
G1X13.22Y12.99
G1X13.24Y13.01
G1X13.3Y13.05
G1X13.35Y13.08
G1X13.38Y13.09
G1X13.41Y13.08
G1X13.46Y13.04
G1X13.53Y12.98
G1X13.55Y12.94
G1X13.58Y12.83
G1X13.6Y12.68
G1X13.64Y12.36
G1X13.67Y12.19
G1X13.71Y11.88
G1X13.75Y11.48
G1X13.76Y11.28
G1X13.79Y11.03
G1Y10.98
G1X13.82Y10.87
G1X13.85Y10.73
G1X13.88Y10.57
G1X13.99Y10.12
G1X14.04Y9.92
G1X14.14Y9.57
G1X14.27Y9.19
G1X14.32Y9.07
G1X14.44Y8.83
G1X14.46Y8.79
G1X14.42Y8.81
G1X14.34Y8.9
G1X14.23Y9.03
G1X14.12Y9.17
G1X13.78Y9.65
G1X13.63Y9.88
G1X13.48Y10.14
G1X13.3Y10.46
G1X13.11Y10.83
G1X12.91Y11.23
G1X12.77Y11.56
G1X12.66Y11.88
G1X12.62Y12.01
G1X12.49Y12.34
G1X12.44Y12.5
G1X12.4Y12.62
G1Y12.67
M5
G0X13.18Y13.03
M3 S30
; Layer C00
G1X12.89Y13.3
G1X12.94Y13.34
G1X13.06Y13.43
G1X13.12Y13.48
G1X13.15Y13.5
G1X13.19Y13.47
G1X13.28Y13.42
G1X13.41Y13.31
G1X13.46Y13.25
G1X13.39Y13.18
G1X13.24Y13.07
G1X13.18Y13.03
M5
G0X13.41Y13.13
M3 S30
; Layer C00
G1X13.45Y13.17
G1X13.5Y13.2
G1X13.52Y13.18
G1X13.56Y13.14
G1X13.59Y13.08
G1X13.61Y13.04
G1Y13.02
G1X13.56Y13.04
G1X13.52Y13.06
G1X13.47Y13.09
G1X13.41Y13.13
M5
G0X12.45Y11.96
M3 S30
; Layer C00
G1Y11.92
G1X12.43Y11.83
G1X12.38Y11.67
G1X12.32Y11.5
G1X12.28Y11.37
G1X12.18Y11.07
G1X12.05Y10.75
G1X11.88Y10.35
G1X11.72Y9.95
G1X11.58Y9.57
G1X11.44Y9.14
G1X11.43Y9.1
G1X11.4
G1X11.32Y9.09
G1X10.83Y9.05
G1X10.6Y9.03
G1X10.41Y9
G1X10.26Y8.96
G1X10.18Y8.94
G1X10.14
G1Y8.96
G1X10.17Y9
G1X10.35Y9.37
G1X10.5Y9.7
G1X10.6Y9.9
G1X10.7Y10.12
G1X10.74Y10.21
G1X10.88Y10.49
G1X10.94Y10.58
G1X11.18Y10.98
G1X11.33Y11.22
G1X11.64Y11.74
G1X11.7Y11.84
G1X11.74Y11.92
G1X11.79Y12.01
G1X11.98Y11.98
G1X12.1
G1X12.26Y11.97
G1X12.45
M5
G0X12.94Y11.01
M3 S30
; Layer C00
G1X12.96Y10.99
G1X12.98Y10.95
G1X13.26Y10.41
G1X13.59Y9.82
G1X13.68Y9.69
G1X13.86Y9.43
G1X13.97Y9.27
G1X14.11Y9.08
G1X14.27Y8.89
G1X14.33Y8.81
G1X14.38Y8.75
G1X14.41Y8.71
G1X14.42Y8.69
G1X14.36Y8.71
G1X14.06Y8.8
G1X13.97Y8.83
G1X13.51Y8.91
G1X13.15Y8.98
G1X12.99Y9.01
G1X12.81Y9.03
G1X12.66Y9.04
G1X12.44Y9.06
G1X12.27Y9.07
G1X12.24Y9.09
G1X12.25Y9.12
G1X12.28Y9.21
G1X12.36Y9.47
G1X12.47Y9.76
G1X12.63Y10.18
G1X12.88Y10.9
G1X12.92Y10.99
G1X12.94Y11.01
M5
G0X8.6Y12.07
M3 S30
; Layer C00
G1X8.5Y12
G1X8.41Y11.95
G1X8.38Y11.98
G1X8.27Y12.14
G1X8.17Y12.25
G1X8.16Y12.28
G1X8.25Y12.35
G1X8.36Y12.41
G1X8.39Y12.39
G1X8.43Y12.35
G1X8.54Y12.18
G1X8.6Y12.07
M5
G0X8.27Y12.03
M3 S30
; Layer C00
G1X8.34Y11.91
G1X8.36Y11.82
G1X8.33Y11.73
G1X8.25Y11.67
G1X8.14Y11.62
G1X8.05Y11.51
G1X7.93Y11.3
G1X7.74Y10.9
G1X7.69Y10.82
G1X7.66Y10.77
G1X7.64Y10.76
G1X7.62Y10.84
G1X7.63Y11
G1X7.67Y11.11
G1X7.82Y11.43
G1X7.84Y11.51
G1X7.82Y11.56
G1X7.74Y11.54
G1X7.64Y11.46
G1X7.5Y11.31
G1X7.33Y11.13
G1X7.19Y10.93
G1X7.08Y10.8
G1X7.01Y10.73
G1X6.99Y10.75
G1Y10.81
G1X7.02Y10.89
G1X7.05Y10.98
G1X7.17Y11.17
G1X7.31Y11.36
G1X7.41Y11.49
G1X7.46Y11.59
G1X7.45Y11.62
G1X7.42
G1X7.35Y11.6
G1X7.23Y11.54
G1X7.05Y11.44
G1X6.88Y11.29
G1X6.75Y11.17
G1X6.67Y11.1
G1X6.62Y11.09
G1X6.59Y11.11
G1Y11.16
G1X6.62Y11.22
G1X6.74Y11.39
G1X6.9Y11.56
G1X6.98Y11.63
G1X7.01Y11.6
G1X7.06Y11.57
G1X7.14
G1X7.28Y11.63
G1X7.59Y11.77
G1X7.74Y11.84
G1X7.77
G1X7.8
G1X7.84Y11.81
G1X7.94Y11.76
G1X8.04
G1X8.15Y11.8
G1X8.19Y11.84
G1X8.17Y11.86
G1X8.1Y11.84
G1X7.99Y11.81
G1X7.9Y11.83
G1X7.85Y11.86
G1Y11.89
G1X7.87Y11.92
G1X7.83
G1X7.76Y11.9
G1X7.68Y11.87
G1X7.57Y11.82
G1X7.24Y11.67
G1X7.13Y11.63
G1X7.08Y11.62
G1X7.06Y11.64
G1X7.09Y11.7
G1X7.16Y11.78
G1X7.27Y11.88
G1X7.41Y11.97
G1X7.6Y12.06
G1X7.83Y12.13
G1X7.93Y12.16
G1X7.96Y12.18
G1X7.91
G1X7.79Y12.17
G1X7.64Y12.12
G1X7.49Y12.06
G1X7.41Y12.03
G1X7.22Y12
G1X7.08Y11.95
G1X6.9Y11.86
G1X6.68Y11.74
G1X6.59Y11.69
G1X6.53Y11.68
G1X6.51Y11.7
G1Y11.75
G1X6.62Y11.87
G1X6.8Y12.01
G1X7Y12.11
G1X7.21Y12.18
G1X7.5Y12.23
G1X7.83
G1X7.96
G1X8.04
G1X8.09
G1X8.12Y12.21
G1X8.19Y12.14
G1X8.27Y12.03
M5
G0X11.85Y7.91
M3 S30
; Layer C00
G1Y7.9
G1X11.86Y7.89
G1Y7.88
G1X11.85
G1Y7.89
G1Y7.91
M5
G0X9.73Y18
M3 S30
; Layer C00
G1X9.67
G1X9.61Y18.04
G1X9.5Y18.2
G1X9.43Y18.35
G1X9.46Y18.36
G1X9.63Y18.41
G1X9.72Y18.45
G1X9.84Y18.52
G1X9.98Y18.59
G1X10Y18.61
G1X10.02
G1X10.03Y18.6
G1X10.06Y18.56
G1X10.1Y18.48
G1X10.14Y18.4
G1X10.15Y18.34
G1X10.14Y18.29
G1X10.1Y18.23
G1X10.01Y18.14
G1X9.92Y18.07
G1X9.83Y18.02
G1X9.73Y18
M5
G0X9.94Y18.92
M3 S30
; Layer C00
G1X10.04Y18.93
G1X10.12Y18.97
G1X10.18Y19.03
G1X10.22Y19.13
G1X10.24Y19.25
G1X10.21Y19.43
G1X10.14Y19.54
G1X10.12
G1Y19.53
G1Y19.49
G1X10.14Y19.4
G1X10.16Y19.23
G1X10.12Y19.09
G1X10.08Y19.04
G1X10.04Y19.01
G1X9.97Y18.99
G1X9.89
G1X9.82Y19.02
G1X9.69Y19.11
G1X9.67
G1Y19.08
G1X9.7Y19.03
G1X9.77Y18.97
G1X9.85Y18.93
G1X9.94Y18.92
M5
G0X10.32Y18.97
M3 S30
; Layer C00
G1Y19.02
G1X10.36Y19.11
G1X10.41Y19.22
G1X10.45Y19.35
G1X10.48Y19.46
G1X10.49Y19.5
G1X10.52
G1X10.57Y19.51
G1X10.69Y19.54
G1X10.81Y19.64
G1X10.86Y19.69
G1X10.89Y19.74
G1Y19.8
G1Y19.89
G1Y19.98
G1X10.85Y20.07
G1X10.75Y20.21
G1X10.62Y20.3
G1X10.54Y20.33
G1Y20.96
G1Y21.28
G1X10.53Y21.39
G1X10.51Y21.48
G1X10.44Y21.8
G1X10.32Y22.04
G1X10.19Y22.26
G1X10.05Y22.42
G1X9.91Y22.52
G1X9.77Y22.58
G1X9.52Y22.62
G1X9.26Y22.64
G1X9.03
G1X8.86Y22.62
G1X8.63Y22.54
G1X8.43Y22.43
G1X8.28Y22.3
G1X8.17Y22.15
G1X8.13Y22.07
G1X8.11Y22
G1X8.09Y21.96
G1X8.05Y21.91
G1X7.99Y21.87
G1X7.89Y22.03
G1X7.8Y22.19
G1X7.73Y22.37
G1X7.68Y22.5
G1X7.65Y22.63
G1X7.58Y22.85
G1X7.56Y22.9
G1X7.6Y22.91
G1X7.72Y22.87
G1X7.81Y22.83
G1X7.89Y22.81
G1X7.97Y22.79
G1X8.11Y22.74
G1X8.17Y22.72
G1X8.26Y22.7
G1X8.29
G1X8.31
G1X8.33Y22.74
G1X8.31Y22.84
G1X8.28Y22.98
G1Y23.19
G1Y23.41
G1X8.34Y23.55
G1X8.43Y23.73
G1X8.51Y23.97
G1X8.53Y24
G1X8.55Y23.99
G1X8.58Y23.93
G1X8.63Y23.81
G1X8.69Y23.68
G1X8.73Y23.6
G1X8.77Y23.54
G1X8.83Y23.44
G1X8.94Y23.25
G1X9.06Y23.11
G1X9.11Y23.07
G1X9.18Y23.11
G1X9.39Y23.23
G1X9.56Y23.39
G1X9.69Y23.53
G1X10.05Y23.91
G1X10.17Y24.03
G1X10.26Y24.11
G1X10.35Y24.17
G1X10.41Y24.21
G1X10.45
G1X10.47
G1Y24.18
G1X10.44Y23.99
G1X10.41Y23.84
G1X10.43Y23.56
G1X10.42Y23.39
G1X10.39Y23.16
G1X10.4Y22.98
G1X10.44Y22.78
G1X10.45Y22.74
G1X10.49Y22.73
G1X10.6Y22.72
G1X11.06
G1X11.2Y22.75
G1X11.32Y22.79
G1X11.44Y22.82
G1X11.54Y22.83
G1X11.58
G1Y22.82
G1X11.55Y22.78
G1X11.5Y22.68
G1X11.4Y22.5
G1X11.31Y22.31
G1X11.21Y22.14
G1X11.12Y22
G1X10.99Y21.84
G1X10.97Y21.8
G1Y21.78
G1X11
G1X11.05
G1X11.12Y21.76
G1X11.22Y21.73
G1X11.34Y21.66
G1X11.55Y21.52
G1X11.69Y21.44
G1X11.8Y21.41
G1X11.91Y21.39
G1X12.05Y21.37
G1X12.1Y21.36
G1X12.06Y21.31
G1X11.95Y21.22
G1X11.73Y21.09
G1X11.46Y20.97
G1X11.34Y20.89
G1X11.22Y20.75
G1X11.17Y20.66
G1X11.2Y20.61
G1X11.24Y20.54
G1X11.33Y20.48
G1X11.46Y20.41
G1X11.75Y20.28
G1X11.8Y20.26
G1X11.81Y20.23
G1X11.72Y20.18
G1X11.62Y20.13
G1X11.52Y20.08
G1X11.33Y19.98
G1X11.17Y19.87
G1X11.06Y19.79
G1X11.01Y19.74
G1X10.99Y19.71
G1Y19.7
G1X11.1Y19.57
G1X11.22Y19.45
G1X11.31Y19.36
G1X11.28Y19.34
G1X11.2Y19.33
G1X10.95Y19.3
G1X10.87Y19.28
G1X10.82
G1X10.77
G1X10.7Y19.27
G1Y19.22
G1Y19.18
G1X10.73Y19.09
G1X10.75Y18.95
G1Y18.92
G1X10.72
G1X10.64Y18.94
G1X10.5Y18.95
G1X10.38
G1X10.32Y18.97
M5
G0X9.38Y19.38
M3 S30
; Layer C00
G1X9.31Y19.39
G1X9.26
G1X9.23
G1X9.21Y19.35
G1X9.19Y19.28
G1X9.16Y19.18
G1X9.14Y19.06
G1X9.12Y18.97
G1X9.1Y18.92
G1X9.07Y18.9
G1X9.04
G1X9.03Y18.91
G1X9.01Y18.94
G1Y19
G1X8.99Y19.11
G1X8.96Y19.23
G1X8.94Y19.3
G1X8.91
G1X8.82Y19.25
G1X8.79Y19.24
G1X8.75Y19.28
G1X8.73Y19.38
G1Y19.47
G1X8.8Y19.48
G1X9.08Y19.52
G1X9.31Y19.5
G1X9.36
G1X9.39Y19.48
G1Y19.46
G1Y19.43
G1X9.38Y19.38
M5
G0X9.44Y19.37
M3 S30
; Layer C00
G1Y19.43
G1X9.46
G1X9.51
G1X9.61Y19.39
G1X9.72Y19.33
G1X9.95Y19.2
G1X10Y19.17
G1X10.02
G1X10.03Y19.19
G1X10.02Y19.23
G1X9.97Y19.27
G1X9.89Y19.32
G1X9.79Y19.38
G1X9.55Y19.49
G1X9.35Y19.56
G1X9.14Y19.58
G1X8.88Y19.55
G1X8.76Y19.53
G1X8.67Y19.51
G1X8.48Y19.44
G1X8.31Y19.36
G1X8.2Y19.28
G1X8.18Y19.23
G1X8.2
G1X8.25Y19.26
G1X8.39Y19.33
G1X8.55Y19.4
G1X8.68Y19.44
G1Y19.42
G1Y19.37
G1X8.69Y19.29
G1X8.71Y19.23
G1X8.74Y19.19
G1X8.78Y19.18
G1X8.82
G1X8.89Y19.21
G1X8.9
G1X8.91Y19.17
G1X8.94Y18.97
G1X8.96Y18.91
G1X8.99Y18.87
G1X9.03Y18.84
G1X9.07Y18.83
G1X9.11Y18.84
G1X9.17Y18.91
G1X9.2Y19.07
G1X9.24Y19.25
G1X9.28Y19.33
G1X9.3
G1X9.39
G1X9.42Y19.34
G1X9.44Y19.37
M5
G0X9.42Y20.15
M3 S30
; Layer C00
G1X9.59Y20.16
G1X9.75Y20.22
G1X9.88Y20.31
G1X9.92Y20.36
G1X9.93Y20.4
G1Y20.42
G1X9.9
G1X9.87Y20.4
G1X9.82Y20.36
G1X9.75Y20.3
G1X9.67Y20.26
G1X9.59Y20.23
G1X9.49
G1X9.38
G1X9.28
G1X9.22Y20.25
G1X9.19
G1X9.2Y20.22
G1X9.27Y20.18
G1X9.42Y20.15
M5
G0X9.26Y20.85
M3 S30
; Layer C00
G1X9.28Y20.88
G1X9.31Y20.91
G1Y20.93
G1X9.32Y20.95
G1X9.35Y21.02
G1Y21.04
G1X9.32Y21.05
G1X9.27
G1X9.25Y21.06
G1X9.23Y21.08
G1X9.18Y21.05
G1X9.16Y21.01
G1X9.18Y20.95
G1X9.17Y20.92
G1X9.15Y20.88
G1X9.19Y20.86
G1X9.21
G1X9.23
G1X9.26
M5
G0X8.8Y20.8
M3 S30
; Layer C00
G1X8.76Y20.94
G1Y21.12
G1X8.83Y21.28
G1X8.96Y21.41
G1X9.12Y21.49
G1X9.3Y21.51
G1X9.52Y21.46
G1X9.64Y21.42
G1X9.72Y21.36
G1X9.77Y21.3
G1X9.81Y21.26
G1X9.85Y21.08
G1X9.87Y20.91
G1X9.82Y20.77
G1X9.72Y20.63
G1X9.64Y20.57
G1X9.51Y20.52
G1X9.37Y20.49
G1X9.24Y20.48
G1X9.15Y20.49
G1X9.1Y20.51
G1X9.07Y20.52
G1X9.04
G1X8.96Y20.57
G1X8.88Y20.67
G1X8.8Y20.8
M5
G0X8.76Y20.76
M3 S30
; Layer C00
G1X8.82Y20.66
G1X8.89Y20.55
G1X9Y20.48
G1X9.11Y20.43
G1X9.23Y20.42
G1X9.43Y20.43
G1X9.63Y20.5
G1X9.72Y20.54
G1X9.78Y20.59
G1X9.83Y20.66
G1X9.89Y20.77
G1X9.94Y20.88
G1Y20.97
G1X9.91Y21.16
G1X9.86Y21.3
G1X9.78Y21.4
G1X9.68Y21.47
G1X9.55Y21.52
G1X9.39Y21.55
G1X9.23
G1X9.1
G1X8.99Y21.5
G1X8.9Y21.44
G1X8.82Y21.36
G1X8.75Y21.25
G1X8.71Y21.17
G1X8.7Y21.06
G1Y20.95
G1X8.72Y20.86
G1X8.76Y20.76
M5
G0X8.62Y20.81
M3 S30
; Layer C00
G1X8.64Y21
G1X8.62Y21.14
G1X8.56Y21.27
G1X8.46Y21.39
G1X8.32Y21.49
G1X8.22Y21.53
G1X8.11Y21.55
G1X8.06
G1Y21.59
G1Y21.63
G1Y21.66
G1X8.11Y21.67
G1X8.23Y21.68
G1X8.38Y21.7
G1X8.5Y21.71
G1X8.77Y21.73
G1X9.07Y21.71
G1X9.24Y21.69
G1X9.48Y21.61
G1X9.58Y21.59
G1X9.71Y21.58
G1X9.78Y21.63
G1X9.8Y21.66
G1Y21.7
G1X9.73Y21.79
G1X9.61Y21.9
G1X9.51Y21.94
G1X9.36Y21.98
G1X9.15Y22.02
G1X8.92Y22.05
G1X8.72
G1X8.52Y22.04
G1X8.36Y22.02
G1X8.26Y22
G1X8.18Y21.98
G1X8.16
G1Y22
G1Y22.03
G1X8.2Y22.1
G1X8.3Y22.24
G1X8.43Y22.36
G1X8.6Y22.47
G1X8.81Y22.55
G1X8.89Y22.57
G1X8.96
G1X9.01Y22.59
G1X9.03
G1X9.1
G1X9.26
G1X9.44Y22.57
G1X9.6Y22.55
G1X9.81Y22.51
G1X9.96Y22.42
G1X10.12Y22.24
G1X10.29Y21.97
G1X10.39Y21.77
G1X10.44Y21.56
G1X10.45Y21.43
G1X10.46Y21.27
G1Y21.08
G1X10.47Y20.55
G1Y20.39
G1Y20.33
G1X10.42Y20.29
G1X10.44Y20.27
G1X10.5
G1X10.59Y20.25
G1X10.67Y20.21
G1X10.74Y20.13
G1X10.8Y20.04
G1X10.84Y19.91
G1Y19.79
G1X10.78Y19.69
G1X10.68Y19.6
G1X10.62Y19.57
G1X10.54Y19.56
G1X10.46
G1X10.41Y19.55
G1X10.39Y19.52
G1X10.4Y19.5
G1X10.41Y19.47
G1X10.39Y19.38
G1X10.33Y19.18
G1X10.26Y19.02
G1X10.17Y18.89
G1X10.06Y18.76
G1X9.9Y18.62
G1X9.7Y18.51
G1X9.49Y18.44
G1X9.3Y18.41
G1X9.2
G1X9.09Y18.43
G1X8.87Y18.46
G1X8.67Y18.52
G1X8.49Y18.61
G1X8.39Y18.74
G1X8.28Y18.91
G1X8.25Y18.97
G1X8.27Y19
G1X8.28
G1X8.3Y19.02
G1Y19.04
G1X8.26Y19.06
G1X8.07Y18.99
G1X8.02
G1X7.98Y19.02
G1X7.95Y19.07
G1X7.92Y19.17
G1X7.94Y19.29
G1X7.99Y19.41
G1X8.08Y19.53
G1X8.12Y19.59
G1X8.14Y19.62
G1X8.11
G1X8.07Y19.64
G1X8.04Y19.72
G1X8.01Y19.84
G1X7.98Y19.98
G1X7.96Y20.11
G1X7.95Y20.23
G1X8.04Y20.2
G1X8.16Y20.17
G1X8.23Y20.18
G1Y20.22
G1X8.16Y20.23
G1X8.05Y20.25
G1X7.97Y20.29
G1X7.94Y20.34
G1Y20.42
G1Y20.49
G1X7.96
G1X8.03
G1X8.16
G1X8.31Y20.48
G1X8.38Y20.5
G1X8.42Y20.52
G1X8.43
G1Y20.5
G1X8.37Y20.23
G1X8.35Y20.05
G1X8.38Y19.9
G1X8.45Y19.81
G1X8.49Y19.8
G1X8.53Y19.82
G1X8.57Y19.85
G1X8.62Y19.91
G1X8.67Y19.99
G1X8.75Y20.11
G1X8.79Y20.19
G1X8.82Y20.25
G1Y20.29
G1X8.81Y20.31
G1X8.78Y20.28
G1X8.74Y20.22
G1X8.69Y20.13
G1X8.62Y20.01
G1X8.61Y19.99
G1X8.55Y19.92
G1X8.49Y19.85
G1X8.45Y19.88
G1X8.42Y19.94
G1X8.4Y20
G1Y20.1
G1X8.46Y20.38
G1X8.55Y20.64
G1X8.62Y20.81
M5
G0X8.06Y20.97
M3 S30
; Layer C00
G1Y21
G1X8.05Y21.02
G1X8.03
G1X8.01
G1X7.99
G1X7.97Y21.03
G1X7.92
G1X7.87
G1X7.84Y21.01
G1X7.83Y20.99
G1X7.86Y20.95
G1X7.9Y20.91
G1X7.93Y20.88
G1X7.97Y20.85
G1X8Y20.88
G1Y20.9
G1X8.03Y20.93
G1X8.06Y20.97
M5
G0X7.63Y20.95
M3 S30
; Layer C00
G1X7.65Y21.11
G1X7.7Y21.26
G1X7.8Y21.38
G1X7.91Y21.45
G1X8.01Y21.49
G1X8.1
G1X8.2
G1X8.3Y21.44
G1X8.44Y21.33
G1X8.54Y21.2
G1X8.58Y21.1
G1Y20.98
G1Y20.88
G1X8.56Y20.81
G1X8.54Y20.76
G1X8.53Y20.71
G1X8.51Y20.66
G1X8.46Y20.61
G1X8.4Y20.56
G1X8.35Y20.54
G1X8.27Y20.53
G1X8.16
G1X7.95Y20.55
G1X7.81Y20.61
G1X7.7Y20.75
G1X7.63Y20.95
M5
G0X7.72Y21.38
M3 S30
; Layer C00
G1X7.66Y21.41
G1X7.51Y21.5
G1X7.42Y21.59
G1X7.6Y21.63
G1X7.78Y21.7
G1X7.88Y21.74
G1X7.93Y21.76
G1X7.95Y21.74
G1X7.98Y21.71
G1X8.01Y21.65
G1Y21.59
G1X7.98Y21.55
G1X7.92Y21.52
G1X7.86Y21.49
G1X7.79Y21.44
G1X7.72Y21.38
M5
G0X8.02Y21.74
M3 S30
; Layer C00
G1X8Y21.77
G1X8.01Y21.82
G1X8.07Y21.87
G1X8.22Y21.93
G1X8.4Y21.97
G1X8.62Y21.99
G1X8.7
G1X8.77
G1X8.98Y21.98
G1X9.17Y21.96
G1X9.33Y21.93
G1X9.46Y21.9
G1X9.56Y21.86
G1X9.63Y21.81
G1X9.7Y21.74
G1X9.73Y21.68
G1Y21.65
G1X9.69
G1X9.6
G1X9.5Y21.67
G1X9.39Y21.7
G1X9.07Y21.78
G1X8.75Y21.79
G1X8.56
G1X8.46Y21.77
G1X8.28Y21.74
G1X8.08Y21.73
G1X8.02Y21.74
M5
G0X7.85Y20.52
M3 S30
; Layer C00
G1X7.87
G1Y20.5
G1Y20.46
G1X7.88Y20.38
G1Y20.28
G1Y20.24
G1X7.85
G1X7.8Y20.25
G1X7.74Y20.27
G1X7.62Y20.31
G1X7.59
G1X7.61Y20.34
G1X7.74Y20.44
G1X7.82Y20.52
G1X7.85
M5
G0X7.78Y20.55
M3 S30
; Layer C00
G1X7.74Y20.51
G1X7.65Y20.44
G1X7.55Y20.36
G1X7.52Y20.31
G1X7.55Y20.27
G1X7.65Y20.24
G1X7.75Y20.21
G1X7.83Y20.17
G1X7.88Y20.12
G1X7.9Y20.06
G1X7.94Y19.83
G1X7.99Y19.66
G1X8.03Y19.55
G1X7.99Y19.52
G1X7.92Y19.4
G1X7.88Y19.27
G1X7.87Y19.14
G1X7.9Y19.03
G1X7.92Y18.99
G1X7.95Y18.96
G1X8.04Y18.94
G1X8.14
G1X8.17Y18.96
G1X8.19
G1X8.22Y18.91
G1X8.28Y18.81
G1X8.34Y18.69
G1X8.4Y18.61
G1X8.57Y18.5
G1X8.77Y18.42
G1X9.01Y18.37
G1X9.35Y18.34
G1X9.4Y18.29
G1X9.42Y18.25
G1X9.28Y18.16
G1X9.07Y18.01
G1X8.89Y17.88
G1X8.79Y17.76
G1X8.77Y17.7
G1Y17.59
G1Y17.45
G1X8.82Y17.32
G1X8.88Y17.15
G1X9.05Y16.59
G1X9.27Y16.03
G1X9.49Y15.42
G1X9.58Y15.2
G1X9.68Y14.95
G1X9.79Y14.68
G1X9.88Y14.44
G1X9.94Y14.26
G1X10Y14.07
G1X9.96Y14
G1X9.82Y13.8
G1X9.64Y13.59
G1X9.42Y13.36
G1X9.2Y13.16
G1X8.96Y12.97
G1X8.68Y12.75
G1X8.31Y12.5
G1X8.29Y12.46
G1X8.27Y12.43
G1X8.23Y12.4
G1X8.17Y12.36
G1X8.12Y12.33
G1X8.05Y12.29
G1X7.58
G1X7.14Y12.22
G1X6.95Y12.15
G1X6.77Y12.06
G1X6.61Y11.95
G1X6.51Y11.84
G1X6.46Y11.72
G1Y11.63
G1X6.54Y11.62
G1X6.68Y11.67
G1X6.91Y11.79
G1X7.09Y11.89
G1X7.22Y11.94
G1X7.27Y11.96
G1Y11.94
G1X7.16Y11.86
G1X6.96Y11.67
G1X6.84Y11.57
G1X6.68Y11.4
G1X6.58Y11.25
G1X6.54Y11.17
G1Y11.11
G1X6.55Y11.06
G1X6.59Y11.04
G1X6.64Y11.03
G1X6.7Y11.05
G1X6.78Y11.12
G1X6.9Y11.23
G1X7.12Y11.42
G1X7.33Y11.54
G1X7.37Y11.56
G1X7.39
G1X7.34Y11.48
G1X7.2Y11.31
G1X7.14Y11.22
G1X7.02Y11.04
G1X6.95Y10.89
G1X6.93Y10.77
G1X6.96Y10.69
G1X7Y10.67
G1X7.06Y10.71
G1X7.15Y10.79
G1X7.27Y10.95
G1X7.42Y11.14
G1X7.58Y11.32
G1X7.65Y11.39
G1X7.71Y11.45
G1X7.76Y11.48
G1X7.78
G1X7.75Y11.42
G1X7.62Y11.14
G1X7.58Y11.03
G1X7.56Y10.93
G1Y10.82
G1X7.58Y10.72
G1X7.63Y10.69
G1X7.68Y10.71
G1X7.74Y10.78
G1X7.81Y10.9
G1X7.88Y11.05
G1X7.99Y11.29
G1X8.11Y11.49
G1X8.2Y11.58
G1X8.28Y11.61
G1X8.33Y11.63
G1X8.38Y11.69
G1X8.41Y11.76
G1X8.42Y11.83
G1X8.44Y11.88
G1X8.51Y11.93
G1X8.58Y11.98
G1X8.61Y12
G1X8.64Y11.96
G1X8.65Y11.89
G1Y11.86
G1X8.6Y11.89
G1X8.55Y11.92
G1X8.52
G1Y11.9
G1X8.56Y11.85
G1X8.63Y11.8
G1X8.68
G1X8.73Y11.83
G1X9.08Y12.15
G1X9.35Y12.36
G1X9.64Y12.62
G1X9.94Y12.92
G1X10.07Y13.07
G1X10.17Y13.19
G1X10.29Y13.36
G1X10.36Y13.47
G1Y13.05
G1X10.35Y12.73
G1X10.33Y12.5
G1X10.32Y12.32
G1X10.26Y12
G1X10.23Y11.84
G1X10.21Y11.64
G1X10.18Y11.47
G1X10.15Y11.34
G1X10.11Y11.22
G1X10.06Y11.06
G1X9.86Y10.41
G1X9.77Y10.1
G1X9.7Y9.9
G1X9.69Y9.86
G1X9.66Y9.78
G1X9.47Y9.4
G1X9.37Y9.18
G1X9.3Y9
G1X9.18Y8.75
G1X9.02Y8.37
G1X9.01Y8.22
G1Y8.08
G1X9.03Y8.01
G1X9.07Y7.93
G1X9.17Y7.66
G1X9.23Y7.53
G1X9.27Y7.45
G1X9.31Y7.36
G1X9.42Y7.12
G1X9.51Y6.9
G1X9.58Y6.73
G1X9.63Y6.61
G1X9.7Y6.41
G1X9.81Y6.13
G1X9.86Y6
G1X9.92Y5.84
G1X9.99Y5.64
G1X10.06Y5.44
G1X10.17Y5.11
G1X10.26Y4.83
G1X10.32Y4.69
G1X10.36Y4.59
G1X10.39Y4.54
G1X10.44
G1X10.63Y4.55
G1X10.67
G1X10.68Y4.51
G1X10.73Y4.35
G1X10.7Y4.32
G1X10.62Y4.27
G1X10.51Y4.19
G1X10.4Y4.12
G1X10.14Y3.93
G1X9.88Y3.73
G1X9.61Y3.5
G1X9.39Y3.31
G1X9.31Y3.24
G1X9.27Y3.18
G1X9.28Y3.14
G1X9.33Y3.1
G1X9.36Y3.08
G1X9.41
G1X9.51
G1X9.68
G1X10.02
G1X10.33Y3.12
G1X10.6Y3.17
G1X10.95Y3.23
G1X11.25Y3.3
G1X11.33Y3.33
G1X11.41Y3.34
G1X11.49Y3.36
G1X11.56Y3.39
G1X11.63Y3.42
G1Y3.54
G1X11.61Y3.77
G1X11.56Y4.02
G1X11.47Y4.26
G1X11.38Y4.42
G1X11.35Y4.46
G1X11.34Y4.48
G1X11.32Y4.52
G1X11.29Y4.6
G1X11.25Y4.7
G1X11.24Y4.77
G1X11.21Y4.88
G1X11.13Y5.05
G1X11.1Y5.12
G1X11.05Y5.22
G1X10.73Y5.95
G1X10.44Y6.65
G1X10.36Y6.84
G1X10.2Y7.27
G1X10.13Y7.46
G1X10.05Y7.64
G1X9.85Y8.11
G1X9.83Y8.18
G1X9.8Y8.27
G1X9.88Y8.41
G1X9.95Y8.56
G1X10.08Y8.81
G1X10.11Y8.86
G1X10.15Y8.88
G1X10.23Y8.9
G1X10.33Y8.93
G1X10.44Y8.95
G1X10.72Y8.99
G1X11Y9.01
G1X11.41Y9.03
G1X11.4Y8.99
G1X11.37Y8.9
G1X11.31Y8.73
G1X11.16Y8.33
G1X11.1Y8.15
G1X11.07Y8
G1Y7.86
G1X11.09Y7.73
G1X11.26Y7.37
G1X11.48Y7
G1X11.66Y6.76
G1X12Y6.3
G1X12.38Y5.81
G1X12.45Y5.7
G1X12.7Y5.31
G1X13.09Y4.72
G1X13.16Y4.62
G1X13.22Y4.55
G1X13.26Y4.51
G1X13.3Y4.49
G1X13.35
G1X13.45Y4.53
G1X13.47Y4.52
G1X13.5Y4.48
G1X13.55Y4.39
G1X13.59Y4.3
G1Y4.26
G1X13.01Y3.75
G1X12.68Y3.44
G1X12.54Y3.31
G1X12.44Y3.21
G1X12.36Y3.13
G1X12.34Y3.09
G1Y3.02
G1X12.4Y2.96
G1X12.45Y2.95
G1X12.51Y2.94
G1X12.6
G1X13.01Y2.97
G1X13.39Y3.02
G1X13.8Y3.08
G1X13.99Y3.12
G1X14.17Y3.16
G1X14.31Y3.2
G1X14.49Y3.26
G1X14.53
G1X14.57Y3.3
G1X14.56Y3.41
G1X14.51Y3.6
G1X14.42Y3.89
G1X14.31Y4.22
G1X14.28Y4.29
G1X14.18Y4.4
G1X14.13Y4.48
G1X14.08Y4.58
G1X13.97Y4.76
G1X13.95Y4.81
G1Y4.85
G1X13.99Y4.89
G1Y4.92
G1X13.97Y4.97
G1X13.89Y5.08
G1X13.76Y5.24
G1X13.2Y5.99
G1X12.62Y6.82
G1X12.39Y7.16
G1X12.19Y7.46
G1X12Y7.77
G1X11.95Y7.87
G1X11.91Y7.93
G1X11.88Y7.97
G1X11.95Y8.2
G1X12.07Y8.55
G1X12.16Y8.85
G1X12.2Y8.96
G1X12.22Y9.01
G1X12.25Y9.02
G1X12.31
G1X12.4
G1X12.65Y8.98
G1X12.8Y8.97
G1X13Y8.95
G1X13.45Y8.85
G1X13.74Y8.8
G1X13.98Y8.75
G1X14.23Y8.68
G1X14.41Y8.61
G1X14.53Y8.56
G1X14.6Y8.51
G1X14.68Y8.44
G1X14.74Y8.37
G1X14.76
G1X14.71Y8.5
G1X14.6Y8.69
G1X14.49Y8.88
G1X14.39Y9.07
G1X14.23Y9.5
G1X14.1Y9.96
G1X14.01Y10.33
G1X13.94Y10.61
G1X13.85Y11.04
G1X13.81Y11.54
G1X13.79Y11.72
G1Y11.82
G1X13.72Y12.21
G1X13.65Y12.69
G1X13.62Y12.84
G1X13.6Y12.94
G1X13.64Y12.98
G1X13.67Y13.01
G1X13.68Y13.05
G1Y13.07
G1X13.78Y13.16
G1X13.91Y13.32
G1X14.22Y13.73
G1X14.83Y14.48
G1X15.13Y14.9
G1X15.25Y15.09
G1X15.33Y15.21
G1X15.36Y15.29
G1X15.37Y15.36
G1Y15.44
G1X15.32Y15.52
G1X15.25Y15.61
G1X15.14Y15.7
G1X15.08Y15.75
G1X14.97Y15.81
G1X14.94Y15.84
G1X14.91Y15.87
G1X14.78Y15.97
G1X14.47Y16.24
G1X14.08Y16.54
G1X13.7Y16.85
G1X13.38Y17.09
G1X13.11Y17.29
G1X13.01Y17.37
G1X12.74Y17.56
G1X12.57Y17.68
G1X12.42Y17.77
G1X11.77Y18.17
G1X11.6Y18.27
G1X11.53Y18.32
G1X11.49Y18.34
G1X10.93Y18.41
G1X10.29Y18.46
G1X10.19
G1X10.09Y18.63
G1X10.07Y18.66
G1X10.1Y18.7
G1X10.17Y18.78
G1X10.23Y18.84
G1X10.28Y18.88
G1X10.31Y18.9
G1X10.51Y18.88
G1X10.78Y18.86
G1X10.83
G1X10.85Y18.88
G1Y18.9
G1X10.84Y18.93
G1X10.8Y19.06
G1X10.77Y19.2
G1X10.8Y19.21
G1X10.87Y19.23
G1X10.98Y19.24
G1X11.12Y19.25
G1X11.31Y19.29
G1X11.41Y19.35
G1X11.4Y19.38
G1X11.26Y19.49
G1X11.17Y19.59
G1X11.1Y19.68
G1X11.08Y19.72
G1X11.21Y19.82
G1X11.36Y19.93
G1X11.61Y20.05
G1X11.79Y20.14
G1X11.89Y20.19
G1X11.93Y20.22
G1Y20.23
G1X11.91Y20.26
G1X11.84Y20.31
G1X11.78Y20.34
G1X11.7Y20.37
G1X11.46Y20.48
G1X11.31Y20.55
G1X11.25Y20.61
G1Y20.65
G1X11.28Y20.72
G1X11.39Y20.86
G1X11.51Y20.93
G1X11.61Y20.97
G1X11.76Y21.04
G1X11.99Y21.17
G1X12.15Y21.31
G1X12.19Y21.37
G1Y21.4
G1X12.15Y21.42
G1X12.04Y21.43
G1X11.89Y21.45
G1X11.76Y21.49
G1X11.61Y21.56
G1X11.27Y21.76
G1X11.19Y21.8
G1X11.09Y21.82
G1X11.07
G1X11.08Y21.85
G1X11.21Y22.02
G1X11.3Y22.16
G1X11.39Y22.33
G1X11.56Y22.66
G1X11.59Y22.73
G1X11.62Y22.77
G1X11.7Y22.84
G1X11.71Y22.86
G1X11.68Y22.89
G1X11.61Y22.9
G1X11.51
G1X11.39Y22.87
G1X11.18Y22.81
G1X11.04Y22.78
G1X10.92
G1X10.75
G1X10.59
G1X10.52Y22.79
G1X10.49Y22.82
G1X10.47Y22.99
G1X10.46Y23.05
G1Y23.13
G1Y23.23
G1X10.48Y23.36
G1X10.5Y23.55
G1X10.48Y23.81
G1Y23.89
G1X10.52Y24.07
G1X10.56Y24.24
G1Y24.27
G1Y24.29
G1X10.53Y24.3
G1X10.47
G1X10.35Y24.24
G1X10.21Y24.15
G1X10.15Y24.09
G1X10.06Y24.01
G1X9.95Y23.89
G1X9.72Y23.64
G1X9.51Y23.42
G1X9.44Y23.36
G1X9.26Y23.22
G1X9.13Y23.15
G1X9.08Y23.18
G1X9.02Y23.25
G1X8.94Y23.36
G1X8.82Y23.57
G1X8.78Y23.64
G1X8.74Y23.7
G1X8.71Y23.77
G1X8.68Y23.83
G1X8.65Y23.9
G1X8.62Y23.97
G1X8.6Y24.04
G1X8.58Y24.1
G1X8.55Y24.12
G1X8.52Y24.1
G1X8.48Y24.03
G1X8.44Y23.95
G1X8.41Y23.86
G1X8.37Y23.75
G1X8.26Y23.49
G1X8.22Y23.38
G1X8.21Y23.14
G1X8.25Y22.88
G1X8.27Y22.8
G1X8.28Y22.76
G1X8.19Y22.77
G1X8.08Y22.8
G1X8.03Y22.82
G1X7.83Y22.88
G1X7.76Y22.9
G1X7.7Y22.93
G1X7.62Y22.96
G1X7.53Y22.98
G1X7.5Y22.97
G1X7.49Y22.95
G1Y22.94
G1X7.56Y22.74
G1X7.62Y22.55
G1X7.73Y22.22
G1X7.89Y21.94
G1X7.94Y21.87
G1X7.96Y21.82
G1X7.95
G1X7.92Y21.81
G1X7.83Y21.79
G1X7.71Y21.72
G1X7.63Y21.69
G1X7.53Y21.67
G1X7.4Y21.64
G1X7.35Y21.6
G1X7.37Y21.55
G1X7.46Y21.48
G1X7.54Y21.42
G1X7.66Y21.35
G1X7.67Y21.33
G1X7.59Y21.12
G1X7.58Y20.94
G1X7.63Y20.77
G1X7.73Y20.61
G1X7.76Y20.57
G1X7.78Y20.55
M5
G0X7.28Y25.26
M3 S30
; Layer C00
G1Y25.27
G1Y25.29
G1X7.26Y25.28
G1Y25.27
G1X7.28Y25.26
M5
G0X7.25Y25.28
M3 S30
; Layer C00
G1X7.24Y25.31
G1X7.18Y25.37
G1X7.11Y25.41
G1X7.09Y25.43
G1Y25.47
G1X7.1Y25.46
G1X7.11
G1X7.12
G1Y25.44
G1X7.14
G1Y25.42
G1X7.16Y25.4
G1X7.23Y25.34
G1X7.25Y25.31
G1X7.27Y25.3
G1X7.3Y25.32
G1X7.28
G1X7.29Y25.35
G1Y25.38
G1X7.3Y25.37
G1X7.31Y25.33
G1Y25.23
G1Y25.21
G1Y25.2
G1Y25.18
G1X7.28Y25.22
G1X7.25Y25.28
M5
G0X7.28Y25.42
M3 S30
; Layer C00
G1X7.27Y25.43
G1X7.26Y25.47
G1X7.25Y25.48
G1X7.23
G1Y25.5
G1X7.2Y25.55
G1X7.16Y25.58
G1X7.13Y25.63
G1X7.11Y25.64
G1Y25.68
G1X7.07Y25.74
G1X7.05Y25.8
G1Y25.81
G1Y25.82
G1X7.07
G1Y25.8
G1X7.12Y25.69
G1X7.27Y25.48
G1Y25.42
M5
G0X7.08Y25.5
M3 S30
; Layer C00
G1X7.06
G1X7.05Y25.54
G1Y25.57
G1X7.07
G1Y25.55
G1Y25.5
M5
G0X7.02Y25.61
M3 S30
; Layer C00
G1Y25.64
G1X7Y25.72
G1X6.96Y25.76
G1X6.87Y25.84
G1X6.76Y25.89
G1X6.73Y25.91
G1X6.75Y25.92
G1X6.79
G1X6.8Y25.9
G1X6.86Y25.86
G1X6.89Y25.85
G1X6.91Y25.87
G1Y25.85
G1Y25.83
G1X6.93Y25.81
G1X6.95
G1X6.96Y25.79
G1X6.99Y25.78
G1X7Y25.75
G1X7.02Y25.7
G1X7.04Y25.66
G1Y25.63
G1X7.02Y25.61
M5
G0X7.05Y25.86
M3 S30
; Layer C00
G1X7.02Y25.9
G1X7Y25.91
G1Y25.92
G1X7.02Y25.94
G1X7.05Y25.92
G1Y25.9
G1Y25.87
M5
G0X7.01Y25.96
M3 S30
; Layer C00
G1X6.97
G1X6.95
G1Y25.97
G1Y25.98
G1X6.97Y25.99
G1X7Y25.97
G1Y25.96
M5
G0X6.93Y26
M3 S30
; Layer C00
G1X6.92
G1X6.84Y26.05
G1X6.79Y26.11
G1Y26.13
G1X6.75Y26.17
G1Y26.18
G1X6.78Y26.17
G1X6.82Y26.1
G1X6.85Y26.06
G1X6.9Y26.02
G1X6.93Y26
M5
G0X6.71Y25.98
M3 S30
; Layer C00
G1X6.73Y25.94
G1X6.72
G1X6.7Y25.96
G1Y25.99
G1X6.67Y26
G1X6.66Y26.03
G1X6.64Y26.07
G1X6.65
G1X6.66
G1Y26.04
G1X6.7Y26.01
G1X6.71Y25.98
M5
G0X6.63Y26.1
M3 S30
; Layer C00
G1X6.62
G1Y26.11
G1X6.64
G1Y26.1
M5
G0X6.6Y26.13
M3 S30
; Layer C00
G1X6.55Y26.17
G1X6.52Y26.18
G1X6.53Y26.2
G1X6.57Y26.17
G1X6.6Y26.15
G1X6.61
G1Y26.13
M5
G0X6.74Y26.21
M3 S30
; Layer C00
G1X6.72Y26.22
G1X6.66Y26.26
G1X6.59Y26.28
G1X6.58
G1Y26.31
G1X6.55Y26.32
G1X6.54Y26.37
G1X6.52Y26.39
G1Y26.4
G1X6.54
G1X6.6Y26.3
G1X6.63Y26.28
G1X6.66Y26.27
G1X6.68
G1X6.72Y26.24
G1X6.75Y26.21
M5
G0X6.46Y26.22
M3 S30
; Layer C00
G1Y26.21
G1X6.45Y26.2
G1X6.43
G1Y26.21
G1X6.46Y26.23
M5
G0X6.4Y26.23
M3 S30
; Layer C00
G1X6.39
G1X6.36Y26.26
G1X6.35Y26.29
G1Y26.3
G1X6.33Y26.33
G1Y26.34
G1X6.25Y26.45
G1X6.22Y26.52
G1X6.24Y26.5
G1Y26.48
G1X6.26
G1X6.28Y26.45
G1X6.31Y26.4
G1X6.35Y26.35
G1X6.37Y26.34
G1Y26.33
G1Y26.3
G1X6.4Y26.24
G1Y26.23
M5
G0X6.5Y26.46
M3 S30
; Layer C00
G1X6.49
G1X6.5Y26.5
G1X6.48
G1Y26.53
G1Y26.54
G1X6.46Y26.56
G1X6.41Y26.61
G1X6.39Y26.62
G1X6.37Y26.64
G1X6.33Y26.66
G1X6.37
G1X6.4Y26.64
G1X6.44Y26.61
G1X6.49Y26.55
G1X6.52Y26.5
G1Y26.46
G1X6.5
M5
G0X6.19Y26.52
M3 S30
; Layer C00
G1X6.16
G1X6.05Y26.48
G1X6.01
G1X5.99Y26.49
G1X5.97Y26.53
G1Y26.55
G1X5.98
G1X6Y26.53
G1Y26.51
G1X6.02
G1Y26.5
G1X6.05Y26.49
G1X6.09Y26.51
G1X6.15Y26.53
G1X6.19
M5
G0X5.97Y26.57
M3 S30
; Layer C00
G1X5.95Y26.58
G1Y26.61
G1Y26.63
G1X5.97Y26.61
G1Y26.58
M5
G0X5.93Y26.62
M3 S30
; Layer C00
G1Y26.63
G1X5.91Y26.67
G1X5.82Y26.77
G1X5.83Y26.78
G1X5.85Y26.77
G1X5.87Y26.74
G1X5.89Y26.72
G1X5.91
G1Y26.68
G1X5.93Y26.64
G1Y26.62
M5
G0X5.77Y26.77
M3 S30
; Layer C00
G1X5.75
G1X5.67Y26.81
G1X5.64Y26.85
G1X5.65
G1X5.67Y26.84
G1X5.68Y26.82
G1X5.71
G1Y26.79
G1X5.77Y26.77
M5
G0X5.61Y26.86
M3 S30
; Layer C00
G1X5.59
G1X5.57
G1X5.58
G1X5.61
M5
G0X5.53Y26.86
M3 S30
; Layer C00
G1Y26.85
G1X5.51Y26.84
G1Y26.86
G1X5.54Y26.87
M5
G0X5.49Y26.85
M3 S30
; Layer C00
G1X5.47Y26.82
G1X5.45Y26.8
G1X5.4Y26.87
G1X5.36Y26.93
G1X5.31Y26.99
G1Y27
G1X5.34Y26.99
G1X5.37Y26.94
G1X5.39
G1Y26.92
G1X5.4
G1X5.42Y26.86
G1X5.45Y26.82
G1X5.49Y26.85
M5
G0X5.31Y27.02
M3 S30
; Layer C00
G1X5.28Y27.05
G1X5.25
G1Y27.06
G1X5.26
G1X5.29
G1X5.3Y27.04
G1Y27.02
M5
G0X5.18Y27.08
M3 S30
; Layer C00
G1X5.16
G1X5.15
G1X5.16
G1X5.18
M5
G0X5.12Y27.09
M3 S30
; Layer C00
G1Y27.08
G1X5.11Y27.07
G1X5.1
G1X5.09
G1X5.12Y27.09
M5
G0X5.05Y27.07
M3 S30
; Layer C00
G1X5.04
G1X5Y27.08
G1X4.96Y27.12
G1X4.91Y27.16
G1X4.88Y27.18
G1Y27.2
G1X4.92Y27.18
G1X4.97Y27.14
G1X4.98
G1X5
G1Y27.13
G1Y27.11
G1X5.03Y27.09
G1X5.05Y27.07
M5
G0X4.88Y27.21
M3 S30
; Layer C00
G1X4.84
G1Y27.24
G1X4.85
G1Y27.22
G1X4.87
G1X4.89
M5
G0X4.81Y27.26
M3 S30
; Layer C00
G1X4.79Y27.24
G1X4.76Y27.22
G1Y27.21
G1X4.77
G1X4.76Y27.2
G1X4.72Y27.18
G1X4.69Y27.14
G1X4.67Y27.05
G1X4.68Y27
G1X4.69Y26.98
G1Y26.96
G1X4.67Y27
G1Y27.1
G1X4.7Y27.18
G1X4.77Y27.25
G1X4.81
M5
G0X4.7Y26.94
M3 S30
; Layer C00
G1X4.71Y26.92
G1X4.74Y26.89
G1X4.76Y26.83
G1X4.74Y26.78
G1X4.72Y26.76
G1Y26.77
G1Y26.79
G1X4.74Y26.81
G1Y26.83
G1Y26.84
G1X4.73
G1X4.72Y26.88
G1X4.7Y26.93
G1Y26.94
M5
G0X4.33Y26.95
M3 S30
; Layer C00
G1Y26.97
G1Y27
G1Y26.98
G1Y26.95
M5
G0X4.31Y26.87
M3 S30
; Layer C00
G1Y26.83
G1X4.29Y26.77
G1X4.32Y26.72
G1X4.35Y26.69
G1X4.38Y26.62
G1X4.4Y26.59
G1Y26.57
G1X4.34Y26.66
G1X4.27Y26.76
G1X4.28Y26.83
G1X4.31Y26.87
M5
G0X4.3Y27.11
M3 S30
; Layer C00
G1Y27.12
G1Y27.14
G1X4.31Y27.12
G1Y27.11
M5
G0X4.29Y27.18
M3 S30
; Layer C00
G1Y27.19
G1Y27.21
G1Y27.2
G1Y27.18
M5
G0X4.29Y27.23
M3 S30
; Layer C00
G1X4.26Y27.26
G1X4.24Y27.34
G1X4.2Y27.4
G1Y27.47
G1X4.21Y27.41
G1X4.22
G1X4.23
G1Y27.37
G1X4.28Y27.29
G1Y27.23
M5
G0X4.2Y27.55
M3 S30
; Layer C00
G1Y27.57
G1Y27.59
G1Y27.57
G1Y27.55
M5
G0X4.19Y27.61
M3 S30
; Layer C00
G1X4.17Y27.64
G1X4.09Y27.73
G1X4.06Y27.79
G1Y27.81
G1X4.09Y27.77
G1X4.11Y27.74
G1X4.12
G1X4.13Y27.71
G1X4.18Y27.65
G1X4.2Y27.62
G1Y27.61
M5
G0X4.56Y27.7
M3 S30
; Layer C00
G1Y27.72
G1Y27.74
G1Y27.73
G1Y27.71
M5
G0X4.58Y27.7
M3 S30
; Layer C00
G1X4.61Y27.67
G1X4.63Y27.65
G1X4.62
G1X4.6
G1Y27.67
G1X4.58Y27.7
M5
G0X4.66Y27.7
M3 S30
; Layer C00
G1X4.64Y27.74
G1X4.66Y27.82
G1X4.69Y27.92
G1X4.65Y27.97
G1X4.6Y28.01
G1Y28.11
G1X4.58Y28.22
G1X4.52Y28.28
G1X4.48Y28.32
G1Y28.36
G1Y28.46
G1Y28.52
G1X4.44Y28.57
G1X4.41Y28.61
G1X4.37Y28.63
G1X4.36Y28.65
G1X4.35Y28.77
G1Y28.86
G1Y28.89
G1Y28.92
G1X4.29Y29.01
G1X4.27Y29.07
G1X4.28Y29.12
G1X4.3Y29.16
G1X4.33Y29.18
G1X4.48Y29.16
G1X4.53Y29.17
G1X4.59Y29.2
G1X4.66Y29.25
G1X4.76Y29.32
G1X4.85Y29.33
G1X4.91
G1X4.99
G1X5.1
G1X5.14Y29.26
G1X5.21Y29.18
G1X5.3
G1X5.4
G1X5.45Y29.14
G1X5.48Y29.09
G1Y29.06
G1Y28.99
G1X5.56Y28.88
G1X5.66Y28.8
G1X5.63Y28.75
G1X5.6Y28.68
G1X5.64Y28.61
G1X5.66Y28.57
G1Y28.49
G1X5.65Y28.42
G1X5.62Y28.38
G1X5.51Y28.24
G1X5.47Y28.1
G1Y28.02
G1X5.43Y27.96
G1X5.39Y27.92
G1X5.2Y27.86
G1X5.08Y27.78
G1X5.05Y27.75
G1X5.01Y27.72
G1X4.96Y27.69
G1X4.92Y27.72
G1X4.83Y27.76
G1X4.73Y27.74
G1X4.69Y27.71
G1X4.66
M5
G0X4.74Y27.68
M3 S30
; Layer C00
G1X4.81Y27.71
G1X4.89Y27.68
G1X4.93Y27.65
G1X4.96
G1X4.98
G1Y27.64
G1X4.95
G1X4.9Y27.66
G1X4.88Y27.67
G1X4.87
G1Y27.66
G1X4.85
G1Y27.68
G1X4.82Y27.7
G1X4.75Y27.67
G1X4.69Y27.64
G1X4.74Y27.68
M5
G0X4.59Y27.77
M3 S30
; Layer C00
G1Y27.81
G1Y27.84
G1Y27.83
G1Y27.8
G1Y27.78
G1Y27.77
M5
G0X4.62Y27.88
M3 S30
; Layer C00
G1Y27.89
G1X4.61Y27.91
G1Y27.92
G1X4.57Y27.95
G1X4.56Y27.96
G1X4.6Y27.95
G1X4.62Y27.92
G1X4.64Y27.9
G1Y27.88
G1X4.62
M5
G0X4.53Y28.01
M3 S30
; Layer C00
G1Y28.03
G1Y28.04
G1Y28.05
G1X4.51Y28.07
G1X4.53Y28.09
G1Y28.13
G1Y28.18
G1X4.51
G1Y28.19
G1Y28.2
G1X4.48Y28.23
G1X4.44Y28.25
G1X4.42
G1X4.4Y28.23
G1X4.41Y28.25
G1X4.43Y28.27
G1X4.42
G1X4.41Y28.29
G1Y28.31
G1X4.44Y28.28
G1X4.46Y28.25
G1X4.48
G1X4.5Y28.24
G1X4.52Y28.22
G1X4.54Y28.18
G1Y28.09
G1Y28.02
G1Y28.01
M5
G0X4.08Y27.97
M3 S30
; Layer C00
G1Y27.96
G1X4.07
G1Y27.98
G1Y28
G1X4.08Y27.97
M5
G0X4.05Y27.99
M3 S30
; Layer C00
G1X4.04Y28.03
G1X4.05Y28.06
G1Y28.05
G1Y28.02
G1Y27.99
M5
G0X4.09Y27.94
M3 S30
; Layer C00
G1Y27.93
G1Y27.91
G1X4.08Y27.88
G1Y27.86
G1X4.07
G1Y27.88
G1Y27.93
G1X4.09
M5
G0X4.02Y28.05
M3 S30
; Layer C00
G1Y28.07
G1Y28.08
G1Y28.06
M5
G0X4.03Y28.12
M3 S30
; Layer C00
G1Y28.13
G1X4.04Y28.15
G1Y28.13
G1Y28.12
G1X4.03
M5
G0X4.01Y28.16
M3 S30
; Layer C00
G1X3.99Y28.18
G1Y28.2
G1X4.01Y28.19
G1Y28.18
G1Y28.16
M5
G0X3.99Y28.23
M3 S30
; Layer C00
G1Y28.25
G1X4Y28.3
G1X4.02Y28.35
G1X4.03Y28.37
G1Y28.34
G1Y28.3
G1X4Y28.25
G1Y28.23
M5
G0X4.02Y28.48
M3 S30
; Layer C00
G1X3.97Y28.56
G1X3.9Y28.65
G1X3.89Y28.67
G1Y28.68
G1X3.88
G1X3.83Y28.72
G1X3.79Y28.8
G1X3.77Y28.9
G1X3.79Y28.95
G1Y28.93
G1Y28.91
G1Y28.83
G1X3.83Y28.75
G1X3.85Y28.73
G1X3.87Y28.7
G1X3.88
G1X3.89
G1X3.91Y28.67
G1X3.94Y28.63
G1X3.96Y28.61
G1X3.98
G1X3.99Y28.56
G1X4.02Y28.51
G1Y28.48
M5
G0X4.32Y28.6
M3 S30
; Layer C00
G1Y28.62
G1X4.35Y28.6
G1X4.38Y28.58
G1Y28.56
G1X4.4Y28.55
G1X4.43Y28.51
G1Y28.5
G1X4.41Y28.51
G1X4.36Y28.57
G1X4.33Y28.58
G1X4.32Y28.6
M5
G0X4.3Y28.72
M3 S30
; Layer C00
G1X4.29Y28.73
G1X4.28Y28.77
G1X4.3
G1Y28.74
G1Y28.72
M5
G0X4.29Y28.84
M3 S30
; Layer C00
G1Y28.86
G1Y28.88
G1X4.28Y28.89
G1X4.27Y28.9
G1X4.26Y28.93
G1X4.25
G1X4.24Y28.94
G1Y28.98
G1X4.22
G1X4.21
G1X4.23Y28.99
G1X4.26Y28.96
G1X4.28Y28.92
G1X4.3Y28.9
G1Y28.89
G1Y28.86
G1X4.29Y28.84
M5
G0X4.22Y29.04
M3 S30
; Layer C00
G1Y29.08
G1X4.21Y29.11
G1Y29.13
G1X4.23Y29.17
G1X4.24
G1Y29.14
G1X4.23Y29.12
G1Y29.08
G1X4.22Y29.04
M5
G0X4.25Y29.19
M3 S30
; Layer C00
G1Y29.21
G1X4.28Y29.22
G1X4.31Y29.24
G1Y29.23
G1X4.27Y29.2
G1X4.25
M5
G0X4.33Y29.22
M3 S30
; Layer C00
G1Y29.23
G1X4.34
G1X4.35Y29.24
G1X4.36
G1Y29.23
G1X4.34Y29.22
M5
G0X4.39Y29.23
M3 S30
; Layer C00
G1Y29.24
G1X4.4
G1Y29.23
G1X4.41
G1Y29.22
G1X4.39
G1Y29.23
M5
G0X4.43Y29.23
M3 S30
; Layer C00
G1X4.44
G1X4.46
G1Y29.22
G1X4.43
M5
G0X4.49Y29.21
M3 S30
; Layer C00
G1Y29.22
G1X4.51Y29.24
G1X4.53
G1X4.55
G1X4.57Y29.26
G1Y29.27
G1Y29.28
G1X4.59Y29.29
G1X4.61
G1Y29.31
G1X4.63
G1X4.68Y29.36
G1X4.75Y29.39
G1X4.72Y29.36
G1X4.68Y29.34
G1X4.57Y29.24
G1X4.51Y29.21
G1X4.49
M5
G0X4.91Y29.39
M3 S30
; Layer C00
G1X4.98
G1X5.06
G1X5.04
G1X4.99Y29.38
G1X4.94
G1X4.91
M5
G0X5.13Y29.37
M3 S30
; Layer C00
G1X5.15
G1X5.19Y29.32
G1X5.21
G1Y29.31
G1Y29.27
G1X5.23
G1X5.25Y29.24
G1X5.32
G1X5.35
G1X5.32Y29.22
G1X5.28
G1X5.23
G1X5.19Y29.27
G1X5.15Y29.35
G1X5.13Y29.37
M5
G0X5.36Y29.25
M3 S30
; Layer C00
G1X5.38
G1X5.41Y29.27
G1Y29.25
G1X5.38
G1X5.36
M5
G0X5.45Y29.21
M3 S30
; Layer C00
G1X5.47
G1X5.48
G1X5.49
G1X5.5Y29.2
G1X5.51
G1Y29.19
G1Y29.17
G1X5.55Y29.13
G1X5.54Y29.12
G1X5.53Y29.11
G1Y29.14
G1X5.51
G1X5.48Y29.19
G1X5.46
G1Y29.21
M5
G0X5.55Y29.06
M3 S30
; Layer C00
G1Y29.04
G1Y29
G1X5.64Y28.91
G1X5.69Y28.86
G1X5.72Y28.83
G1X5.71
G1X5.66Y28.87
G1X5.61Y28.92
G1X5.55Y28.98
G1X5.53Y29.03
G1X5.55Y29.06
M5
G0X5.71Y28.77
M3 S30
; Layer C00
G1Y28.76
G1Y28.74
G1X5.72Y28.72
G1X5.71
G1X5.69
G1Y28.68
G1X5.67
G1X5.68
G1X5.73Y28.62
G1Y28.58
G1X5.72Y28.6
G1X5.66Y28.68
G1X5.68Y28.73
G1X5.71Y28.77
M5
G0X6.15Y28.8
M3 S30
; Layer C00
G1Y28.82
G1Y28.84
G1Y28.86
G1X6.16
G1Y28.83
G1Y28.81
G1Y28.8
G1X6.15
M5
G0X6.17Y28.78
M3 S30
; Layer C00
G1X6.18
G1Y28.76
G1Y28.78
M5
G0X6.19Y28.72
M3 S30
; Layer C00
G1Y28.7
G1Y28.72
M5
G0X6.19Y28.64
M3 S30
; Layer C00
G1Y28.63
G1Y28.62
G1X6.17
G1X6.18Y28.64
M5
G0X6.18Y28.58
M3 S30
; Layer C00
G1X6.17Y28.55
G1X6.15Y28.53
G1X6.13Y28.51
G1Y28.49
G1X6.09Y28.47
G1X6.06Y28.49
G1X6.07
G1X6.11Y28.51
G1X6.16Y28.56
G1X6.18Y28.58
M5
G0X6.08Y28.45
M3 S30
; Layer C00
G1Y28.44
G1Y28.42
G1X6.06
G1Y28.44
G1X6.08Y28.45
M5
G0X6.05Y28.34
M3 S30
; Layer C00
G1X6.06
G1Y28.32
G1Y28.3
G1X6.04Y28.31
G1Y28.33
G1X6.05Y28.34
M5
G0X6.06Y28.27
M3 S30
; Layer C00
G1Y28.26
G1Y28.23
G1X5.98Y28.14
G1X5.96Y28.11
G1Y28.1
G1X5.95Y28.13
G1Y28.14
G1X5.97Y28.16
G1X5.98Y28.2
G1Y28.21
G1X6
G1X6.03
G1Y28.23
G1X6.04Y28.25
G1X6.06Y28.27
M5
G0X5.96Y28.08
M3 S30
; Layer C00
G1Y28.05
G1X5.93Y27.97
G1X5.89Y27.88
G1X5.85Y27.83
G1X5.79Y27.79
G1Y27.81
G1X5.8Y27.82
G1Y27.84
G1X5.85
G1X5.87Y27.88
G1Y27.89
G1X5.88
G1X5.9Y27.9
G1Y27.93
G1X5.93Y28.03
G1X5.96Y28.08
M5
G0X5.54Y28.11
M3 S30
; Layer C00
G1X5.53Y28.07
G1Y28.11
G1X5.57Y28.22
G1X5.64Y28.29
G1X5.62Y28.27
G1X5.57Y28.2
G1X5.54Y28.11
M5
G0X5.53Y28.04
M3 S30
; Layer C00
G1Y28.02
G1Y28.01
G1X5.52
G1Y28.02
G1X5.53Y28.04
M5
G0X5.5Y27.97
M3 S30
; Layer C00
G1X5.51
G1Y27.95
G1X5.5Y27.96
G1Y27.97
M5
G0X5.5Y27.94
M3 S30
; Layer C00
G1Y27.92
G1X5.46Y27.89
G1X5.42Y27.86
G1X5.4Y27.84
G1Y27.86
G1X5.44Y27.89
G1X5.48Y27.92
G1X5.5Y27.94
M5
G0X5.34Y27.85
M3 S30
; Layer C00
G1X5.35Y27.84
G1Y27.83
G1X5.33
G1Y27.85
G1X5.34
M5
G0X5.3Y27.84
M3 S30
; Layer C00
G1Y27.83
G1Y27.82
G1X5.26Y27.81
G1X5.21Y27.79
G1X5.2
G1X5.21Y27.81
G1X5.27Y27.83
G1X5.3
M5
G0X5.17Y27.79
M3 S30
; Layer C00
G1Y27.78
G1Y27.77
G1X5.12Y27.73
G1Y27.71
G1X5.11Y27.7
G1X5.06Y27.68
G1X5.01Y27.64
G1Y27.65
G1Y27.67
G1X5.07Y27.7
G1X5.13Y27.76
G1X5.15
G1X5.16
G1Y27.79
G1X5.17
M5
G0X5.55Y27.69
M3 S30
; Layer C00
G1X5.57
G1Y27.67
G1X5.56Y27.65
G1X5.54Y27.63
G1X5.46Y27.56
G1X5.39Y27.53
G1Y27.54
G1X5.43Y27.57
G1Y27.58
G1Y27.59
G1X5.44
G1X5.46
G1X5.49Y27.61
G1X5.52Y27.62
G1Y27.63
G1X5.53Y27.65
G1X5.55Y27.69
M5
G0X5.63Y27.75
M3 S30
; Layer C00
G1X5.64Y27.77
G1X5.67Y27.78
G1X5.66Y27.76
G1X5.64Y27.75
G1X5.63
M5
G0X5.71Y27.78
M3 S30
; Layer C00
G1Y27.79
G1Y27.8
G1X5.72Y27.79
G1Y27.78
G1X5.71
M5
G0X5.38Y27.52
M3 S30
; Layer C00
G1Y27.51
G1X5.39Y27.5
G1X5.37
G1Y27.52
M5
G0X5.36Y27.48
M3 S30
; Layer C00
G1X5.37
G1X5.38Y27.46
G1X5.36
G1Y27.48
M5
G0X5.38Y27.43
M3 S30
; Layer C00
G1X5.39
G1X5.41Y27.42
G1X5.43Y27.4
G1X5.45Y27.38
G1X5.46Y27.36
G1X5.44Y27.37
G1X5.39Y27.41
G1X5.38Y27.43
M5
G0X5.49Y27.36
M3 S30
; Layer C00
G1X5.53Y27.38
G1X5.57Y27.34
G1X5.59Y27.31
G1X5.61Y27.27
G1Y27.25
G1X5.6
G1X5.58Y27.28
G1Y27.31
G1X5.55
G1X5.54Y27.32
G1X5.56
G1X5.53Y27.35
G1X5.48
G1X5.49Y27.36
M5
G0X5.62Y27.24
M3 S30
; Layer C00
G1X5.63Y27.22
G1X5.65Y27.2
G1X5.7Y27.12
G1X5.76Y27.09
G1X5.78
G1X5.75
G1X5.71Y27.07
G1Y27.08
G1Y27.1
G1X5.68
G1Y27.12
G1Y27.13
G1X5.62Y27.21
G1Y27.24
M5
G0X5.8Y27.12
M3 S30
; Layer C00
G1X5.82Y27.1
G1X5.83Y27.09
G1Y27.1
G1X5.8Y27.12
M5
G0X5.78Y27.12
M3 S30
; Layer C00
G1Y27.14
G1X5.82
G1X5.85Y27.08
G1X5.88Y27.03
G1X5.91Y26.99
G1X5.89
G1X5.88Y27.01
G1X5.85Y27.03
G1Y27.05
G1X5.83
G1Y27.06
G1Y27.08
G1X5.78Y27.12
M5
G0X5.98Y27
M3 S30
; Layer C00
G1X6.04Y27.03
G1X6.05
G1X6.06Y27.01
G1X6.07Y27
G1X6.08
G1X6.16Y26.95
G1X6.22Y26.87
G1Y26.86
G1X6.24Y26.82
G1X6.27Y26.76
G1X6.31Y26.7
G1Y26.67
G1X6.3
G1Y26.69
G1X6.26Y26.72
G1Y26.74
G1X6.24Y26.76
G1X6.26
G1X6.23Y26.82
G1X6.2Y26.86
G1Y26.88
G1X6.14Y26.94
G1X6.07Y26.98
G1X6.06
G1X6.04Y27.01
G1X6.03
G1X6.02Y27
G1Y26.98
G1X5.99
G1X5.94Y26.97
G1X5.93
G1X5.98Y27
M5
G0X7.1Y27.13
M3 S30
; Layer C00
G1X7.11Y27.15
G1Y27.14
G1Y27.12
G1X7.13Y27.09
G1X7.14Y27.06
G1Y27.04
G1X7.12Y27.07
G1X7.1Y27.13
M5
G0X7.11Y27.17
M3 S30
; Layer C00
G1Y27.18
G1X7.1Y27.21
G1Y27.23
G1X7.11Y27.22
G1Y27.2
G1X7.12Y27.18
G1Y27.17
M5
G0X7.12Y27.25
M3 S30
; Layer C00
G1Y27.28
G1X7.14Y27.31
G1Y27.28
G1Y27.26
G1X7.12Y27.25
M5
G0X7.13Y27.33
M3 S30
; Layer C00
G1Y27.35
G1Y27.37
G1Y27.36
G1Y27.34
M5
G0X7.13Y27.42
M3 S30
; Layer C00
G1X7.12Y27.44
G1Y27.48
G1Y27.52
G1Y27.51
G1X7.13Y27.48
G1Y27.45
G1Y27.43
G1Y27.42
M5
G0X7.35Y27.4
M3 S30
; Layer C00
G1X7.41Y27.5
G1Y27.52
G1Y27.54
G1X7.44
G1X7.4Y27.44
G1X7.33Y27.36
G1X7.35Y27.4
M5
G0X7.34Y27.34
M3 S30
; Layer C00
G1Y27.32
G1Y27.3
G1Y27.32
G1Y27.34
M5
G0X7.36Y27.22
M3 S30
; Layer C00
G1X7.39Y27.19
G1X7.41Y27.12
G1Y27.09
G1X7.4
G1X7.38Y27.16
G1X7.36
G1X7.34
G1X7.36Y27.19
G1X7.35Y27.2
G1Y27.21
G1X7.36Y27.22
M5
G0X7.64Y27.19
M3 S30
; Layer C00
G1X7.65Y27.2
G1X7.67Y27.27
G1Y27.28
G1X7.68Y27.29
G1Y27.31
G1X7.7Y27.33
G1X7.75Y27.37
G1X7.76Y27.41
G1X7.79Y27.43
G1X7.81Y27.47
G1X7.86Y27.56
G1X7.88
G1Y27.55
G1X7.86Y27.53
G1X7.83Y27.46
G1X7.82Y27.44
G1X7.81
G1Y27.43
G1X7.79Y27.4
G1X7.7Y27.29
G1X7.67Y27.23
G1Y27.2
G1X7.7Y27.23
G1X7.71
G1X7.73Y27.27
G1X7.74
G1Y27.25
G1X7.7Y27.19
G1X7.67Y27.17
G1X7.65
G1Y27.19
M5
G0X7.81Y27.13
M3 S30
; Layer C00
G1X7.82Y27.15
G1X7.84
G1Y27.13
G1X7.83Y27.11
G1X7.8Y27.09
G1Y27.13
M5
G0X7.84Y27.18
M3 S30
; Layer C00
G1Y27.21
G1X7.82Y27.26
G1X7.79Y27.28
G1X7.77
G1Y27.29
G1X7.8
G1X7.82
G1Y27.28
G1X7.85Y27.22
G1Y27.2
G1X7.84Y27.18
M5
G0X8.07Y27.16
M3 S30
; Layer C00
G1X8.09Y27.14
G1X8.08
G1X8.07Y27.16
M5
G0X8.09Y27.17
M3 S30
; Layer C00
G1Y27.19
G1X8.11Y27.24
G1X8.13Y27.27
G1X8.15Y27.29
G1X8.13Y27.32
G1X8.16
G1Y27.33
G1X8.18
G1X8.19Y27.34
G1X8.21Y27.39
G1X8.22
G1Y27.4
G1Y27.45
G1X8.24
G1X8.23Y27.48
G1X8.22Y27.49
G1X8.24
G1X8.23Y27.5
G1X8.2Y27.51
G1X8.19Y27.53
G1X8.15Y27.55
G1Y27.57
G1X8.13
G1X8.12Y27.59
G1Y27.61
G1X8.19Y27.55
G1X8.22Y27.53
G1X8.25Y27.5
G1Y27.46
G1Y27.41
G1X8.21Y27.35
G1X8.17Y27.3
G1X8.11Y27.19
G1X8.09Y27.17
M5
G0X8.08Y27.05
M3 S30
; Layer C00
G1X8.1Y27.02
G1X8.13Y26.99
G1X8.21Y26.95
G1X8.3
G1X8.34Y26.97
G1X8.36
G1X8.33Y26.95
G1X8.21Y26.93
G1X8.11Y26.98
G1X8.09Y27.01
G1X8.08Y27.04
G1Y27.05
M5
G0X8.37Y27
M3 S30
; Layer C00
G1X8.39Y27.02
G1X8.45Y27.05
G1Y27.04
G1Y27.03
G1X8.44
G1X8.41Y27.01
G1X8.4Y26.98
G1X8.38
G1X8.37Y27
M5
G0X8.48Y27.04
M3 S30
; Layer C00
G1X8.5Y27.05
G1X8.52Y27.04
G1Y27.03
G1X8.5
G1X8.48
M5
G0X8.53Y27.04
M3 S30
; Layer C00
G1X8.55
G1X8.61Y27.02
G1X8.65Y27.04
G1X8.71Y27.06
G1X8.78Y27.03
G1X8.87Y26.98
G1X8.98Y26.94
G1X9.05Y26.93
G1X8.97
G1X8.91Y26.95
G1X8.86Y26.96
G1X8.84Y26.98
G1X8.81
G1X8.78Y27.02
G1X8.73Y27.03
G1X8.71
G1X8.73Y27.05
G1X8.71
G1X8.69
G1X8.67Y27.03
G1X8.63Y27.02
G1X8.58Y27.01
G1X8.55Y27.02
G1X8.53Y27.04
M5
G0X8.8Y26.83
M3 S30
; Layer C00
G1X8.79Y26.81
G1X8.78Y26.79
G1X8.82Y26.81
G1X8.86Y26.82
G1X8.89
G1X8.91
G1X8.88
G1X8.82Y26.79
G1X8.74Y26.74
G1X8.65Y26.68
G1X8.57Y26.69
G1X8.55Y26.7
G1X8.65
G1X8.67
G1Y26.71
G1X8.7Y26.73
G1X8.73Y26.75
G1X8.76Y26.78
G1Y26.79
G1X8.77Y26.81
G1X8.79Y26.82
M5
G0X8.96Y26.81
M3 S30
; Layer C00
G1X8.97Y26.82
G1X9.1Y26.83
G1X9.14Y26.85
G1X9.16Y26.88
G1X9.17Y26.9
G1Y26.91
G1X9.19Y26.9
G1X9.21Y26.91
G1Y26.93
G1Y26.94
G1Y26.95
G1X9.22
G1X9.23
G1Y26.97
G1Y26.98
G1X9.21Y26.99
G1X9.23Y27.01
G1X9.2
G1Y26.99
G1X9.17Y26.97
G1X9.11Y26.95
G1X9.15Y26.99
G1X9.18Y27.01
G1X9.23Y27.03
G1X9.25Y27
G1X9.23Y26.93
G1X9.19Y26.88
G1X9.18Y26.87
G1X9.1Y26.82
G1X8.96
M5
G0X8.53Y26.72
M3 S30
; Layer C00
G1X8.5Y26.7
G1X8.41Y26.62
G1X8.34Y26.53
G1X8.32Y26.49
G1X8.27Y26.39
G1Y26.38
G1X8.26Y26.4
G1Y26.43
G1X8.27
G1Y26.44
G1X8.29Y26.48
G1X8.33Y26.53
G1Y26.56
G1X8.36Y26.59
G1Y26.61
G1X8.38
G1X8.4Y26.65
G1X8.42
G1X8.49Y26.7
G1X8.53Y26.72
M5
G0X8.15Y26.53
M3 S30
; Layer C00
G1Y26.52
G1X8.14Y26.5
G1X8.08Y26.55
G1X8.02Y26.61
G1Y26.64
G1X8.03Y26.65
G1Y26.63
G1X8.05Y26.6
G1X8.07Y26.57
G1X8.12Y26.53
G1X8.14
G1X8.15
M5
G0X8.15Y26.44
M3 S30
; Layer C00
G1Y26.4
G1Y26.38
G1X8.17Y26.37
G1Y26.36
G1X8.15
G1Y26.4
G1Y26.44
M5
G0X8.24Y26.36
M3 S30
; Layer C00
G1X8.25
G1X8.21Y26.28
G1X8.18Y26.25
G1X8.16Y26.27
G1Y26.31
G1Y26.32
G1Y26.31
G1X8.19Y26.29
G1X8.22Y26.32
G1X8.23Y26.35
G1X8.24Y26.36
M5
G0X8.04Y26.68
M3 S30
; Layer C00
G1X8.03
G1Y26.7
G1Y26.71
G1X8.05
G1Y26.7
G1Y26.69
G1X8.04
M5
G0X8.05Y26.74
M3 S30
; Layer C00
G1X8.03
G1X8.01Y26.77
G1X7.99Y26.8
G1X7.96Y26.83
G1X7.95Y26.85
G1X7.97Y26.83
G1X7.99
G1X8.01Y26.79
G1X8.05Y26.74
M5
G0X7.78Y26.99
M3 S30
; Layer C00
G1Y27
G1Y27.01
G1X7.77
G1X7.76Y26.99
G1X7.78
M5
G0X7.78Y27
M3 S30
; Layer C00
G1Y26.98
G1X7.74Y26.92
G1Y26.88
G1X7.76
G1X7.78Y26.87
G1X7.88
G1X7.94Y26.86
G1X7.93Y26.85
G1X7.87
G1X7.81
G1X7.75Y26.86
G1X7.72Y26.87
G1Y26.89
G1Y26.93
G1X7.73Y26.94
G1X7.77Y27.04
G1X7.78Y27.08
G1Y27.06
G1Y27.03
G1Y27
M5
G0X7.42Y27.01
M3 S30
; Layer C00
G1Y26.99
G1X7.41
G1Y27.01
G1Y27.04
G1Y27.01
M5
G0X7.4Y26.96
M3 S30
; Layer C00
G1Y26.92
G1X7.37Y26.85
G1X7.33Y26.77
G1X7.3Y26.74
G1Y26.75
G1X7.31Y26.77
G1X7.29Y26.8
G1X7.31
G1X7.33
G1X7.35Y26.85
G1X7.38Y26.92
G1X7.4Y26.96
M5
G0X7.14Y26.96
M3 S30
; Layer C00
G1Y26.95
G1Y26.93
G1X7.13
G1Y26.94
G1Y26.95
G1X7.14Y26.96
M5
G0X7.13Y26.91
M3 S30
; Layer C00
G1X7.15
G1Y26.89
G1X7.14Y26.88
G1X7.13Y26.87
G1Y26.88
G1Y26.91
M5
G0X7.17Y26.86
M3 S30
; Layer C00
G1Y26.84
G1X7.18Y26.8
G1X7.19Y26.77
G1Y26.74
G1X7.16Y26.81
G1X7.15Y26.84
G1Y26.86
G1X7.17
M5
G0X7.3Y26.73
M3 S30
; Layer C00
G1Y26.72
G1X7.31Y26.71
G1X7.29
G1Y26.73
M5
G0X7.23Y26.7
M3 S30
; Layer C00
G1Y26.68
G1Y26.67
G1Y26.68
G1Y26.7
M5
G0X7.21Y26.68
M3 S30
; Layer C00
G1Y26.66
G1Y26.6
G1Y26.53
G1Y26.5
G1Y26.59
G1Y26.67
M5
G0X7.28Y26.59
M3 S30
; Layer C00
G1Y26.56
G1Y26.53
G1Y26.52
G1Y26.55
G1Y26.59
M5
G0X7.3Y26.44
M3 S30
; Layer C00
G1Y26.41
G1Y26.39
G1Y26.41
G1Y26.44
M5
G0X7.2Y26.43
M3 S30
; Layer C00
G1Y26.38
G1X7.22Y26.33
G1X7.23Y26.29
G1X7.26Y26.25
G1X7.28Y26.27
G1Y26.24
G1X7.26Y26.21
G1X7.22Y26.28
G1X7.2Y26.38
G1Y26.43
M5
G0X7.45Y27.55
M3 S30
; Layer C00
G1Y27.57
G1Y27.59
G1X7.46Y27.62
G1Y27.65
G1X7.43Y27.67
G1X7.42Y27.65
G1X7.41
G1X7.4Y27.68
G1Y27.7
G1X7.35Y27.72
G1X7.34Y27.73
G1X7.4Y27.71
G1X7.44Y27.68
G1X7.47Y27.64
G1Y27.61
G1Y27.58
G1X7.46Y27.55
G1X7.45
M5
G0X7.31Y27.75
M3 S30
; Layer C00
G1X7.3
G1Y27.82
G1X7.27Y27.87
G1X7.25Y27.93
G1X7.27Y27.92
G1X7.28Y27.89
G1X7.3Y27.86
G1Y27.82
G1Y27.8
G1Y27.79
G1X7.32
G1Y27.78
G1Y27.75
M5
G0X7.02Y27.75
M3 S30
; Layer C00
G1X7.01Y27.74
G1Y27.69
G1X7.03Y27.67
G1X7.04
G1Y27.66
G1Y27.65
G1X7.06Y27.64
G1X7.1Y27.61
G1Y27.58
G1X7.04Y27.62
G1X6.99Y27.69
G1Y27.73
G1Y27.74
G1X7.02Y27.75
M5
G0X6.99Y27.77
M3 S30
; Layer C00
G1X7.01Y27.81
G1X7.1Y28.01
G1X7.12Y28.05
G1X7.11Y28.01
G1X7.09Y27.96
G1X7.04Y27.86
G1Y27.83
G1X7.01Y27.78
G1X6.99
M5
G0X7.28Y28
M3 S30
; Layer C00
G1Y28.03
G1Y28.06
G1Y28.03
G1Y28.01
M5
G0X7.29Y28.1
M3 S30
; Layer C00
G1Y28.14
G1Y28.17
G1X7.3
G1Y28.16
G1Y28.13
G1Y28.1
M5
G0X7.32Y28.2
M3 S30
; Layer C00
G1X7.3Y28.21
G1Y28.23
G1X7.32Y28.25
G1Y28.27
G1X7.33
G1Y28.23
G1X7.32Y28.2
M5
G0X7.35Y28.3
M3 S30
; Layer C00
G1X7.33Y28.33
G1X7.34Y28.34
G1X7.35
G1Y28.32
G1Y28.3
M5
G0X7.33Y28.36
M3 S30
; Layer C00
G1X7.32Y28.37
G1Y28.42
G1Y28.44
G1X7.29Y28.42
G1Y28.44
G1X7.3Y28.47
G1X7.32Y28.46
G1X7.34Y28.4
G1Y28.36
M5
G0X7.29Y28.5
M3 S30
; Layer C00
G1Y28.52
G1X7.28Y28.56
G1Y28.59
G1X7.29Y28.54
G1Y28.51
G1Y28.5
M5
G0X7.29Y28.61
M3 S30
; Layer C00
G1Y28.64
G1Y28.67
G1X7.25
G1X7.21Y28.66
G1X7.19Y28.65
G1X7.16
G1Y28.64
G1Y28.63
G1X7.17
G1X7.14Y28.62
G1X7.09
G1X7.07
G1X7.05Y28.61
G1X7.04
G1Y28.63
G1Y28.64
G1X7.07
G1X7.11
G1X7.21Y28.68
G1X7.25
G1X7.26
G1Y28.7
G1X7.28
G1X7.3
G1X7.31Y28.68
G1Y28.66
G1Y28.64
G1X7.29Y28.61
M5
G0X7.06Y28.57
M3 S30
; Layer C00
G1Y28.55
G1X7.07Y28.53
G1Y28.51
G1X7.05
G1Y28.54
G1Y28.57
M5
G0X7.05Y28.46
M3 S30
; Layer C00
G1X7.06Y28.45
G1X7.08Y28.43
G1Y28.42
G1X7.05Y28.39
G1X7.03Y28.29
G1Y28.24
G1X7.07Y28.22
G1X7.08Y28.21
G1X7.02Y28.22
G1X7
G1Y28.26
G1X7.02Y28.35
G1X7.04Y28.4
G1Y28.46
M5
G0X7.09Y28.17
M3 S30
; Layer C00
G1X7.1Y28.16
G1X7.11Y28.13
G1Y28.1
G1Y28.08
G1X7.09Y28.13
G1Y28.17
M5
G0X7.13Y28.11
M3 S30
; Layer C00
G1Y28.1
G1Y28.08
G1Y28.09
G1Y28.1
M5
G0X7.05Y28.09
M3 S30
; Layer C00
G1X7.04Y28.03
G1X6.95Y27.82
G1X6.93Y27.73
G1X6.95Y27.65
G1X7Y27.59
G1X7.05Y27.54
G1Y27.42
G1Y27.32
G1X7.04Y27.15
G1X7.07Y27.02
G1Y26.88
G1X7.1Y26.81
G1X7.14Y26.74
G1Y26.39
G1Y26.32
G1X7.16Y26.28
G1X7.17Y26.24
G1X7.23Y26.18
G1X7.3
G1X7.33Y26.2
G1X7.34Y26.25
G1X7.35Y26.34
G1Y26.65
G1X7.38Y26.74
G1X7.44Y26.91
G1X7.47Y27.02
G1Y27.12
G1X7.43Y27.22
G1X7.39Y27.32
G1X7.42Y27.38
G1X7.5Y27.51
G1X7.53Y27.58
G1Y27.64
G1X7.51Y27.7
G1X7.4Y27.78
G1X7.35Y27.86
G1Y28.02
G1X7.41Y28.34
G1X7.34Y28.54
G1X7.37Y28.68
G1X7.35Y28.71
G1X7.29Y28.74
G1X7.22
G1X7.18Y28.72
G1X7.14Y28.7
G1X7.1Y28.68
G1X7.04Y28.69
G1X7.01Y28.68
G1X7Y28.65
G1Y28.48
G1X6.95Y28.31
G1Y28.25
G1Y28.21
G1X6.99Y28.18
G1X7.03Y28.15
G1X7.05Y28.09
M5
G0X7.97Y28.06
M3 S30
; Layer C00
G1Y28.08
G1X7.98Y28.07
G1Y28.05
G1Y28.03
G1X7.97Y28.02
G1Y28.06
M5
G0X7.97Y28.11
M3 S30
; Layer C00
G1X8Y28.16
G1X8.07Y28.2
G1X8.12Y28.22
G1Y28.21
G1Y28.2
G1X8.1
G1X8.07Y28.18
G1X7.99Y28.11
G1X7.97
M5
G0X7.98Y27.98
M3 S30
; Layer C00
G1Y27.95
G1X7.97Y27.93
G1Y27.97
G1X7.98Y27.98
M5
G0X7.95Y27.92
M3 S30
; Layer C00
G1X7.96Y27.89
G1Y27.87
G1Y27.84
G1X7.94Y27.81
G1Y27.77
G1X7.91
G1Y27.74
G1X7.9Y27.72
G1X7.88Y27.71
G1Y27.74
G1X7.91Y27.79
G1X7.94Y27.85
G1Y27.89
G1Y27.92
M5
G0X8.22Y27.86
M3 S30
; Layer C00
G1X8.24
G1X8.25Y27.9
G1X8.29Y27.91
G1X8.3
G1Y27.93
G1X8.36Y27.96
G1X8.39Y28
G1X8.41Y28.02
G1X8.5Y28.08
G1X8.56Y28.16
G1Y28.17
G1X8.55Y28.19
G1X8.57
G1X8.62Y28.18
G1X8.59Y28.15
G1X8.55Y28.09
G1X8.47Y28.03
G1X8.43Y28.01
G1X8.42
G1X8.4Y27.98
G1X8.24Y27.84
G1X8.17Y27.75
G1X8.15Y27.72
G1X8.13Y27.71
G1Y27.74
G1X8.22Y27.84
G1Y27.86
M5
G0X8.14Y27.69
M3 S30
; Layer C00
G1Y27.68
G1Y27.67
G1X8.13
G1Y27.69
M5
G0X7.89Y27.69
M3 S30
; Layer C00
G1Y27.67
G1X7.88Y27.65
G1X7.9Y27.64
G1X7.88Y27.62
G1X7.87Y27.61
G1X7.86Y27.63
G1Y27.67
G1X7.89Y27.69
M5
G0X8.15Y28.22
M3 S30
; Layer C00
G1X8.17Y28.23
G1X8.22Y28.24
G1X8.23
G1X8.18Y28.21
G1X8.15
M5
G0X8.25Y28.25
M3 S30
; Layer C00
G1X8.31Y28.3
G1X8.38Y28.34
G1Y28.32
G1X8.34Y28.29
G1X8.29Y28.27
G1Y28.25
G1X8.26Y28.23
G1X8.25Y28.25
M5
G0X8.39Y28.36
M3 S30
; Layer C00
G1X8.38
G1Y28.38
G1X8.4
G1Y28.37
G1Y28.36
M5
G0X8.39Y28.4
M3 S30
; Layer C00
G1X8.38Y28.43
G1Y28.48
G1X8.41Y28.5
G1X8.42
G1X8.44Y28.51
G1X8.53Y28.56
G1X8.62Y28.59
G1Y28.57
G1X8.6
G1X8.51Y28.53
G1X8.44Y28.48
G1X8.4
G1Y28.45
G1X8.39
G1Y28.41
G1Y28.4
M5
G0X8.6Y28.32
M3 S30
; Layer C00
G1X8.62
G1X8.65Y28.34
G1X8.66
G1X8.64Y28.32
G1X8.61Y28.3
G1X8.57Y28.27
G1X8.54Y28.24
G1Y28.25
G1Y28.26
G1X8.56Y28.28
G1X8.6Y28.32
M5
G0X8.73Y28.36
M3 S30
; Layer C00
G1X8.75
G1X8.73
M5
G0X8.9Y28.37
M3 S30
; Layer C00
G1X8.92Y28.38
G1X9Y28.39
G1X9.02
G1Y28.4
G1X9.04
G1X8.96Y28.37
G1X8.9
M5
G0X9.06Y28.4
M3 S30
; Layer C00
G1X9.09Y28.41
G1X9.11
G1X9.13Y28.44
G1X9.16
G1Y28.45
G1Y28.46
G1X9.17
G1Y28.49
G1X9.12Y28.52
G1X9.09
G1X9.12
G1X9.15
G1X9.17
G1X9.19Y28.51
G1X9.21
G1Y28.49
G1X9.19Y28.47
G1X9.14Y28.42
G1X9.07Y28.39
G1X9.06Y28.4
M5
G0X9.02Y28.52
M3 S30
; Layer C00
G1X9.01
G1X9.02
G1X9.06Y28.54
G1Y28.53
G1X9.04Y28.52
G1X9.02
M5
G0X8.99Y28.52
M3 S30
; Layer C00
G1X8.98Y28.51
G1X8.96
G1Y28.52
G1X8.97
G1X8.99
M5
G0X8.93Y28.51
M3 S30
; Layer C00
G1X8.91
G1X8.89
G1X8.91
G1X8.93
M5
G0X8.82Y28.51
M3 S30
; Layer C00
G1X8.81
G1X8.79
G1X8.77Y28.52
G1X8.75Y28.54
G1X8.74
G1X8.71Y28.57
G1X8.66Y28.58
G1X8.65
G1X8.7Y28.59
G1X8.75Y28.56
G1X8.78Y28.54
G1X8.82Y28.51
M5
G0X8.83Y28.57
M3 S30
; Layer C00
G1X8.73Y28.63
G1X8.67
G1X8.61
G1X8.55Y28.62
G1X8.44Y28.57
G1X8.37Y28.53
G1X8.33Y28.47
G1X8.31Y28.37
G1X8.29Y28.34
G1X8.2Y28.29
G1X8.1Y28.27
G1X8.02Y28.23
G1X7.94Y28.16
G1X7.93Y28.11
G1X7.91Y28.02
G1X7.89Y27.9
G1X7.82Y27.69
G1X7.81Y27.62
G1X7.78Y27.52
G1X7.63Y27.3
G1X7.59Y27.21
G1Y27.17
G1X7.62Y27.14
G1X7.65Y27.12
G1X7.67
G1X7.69
G1X7.77Y27.19
G1X7.78
G1X7.75Y27.12
G1X7.69Y27.01
G1X7.66Y26.92
G1X7.67Y26.85
G1X7.74Y26.81
G1X7.84Y26.8
G1X7.89
G1X7.93Y26.77
G1X7.97Y26.73
G1Y26.66
G1X7.96Y26.59
G1X8.02Y26.52
G1X8.08Y26.46
G1Y26.4
G1X8.1Y26.31
G1X8.12Y26.24
G1X8.16Y26.2
G1X8.2
G1X8.27Y26.28
G1X8.35Y26.43
G1X8.39Y26.5
G1X8.44Y26.57
G1X8.5Y26.64
G1X8.55
G1X8.63
G1X8.68
G1X8.74Y26.67
G1X8.8Y26.72
G1X8.85Y26.76
G1X8.98
G1X9.13
G1X9.23Y26.84
G1X9.28Y26.91
G1X9.3Y26.98
G1X9.29Y27.04
G1X9.25Y27.08
G1X9.21
G1X9.07Y27.01
G1X9.01Y27
G1X8.91Y27.03
G1X8.79Y27.09
G1X8.72Y27.12
G1X8.65Y27.1
G1X8.59Y27.08
G1X8.53Y27.1
G1X8.46
G1X8.34Y27.05
G1X8.27Y27.01
G1X8.23Y26.99
G1X8.2
G1X8.17Y27.02
G1X8.14Y27.07
G1Y27.13
G1X8.18Y27.21
G1X8.24Y27.31
G1X8.3Y27.43
G1X8.32Y27.52
G1X8.3Y27.53
G1X8.25Y27.56
G1X8.19Y27.61
G1Y27.66
G1X8.24Y27.76
G1X8.34Y27.86
G1X8.49Y27.98
G1X8.59Y28.07
G1X8.65Y28.14
G1X8.67Y28.19
G1Y28.21
G1X8.64
G1X8.62Y28.24
G1X8.67Y28.28
G1X8.74Y28.31
G1X8.89
G1X9.01Y28.33
G1X9.09Y28.34
G1X9.15Y28.37
G1X9.2Y28.4
G1X9.24Y28.45
G1X9.26Y28.49
G1X9.25Y28.52
G1X9.22Y28.56
G1X9.17Y28.58
G1X9.08
G1X8.98
G1X8.9
G1X8.83Y28.57
M5
G0X9.69Y28.46
M3 S30
; Layer C00
G1X9.7Y28.53
G1X9.74Y28.63
G1Y28.69
G1X9.76Y28.73
G1Y28.71
G1Y28.66
G1Y28.61
G1X9.75Y28.6
G1Y28.56
G1X9.73Y28.54
G1X9.7Y28.46
G1X9.69
M5
G0X9.7Y28.43
M3 S30
; Layer C00
G1X9.68Y28.4
G1Y28.37
G1Y28.35
G1X9.66
G1Y28.38
G1X9.68Y28.42
G1X9.7
M5
G0X9.65Y28.32
M3 S30
; Layer C00
G1Y28.31
G1Y28.27
G1Y28.22
G1X9.6Y28.05
G1X9.55Y27.94
G1X9.54
G1Y27.91
G1X9.53Y27.88
G1Y27.85
G1X9.51Y27.89
G1X9.53Y27.94
G1X9.54Y27.96
G1X9.56Y28.01
G1Y28.03
G1X9.62Y28.16
G1X9.64Y28.32
G1X9.65
M5
G0X10.06Y28.36
M3 S30
; Layer C00
G1X10.04Y28.43
G1Y28.47
G1X10.06Y28.46
G1Y28.44
G1Y28.4
G1X10.07Y28.34
G1Y28.36
M5
G0X10.08Y28.32
M3 S30
; Layer C00
G1Y28.31
G1Y28.29
G1Y28.31
M5
G0X10.08Y28.24
M3 S30
; Layer C00
G1Y28.22
G1Y28.24
M5
G0X10.11Y28.2
M3 S30
; Layer C00
G1X10.12
G1X10.16Y28.21
G1X10.2Y28.25
G1X10.25Y28.29
G1X10.27Y28.31
G1X10.32
G1X10.38Y28.34
G1X10.45Y28.38
G1X10.63Y28.51
G1X10.69Y28.55
G1X10.73Y28.57
G1Y28.55
G1X10.71
G1X10.69Y28.54
G1Y28.52
G1X10.67
G1Y28.51
G1X10.64
G1X10.61Y28.49
G1X10.59Y28.46
G1Y28.44
G1Y28.42
G1X10.57
G1X10.55Y28.43
G1X10.5Y28.38
G1X10.48
G1X10.47Y28.36
G1X10.45Y28.35
G1X10.34Y28.31
G1X10.31Y28.29
G1X10.29
G1X10.28Y28.27
G1X10.26
G1X10.22Y28.24
G1X10.18Y28.2
G1X10.17Y28.19
G1X10.14
G1X10.11
G1Y28.2
M5
G0X9.84Y27.99
M3 S30
; Layer C00
G1X9.86Y27.96
G1Y27.93
G1X9.84Y27.97
G1X9.83
G1X9.82Y27.99
G1X9.84
M5
G0X9.8Y27.99
M3 S30
; Layer C00
G1X9.79
G1X9.77
G1X9.75
G1Y28
G1X9.77
G1X9.8
M5
G0X9.72Y27.98
M3 S30
; Layer C00
G1Y27.96
G1X9.66Y27.9
G1X9.61Y27.85
G1X9.58Y27.82
G1X9.56Y27.79
G1X9.53
G1X9.51
G1Y27.8
G1Y27.81
G1X9.54Y27.79
G1X9.57Y27.84
G1X9.59Y27.87
G1X9.61Y27.88
G1X9.63Y27.89
G1X9.7Y27.97
G1X9.72Y27.98
M5
G0X9.86Y27.91
M3 S30
; Layer C00
G1Y27.89
G1Y27.87
G1Y27.89
G1Y27.91
M5
G0X9.86Y27.84
M3 S30
; Layer C00
G1Y27.82
G1Y27.78
G1Y27.74
G1Y27.75
G1Y27.8
G1Y27.84
M5
G0X9.84Y27.74
M3 S30
; Layer C00
G1Y27.7
G1X9.83Y27.61
G1X9.82Y27.52
G1Y27.48
G1X9.8
G1X9.81Y27.57
G1X9.82Y27.71
G1X9.84Y27.74
M5
G0X10.24Y27.71
M3 S30
; Layer C00
G1X10.25
G1Y27.69
G1X10.33Y27.58
G1X10.39Y27.45
G1X10.38Y27.47
G1X10.31Y27.59
G1X10.23Y27.68
G1Y27.71
M5
G0X10.24Y27.78
M3 S30
; Layer C00
G1Y27.82
G1Y27.85
G1X10.25
G1Y27.89
G1X10.27
G1X10.29Y27.91
G1Y27.93
G1X10.3
G1X10.33Y27.96
G1X10.37Y27.98
G1X10.38
G1X10.37Y27.97
G1X10.33Y27.93
G1X10.28Y27.87
G1X10.26Y27.83
G1X10.24Y27.78
M5
G0X10.42Y27.99
M3 S30
; Layer C00
G1X10.48Y28.01
G1X10.51Y28.03
G1X10.52
G1X10.49Y28.01
G1X10.45Y27.99
G1X10.42
M5
G0X10.56Y28.04
M3 S30
; Layer C00
G1X10.57Y28.05
G1X10.62Y28.07
G1X10.68Y28.11
G1X10.71Y28.15
G1Y28.17
G1X10.73
G1Y28.15
G1X10.75
G1Y28.16
G1X10.77Y28.19
G1X10.79Y28.22
G1X10.82Y28.26
G1X10.86Y28.37
G1X10.91Y28.49
G1Y28.5
G1X10.98Y28.55
G1X11Y28.59
G1X11.03
G1X11.04Y28.61
G1X11.05
G1X11.09Y28.62
G1X11.12Y28.64
G1Y28.65
G1X11.18Y28.67
G1X11.2Y28.7
G1X11.22
G1X11.24Y28.71
G1Y28.73
G1Y28.74
G1X11.28Y28.76
G1Y28.79
G1X11.29
G1X11.32Y28.8
G1X11.34Y28.86
G1Y28.87
G1Y28.9
G1X11.37
G1X11.42Y28.95
G1X11.44Y28.97
G1X11.47Y28.98
G1X11.51Y29.02
G1X11.54Y29.04
G1Y29.06
G1X11.57
G1X11.56Y29.08
G1X11.49Y29.06
G1X11.43Y29.01
G1X11.38Y28.99
G1X11.35Y28.96
G1X11.29Y28.93
G1X11.27Y28.91
G1X11.22Y28.88
G1Y28.87
G1X11.2Y28.85
G1X11.19
G1X11.17
G1Y28.84
G1X11.15Y28.82
G1X11.12Y28.78
G1X11.08Y28.75
G1X11.07
G1X11.04Y28.73
G1Y28.74
G1X11.06Y28.77
G1X11.1Y28.8
G1X11.19Y28.88
G1X11.32Y28.98
G1X11.34Y28.99
G1X11.36
G1X11.38Y29.01
G1X11.5Y29.08
G1X11.58Y29.11
G1X11.64Y29.13
G1Y29.11
G1X11.63
G1X11.57Y29.1
G1Y29.08
G1X11.6Y29.09
G1Y29.07
G1X11.44Y28.93
G1X11.35Y28.82
G1X11.24Y28.7
G1X11.1Y28.61
G1X11.04Y28.58
G1X10.99Y28.54
G1X10.91Y28.44
G1X10.85Y28.3
G1X10.8Y28.19
G1X10.73Y28.13
G1X10.71Y28.12
G1Y28.11
G1X10.64Y28.07
G1X10.56Y28.04
M5
G0X10.75Y28.53
M3 S30
; Layer C00
G1Y28.55
G1X10.76
G1X10.83Y28.59
G1X10.93Y28.66
G1X10.99Y28.72
G1X11.02
G1X11.01
G1X10.97Y28.69
G1X10.94Y28.66
G1Y28.64
G1Y28.63
G1X10.91
G1X10.88Y28.6
G1X10.86Y28.59
G1X10.85
G1X10.87Y28.57
G1X10.83
G1X10.82Y28.56
G1Y28.55
G1X10.8
G1X10.79Y28.54
G1X10.77
G1X10.75
M5
G0X10.12Y28.62
M3 S30
; Layer C00
G1X10.1Y28.56
G1X10.07Y28.5
G1X10.06
G1X10.07Y28.53
G1X10.08Y28.56
G1X10.11Y28.64
G1Y28.66
G1X10.12
G1Y28.62
M5
G0X10.13Y28.69
M3 S30
; Layer C00
G1Y28.72
G1X10.12Y28.77
G1X10.1Y28.81
G1X10.08Y28.86
G1Y29.03
G1X10.06Y29.08
G1X10.05Y29.1
G1X10.06
G1X10.07
G1X10.1Y28.89
G1Y28.84
G1X10.11Y28.82
G1X10.12
G1X10.13Y28.8
G1Y28.74
G1Y28.69
M5
G0X9.77Y28.74
M3 S30
; Layer C00
G1Y28.79
G1X9.78Y28.82
G1X9.79Y28.83
G1Y28.85
G1Y28.89
G1X9.8
G1X9.81Y28.88
G1Y28.86
G1Y28.83
G1X9.79Y28.79
G1X9.77Y28.74
M5
G0X9.82Y28.92
M3 S30
; Layer C00
G1Y28.94
G1Y29
G1X9.83Y29.05
G1X9.84Y29.06
G1Y29.04
G1Y28.99
G1X9.83Y28.94
G1X9.82Y28.92
M5
G0X9.86Y29.08
M3 S30
; Layer C00
G1X9.84Y29.19
G1Y29.25
G1X9.85Y29.21
G1Y29.14
G1X9.86Y29.08
M5
G0X10.03Y29.11
M3 S30
; Layer C00
G1X10.05Y29.13
G1X10.06
G1X10.04Y29.11
G1X10.03
M5
G0X10.04Y29.15
M3 S30
; Layer C00
G1Y29.16
G1X10.03Y29.2
G1Y29.23
G1Y29.24
G1X10.05
G1X10.06Y29.29
G1X10.07
G1Y29.25
G1X10.05Y29.22
G1Y29.16
G1X10.04
M5
G0X10.08Y29.34
M3 S30
; Layer C00
G1Y29.39
G1X10.11Y29.41
G1Y29.4
G1X10.09Y29.36
G1Y29.34
M5
G0X10.1Y29.43
M3 S30
; Layer C00
G1Y29.44
G1Y29.46
G1X10.11Y29.45
G1Y29.44
M5
G0X10.11Y29.49
M3 S30
; Layer C00
G1Y29.51
G1X10.1Y29.57
G1Y29.62
G1X10.08Y29.64
G1X10.07
G1X10.06Y29.65
G1X10.04
G1Y29.63
G1Y29.61
G1X10.01
G1X9.95Y29.58
G1X9.9
G1X9.86
G1X9.85Y29.55
G1X9.84Y29.54
G1X9.82Y29.55
G1X9.84Y29.59
G1X9.87Y29.61
G1X9.89Y29.59
G1X9.94
G1X10Y29.64
G1X10.06Y29.67
G1X10.1Y29.66
G1Y29.62
G1X10.11Y29.56
G1Y29.51
G1Y29.49
M5
G0X9.84Y29.52
M3 S30
; Layer C00
G1X9.83Y29.51
G1X9.82
G1Y29.52
G1X9.84
M5
G0X9.84Y29.43
M3 S30
; Layer C00
G1X9.85Y29.42
G1Y29.4
G1Y29.38
G1X9.83
G1Y29.4
G1Y29.42
G1X9.84
M5
G0X9.86Y29.35
M3 S30
; Layer C00
G1Y29.33
G1Y29.32
G1X9.85Y29.31
G1Y29.33
G1Y29.34
G1Y29.35
M5
G0X12.29Y29.38
M3 S30
; Layer C00
G1Y29.4
G1X12.33Y29.42
G1X12.36Y29.44
G1Y29.47
G1Y29.5
G1X12.37Y29.52
G1X12.41
G1X12.44Y29.47
G1X12.45Y29.44
G1X12.51Y29.41
G1X12.52Y29.38
G1X12.46Y29.35
G1X12.47Y29.11
G1Y29.07
G1Y29.05
G1X12.45
G1X12.44
G1X12.42Y29.08
G1Y29.14
G1X12.39Y29.23
G1X12.38Y29.32
G1X12.35Y29.34
G1X12.31Y29.35
G1X12.29Y29.38
M5
G0X12.54Y29.36
M3 S30
; Layer C00
G1X12.53Y29.52
G1X12.52Y29.55
G1X12.53Y29.59
G1X12.57Y29.61
G1X12.59
G1X12.6Y29.58
G1X12.61Y29.54
G1X12.63Y29.43
G1Y29.4
G1X12.65
G1X12.68Y29.41
G1X12.74Y29.42
G1X12.79Y29.4
G1X12.83Y29.33
G1Y29.24
G1Y29.14
G1X12.78Y29.12
G1X12.75Y29.14
G1Y29.3
G1X12.72Y29.34
G1X12.7Y29.36
G1X12.67Y29.34
G1X12.64Y29.29
G1Y29.19
G1Y29.13
G1X12.61Y29.11
G1X12.58Y29.12
G1X12.56Y29.2
G1X12.54Y29.36
M5
G0X12.96Y29.38
M3 S30
; Layer C00
G1Y29.35
G1X13
G1X13.04Y29.38
G1X13.03Y29.41
G1X12.99Y29.44
G1X12.97
G1Y29.41
G1Y29.38
M5
G0X12.88Y29.39
M3 S30
; Layer C00
G1X12.9Y29.42
G1X12.93Y29.46
G1X13Y29.5
G1X13.08Y29.47
G1X13.12Y29.41
G1Y29.35
G1X13.08Y29.31
G1X13Y29.29
G1X12.98Y29.27
G1X13.01Y29.23
G1X13.07Y29.21
G1X13.13Y29.25
G1X13.15Y29.26
G1X13.16
G1X13.18Y29.21
G1X13.15Y29.17
G1X13.08Y29.14
G1X13
G1X12.94Y29.19
G1X12.89Y29.25
G1Y29.3
G1Y29.39
M5
G0X13.55Y29.42
M3 S30
; Layer C00
G1X13.51Y29.24
G1Y29.22
G1X13.56Y29.21
G1X13.6
G1X13.63
G1Y29.25
G1X13.6Y29.36
G1Y29.42
G1Y29.45
G1X13.57Y29.49
G1Y29.46
G1X13.55Y29.42
M5
G0X13.44Y29.47
M3 S30
; Layer C00
G1X13.45Y29.53
G1X13.47Y29.58
G1X13.48Y29.66
G1X13.5Y29.7
G1X13.52Y29.73
G1X13.56
G1X13.6
G1X13.62Y29.71
G1X13.64Y29.68
G1X13.65Y29.64
G1X13.67Y29.57
G1X13.72Y29.31
G1X13.76Y29.15
G1Y29.02
G1Y28.95
G1X13.89
G1X13.98
G1X14.01
G1X13.9Y28.93
G1X13.75Y28.94
G1X13.69Y28.98
G1X13.67Y29.07
G1Y29.11
G1X13.47
G1X13.46Y29.06
G1X13.44Y29.02
G1X13.42Y28.97
G1Y28.95
G1Y28.92
G1X13.38
G1X13.33Y28.94
G1Y28.99
G1X13.35Y29.03
G1X13.38Y29.17
G1X13.44Y29.47
M5
G0X13.94Y29.44
M3 S30
; Layer C00
G1Y29.36
G1Y29.27
G1Y29.23
G1X13.98
G1X14.03Y29.27
G1X14.06Y29.34
G1X14.01Y29.43
G1X13.97Y29.46
G1X13.95Y29.48
G1X13.94Y29.44
M5
G0X13.85Y29.51
M3 S30
; Layer C00
G1X13.86Y29.56
G1X13.89Y29.58
G1X13.93
G1X13.99Y29.56
G1X14.09Y29.49
G1X14.15Y29.41
G1Y29.3
G1X14.1Y29.2
G1X14.08Y29.17
G1Y29.15
G1X14.15Y29.04
G1X14.19Y28.94
G1X14.18
G1X14.16Y28.92
G1X14.14
G1X14.11Y28.93
G1X14.09Y28.95
G1X14.07Y28.99
G1X14Y29.1
G1X13.99Y29.15
G1X13.97
G1X13.95Y29.13
G1X13.93Y29.05
G1X13.91Y29.03
G1X13.88
G1X13.86Y29.04
G1X13.85Y29.25
G1Y29.51
M5
G0X14.18Y29.43
M3 S30
; Layer C00
G1X14.24
G1X14.29
G1Y29.49
G1Y29.54
G1Y29.57
G1X14.34
G1X14.38Y29.54
G1Y29.51
G1X14.39Y29.48
G1X14.4Y29.45
G1X14.43Y29.43
G1X14.49Y29.42
G1Y29.39
G1X14.48Y29.34
G1X14.43
G1X14.41
G1X14.4Y29.33
G1Y29.27
G1X14.38Y29
G1Y28.93
G1X14.35Y28.91
G1X14.32Y28.93
G1X14.31Y28.97
G1Y29.06
G1X14.29Y29.18
G1Y29.31
G1Y29.32
G1X14.21Y29.34
G1X14.18Y29.38
G1Y29.43
M5
G0X14.72Y29.32
M3 S30
; Layer C00
G1Y29.27
G1X14.76Y29.25
G1X14.77
G1X14.81Y29.23
G1X14.87Y29.25
G1Y29.27
G1X14.89Y29.29
G1Y29.34
G1X14.84Y29.37
G1X14.79Y29.38
G1X14.75Y29.37
G1X14.73Y29.35
G1Y29.32
M5
G0X14.66Y29.35
M3 S30
; Layer C00
G1X14.69Y29.41
G1X14.74Y29.44
G1X14.8Y29.45
G1X14.87Y29.44
G1X14.9Y29.41
G1X14.93Y29.37
G1X14.95Y29.32
G1Y29.27
G1X14.93Y29.22
G1X14.9Y29.19
G1X14.86Y29.17
G1X14.81
G1X14.75
G1X14.71Y29.19
G1X14.65Y29.27
G1Y29.35
M5
G0X14.97Y29.36
M3 S30
; Layer C00
G1X14.99Y29.4
G1X15Y29.41
G1X15.05
G1Y29.49
G1X15.1Y29.57
G1X15.14Y29.6
G1X15.18Y29.61
G1X15.22
G1X15.27Y29.58
G1X15.32Y29.53
G1X15.3Y29.49
G1X15.27
G1X15.19Y29.53
G1X15.17Y29.52
G1X15.13Y29.46
G1X15.12Y29.41
G1X15.18Y29.39
G1X15.22Y29.37
G1Y29.35
G1Y29.33
G1X15.14Y29.32
G1X15.12Y29.3
G1X15.11Y29.26
G1Y29.2
G1X15.09Y29.12
G1X15.05Y29.09
G1X15.03Y29.11
G1Y29.31
G1X15Y29.34
G1X14.97Y29.36
M5
G0X15.04Y29.58
M3 S30
; Layer C00
G1X15.03Y29.59
G1Y29.6
G1X15.04Y29.61
G1Y29.59
M5
G0X15.44Y29.53
M3 S30
; Layer C00
G1Y29.51
G1Y29.5
G1Y29.51
G1Y29.53
M5
G0X15.46Y29.56
M3 S30
; Layer C00
G1X15.45Y29.59
G1Y29.62
G1X15.46Y29.61
G1Y29.58
G1Y29.56
M5
G0X15.47Y29.64
M3 S30
; Layer C00
G1X15.45Y29.65
G1Y29.66
G1X15.46
G1X15.47
G1Y29.65
M5
G0X15.43Y29.46
M3 S30
; Layer C00
G1Y29.44
G1Y29.41
G1Y29.43
G1Y29.46
M5
G0X15.42Y29.37
M3 S30
; Layer C00
G1Y29.35
G1Y29.3
G1X15.41Y29.25
G1X15.4Y29.24
G1Y29.26
G1Y29.31
G1X15.41Y29.36
G1X15.42Y29.37
M5
G0X15.37Y29.13
M3 S30
; Layer C00
G1X15.38
G1Y29.12
G1X15.36
G1X15.37Y29.13
M5
G0X15.38Y29.09
M3 S30
; Layer C00
G1Y29.07
G1Y29.03
G1X15.37Y28.99
G1X15.36Y28.97
G1X15.32
G1X15.06Y28.96
G1X14.59
G1X14.55
G1X14.59
G1X14.8
G1X15.21Y28.97
G1X15.29
G1X15.33Y28.98
G1Y28.99
G1Y29.01
G1X15.34
G1X15.36
G1Y29.08
G1X15.38Y29.09
M5
G0X16.11Y29.05
M3 S30
; Layer C00
G1X16.14Y29.12
G1Y29.1
G1X16.11Y28.99
G1X16.1Y28.98
G1Y29.05
M5
G0X16.14Y29.14
M3 S30
; Layer C00
G1Y29.17
G1Y29.2
G1Y29.22
G1X16.16
G1Y29.2
G1Y29.17
G1X16.14Y29.14
M5
G0X16.16Y29.25
M3 S30
; Layer C00
G1Y29.26
G1Y29.28
G1X16.17Y29.29
G1X16.18
G1Y29.27
G1Y29.25
G1X16.16
M5
G0X16.19Y29.31
M3 S30
; Layer C00
G1X16.18Y29.34
G1Y29.38
G1X16.2Y29.42
G1X16.22Y29.4
G1Y29.38
G1X16.24
G1X16.26
G1Y29.36
G1X16.25
G1X16.19Y29.35
G1Y29.33
G1Y29.31
M5
G0X16.31Y29.38
M3 S30
; Layer C00
G1X16.3
G1Y29.42
G1X16.34Y29.46
G1X16.36
G1Y29.44
G1X16.35
G1Y29.42
G1X16.37Y29.39
G1X16.42Y29.37
G1X16.46
G1X16.51Y29.42
G1X16.54Y29.5
G1Y29.48
G1Y29.44
G1X16.53Y29.42
G1X16.52Y29.4
G1Y29.38
G1X16.49
G1Y29.36
G1X16.46Y29.34
G1X16.39Y29.36
G1X16.37
G1Y29.37
G1X16.34
G1Y29.4
G1X16.33
G1X16.32
G1Y29.38
M5
G0X16.54Y29.53
M3 S30
; Layer C00
G1Y29.56
G1X16.6Y29.63
G1X16.64Y29.69
G1X16.69Y29.77
G1Y29.73
G1Y29.7
G1X16.67
G1Y29.69
G1X16.66Y29.67
G1X16.64Y29.64
G1X16.62Y29.63
G1X16.6Y29.62
G1Y29.6
G1X16.57Y29.55
G1X16.54Y29.53
M5
G0X16.75Y29.49
M3 S30
; Layer C00
G1Y29.5
G1X16.77Y29.47
G1X16.8Y29.43
G1X16.83Y29.39
G1X16.85Y29.37
G1X16.86Y29.35
G1X16.88Y29.32
G1Y29.28
G1Y29.25
G1X16.87Y29.24
G1Y29.25
G1Y29.31
G1X16.86
G1X16.85
G1Y29.33
G1Y29.36
G1X16.82
G1X16.81
G1X16.83Y29.39
G1X16.81
G1X16.79
G1X16.77Y29.42
G1X16.76Y29.46
G1Y29.49
M5
G0X16.76Y29.56
M3 S30
; Layer C00
G1Y29.64
G1Y29.75
G1X16.78Y29.76
G1X16.79Y29.74
G1Y29.73
G1X16.77Y29.7
G1Y29.59
G1X16.76Y29.56
M5
G0X16.8Y29.79
M3 S30
; Layer C00
G1Y29.84
G1X16.82Y29.87
G1Y29.85
G1Y29.81
G1X16.8Y29.79
M5
G0X16.71Y29.84
M3 S30
; Layer C00
G1Y29.85
G1X16.72
G1Y29.84
M5
G0X16.72Y29.87
M3 S30
; Layer C00
G1Y29.91
G1X16.77Y30
G1X16.81Y30.05
G1X16.83
G1Y30.03
G1X16.82
G1X16.8
G1X16.79Y29.98
G1X16.77
G1X16.75Y29.93
G1X16.73Y29.92
G1Y29.91
G1X16.75Y29.88
G1X16.72Y29.87
M5
G0X16.8Y29.9
M3 S30
; Layer C00
G1X16.82
G1X16.83
G1X16.84
G1Y29.89
G1X16.82
G1X16.8
M5
G0X16.85Y29.92
M3 S30
; Layer C00
G1Y29.94
G1Y29.96
G1Y29.98
G1X16.86
G1Y29.95
G1Y29.93
G1X16.85
M5
G0X16.88Y30.01
M3 S30
; Layer C00
G1X16.87
G1X16.86Y30.03
G1Y30.07
G1Y30.09
G1X16.85Y30.1
G1X16.84Y30.07
G1X16.83
G1Y30.09
G1X16.84Y30.13
G1X16.87Y30.16
G1X16.89
G1X16.9
G1Y30.13
G1Y30.09
G1X16.89Y30.11
G1X16.87
G1X16.89Y30.06
G1X16.87Y30.03
G1Y30.02
G1Y30.01
M5
G0X17.86Y29.76
M3 S30
; Layer C00
G1X17.88Y29.79
G1X17.91Y29.82
G1X17.93Y29.86
G1X17.95Y29.85
G1Y29.83
G1X17.92Y29.82
G1Y29.81
G1Y29.78
G1X17.91
G1X17.89
G1X17.87Y29.74
G1X17.84Y29.71
G1X17.79Y29.6
G1X17.76Y29.56
G1X17.77Y29.59
G1X17.79Y29.64
G1X17.81Y29.7
G1X17.86Y29.76
M5
G0X17.96Y29.86
M3 S30
; Layer C00
G1X17.98Y29.91
G1X18.01Y29.95
G1Y29.91
G1X18Y29.89
G1X17.99
G1X17.97Y29.86
M5
G0X18.11Y29.85
M3 S30
; Layer C00
G1Y29.87
G1Y29.86
G1Y29.84
G1Y29.85
M5
G0X18.12Y29.91
M3 S30
; Layer C00
G1Y29.93
G1Y29.98
G1X18.13Y30.02
G1Y30.04
G1X18.14Y30.02
G1Y29.97
G1X18.13Y29.93
G1Y29.91
M5
G0X18.02Y29.97
M3 S30
; Layer C00
G1Y30.04
G1X18.03Y30.05
G1X18.04
G1X18.05
G1Y30.03
G1X18.03Y30
G1X18.02Y29.97
M5
G0X18.05Y30.07
M3 S30
; Layer C00
G1Y30.09
G1Y30.11
G1X18.06Y30.1
G1Y30.08
G1Y30.07
M5
G0X18.15Y30.07
M3 S30
; Layer C00
G1Y30.09
G1Y30.13
G1X18.17Y30.16
G1Y30.17
G1Y30.15
G1Y30.12
G1X18.16Y30.08
G1X18.15
M5
G0X18.07Y30.14
M3 S30
; Layer C00
G1Y30.15
G1Y30.17
G1Y30.15
G1Y30.14
M5
G0X18.07Y30.2
M3 S30
; Layer C00
G1X18.05Y30.22
G1X18.07Y30.28
G1X18.13Y30.36
G1X18.24Y30.49
G1X18.25Y30.51
G1Y30.48
G1X18.23Y30.46
G1X18.21Y30.45
G1Y30.43
G1Y30.4
G1X18.19
G1X18.14Y30.36
G1X18.11Y30.3
G1X18.1Y30.29
G1X18.09Y30.27
G1X18.07Y30.25
G1Y30.23
G1Y30.21
M5
G0X18.18Y30.21
M3 S30
; Layer C00
G1X18.2Y30.25
G1X18.21Y30.28
G1Y30.26
G1Y30.24
G1X18.19Y30.19
G1Y30.21
M5
G0X18.24Y30.31
M3 S30
; Layer C00
G1X18.22Y30.33
G1X18.25Y30.37
G1Y30.39
G1X18.27
G1Y30.4
G1Y30.42
G1X18.29Y30.45
G1Y30.48
G1X18.31Y30.5
G1Y30.48
G1X18.3Y30.43
G1X18.26Y30.35
G1X18.24Y30.33
G1Y30.32
M5
G0X18.32Y30.51
M3 S30
; Layer C00
G1Y30.53
G1Y30.55
G1X18.33Y30.59
G1X18.35
G1Y30.61
G1Y30.63
G1X18.33Y30.61
G1X18.31Y30.59
G1Y30.56
G1X18.28
G1X18.27Y30.53
G1X18.26
G1Y30.55
G1X18.31Y30.62
G1X18.35Y30.66
G1X18.37Y30.64
G1X18.36Y30.57
G1X18.34Y30.53
G1X18.33
G1Y30.51
M5
G0X18.09Y29.75
M3 S30
; Layer C00
G1X18.1Y29.73
G1Y29.69
G1Y29.64
G1X18.11Y29.6
G1Y29.62
G1X18.08Y29.7
G1X18.09Y29.75
M5
G0X18.12Y29.54
M3 S30
; Layer C00
G1X18.13
G1X18.16Y29.46
G1X18.19Y29.35
G1X18.2Y29.27
G1Y29.23
G1X18.18Y29.3
G1Y29.38
G1X18.17
G1X18.16
G1X18.15Y29.45
G1X18.13Y29.51
G1Y29.54
M5
G0X17.77Y29.53
M3 S30
; Layer C00
G1Y29.51
G1Y29.48
G1X17.75Y29.41
G1X17.73
G1Y29.43
G1X17.74Y29.47
G1X17.76Y29.51
G1Y29.53
M5
G0X17.7Y29.26
M3 S30
; Layer C00
G1Y29.23
G1Y29.2
G1Y29.17
G1X17.68Y29.15
G1Y29.13
G1Y29.11
G1Y29.12
G1X17.66
G1X17.69Y29.21
G1Y29.25
M5
G0X17.65Y29.09
M3 S30
; Layer C00
G1Y29.07
G1Y29.05
G1X17.64Y29.03
G1Y29.01
G1X17.61Y28.93
G1Y28.91
G1X17.6
G1X17.58Y28.9
G1Y28.88
G1X17.57Y28.86
G1X17.54Y28.84
G1X17.53
G1X17.52Y28.81
G1X17.48Y28.77
G1Y28.75
G1X17.46
G1X17.43Y28.71
G1Y28.67
G1X17.45Y28.65
G1X17.43
G1X17.4Y28.62
G1Y28.65
G1X17.43Y28.73
G1X17.59Y28.94
G1X17.62Y29
G1X17.63Y29.07
G1X17.65Y29.09
M5
G0X17.82Y28.96
M3 S30
; Layer C00
G1X17.84
G1X17.85
G1X17.86Y28.97
G1X17.88
G1X17.92Y28.96
G1Y28.94
G1Y28.93
G1X17.94
G1Y28.9
G1X17.96Y28.87
G1Y28.84
G1X17.95Y28.86
G1X17.93Y28.84
G1Y28.86
G1Y28.89
G1Y28.92
G1X17.9Y28.95
G1X17.87
G1X17.85
G1X17.83Y28.93
G1X17.81
G1Y28.94
G1X17.82Y28.96
M5
G0X17.79Y28.89
M3 S30
; Layer C00
G1Y28.86
G1Y28.84
G1X17.77
G1Y28.85
G1Y28.87
G1X17.79Y28.89
M5
G0X17.78Y28.82
M3 S30
; Layer C00
G1Y28.8
G1X17.77Y28.77
G1X17.74Y28.69
G1Y28.67
G1X17.73Y28.63
G1Y28.69
G1Y28.73
G1X17.74Y28.74
G1X17.77Y28.81
G1Y28.82
M5
G0X17.93Y28.77
M3 S30
; Layer C00
G1Y28.75
G1Y28.73
G1Y28.75
G1Y28.77
M5
G0X17.96Y28.69
M3 S30
; Layer C00
G1Y28.67
G1Y28.62
G1X17.99Y28.61
G1X18
G1X18.03Y28.57
G1X18.07Y28.52
G1X18.08Y28.49
G1Y28.48
G1X18.09
G1X18.1Y28.49
G1Y28.47
G1X18.11Y28.44
G1Y28.42
G1X18.1
G1Y28.43
G1X18.07Y28.49
G1X17.95Y28.62
G1X17.93Y28.66
G1Y28.68
G1X17.94Y28.67
G1X17.95Y28.68
G1X17.96Y28.69
M5
G0X17.71Y28.61
M3 S30
; Layer C00
G1Y28.59
G1Y28.61
M5
G0X17.7Y28.45
M3 S30
; Layer C00
G1Y28.43
G1X17.71Y28.4
G1Y28.38
G1X17.7Y28.41
G1Y28.44
M5
G0X17.71Y28.31
M3 S30
; Layer C00
G1X17.72Y28.3
G1Y28.28
G1Y28.29
G1X17.71Y28.31
M5
G0X17.7Y28.18
M3 S30
; Layer C00
G1Y28.14
G1X17.66Y28.07
G1X17.55Y27.93
G1X17.53Y27.9
G1X17.51Y27.88
G1X17.5
G1X17.53Y27.93
G1X17.6Y28
G1Y28.01
G1Y28.03
G1X17.67Y28.11
G1X17.68Y28.14
G1Y28.17
G1X17.7Y28.18
M5
G0X18.03Y28.14
M3 S30
; Layer C00
G1X18.06Y28.24
G1X18.1Y28.32
G1Y28.3
G1Y28.29
G1Y28.28
G1X18.07Y28.22
G1X18.05Y28.12
G1X18.03Y28.09
G1X18.02Y28.06
G1Y28.08
G1Y28.1
G1X18.03Y28.13
G1Y28.14
M5
G0X18.02Y28.05
M3 S30
; Layer C00
G1Y28.01
G1X18Y27.96
G1Y27.87
G1X18.02Y27.71
G1X18.06Y27.64
G1Y27.62
G1Y27.61
G1X18.03Y27.63
G1X17.99Y27.75
G1Y27.89
G1Y27.98
G1X18Y28.03
G1X18.02Y28.05
M5
G0X18.34Y28.15
M3 S30
; Layer C00
G1Y28.16
G1X18.33Y28.19
G1Y28.2
G1Y28.22
G1X18.32Y28.24
G1X18.35Y28.2
G1X18.37Y28.17
G1Y28.15
G1X18.38
G1X18.39Y28.13
G1X18.41Y28.09
G1Y28.05
G1X18.39
G1Y28.09
G1X18.38Y28.11
G1X18.36Y28.15
G1X18.35
G1X18.34
M5
G0X18.32Y28.26
M3 S30
; Layer C00
G1Y28.27
G1X18.3Y28.29
G1Y28.31
G1X18.32Y28.33
G1Y28.29
G1Y28.26
M5
G0X18.32Y28.39
M3 S30
; Layer C00
G1Y28.41
G1X18.33
G1Y28.4
G1Y28.39
M5
G0X18.3Y28.46
M3 S30
; Layer C00
G1Y28.6
G1X18.29
G1X18.28
G1Y28.62
G1Y28.66
G1X18.27Y28.7
G1X18.25Y28.74
G1Y28.76
G1Y28.75
G1X18.28Y28.71
G1X18.3Y28.65
G1Y28.57
G1Y28.5
G1Y28.46
M5
G0X18.24Y28.78
M3 S30
; Layer C00
G1X18.23Y28.79
G1X18.22Y28.81
G1Y28.83
G1X18.24Y28.82
G1Y28.78
M5
G0X18.21Y28.9
M3 S30
; Layer C00
G1Y28.95
G1Y28.99
G1X18.22Y28.95
G1Y28.91
M5
G0X18.22Y29.07
M3 S30
; Layer C00
G1X18.21Y29.1
G1Y29.14
G1Y29.16
G1Y29.14
G1X18.22Y29.11
G1Y29.07
M5
G0X17.39Y28.6
M3 S30
; Layer C00
G1Y28.59
G1Y28.56
G1X17.36Y28.49
G1X17.35Y28.47
G1X17.37Y28.54
G1X17.39Y28.6
M5
G0X17.35Y28.42
M3 S30
; Layer C00
G1Y28.41
G1Y28.4
G1Y28.38
G1X17.34
G1Y28.39
G1Y28.41
M5
G0X17.36Y28.28
M3 S30
; Layer C00
G1X17.35Y28.23
G1Y28.15
G1X17.33
G1Y28.19
G1Y28.24
G1Y28.28
G1Y28.26
G1X17.35Y28.27
G1Y28.28
M5
G0X17.32Y28.11
M3 S30
; Layer C00
G1Y28.1
G1Y28.07
G1Y28.05
G1Y28.04
G1X17.31
G1Y28.07
G1Y28.1
G1Y28.11
M5
G0X17.32Y28.02
M3 S30
; Layer C00
G1X17.33
G1Y28
G1X17.32
G1X17.31
G1Y28.02
M5
G0X17.31Y27.95
M3 S30
; Layer C00
G1Y27.94
G1Y27.91
G1Y27.89
G1X17.3
G1Y27.93
G1X17.31Y27.95
M5
G0X17.29Y27.86
M3 S30
; Layer C00
G1Y27.85
G1Y27.84
G1Y27.86
M5
G0X17.28Y27.81
M3 S30
; Layer C00
G1X17.29
G1Y27.79
G1X17.27
G1Y27.8
G1Y27.81
G1X17.28
M5
G0X17.26Y27.74
M3 S30
; Layer C00
G1Y27.71
G1X17.24Y27.69
G1Y27.66
G1X17.22
G1X17.19Y27.64
G1X17.16
G1X17.14
G1X17.16
G1X17.19Y27.66
G1X17.22Y27.69
G1X17.26Y27.74
M5
G0X17.11Y27.77
M3 S30
; Layer C00
G1X17.08Y27.83
G1Y27.85
G1X17.03Y27.97
G1X17.02Y28.09
G1X17.03Y28.13
G1Y28.09
G1Y28.06
G1X17.04Y28.02
G1X17.07Y27.9
G1X17.11Y27.8
G1Y27.77
M5
G0X17.1Y27.75
M3 S30
; Layer C00
G1Y27.74
G1Y27.73
G1X17.09
G1Y27.75
M5
G0X16.99Y27.75
M3 S30
; Layer C00
G1Y27.71
G1X16.97Y27.67
G1Y27.72
G1Y27.75
G1Y27.8
G1X16.99Y27.78
G1Y27.75
M5
G0X16.97Y27.81
M3 S30
; Layer C00
G1X16.94Y27.86
G1X16.88Y27.97
G1X16.87Y28.02
G1X16.89Y28.01
G1X16.9Y27.97
G1X16.91Y27.93
G1X16.93Y27.9
G1X16.95Y27.88
G1Y27.86
G1X16.98Y27.82
M5
G0X16.99Y27.64
M3 S30
; Layer C00
G1X17Y27.62
G1X16.99
G1Y27.63
G1Y27.64
M5
G0X17.02Y27.59
M3 S30
; Layer C00
G1Y27.58
G1Y27.57
G1Y27.56
G1Y27.57
G1Y27.59
M5
G0X17.04Y27.54
M3 S30
; Layer C00
G1Y27.53
G1Y27.5
G1X17.02Y27.47
G1X17.01Y27.49
G1X17.02Y27.53
G1X17.04Y27.54
M5
G0X17.02Y27.34
M3 S30
; Layer C00
G1X17.03
G1X17.04Y27.32
G1X17.06Y27.3
G1Y27.29
G1Y27.28
G1X17.04
G1X17.01Y27.31
G1Y27.34
M5
G0X17.09Y27.27
M3 S30
; Layer C00
G1X17.13
G1X17.18Y27.23
G1X17.2Y27.2
G1X17.17Y27.22
G1X17.13Y27.25
G1X17.09Y27.26
G1Y27.27
M5
G0X17.21Y27.16
M3 S30
; Layer C00
G1Y27.14
G1Y27.12
G1Y27.14
G1Y27.16
M5
G0X17.34Y27.14
M3 S30
; Layer C00
G1Y27.11
G1Y27.08
G1Y27.11
G1Y27.14
M5
G0X17.35Y27.18
M3 S30
; Layer C00
G1X17.34Y27.2
G1Y27.22
G1X17.35Y27.19
G1Y27.18
M5
G0X17.36Y27.23
M3 S30
; Layer C00
G1Y27.24
G1X17.38Y27.3
G1Y27.32
G1Y27.34
G1X17.4Y27.35
G1X17.43Y27.39
G1X17.45Y27.47
G1X17.47Y27.73
G1X17.48Y27.79
G1Y27.82
G1X17.5Y27.78
G1Y27.76
G1Y27.74
G1X17.48Y27.7
G1Y27.48
G1X17.44Y27.39
G1X17.38Y27.26
G1X17.37Y27.24
G1X17.36Y27.23
M5
G0X17.23Y27.07
M3 S30
; Layer C00
G1X17.24Y27.04
G1Y27
G1X17.26Y26.92
G1X17.28Y26.9
G1X17.29
G1Y26.89
G1X17.31
G1X17.32Y26.91
G1Y26.97
G1X17.33Y27.03
G1Y27.05
G1X17.34Y27.03
G1Y26.97
G1Y26.88
G1X17.3Y26.85
G1X17.28Y26.87
G1X17.25Y26.91
G1X17.22Y27.03
G1Y27.07
M5
G0X18.05Y27.23
M3 S30
; Layer C00
G1Y27.36
G1Y27.42
G1X18.06Y27.44
G1Y27.42
G1Y27.35
G1Y27.23
G1X18.1Y27.15
G1X18.11Y27.13
G1Y27.11
G1X18.12Y27.06
G1X18.15Y27.03
G1X18.16Y26.99
G1X18.19Y26.96
G1X18.21Y26.93
G1X18.22Y26.91
G1X18.24Y26.9
G1Y26.92
G1X18.25
G1Y26.9
G1X18.27Y26.83
G1Y26.77
G1Y26.8
G1X18.24Y26.86
G1X18.19Y26.94
G1X18.11Y27.06
G1X18.09Y27.14
G1Y27.15
G1X18.05Y27.23
M5
G0X18.29Y27.25
M3 S30
; Layer C00
G1Y27.32
G1X18.34Y27.52
G1Y27.55
G1X18.37Y27.57
G1Y27.62
G1X18.38Y27.59
G1X18.36Y27.51
G1X18.32Y27.38
G1X18.3Y27.29
G1X18.32Y27.21
G1X18.36Y27.12
G1X18.39Y27.07
G1X18.4Y27.04
G1X18.39
G1X18.37Y27.07
G1Y27.1
G1X18.35
G1X18.32Y27.15
G1X18.3Y27.22
G1Y27.24
G1X18.29
M5
G0X18.39Y27
M3 S30
; Layer C00
G1X18.4
G1X18.39Y26.92
G1Y26.8
G1X18.45Y26.69
G1X18.51Y26.6
G1Y26.5
G1X18.49Y26.45
G1X18.48Y26.42
G1Y26.45
G1Y26.49
G1X18.49Y26.52
G1Y26.57
G1Y26.63
G1X18.41Y26.72
G1X18.38Y26.78
G1X18.37Y26.84
G1Y26.9
G1X18.38Y26.96
G1Y27
M5
G0X18.69Y27.13
M3 S30
; Layer C00
G1X18.68Y27.15
G1Y27.17
G1X18.7Y27.14
G1Y27.11
G1Y27.13
M5
G0X18.75Y27.14
M3 S30
; Layer C00
G1Y27.15
G1X18.76
G1Y27.14
G1X18.77Y27.13
G1X18.75
M5
G0X18.79Y27.15
M3 S30
; Layer C00
G1X18.81
G1Y27.13
G1X18.82
G1X18.8
G1Y27.15
M5
G0X18.85Y27.11
M3 S30
; Layer C00
G1X18.9
G1X18.92
G1Y27.1
G1X18.94Y27.08
G1X18.99Y27.05
G1X19.03Y27.03
G1X19.04Y27.02
G1X19.03
G1X18.97Y27.05
G1X18.94
G1X18.91Y27.06
G1X18.86Y27.1
G1X18.85
G1Y27.11
M5
G0X19.03Y27
M3 S30
; Layer C00
G1X19.09Y26.97
G1X19.11
G1X19.12
G1X19.14
G1Y26.96
G1X19.1
G1X19.06
G1X19.05
G1X19.04Y26.99
G1Y27
M5
G0X19.15Y26.99
M3 S30
; Layer C00
G1X19.18
G1X19.24
G1X19.25
G1X19.26
G1X19.28Y26.98
G1X19.3
G1Y27
G1X19.34
G1X19.32Y27.02
G1X19.34Y27.03
G1Y27.02
G1X19.35
G1X19.36
G1X19.38Y27.05
G1X19.41
G1X19.45Y27.09
G1X19.49Y27.11
G1X19.51Y27.15
G1Y27.16
G1X19.56Y27.22
G1Y27.24
G1X19.57
G1X19.59Y27.25
G1X19.62Y27.29
G1X19.65Y27.33
G1X19.67Y27.35
G1X19.68Y27.37
G1Y27.42
G1Y27.48
G1X19.66Y27.52
G1X19.65Y27.54
G1X19.64Y27.56
G1X19.6Y27.55
G1Y27.56
G1Y27.57
G1X19.62
G1Y27.58
G1Y27.59
G1X19.6
G1X19.59
G1Y27.63
G1X19.56Y27.65
G1X19.55Y27.7
G1X19.54
G1Y27.76
G1X19.56Y27.84
G1Y27.87
G1Y27.89
G1X19.57
G1X19.58
G1Y27.93
G1X19.6
G1X19.62Y27.97
G1Y27.93
G1X19.59Y27.87
G1X19.55Y27.75
G1X19.58Y27.67
G1X19.66Y27.55
G1X19.7Y27.47
G1Y27.41
G1X19.69Y27.35
G1X19.67Y27.32
G1X19.65Y27.29
G1X19.53Y27.16
G1X19.52Y27.14
G1X19.46Y27.08
G1X19.36Y27
G1X19.3Y26.97
G1X19.23
G1X19.18
G1X19.15Y26.98
M5
G0X19.09Y27.26
M3 S30
; Layer C00
G1X19.06Y27.28
G1X19.02Y27.37
G1X19
G1Y27.39
G1Y27.41
G1X18.91Y27.43
G1X18.89Y27.45
G1X18.88
G1X18.86Y27.48
G1X18.84
G1X18.83Y27.55
G1Y27.58
G1X18.85Y27.54
G1X18.88Y27.47
G1X18.94Y27.44
G1X18.97
G1X19Y27.43
G1X19.04Y27.36
G1X19.07Y27.29
G1X19.1Y27.26
M5
G0X19.13Y27.32
M3 S30
; Layer C00
G1X19.1Y27.35
G1X19.02Y27.46
G1X18.95Y27.49
G1X18.91Y27.53
G1X18.88Y27.64
G1X18.89Y27.75
G1X19.01Y27.92
G1Y27.97
G1X19.02Y28.06
G1X19.08Y28.13
G1X19.13Y28.16
G1X19.15
G1X19.13Y28.09
G1X19.11Y27.99
G1X19.13Y27.91
G1X19.16Y27.87
G1X19.25Y27.81
G1X19.27Y27.77
G1Y27.73
G1X19.25Y27.68
G1X19.23Y27.56
G1X19.25Y27.46
G1X19.28Y27.37
G1X19.26Y27.33
G1X19.19Y27.32
G1X19.13
M5
G0X19.24Y27.27
M3 S30
; Layer C00
G1X19.26
G1X19.27
G1Y27.25
G1X19.26
G1X19.25Y27.26
M5
G0X19.3Y27.26
M3 S30
; Layer C00
G1Y27.29
G1X19.32Y27.32
G1X19.34Y27.36
G1X19.35
G1Y27.33
G1Y27.31
G1Y27.29
G1X19.34Y27.28
G1X19.33Y27.26
G1X19.3
M5
G0X19.34Y27.4
M3 S30
; Layer C00
G1X19.31Y27.47
G1X19.32
G1X19.34Y27.44
G1Y27.41
M5
G0X19.3Y27.5
M3 S30
; Layer C00
G1Y27.52
G1X19.31
G1Y27.51
G1Y27.5
G1X19.3
M5
G0X19.29Y27.53
M3 S30
; Layer C00
G1X19.28Y27.57
G1X19.31Y27.65
G1X19.32Y27.7
G1X19.33Y27.75
G1Y27.78
G1X19.34Y27.8
G1Y27.78
G1Y27.75
G1Y27.7
G1X19.31Y27.6
G1X19.3Y27.54
G1X19.29
M5
G0X19.32Y27.82
M3 S30
; Layer C00
G1X19.3Y27.84
G1X19.26Y27.86
G1X19.22Y27.89
G1X19.18Y27.92
G1X19.16Y27.95
G1Y27.97
G1X19.18Y27.94
G1X19.2Y27.92
G1X19.22Y27.91
G1X19.24
G1X19.25
G1Y27.89
G1X19.3Y27.86
G1X19.32Y27.83
G1X19.33
G1X19.34
G1X19.32
M5
G0X19.17Y28
M3 S30
; Layer C00
G1Y28.02
G1Y28.08
G1X19.18
G1Y28.05
G1Y28.02
G1X19.17Y28
M5
G0X19.19Y28.1
M3 S30
; Layer C00
G1Y28.13
G1Y28.19
G1X19.16Y28.21
G1Y28.22
G1X19.2Y28.2
G1X19.21
G1X19.22Y28.16
G1X19.2Y28.1
M5
G0X19.05Y28.17
M3 S30
; Layer C00
G1X18.97Y28.1
G1X18.96Y28.11
G1X18.98
G1Y28.13
G1X19Y28.15
G1X19.03Y28.18
G1X19.06Y28.21
G1X19.07
G1X19.12Y28.23
G1Y28.21
G1X19.09Y28.2
G1X19.05Y28.17
M5
G0X18.91Y28.23
M3 S30
; Layer C00
G1X18.88Y28.21
G1X18.81Y28.17
G1X18.78Y28.13
G1X18.76Y28.1
G1X18.73Y28.08
G1Y28.1
G1X18.77Y28.15
G1X18.9Y28.25
G1X18.92Y28.28
G1X18.94Y28.31
G1X18.99Y28.35
G1Y28.36
G1X19.06Y28.44
G1X19.12Y28.49
G1Y28.48
G1X19.05Y28.4
G1X19.03Y28.38
G1Y28.37
G1Y28.36
G1X18.96Y28.3
G1Y28.28
G1X18.94Y28.26
G1X18.93Y28.25
G1X18.91Y28.23
M5
G0X18.95Y28.05
M3 S30
; Layer C00
G1Y28.03
G1Y28
G1X18.96Y27.97
G1Y27.92
G1X18.9Y27.85
G1X18.85Y27.79
G1X18.83Y27.78
G1X18.84Y27.8
G1Y27.82
G1X18.86
G1X18.88Y27.85
G1X18.92Y27.9
G1Y27.92
G1Y27.93
G1X18.95Y27.94
G1Y27.95
G1X18.94Y28
G1Y28.05
G1X18.95
M5
G0X18.73Y28.03
M3 S30
; Layer C00
G1Y28.01
G1X18.72Y27.99
G1X18.7
G1Y28.01
G1Y28.03
G1X18.72
M5
G0X18.72Y27.95
M3 S30
; Layer C00
G1Y27.94
G1X18.69Y27.91
G1X18.64Y27.85
G1Y27.83
G1Y27.82
G1X18.62
G1Y27.81
G1Y27.78
G1X18.6Y27.77
G1Y27.73
G1X18.59Y27.75
G1Y27.76
G1X18.65Y27.88
G1X18.72Y27.95
M5
G0X18.4Y27.98
M3 S30
; Layer C00
G1X18.39Y27.95
G1X18.38
G1Y27.99
G1X18.39Y28.02
G1Y28.03
G1X18.4Y28.01
G1Y27.98
M5
G0X18.37Y27.9
M3 S30
; Layer C00
G1Y27.89
G1Y27.87
G1Y27.88
G1Y27.9
M5
G0X18.37Y27.81
M3 S30
; Layer C00
G1X18.39
G1Y27.77
G1X18.41Y27.7
G1Y27.69
G1X18.4Y27.71
G1X18.39Y27.75
G1Y27.77
G1Y27.79
G1X18.38
G1X18.36
G1X18.37Y27.81
M5
G0X18.38Y27.66
M3 S30
; Layer C00
G1X18.4
G1Y27.64
G1X18.39
G1X18.38Y27.66
M5
G0X18.58Y27.7
M3 S30
; Layer C00
G1X18.59Y27.72
G1X18.6Y27.71
G1Y27.69
G1Y27.68
G1X18.58Y27.7
M5
G0X18.63Y27.68
M3 S30
; Layer C00
G1Y27.66
G1Y27.65
G1X18.65Y27.64
G1Y27.62
G1Y27.6
G1X18.66Y27.57
G1X18.64Y27.59
G1X18.62Y27.65
G1X18.63Y27.68
M5
G0X18.81Y27.67
M3 S30
; Layer C00
G1Y27.69
G1Y27.7
G1X18.82
G1Y27.67
G1Y27.65
G1Y27.67
M5
G0X18.81Y27.63
M3 S30
; Layer C00
G1X18.82Y27.62
G1Y27.61
G1X18.81
G1Y27.63
M5
G0X18.7Y27.54
M3 S30
; Layer C00
G1Y27.53
G1Y27.5
G1Y27.48
G1X18.69
G1X18.68Y27.49
G1Y27.53
G1X18.7Y27.54
M5
G0X18.72Y27.47
M3 S30
; Layer C00
G1Y27.45
G1X18.7Y27.42
G1X18.69Y27.37
G1X18.67Y27.32
G1X18.68Y27.38
G1X18.69Y27.43
G1X18.7Y27.45
G1X18.72Y27.47
M5
G0X18.06Y27.49
M3 S30
; Layer C00
G1X18.04Y27.55
G1X18.05Y27.59
G1Y27.58
G1X18.06Y27.53
G1Y27.49
M5
G0X17.51Y27.84
M3 S30
; Layer C00
G1X17.5
G1Y27.85
G1Y27.86
G1X17.51
G1Y27.84
M5
G0X17Y28.14
M3 S30
; Layer C00
G1Y28.15
G1Y28.17
G1Y28.16
G1Y28.14
M5
G0X16.85Y28.12
M3 S30
; Layer C00
G1Y28.11
G1Y28.1
G1Y28.09
G1Y28.1
G1Y28.12
M5
G0X16.83Y28.15
M3 S30
; Layer C00
G1Y28.16
G1Y28.18
G1X16.84Y28.17
G1Y28.16
M5
G0X16.84Y28.21
M3 S30
; Layer C00
G1X16.82Y28.23
G1Y28.31
G1X16.81Y28.32
G1Y28.33
G1X16.82
G1X16.84Y28.31
G1Y28.27
G1Y28.25
G1Y28.24
G1X16.85
G1Y28.23
G1Y28.21
M5
G0X17.01Y28.27
M3 S30
; Layer C00
G1Y28.29
G1Y28.31
G1X17.02Y28.29
G1Y28.27
M5
G0X17Y28.42
M3 S30
; Layer C00
G1Y28.43
G1Y28.45
G1Y28.43
M5
G0X16.8Y28.37
M3 S30
; Layer C00
G1X16.77Y28.38
G1X16.74Y28.41
G1X16.71Y28.43
G1X16.68Y28.46
G1X16.67Y28.49
G1X16.62Y28.58
G1X16.57Y28.62
G1X16.55
G1X16.54Y28.65
G1Y28.67
G1Y28.68
G1Y28.66
G1X16.56
G1X16.57
G1X16.62Y28.59
