; LightBurn 0.9.24
; GRBL device profile, absolute coords
; Bounds: X3.97 Y3.59 to X31.03 Y31.41
G00 G17 G40 G21 G54
G90
M4
; Cut @ 6000 mm/min, 20% power
M8
M5
G0X16.47Y4.92
M3 S30
; Layer C00
G1X12.01Y10.58S20F6000
G1X7.66Y16.13
G1X4.21Y20.54
G1X6.79
G1X6.84Y20.39
G1X6.9Y20.24
G1X4.97Y20.21
G1X11.17Y12.28
G1X13.02Y9.93
G1X15.98Y6.17
G1X17.14Y4.7
G1X17.4Y4.38
G1X17.43Y4.34
G1X17.45Y4.36
G1X17.49Y4.4
G1X17.65Y4.59
G1X18.06Y5.09
G1X19.23Y6.54
G1X22.28Y10.36
G1X29.99Y20.06
G1X28.71Y20.09
G1X29.07Y20.44
G1X29.92
G1X30.26
G1X30.53Y20.43
G1X30.72Y20.42
G1X30.77
G1X30.78Y20.41
G1X30.77Y20.39
G1X29.57Y18.86
G1X25.93Y14.28
G1X18.02Y4.37
G1X17.62Y3.87
G1X17.5Y3.73
G1X17.47Y3.7
G1X17.46Y3.69
G1X17.43Y3.72
G1X17.26Y3.93
G1X16.47Y4.92
M5
G0X17.41Y5.5
M3 S30
; Layer C00
G1X17.4Y5.56
G1Y5.62
G1X17.43
G1X17.44Y5.58
G1Y5.53
G1X17.41Y5.5
M5
G0X17.04Y5.71
M3 S30
; Layer C00
G1X17.03Y5.76
G1Y5.82
G1X17.06
G1X17.07Y5.78
G1Y5.73
G1X17.04Y5.71
M5
G0X17.42Y6.11
M3 S30
; Layer C00
G1Y6.12
G1Y6.19
G1Y6.32
G1Y6.44
G1Y6.52
G1Y6.54
G1X17.43Y6.51
G1X17.44Y6.34
G1Y6.15
G1X17.42Y6.11
M5
G0X17.53Y6.21
M3 S30
; Layer C00
G1Y6.22
G1X17.52Y6.29
G1Y6.42
G1Y6.54
G1Y6.62
G1Y6.64
G1X17.54Y6.61
G1Y6.44
G1Y6.25
G1Y6.21
M5
G0X17.74Y6.22
M3 S30
; Layer C00
G1X17.72Y6.3
G1X17.62Y6.61
G1Y6.67
G1Y6.69
G1X17.64Y6.67
G1X17.67Y6.61
G1X17.7Y6.52
G1X17.74Y6.41
G1X17.77Y6.3
G1X17.79Y6.21
G1X17.8Y6.14
G1Y6.11
G1X17.79
G1X17.77Y6.16
G1X17.74Y6.22
M5
G0X18.06Y6.39
M3 S30
; Layer C00
G1X17.87Y6.64
G1X17.71Y6.92
G1X17.72Y6.93
G1X17.77Y6.88
G1X17.85Y6.77
G1X17.97Y6.58
G1X18.01Y6.51
G1X18.05Y6.45
G1X18.06Y6.41
G1Y6.39
M5
G0X18.23Y6.74
M3 S30
; Layer C00
G1X18.19Y6.77
G1X18.08Y6.88
G1X17.96Y7.01
G1X17.92Y7.07
G1X17.89Y7.11
G1Y7.13
G1X17.91
G1X18Y7.04
G1X18.14Y6.88
G1X18.21Y6.79
G1X18.24Y6.75
G1Y6.74
M5
G0X18.44Y7.1
M3 S30
; Layer C00
G1X18.41Y7.11
G1X18.37Y7.14
G1X18.3Y7.18
G1X18.21Y7.25
G1X18.14Y7.31
G1X18.08Y7.35
G1X18.06Y7.39
G1X18.15Y7.35
G1X18.29Y7.25
G1X18.37Y7.18
G1X18.42Y7.14
G1X18.44Y7.11
M5
G0X18.69Y7.36
M3 S30
; Layer C00
G1X18.48Y7.45
G1X18.29Y7.58
G1X18.31
G1X18.35Y7.57
G1X18.42Y7.54
G1X18.5Y7.49
G1X18.58Y7.45
G1X18.64Y7.41
G1X18.68Y7.38
G1Y7.36
M5
G0X19Y7.28
M3 S30
; Layer C00
G1X19.03Y7.3
G1X19.07Y7.28
G1X19.08Y7.25
G1Y7.21
G1X19.06Y7.2
G1X19.03Y7.21
G1X19Y7.25
G1Y7.28
M5
G0X18.8Y7.76
M3 S30
; Layer C00
G1X18.61Y7.82
G1X18.45Y7.93
G1X18.5Y7.92
G1X18.63Y7.87
G1X18.76Y7.8
G1X18.8Y7.76
M5
G0X18.99Y8.08
M3 S30
; Layer C00
G1X18.84Y8.13
G1X18.77Y8.17
G1X18.74Y8.18
G1X18.76
G1X18.82
G1X18.96Y8.13
G1X19.11Y8.07
G1X19.18Y8.04
G1X19.21Y8.02
G1X19.19
G1X19.13Y8.03
G1X18.99Y8.08
M5
G0X19.58Y7.94
M3 S30
; Layer C00
G1X19.63
G1X19.69
G1Y7.92
G1X19.66Y7.91
G1X19.6
G1X19.58Y7.94
M5
G0X19.5Y8.41
M3 S30
; Layer C00
G1X19.39Y8.43
G1X19.24Y8.48
G1X19.17Y8.51
G1X19.13Y8.53
G1X19.12Y8.54
G1X19.13
G1X19.24Y8.53
G1X19.4Y8.48
G1X19.46Y8.45
G1X19.5Y8.43
G1X19.52Y8.42
G1X19.5
M5
G0X19.63Y8.78
M3 S30
; Layer C00
G1X19.48Y8.81
G1X19.4Y8.83
G1X19.37Y8.84
G1X19.39
G1X19.45
G1X19.59
G1X19.74Y8.81
G1X19.82Y8.79
G1X19.85Y8.78
G1X19.83
G1X19.77Y8.77
G1X19.63Y8.78
M5
G0X19.7Y9.16
M3 S30
; Layer C00
G1X19.63
G1X19.53Y9.18
G1X19.45Y9.21
G1X19.42Y9.23
G1Y9.24
G1X19.46
G1X19.53Y9.23
G1X19.65Y9.2
G1X19.71Y9.18
G1Y9.16
M5
G0X20.21Y9.15
M3 S30
; Layer C00
G1X20.26
G1X20.33
G1Y9.13
G1X20.29Y9.12
G1X20.23
G1X20.21Y9.15
M5
G0X20.14Y9.52
M3 S30
; Layer C00
G1X19.96
G1X19.92Y9.53
G1X19.94Y9.54
G1X20.02
G1X20.14
G1X20.26
G1X20.33
G1X20.35
G1X20.31Y9.53
G1X20.14Y9.52
M5
G0X20.25Y9.82
M3 S30
; Layer C00
G1X20.07
G1X20.03Y9.84
G1X20.06
G1X20.14
G1X20.27
G1X20.4
G1X20.47
G1X20.49
G1X20.44Y9.83
G1X20.25Y9.82
M5
G0X20.5Y10.29
M3 S30
; Layer C00
G1X20.52
G1X20.58Y10.3
G1X20.69
G1X20.8
G1X20.87
G1X20.89Y10.29
G1X20.86
G1X20.71Y10.27
G1X20.55Y10.28
G1X20.5Y10.29
M5
G0X20.62Y10.63
M3 S30
; Layer C00
G1X20.59Y10.64
G1X20.61
G1X20.67Y10.65
G1X20.77
G1X20.87
G1X20.93
G1X20.95
G1X20.91Y10.63
G1X20.77
G1X20.62
M5
G0X20.79Y11.04
M3 S30
; Layer C00
G1X20.81Y11.05
G1X20.89
G1X21.03
G1X21.17
G1X21.25
G1X21.28
G1X21.23Y11.04
G1X21.03Y11.03
G1X20.83
G1X20.79Y11.04
M5
G0X20.99Y11.39
M3 S30
; Layer C00
G1X20.96
G1X20.98Y11.4
G1X21.04
G1X21.14Y11.41
G1X21.24
G1X21.3
G1X21.32Y11.4
G1X21.28Y11.39
G1X21.14
G1X20.99
M5
G0X21.2Y11.7
M3 S30
; Layer C00
G1X21.25Y11.71
G1X21.32
G1X21.4
G1X21.44
G1X21.46
G1X21.44Y11.69
G1X21.34
G1X21.23
G1X21.2Y11.7
M5
G0X21.34Y12
M3 S30
; Layer C00
G1X21.32Y12.02
G1X21.37
G1X21.43
G1Y12
G1X21.4Y11.99
G1X21.34
M5
G0X21.65Y12
M3 S30
; Layer C00
G1Y12.11
G1Y12.17
G1X21.63
G1X21.57Y12.18
G1X21.45Y12.35
G1X21.39Y12.37
G1X21.35
G1X21.3Y12.42
G1X21.24Y12.49
G1X21.18Y12.59
G1X21.07Y12.82
G1X21Y13.06
G1X20.96Y13.17
G1X20.9Y13.23
G1X20.84Y13.24
G1X20.82Y13.17
G1Y13.14
G1X20.8
G1X20.79Y13.16
G1X20.77Y13.2
G1X20.73Y13.33
G1X20.65Y13.67
G1X20.61Y13.79
G1X20.55Y13.87
G1X20.49Y13.89
G1X20.41Y13.96
G1X20.32Y14.12
G1X20.27Y14.23
G1X20.24Y14.3
G1Y14.34
G1X20.28Y14.37
G1X20.33Y14.36
G1X20.35Y14.29
G1Y14.23
G1X20.39Y14.2
G1X20.43
G1X20.53Y14.28
G1X20.55
G1X20.57Y14.26
G1X20.59Y14.21
G1X20.62Y14.13
G1X20.71Y14.05
G1X20.76Y13.96
G1X20.81Y13.89
G1X20.86Y13.87
G1X20.91Y13.92
G1X20.95Y14.04
G1Y14
G1Y13.93
G1X20.92Y13.78
G1X20.89Y13.67
G1Y13.61
G1X20.92Y13.59
G1X20.97Y13.61
G1X21.01Y13.67
G1X21.03Y13.75
G1X21.06Y13.8
G1X21.08Y13.83
G1X21.1
G1X21.13Y13.79
G1X21.16Y13.72
G1X21.2Y13.62
G1X21.24Y13.48
G1X21.31Y13.29
G1X21.38Y13.12
G1X21.44Y12.97
G1X21.5Y12.86
G1X21.54Y12.79
G1X21.56Y12.74
G1X21.57Y12.7
G1Y12.68
G1X21.53Y12.71
G1X21.48Y12.78
G1X21.42Y12.88
G1X21.35Y13
G1X21.23Y13.26
G1X21.12Y13.58
G1X21.08Y13.61
G1X21.05Y13.52
G1Y13.34
G1Y13.24
G1X21.06Y13.16
G1X21.08Y13.11
G1X21.15Y13.03
G1X21.22Y12.89
G1X21.29Y12.75
G1X21.35Y12.71
G1X21.4Y12.69
G1X21.48Y12.61
G1X21.52Y12.52
G1Y12.48
G1X21.51
G1X21.54Y12.44
G1X21.61Y12.37
G1X21.68Y12.23
G1X21.76Y12.05
G1Y12.23
G1X21.74Y12.39
G1X21.69Y12.53
G1X21.65Y12.64
G1Y12.71
G1Y12.8
G1X21.59Y12.93
G1X21.51Y13.08
G1X21.46Y13.21
G1X21.42Y13.3
G1Y13.34
G1X21.45Y13.32
G1X21.48Y13.26
G1X21.52Y13.18
G1X21.56Y13.09
G1X21.61Y12.99
G1X21.66Y12.92
G1X21.7Y12.88
G1X21.73Y12.87
G1X21.75Y12.9
G1X21.74Y12.93
G1X21.7Y13
G1X21.68Y13.14
G1Y13.21
G1Y13.26
G1X21.7
G1X21.75Y13.2
G1X21.77Y13.22
G1X21.74Y13.28
G1X21.63Y13.37
G1X21.65Y13.39
G1X21.71Y13.4
G1Y13.44
G1X21.63Y13.5
G1X21.41Y13.61
G1X21.34Y13.66
G1X21.29Y13.72
G1X21.26Y13.78
G1X21.21Y13.94
G1X21.1Y14.21
G1X21.07Y14.28
G1X21.06Y14.33
G1Y14.35
G1X21.08Y14.32
G1X21.12Y14.26
G1X21.17Y14.17
G1X21.29Y13.91
G1X21.36Y13.8
G1X21.42Y13.71
G1X21.47Y13.64
G1X21.52Y13.61
G1X21.57Y13.6
G1X21.6Y13.62
G1X21.63Y13.67
G1Y13.72
G1X21.61
G1X21.57
G1X21.56Y13.77
G1Y13.81
G1X21.58Y13.83
G1X21.62
G1X21.66
G1X21.73
G1X21.74Y13.85
G1X21.7Y13.88
G1X21.64Y13.89
G1X21.58Y13.93
G1X21.55Y14.02
G1Y14.11
G1X21.58Y14.14
G1X21.67
G1X21.72Y14.15
G1X21.75Y14.2
G1Y14.27
G1X21.73Y14.37
G1X21.69Y14.43
G1X21.67
G1X21.69Y14.4
G1X21.71Y14.36
G1X21.67
G1X21.64Y14.41
G1Y14.51
G1X21.61Y14.58
G1X21.58Y14.61
G1Y14.63
G1X21.63Y14.62
G1X21.71Y14.55
G1X21.79Y14.43
G1X21.89Y14.22
G1X21.94Y14.08
G1X21.95Y13.98
G1X21.92Y13.88
G1Y13.82
G1X21.93Y13.73
G1X22Y13.5
G1X22.02Y13.42
G1X22.01Y13.37
G1X21.97Y13.32
G1X21.91Y13.22
G1X21.88Y13.04
G1X21.86Y12.82
G1Y12.56
G1Y12.28
G1X21.89Y12
G1X21.93Y11.75
G1X22.02Y11.41
G1Y11.35
G1X21.97Y11.37
G1X21.88Y11.47
G1X21.77Y11.64
G1X21.69Y11.83
G1X21.65Y12
M5
G0X22.15Y11.79
M3 S30
; Layer C00
G1X22.19Y11.83
G1X22.26Y11.86
G1X22.32Y11.88
G1X22.34Y11.86
G1X22.3Y11.83
G1X22.23Y11.79
G1X22.17Y11.78
G1X22.15Y11.79
M5
G0X22.34Y12
M3 S30
; Layer C00
G1X22.32Y12.02
G1X22.37
G1X22.43
G1X22.44Y12
G1X22.4Y11.99
G1X22.34
M5
G0X22.78Y11.96
M3 S30
; Layer C00
G1X22.8Y11.98
G1X22.86Y11.96
G1X22.93Y11.93
G1X22.97Y11.89
G1X22.96Y11.88
G1X22.9Y11.89
G1X22.82Y11.93
G1X22.78Y11.96
M5
G0X22.82Y11.77
M3 S30
; Layer C00
G1X22.9
G1Y11.74
G1X22.82
G1X22.76
G1Y11.76
G1X22.82Y11.77
M5
G0X22.73Y11.41
M3 S30
; Layer C00
G1Y11.39
G1X22.66
G1X22.57
G1X22.55Y11.4
G1X22.59Y11.41
G1X22.64
G1X22.73
M5
G0X22.49Y11.06
M3 S30
; Layer C00
G1Y11.04
G1X22.45Y11.03
G1X22.39
G1X22.37Y11.06
G1X22.42
G1X22.49
M5
G0X21.91Y11.04
M3 S30
; Layer C00
G1X21.87Y11.03
G1X21.81
G1X21.79Y11.06
G1X21.84
G1X21.91
G1Y11.04
M5
G0X22.07Y10.66
M3 S30
; Layer C00
G1X22.14
G1X22.21
G1Y10.64
G1X22.14Y10.63
G1X22.07
G1Y10.66
M5
G0X21.95Y10.26
M3 S30
; Layer C00
G1X22.01
G1Y10.24
G1X21.98Y10.22
G1X21.92Y10.23
G1X21.9Y10.25
G1X21.95Y10.26
M5
G0X21.6Y10.29
M3 S30
; Layer C00
G1X21.55Y10.27
G1X21.5Y10.28
G1X21.47Y10.3
G1X21.53Y10.31
G1X21.59
G1Y10.29
M5
G0X20.05Y10.88
M3 S30
; Layer C00
G1X20.04
G1Y10.92
G1Y10.98
G1X20.06Y11.07
G1X20.11Y11.28
G1X20.18Y11.5
G1X20.23Y11.62
G1X20.33Y11.78
G1X20.44Y11.98
G1X20.58Y12.2
G1X20.71Y12.4
G1X20.82Y12.57
G1X20.91Y12.69
G1X20.96Y12.73
G1X20.99Y12.69
G1X21.05Y12.59
G1X21.09Y12.5
G1X21.05Y12.37
G1X20.99Y12.26
G1X20.9Y12.12
G1X20.78Y11.93
G1X20.4Y11.38
G1X20.1Y10.95
G1X20.05Y10.88
M5
G0X19.68Y11.14
M3 S30
; Layer C00
G1X19.7Y11.16
G1Y11.22
G1Y11.26
G1X19.67
G1Y11.19
G1Y11.14
M5
G0X19.7Y11.35
M3 S30
; Layer C00
G1X19.69Y12.47
G1Y12.67
G1X19.68Y12.84
G1X19.67Y12.97
G1X19.63Y13.16
G1X19.56Y13.32
G1X19.44Y13.54
G1X19.31Y13.7
G1X19.17Y13.82
G1X19.31Y13.64
G1X19.47Y13.4
G1X19.57Y13.12
G1X19.6Y12.95
G1X19.63Y12.74
G1X19.65Y12.49
G1X19.66Y12.18
G1X19.7Y11.35
M5
G0X19.53Y11.82
M3 S30
; Layer C00
G1Y11.84
G1X19.55Y11.92
G1X19.54Y11.99
G1X19.52
G1Y11.9
G1Y11.85
G1Y11.82
G1X19.53
M5
G0X19.79Y11.76
M3 S30
; Layer C00
G1X19.8Y11.5
G1X19.82Y11.32
G1Y11.27
G1Y11.25
G1X19.85Y11.28
G1X19.88Y11.39
G1X19.91Y11.55
G1X19.94Y11.75
G1X19.98Y11.96
G1X20.01Y12.17
G1X20.03Y12.35
G1Y12.49
G1Y12.6
G1X20.05Y12.65
G1X20.06Y12.64
G1X20.08Y12.58
G1X20.1Y12.54
G1X20.12
G1Y12.62
G1X20.14Y12.76
G1Y13.14
G1X20.13Y13.45
G1X20.09Y13.72
G1X20.03Y13.96
G1X19.98Y14.1
G1X19.97Y14.18
G1Y14.21
G1X20.01Y14.19
G1X20.1Y14.08
G1X20.2Y13.92
G1X20.27Y13.79
G1X20.3Y13.63
G1Y13.53
G1X20.31Y13.39
G1Y13.22
G1Y12.79
G1Y12.62
G1Y12.47
G1X20.29Y12.34
G1X20.24Y12.09
G1X20.15Y11.8
G1X20.02Y11.35
G1X19.93Y10.92
G1X19.9Y10.73
G1X19.89Y10.56
G1Y10.41
G1Y10.29
G1X19.91Y10.19
G1Y10.13
G1X19.89Y10.1
G1X19.86
G1X19.82Y10.12
G1X19.76Y10.18
G1X19.69Y10.27
G1X19.61Y10.39
G1X19.43Y10.7
G1X19.34Y10.97
G1X19.31Y11.1
G1Y11.26
G1Y11.44
G1X19.35Y12.18
G1X19.37Y12.64
G1Y12.83
G1X19.36Y12.99
G1X19.35Y13.11
G1X19.33Y13.19
G1X19.31Y13.25
G1Y13.26
G1X19.33Y13.24
G1X19.38Y13.16
G1X19.42Y13.07
G1X19.45Y12.94
G1X19.48Y12.78
G1X19.51Y12.61
G1X19.55Y12.21
G1X19.53Y12.61
G1Y12.82
G1X19.5Y12.99
G1X19.46Y13.13
G1X19.39Y13.27
G1X19.34Y13.36
G1X19.29Y13.44
G1X19.24Y13.49
G1X19.21Y13.5
G1X19.14Y13.53
G1X19.05Y13.6
G1X18.95Y13.72
G1X19.07Y13.62
G1X19.15Y13.57
G1X19.19
G1X19.17Y13.63
G1X19.13Y13.67
G1X19.09Y13.7
G1Y13.74
G1X19.11Y13.78
G1X19.17Y13.82
G1X19.23
G1X19.3Y13.79
G1X19.37Y13.73
G1X19.44Y13.65
G1X19.58Y13.44
G1X19.69Y13.18
G1X19.73Y13
G1X19.76Y12.76
G1X19.78Y12.46
G1X19.79Y11.76
M5
G0X18.86Y11.79
M3 S30
; Layer C00
G1X18.84
G1X18.78
G1X18.69Y11.83
G1X18.63Y11.86
G1X18.66Y11.87
G1X18.74
G1X18.82Y11.83
G1X18.86Y11.79
M5
G0X18.55Y11.45
M3 S30
; Layer C00
G1X18.66Y11.4
G1X18.74Y11.35
G1Y11.33
G1X18.66Y11.35
G1X18.55Y11.4
G1X18.48Y11.45
G1Y11.47
G1X18.55Y11.45
M5
G0X18.24Y11.11
M3 S30
; Layer C00
G1X18.28Y11.09
G1X18.35Y11.05
G1X18.44Y11
G1X18.6Y10.91
G1X18.71Y10.87
G1X18.75
G1Y10.84
G1X18.7Y10.83
G1X18.6Y10.85
G1X18.48Y10.91
G1X18.34Y11
G1X18.27Y11.05
G1X18.22Y11.09
G1X18.2Y11.11
G1Y11.12
G1X18.24
M5
G0X18.15Y10.85
M3 S30
; Layer C00
G1X18.19Y10.84
G1X18.26Y10.81
G1X18.34Y10.77
G1X18.49Y10.69
G1X18.55Y10.64
G1X18.54
G1X18.49Y10.66
G1X18.43Y10.68
G1X18.34Y10.72
G1X18.19Y10.8
G1X18.13Y10.85
G1X18.15
M5
G0X17.9Y10.71
M3 S30
; Layer C00
G1X17.95Y10.68
G1X18.03Y10.62
G1X18.13Y10.54
G1X18.24Y10.45
G1X18.32Y10.38
G1X18.38Y10.33
G1X18.39Y10.3
G1X18.37
G1X18.23Y10.41
G1X18.03Y10.57
G1X17.94Y10.65
G1X17.89Y10.7
G1Y10.72
G1X17.9Y10.71
M5
G0X17.77Y10.42
M3 S30
; Layer C00
G1X17.84Y10.37
G1X17.97Y10.24
G1X18.04Y10.17
G1X18.09Y10.12
G1X18.12Y10.08
G1Y10.07
G1X18.06Y10.12
G1X17.92Y10.24
G1X17.85Y10.31
G1X17.8Y10.37
G1X17.77Y10.4
G1Y10.42
M5
G0X17.57Y10.34
M3 S30
; Layer C00
G1X17.61Y10.29
G1X17.65Y10.2
G1X17.71Y10.09
G1X17.77Y9.97
G1X17.82Y9.86
G1X17.85Y9.78
G1X17.86Y9.74
G1X17.85
G1X17.81Y9.8
G1X17.77Y9.88
G1X17.71Y9.99
G1X17.66Y10.11
G1X17.61Y10.21
G1X17.57Y10.3
G1Y10.34
M5
G0X17.32Y9.95
M3 S30
; Layer C00
G1Y9.93
G1Y9.88
G1X17.34Y9.56
G1X17.33Y9.25
G1Y9.2
G1Y9.18
G1X17.32
G1Y9.21
G1Y9.34
G1X17.31Y9.56
G1Y9.78
G1Y9.92
G1Y9.95
G1X17.32
M5
G0X17.56Y9.79
M3 S30
; Layer C00
G1X17.63Y9.63
G1X17.69Y9.48
G1X17.74Y9.33
G1X17.77Y9.19
G1X17.7Y9.34
G1X17.63Y9.49
G1X17.59Y9.64
G1X17.56Y9.79
M5
G0X16.96Y9.74
M3 S30
; Layer C00
G1Y9.71
G1Y9.65
G1Y9.56
G1X16.95Y9.46
G1X16.93Y9.36
G1X16.91Y9.29
G1X16.9Y9.24
G1X16.89Y9.23
G1X16.88Y9.26
G1Y9.32
G1Y9.41
G1X16.9Y9.51
G1X16.91Y9.61
G1X16.93Y9.68
G1X16.95Y9.73
G1Y9.74
M5
G0X16.74Y9.84
M3 S30
; Layer C00
G1X16.69Y9.73
G1X16.63Y9.64
G1X16.61Y9.62
G1X16.67Y9.79
G1X16.75Y9.89
G1X16.74Y9.84
M5
G0X16.33Y10.2
M3 S30
; Layer C00
G1X16.32
G1X16.35Y10.24
G1X16.42Y10.33
G1X16.52Y10.45
G1X16.58Y10.51
G1X16.59
G1X16.56Y10.43
G1X16.49Y10.34
G1X16.39Y10.24
G1X16.33Y10.2
M5
G0X16.19Y10.49
M3 S30
; Layer C00
G1X16.29Y10.61
G1X16.44Y10.72
G1X16.42Y10.68
G1X16.34Y10.6
G1X16.25Y10.51
G1X16.19Y10.49
M5
G0X16.05Y10.75
M3 S30
; Layer C00
G1Y10.77
G1X16.13Y10.84
G1X16.28Y10.95
G1X16.4Y11.02
G1X16.47Y11.06
G1X16.49
G1X16.48Y11.03
G1X16.43Y10.99
G1X16.35Y10.93
G1X16.25Y10.87
G1X16.16Y10.81
G1X16.09Y10.77
G1X16.05Y10.75
M5
G0X16.02Y11.17
M3 S30
; Layer C00
G1X16.16Y11.32
G1X16.39Y11.47
G1Y11.46
G1X16.36Y11.43
G1X16.31Y11.38
G1X16.25Y11.32
G1X16.11Y11.22
G1X16.02Y11.17
M5
G0X15.84Y11.63
M3 S30
; Layer C00
G1X15.86Y11.66
G1X15.92Y11.7
G1X16Y11.75
G1X16.13Y11.83
G1X16.2Y11.87
G1X16.23
G1Y11.85
G1X16.06Y11.73
G1X15.84Y11.63
M5
G0X15.92Y12.21
M3 S30
; Layer C00
G1X15.95Y12.24
G1X16.04Y12.28
G1X16.13Y12.31
G1X16.17Y12.33
G1Y12.32
G1X16.16Y12.29
G1X16.03Y12.22
G1X15.92
M5
G0X17.26Y12.2
M3 S30
; Layer C00
G1Y12.22
G1X17.28Y12.17
G1Y11.93
G1Y11.69
G1X17.27Y11.63
G1Y11.66
G1X17.26Y11.76
G1Y11.93
G1Y12.1
G1Y12.2
M5
G0X17.59Y12.29
M3 S30
; Layer C00
G1X17.56Y12.34
G1X17.52Y12.43
G1X17.47Y12.56
G1X17.42Y12.72
G1X17.4Y12.83
G1X17.42Y12.93
G1X17.47Y13.07
G1X17.54Y13.34
G1X17.59Y13.65
G1X17.62Y13.99
G1X17.87
G1X17.91Y13.98
G1X17.88Y13.97
G1X17.8Y13.96
G1X17.72Y13.94
G1X17.68Y13.89
G1X17.66Y13.79
G1Y13.61
G1X17.63Y13.3
G1X17.57Y13.04
G1X17.52Y12.9
G1X17.51Y12.79
G1Y12.67
G1X17.59Y12.4
G1X17.61Y12.32
G1Y12.27
G1X17.59Y12.29
M5
G0X18.68Y12.3
M3 S30
; Layer C00
G1X18.72
G1X18.77
G1X18.84Y12.27
G1X18.83Y12.24
G1X18.76
G1X18.7Y12.27
G1X18.68Y12.3
M5
G0X18.92Y12.89
M3 S30
; Layer C00
G1X18.86Y12.9
G1X18.84Y12.92
G1X18.89Y12.93
G1X18.95
G1X18.96Y12.91
G1X18.92Y12.89
M5
G0X17.24Y13.07
M3 S30
; Layer C00
G1X17.21Y13.03
G1X17.14Y12.98
G1X17.1Y12.95
G1X17.08Y12.94
G1Y12.95
G1X17.12Y13
G1X17.17Y13.05
G1X17.21Y13.08
G1X17.23
G1Y13.07
M5
G0X16.47Y13.28
M3 S30
; Layer C00
G1X16.34Y13.24
G1X16.22Y13.21
G1X16.1Y13.2
G1X16
G1X16.1Y13.24
G1X16.22Y13.27
G1X16.34Y13.28
G1X16.47
M5
G0X14.86Y13.42
M3 S30
; Layer C00
G1X14.66Y13.26
G1X14.42Y13.14
G1X14.45Y13.18
G1X14.52Y13.23
G1X14.6Y13.28
G1X14.75Y13.38
G1X14.83Y13.42
G1X14.86Y13.43
G1Y13.42
M5
G0X14.22Y13.38
M3 S30
; Layer C00
G1Y13.37
G1X14.18Y13.31
G1X14.12Y13.26
G1X14.06Y13.24
G1X14.05Y13.26
G1X14.1Y13.31
G1X14.18Y13.37
G1X14.22Y13.38
M5
G0X14.07Y13.03
M3 S30
; Layer C00
G1X14.13Y13.02
G1X14.1Y12.99
G1X14.04Y12.97
G1X14Y12.96
G1Y12.99
G1X14.07Y13.03
M5
G0X14.42Y12.86
M3 S30
; Layer C00
G1X14.5Y12.91
G1X14.54Y12.93
G1Y12.91
G1X14.5Y12.86
G1X14.43Y12.81
G1X14.37Y12.78
G1Y12.81
G1X14.42Y12.86
M5
G0X13.91Y12.68
M3 S30
; Layer C00
G1X14.12Y12.37
G1X14.29Y12.12
G1X14.4Y11.93
G1X14.43Y11.87
G1X14.44Y11.85
G1X14.41Y11.77
G1X14.35Y11.68
G1X14.25Y11.56
G1X13.66Y12.43
G1X13.25Y13.05
G1X13.08Y13.29
G1Y13.31
G1X13.22Y13.41
G1X13.37Y13.47
G1X13.91Y12.68
M5
G0X13.01Y12.45
M3 S30
; Layer C00
G1X12.96
G1X12.7Y12.44
G1X12.43
G1X12.36Y12.45
G1X12.39
G1X12.49Y12.46
G1X12.68
G1X12.86
G1X12.98
G1X13.01
M5
G0X13.1Y12.11
M3 S30
; Layer C00
G1X13.18
G1X13.31
G1X13.44
G1X13.51
G1X13.53
G1X13.48Y12.09
G1X13.29
G1X13.11
G1X13.07Y12.1
G1X13.1
M5
G0X12.78Y11.91
M3 S30
; Layer C00
G1X12.77Y11.9
G1X12.7Y11.89
G1X12.64
G1X12.63Y11.91
G1X12.7Y11.92
G1X12.78
M5
G0X12.64Y12.1
M3 S30
; Layer C00
G1X12.59Y12.09
G1X12.53
G1X12.51Y12.12
G1X12.57
G1X12.63
G1Y12.1
M5
G0X12.05Y12.02
M3 S30
; Layer C00
G1Y12
G1X12.01Y11.99
G1X11.95
G1X11.93Y12.02
G1X11.99
G1X12.05
M5
G0X12.09Y11.87
M3 S30
; Layer C00
G1X12.15
G1X12.16Y11.85
G1X12.12Y11.83
G1X12.06Y11.84
G1X12.04Y11.86
G1X12.09Y11.87
M5
G0X12.21Y11.51
M3 S30
; Layer C00
G1X12.28
G1X12.35
G1Y11.49
G1X12.28
G1X12.22
G1X12.21Y11.51
M5
G0X12.99Y11.16
M3 S30
; Layer C00
G1X13.04Y11.17
G1X13.1
G1X13.11Y11.14
G1X13.07Y11.13
G1X13.01
G1X12.99Y11.16
M5
G0X13.26Y11.5
M3 S30
; Layer C00
G1X13.28
G1X13.39
G1X13.57
G1X13.76
G1X13.87
G1X13.91
G1X13.85Y11.49
G1X13.59
G1X13.32
G1X13.26
M5
G0X13.32Y11.79
M3 S30
; Layer C00
G1X13.28Y11.8
G1X13.3
G1X13.37Y11.81
G1X13.49
G1X13.61
G1X13.69
G1X13.7Y11.8
G1X13.66
G1X13.49Y11.78
G1X13.32Y11.79
M5
G0X13.68Y11.15
M3 S30
; Layer C00
G1X13.76
G1X13.89
G1X14.02
G1X14.09
G1X14.11
G1X14.06Y11.14
G1X13.87Y11.13
G1X13.69
G1X13.65Y11.15
G1X13.68
M5
G0X13.37Y10.76
M3 S30
; Layer C00
G1Y10.74
G1X13.33Y10.73
G1X13.27
G1X13.25Y10.76
G1X13.3
G1X13.37
M5
G0X12.88Y10.76
M3 S30
; Layer C00
G1Y10.74
G1X12.81Y10.73
G1X12.74
G1Y10.76
G1X12.81
G1X12.88
M5
G0X13.36Y10.42
M3 S30
; Layer C00
G1X13.38Y10.4
G1X13.41Y10.37
G1X13.42Y10.33
G1X13.39Y10.32
G1X13.35Y10.33
G1X13.34Y10.37
G1Y10.4
G1X13.36Y10.42
M5
G0X14.14Y10.34
M3 S30
; Layer C00
G1X14.19Y10.35
G1X14.26
G1X14.33
G1X14.38
G1X14.4
G1X14.38Y10.33
G1X14.28
G1X14.17
G1X14.14Y10.34
M5
G0X14.17Y10.73
M3 S30
; Layer C00
G1X14.01
G1X13.97Y10.74
G1X14.04Y10.75
G1X14.15
G1X14.26
G1X14.33
G1X14.36
G1X14.32Y10.74
G1X14.17Y10.73
M5
G0X14.74Y10.9
M3 S30
; Layer C00
G1X14.7Y10.99
G1X14.67Y11.06
G1Y11.11
G1Y11.14
G1X14.73Y11.16
G1X14.83
G1X14.87Y11.13
G1X14.95Y11.04
G1X15.06Y10.9
G1X15.21Y10.7
G1X15.39Y10.45
G1X15.6Y10.14
G1X15.85Y9.79
G1X16.12Y9.39
G1X16.37Y9.03
G1X16.6Y8.7
G1X16.81Y8.4
G1X16.99Y8.14
G1X17.15Y7.92
G1X17.28Y7.76
G1X17.36Y7.65
G1X17.4Y7.61
G1X17.43Y7.63
G1X17.49Y7.7
G1X17.58Y7.81
G1X17.7Y7.97
G1X17.84Y8.16
G1X18Y8.39
G1X18.19Y8.66
G1X19.36Y10.39
G1X19.4
G1X19.47Y10.35
G1X19.53Y10.27
G1X19.55Y10.18
G1X19.53Y10.14
G1X19.47Y10.04
G1X19.37Y9.88
G1X18.91Y9.18
G1X18.54Y8.61
G1X18.15Y8.03
G1X17.67Y7.31
G1X17.47Y7.02
G1X17.42Y6.96
G1X17.39Y7
G1X17.17Y7.3
G1X16.54Y8.21
G1X15.51Y9.72
G1X15.15Y10.26
G1X15.01Y10.47
G1X14.9Y10.64
G1X14.81Y10.78
G1X14.74Y10.9
M5
G0X14.74Y11.39
M3 S30
; Layer C00
G1X14.78Y11.4
G1X14.84Y11.44
G1X14.86Y11.48
G1Y11.52
G1X14.84
G1X14.81Y11.5
G1X14.76Y11.45
G1X14.73Y11.41
G1X14.72Y11.39
G1X14.74
M5
G0X14.79Y11.32
M3 S30
; Layer C00
G1X14.59Y11.29
G1X14.36
G1X14.05Y11.3
G1X14.22Y11.37
G1X14.38Y11.48
G1X14.51Y11.66
G1X14.56Y11.79
G1X14.61Y11.94
G1X14.65Y12.12
G1X14.69Y12.32
G1X14.76Y12.69
G1X14.85Y12.97
G1X14.97Y13.2
G1X15.13Y13.41
G1X15.28Y13.55
G1X15.43Y13.65
G1X15.56Y13.72
G1X15.65
G1X15.72
G1X15.82Y13.74
G1X15.91Y13.77
G1X15.98Y13.79
G1X16.01
G1Y13.76
G1X15.96Y13.73
G1X15.88Y13.69
G1X15.79Y13.65
G1X15.57Y13.54
G1X15.4Y13.42
G1X15.27Y13.28
G1X15.16Y13.11
G1X15.1Y13.02
G1X15.08Y13
G1X15.11Y13.1
G1X15.19Y13.23
G1X15.31Y13.37
G1X15.45Y13.51
G1X15.53Y13.58
G1X15.59Y13.64
G1X15.62Y13.68
G1Y13.69
G1X15.49Y13.64
G1X15.34Y13.51
G1X15.2Y13.33
G1X15.09Y13.15
G1X15.02Y12.93
G1X14.99Y12.72
G1Y12.59
G1X14.96Y12.53
G1X14.93Y12.51
G1Y12.46
G1X14.94Y12.4
G1X14.9Y12.28
G1X14.89Y12.13
G1X14.84Y11.93
G1X14.73Y11.72
G1X14.59Y11.5
G1X14.73Y11.63
G1X14.87Y11.78
G1X14.99Y11.95
G1X15.1Y12.19
G1X15.26Y12.68
G1X15.32Y12.84
G1X15.38Y12.97
G1X15.43Y13.05
G1X15.55Y13.14
G1X15.73Y13.24
G1X15.91Y13.31
G1X16.05Y13.33
G1X16.07
G1X16.05Y13.31
G1X15.99Y13.28
G1X15.9Y13.24
G1X15.68Y13.15
G1X15.52Y13.04
G1X15.44Y12.95
G1X15.37Y12.82
G1X15.34Y12.72
G1X15.3Y12.59
G1X15.26Y12.42
G1X15.21Y12.21
G1X15.12Y11.92
G1X15.02Y11.72
G1X14.95Y11.62
G1X14.92Y11.56
G1Y11.54
G1X14.97Y11.55
G1X15.06Y11.65
G1X15.15Y11.83
G1X15.24Y12.07
G1X15.31Y12.35
G1X15.35Y12.53
G1X15.39Y12.67
G1X15.43Y12.79
G1X15.48Y12.89
G1X15.59Y13.03
G1X15.74Y13.12
G1X15.88Y13.17
G1X15.95Y13.18
G1X15.93Y13.16
G1X15.83Y13.09
G1X15.7Y12.97
G1X15.56Y12.8
G1X15.51Y12.72
G1X15.47Y12.64
G1X15.46Y12.58
G1Y12.55
G1X15.5Y12.58
G1X15.57Y12.69
G1X15.66Y12.84
G1X15.77Y12.97
G1X15.91Y13.05
G1X16.1Y13.13
G1X16.28Y13.17
G1X16.38
G1X16.39Y13.13
G1X16.36Y13.08
G1X16.3Y13.05
G1X16.14Y13.02
G1X16.06Y12.97
G1X15.97Y12.9
G1X15.89Y12.8
G1X15.72Y12.54
G1X15.58Y12.21
G1X15.49Y11.97
G1X15.38Y11.76
G1X15.26Y11.6
G1X15.13Y11.47
G1X14.97Y11.38
G1X14.79Y11.32
M5
G0X16.87Y11.27
M3 S30
; Layer C00
G1X16.91Y11.23
G1X16.96Y11.19
G1Y11.14
G1Y11.08
G1Y11
G1X16.98Y10.94
G1X16.99Y10.92
G1X17.01Y10.93
G1X17.03Y10.97
G1X17.06Y11.11
G1X17.08Y11.29
G1X17.07Y11.43
G1X17.04Y11.51
G1X17Y11.53
G1X16.95Y11.48
G1X16.94Y11.42
G1X16.95Y11.35
G1Y11.3
G1X16.91Y11.27
G1X16.87
M5
G0X16.73Y11.33
M3 S30
; Layer C00
G1X16.74Y11.46
G1Y11.56
G1Y11.65
G1X16.72Y11.69
G1X16.68Y11.77
G1X16.65Y11.94
G1X16.63Y12.06
G1X16.61Y12.2
G1X16.56Y12.58
G1X16.54Y12.7
G1X16.52Y12.79
G1X16.49Y12.84
G1X16.46
G1X16.41
G1Y12.87
G1Y12.91
G1X16.43Y12.97
G1X16.5Y13.15
G1X16.58Y13.39
G1X16.59Y13.6
G1Y13.72
G1X16.64Y13.79
G1X16.73Y13.83
G1X16.88Y13.84
G1X16.93
G1X16.95Y13.83
G1X16.94Y13.81
G1X16.9Y13.76
G1X16.84Y13.68
G1X16.81Y13.61
G1Y13.56
G1X16.77
G1X16.74Y13.55
G1Y13.49
G1Y13.44
G1X16.75Y13.42
G1X16.79Y13.41
G1X16.84Y13.42
G1X16.89Y13.43
G1X16.91
G1X16.88Y13.39
G1X16.81Y13.31
G1X16.68Y13.17
G1X16.9Y13.31
G1X16.94
G1Y13.3
G1Y13.24
G1X16.88Y13.14
G1X16.78Y13.07
G1X16.69Y13.02
G1X16.66Y12.98
G1X16.67Y12.96
G1X16.72Y12.98
G1X16.79Y13.01
G1X16.87Y13.06
G1X17.06Y13.21
G1X17.24Y13.38
G1X17.35Y13.5
G1X17.4Y13.55
G1Y13.53
G1X17.36Y13.45
G1X17.22Y13.27
G1X17.03Y13.08
G1X16.89Y12.95
G1X16.78Y12.83
G1X16.7Y12.71
G1X16.64Y12.56
G1X16.63Y12.52
G1X16.64
G1X16.68Y12.55
G1X16.78Y12.66
G1X16.83Y12.7
G1X16.85Y12.71
G1X16.87Y12.7
G1X16.85Y12.65
G1X16.81Y12.61
G1X16.78Y12.56
G1X16.76Y12.49
G1Y12.45
G1X16.77Y12.44
G1X16.79
G1X16.84Y12.51
G1X16.86
G1Y12.5
G1X16.84Y12.44
G1Y12.34
G1X16.89Y12.25
G1X16.95Y12.17
G1X16.97Y12.08
G1Y12.01
G1X16.92Y11.98
G1X16.88Y11.96
G1X16.87Y11.9
G1Y11.86
G1X16.88Y11.85
G1X16.91Y11.86
G1X16.96Y11.91
G1X17Y11.97
G1X17.03Y12.06
G1X17.06Y12.2
G1X17.08Y12.38
G1X17.11Y12.62
G1X17.16Y12.82
G1X17.19Y12.9
G1X17.21Y12.95
G1X17.24Y12.98
G1X17.26
G1Y12.95
G1Y12.87
G1X17.24Y12.76
G1X17.09Y12.05
G1X17.04Y11.85
G1X17Y11.71
G1X16.98Y11.66
G1Y11.64
G1X17Y11.63
G1X17.04Y11.64
G1X17.09Y11.65
G1X17.11
G1X17.13Y11.61
G1Y11.55
G1X17.15Y11.46
G1X17.23Y11.41
G1Y11.35
G1X17.2Y11.23
G1X17.07Y10.91
G1X17.02Y10.77
G1X16.99Y10.65
G1X16.98Y10.57
G1Y10.5
G1Y10.48
G1X17.02Y10.52
G1X17.07Y10.61
G1X17.15Y10.72
G1X17.21Y10.76
G1X17.24Y10.78
G1X17.28Y10.85
G1X17.33Y10.95
G1X17.44Y11.21
G1X17.49Y11.32
G1X17.53Y11.38
G1X17.56Y11.4
G1X17.59
G1X17.61Y11.44
G1X17.62Y11.58
G1X17.64Y11.67
G1X17.67Y11.74
G1X17.73Y11.8
G1Y11.82
G1X17.7Y11.86
G1X17.65Y11.91
G1X17.55Y12.04
G1X17.43Y12.24
G1X17.33Y12.45
G1X17.29Y12.6
G1X17.3
G1X17.33Y12.56
G1X17.37Y12.49
G1X17.5Y12.25
G1X17.55Y12.17
G1X17.61Y12.14
G1X17.68
G1X17.78
G1X17.82Y12.11
G1Y12.09
G1X17.85
G1Y12.17
G1X17.73Y12.47
G1X17.71Y12.59
G1Y12.64
G1X17.72Y12.66
G1X17.75
G1X17.79Y12.62
G1X17.85Y12.54
G1X17.87Y12.45
G1Y12.4
G1X17.88Y12.39
G1X17.9Y12.41
G1X17.94Y12.51
G1X17.96Y12.52
G1X17.97Y12.5
G1X17.99Y12.43
G1X18Y12.4
G1Y12.42
G1Y12.47
G1Y12.69
G1Y12.75
G1X18.02
G1X18.06Y12.68
G1X18.11Y12.6
G1X18.13
G1X18.11Y12.68
G1X18.05Y12.82
G1X18Y12.95
G1X17.98Y13.01
G1X18.01Y13.02
G1X18.16Y12.95
G1X18.21
G1Y12.97
G1X18.19Y13.04
G1X18.16Y13.11
G1X18.17Y13.16
G1X18.14Y13.21
G1X18.11Y13.24
G1Y13.26
G1X18.14
G1X18.21
G1X18.31
G1X18.37Y13.29
G1Y13.35
G1X18.31Y13.42
G1X18.26Y13.46
G1Y13.48
G1X18.29
G1X18.53Y13.43
G1X18.36Y13.51
G1X18.21Y13.59
G1X18.15Y13.65
G1Y13.67
G1X18.19Y13.68
G1X18.24
G1X18.41Y13.66
G1X18.46
G1X18.47Y13.67
G1X18.42Y13.71
G1X18.43Y13.73
G1X18.48
G1X18.56Y13.74
G1X18.72Y13.76
G1X18.79Y13.79
G1Y13.81
G1X18.77Y13.83
G1X18.72Y13.84
G1X18.65
G1X18.58Y13.85
G1X18.54
G1Y13.87
G1X18.59
G1X18.68Y13.9
G1X18.71Y13.94
G1X18.78Y13.97
G1X18.94Y13.98
G1X19.16Y13.99
G1X18.91Y13.78
G1X18.76Y13.66
G1X18.69Y13.56
G1Y13.46
G1X18.74Y13.33
G1Y13.29
G1Y13.26
G1X18.7Y13.24
G1X18.65Y13.22
G1X18.51Y13.18
G1X18.44Y13.13
G1X18.42Y13.06
G1X18.45Y12.97
G1X18.47Y12.9
G1Y12.86
G1X18.45Y12.84
G1X18.39
G1X18.34Y12.83
G1X18.31Y12.79
G1X18.29Y12.72
G1Y12.6
G1X18.26Y12.36
G1X18.2Y12.1
G1X18.15Y11.97
G1X18.11Y11.89
G1X18.06Y11.86
G1X18.02
G1X17.97
G1X17.93Y11.83
G1X17.9Y11.77
G1X17.8Y11.42
G1X17.7Y11.23
G1X17.64Y11.13
G1X17.56Y11.02
G1X17.46Y10.89
G1X17.19Y10.57
G1X17.08Y10.42
G1X17Y10.32
G1X16.97Y10.27
G1Y10.23
G1X16.93Y10.22
G1X16.9Y10.25
G1X16.86Y10.35
G1X16.82Y10.49
G1X16.78Y10.66
G1X16.74Y11.03
G1Y11.33
M5
G0X17.3Y11.08
M3 S30
; Layer C00
G1X17.32Y11.1
G1Y11.06
G1X17.29Y10.95
G1X17.24Y10.86
G1X17.21Y10.83
G1Y10.89
G1X17.24Y10.99
G1X17.3Y11.08
M5
G0X18.72Y10.16
M3 S30
; Layer C00
G1X18.76
G1X18.81Y10.14
G1X18.88Y10.08
G1X18.91Y10.04
G1Y10.02
G1X18.89Y10.03
G1X18.83Y10.06
G1X18.76Y10.1
G1X18.72Y10.14
G1Y10.16
M5
G0X18.34Y9.84
M3 S30
; Layer C00
G1X18.38Y9.8
G1X18.4Y9.76
G1X18.38Y9.73
G1X18.34
G1X18.31Y9.78
G1X18.29Y9.82
G1X18.31Y9.85
G1X18.34Y9.84
M5
G0X18.04Y9.35
M3 S30
; Layer C00
G1X18.08Y9.31
G1X18.12Y9.24
G1Y9.16
G1Y9.13
G1X18.08Y9.19
G1X18.04Y9.28
G1Y9.33
G1Y9.35
M5
G0X16.85Y8.89
M3 S30
; Layer C00
G1X16.86Y8.85
G1Y8.8
G1X16.83Y8.78
G1X16.82Y8.83
G1Y8.89
G1X16.85
M5
G0X15.83Y8.64
M3 S30
; Layer C00
G1X15.81Y8.63
G1X15.77Y8.61
G1X15.71Y8.58
G1X15.55Y8.53
G1X15.44Y8.51
G1X15.43
G1X15.44Y8.53
G1X15.48Y8.56
G1X15.55Y8.58
G1X15.7Y8.63
G1X15.81Y8.65
G1X15.83
M5
G0X15.49Y8.93
M3 S30
; Layer C00
G1X15.41Y8.91
G1X15.29Y8.88
G1X15.16Y8.85
G1X15.05Y8.83
G1X14.97
G1X14.93
G1Y8.84
G1X14.98Y8.86
G1X15.05Y8.88
G1X15.14Y8.9
G1X15.33Y8.93
G1X15.5Y8.95
G1X15.52
G1X15.49Y8.93
M5
G0X15.26Y9.24
M3 S30
; Layer C00
G1X15.19Y9.23
G1X15.16
G1X15.18Y9.26
G1X15.26Y9.29
G1X15.36Y9.31
G1X15.43
G1Y9.29
G1X15.38Y9.27
G1X15.26Y9.24
M5
G0X15.11Y9.63
M3 S30
; Layer C00
G1X15.06
G1X14.86Y9.62
G1X14.67
G1X14.62Y9.63
G1X14.64Y9.64
G1X14.73
G1X14.86
G1X15
G1X15.09
G1X15.11
M5
G0X14.9Y9.94
M3 S30
; Layer C00
G1X14.85Y9.93
G1X14.65
G1X14.46
G1X14.41
G1X14.43Y9.94
G1X14.52
G1X14.65
G1X14.79
G1X14.87
G1X14.9
M5
G0X14.58Y8.8
M3 S30
; Layer C00
G1Y8.78
G1X14.54Y8.76
G1X14.49Y8.77
G1X14.46Y8.79
G1X14.52Y8.8
G1X14.58
M5
G0X15.25Y8.04
M3 S30
; Layer C00
G1X15.31
G1X15.37
G1Y8.02
G1X15.33Y8.01
G1X15.28
G1X15.25Y8.04
M5
G0X15.72Y8.12
M3 S30
; Layer C00
G1X15.73Y8.14
G1X15.77Y8.16
G1X15.84Y8.19
G1X15.93Y8.22
G1X16.09Y8.27
G1X16.17Y8.3
G1X16.18
G1X16.15Y8.26
G1X15.92Y8.16
G1X15.72Y8.12
M5
G0X16.16Y7.88
M3 S30
; Layer C00
G1X16.23Y7.93
G1X16.34Y7.98
G1X16.42Y8
G1Y7.98
G1X16.34Y7.93
G1X16.23Y7.88
G1X16.16Y7.86
G1Y7.88
M5
G0X16.43Y7.6
M3 S30
; Layer C00
G1X16.56Y7.66
G1X16.63Y7.69
G1X16.65
G1Y7.68
G1X16.59Y7.63
G1X16.45Y7.55
G1X16.36Y7.51
G1X16.3Y7.48
G1X16.25Y7.47
G1X16.23
G1X16.29Y7.52
G1X16.43Y7.6
M5
G0X16.77Y7.43
M3 S30
; Layer C00
G1X16.85Y7.49
G1X16.86
G1X16.81Y7.42
G1X16.72Y7.34
G1X16.58Y7.24
G1X16.51Y7.2
G1X16.5
G1X16.54Y7.24
G1X16.63Y7.32
G1X16.77Y7.43
M5
G0X17Y7.2
M3 S30
; Layer C00
G1X16.97Y7.13
G1X16.87Y7
G1X16.8Y6.92
G1X16.74Y6.85
G1X16.7Y6.81
G1X16.67Y6.79
G1Y6.81
G1X16.71Y6.87
G1X16.78Y6.96
G1X16.89Y7.08
G1X16.94Y7.14
G1X16.98Y7.18
G1X17Y7.2
M5
G0X17.19Y7.03
M3 S30
; Layer C00
G1X17.21Y7.05
G1Y6.99
G1X17.14Y6.86
G1X17.04Y6.69
G1X16.95Y6.57
G1X16.93Y6.55
G1X16.92
G1Y6.57
G1X16.94Y6.61
G1X17.03Y6.76
G1X17.17Y7.01
G1X17.19Y7.03
M5
G0X17.32Y6.83
M3 S30
; Layer C00
G1Y6.8
G1X17.31Y6.73
G1X17.29Y6.64
G1X17.25Y6.53
G1X17.22Y6.42
G1X17.19Y6.33
G1X17.16Y6.27
G1X17.15Y6.26
G1Y6.29
G1Y6.36
G1X17.18Y6.45
G1X17.21Y6.57
G1X17.25Y6.68
G1X17.28Y6.76
G1X17.3Y6.82
G1X17.32Y6.83
M5
G0X15.96Y7.35
M3 S30
; Layer C00
G1X15.92Y7.32
G1X15.88
G1X15.87Y7.35
G1X15.88Y7.38
G1X15.92Y7.4
G1X15.96
G1X15.97Y7.38
G1X15.96Y7.35
M5
G0X17.42Y7.99
M3 S30
; Layer C00
G1Y8
G1X17.41Y8.04
G1Y8.1
G1Y8.16
G1Y8.2
G1X17.42Y8.21
G1X17.43Y8.19
G1X17.44Y8.1
G1Y8.02
G1X17.42Y7.99
M5
G0X17.83Y5.73
M3 S30
; Layer C00
G1X17.84
G1X17.88Y5.7
G1X17.91Y5.65
G1Y5.61
G1X17.88
G1X17.85Y5.67
G1X17.83Y5.71
G1Y5.73
M5
G0X22.38Y12.35
M3 S30
; Layer C00
G1X22.4Y12.36
G1X22.46
G1X22.56
G1X22.66
G1X22.72
G1X22.74
G1X22.71Y12.35
G1X22.56Y12.34
G1X22.42
G1X22.38Y12.35
M5
G0X22.39Y12.75
M3 S30
; Layer C00
G1X22.35
G1X22.36Y12.76
G1X22.43
G1X22.53
G1X22.65
G1X22.72
G1X22.74
G1X22.71Y12.75
G1X22.55Y12.74
G1X22.39
M5
G0X22.5Y13.1
M3 S30
; Layer C00
G1X22.45
G1X22.47Y13.12
G1X22.53
G1X22.64
G1X22.75
G1X22.82
G1X22.84Y13.11
G1X22.81
G1X22.66Y13.09
G1X22.5Y13.1
M5
G0X22.59Y13.51
M3 S30
; Layer C00
G1X22.62
G1X22.74Y13.52
G1X22.93
G1X23.12
G1X23.24
G1X23.27Y13.51
G1X23.21
G1X22.93Y13.5
G1X22.65
G1X22.59Y13.51
M5
G0X22.94Y13.76
M3 S30
; Layer C00
G1X22.96
G1X23.06Y13.77
G1X23.22
G1X23.39
G1X23.49
G1X23.52
G1X23.47Y13.75
G1X23.24
G1X23
G1X22.94Y13.76
M5
G0X23.05Y14.06
M3 S30
; Layer C00
G1X23.03
G1Y14.08
G1X23.06
G1X23.11
G1X23.21
G1Y14.06
G1X23.13Y14.05
G1X23.05
M5
G0X23.05Y14.21
M3 S30
; Layer C00
G1X22.93Y14.23
G1X22.8Y14.28
G1X22.66Y14.33
G1X22.52Y14.39
G1X22.39Y14.45
G1X22.3Y14.5
G1X22.12Y14.64
G1X21.95Y14.73
G1X21.74Y14.8
G1X21.94Y14.78
G1X22.16Y14.71
G1X22.4Y14.57
G1X22.67Y14.42
G1X22.94Y14.3
G1X23.04Y14.26
G1X23.11Y14.23
G1X23.14Y14.21
G1X23.13Y14.2
G1X23.05
M5
G0X23.38Y14.02
M3 S30
; Layer C00
G1X23.39
G1X23.45
G1X23.54
G1X23.63
G1X23.69
G1X23.71
G1X23.68Y14.01
G1X23.56Y14
G1X23.42
G1X23.38Y14.02
M5
G0X23.91Y13.98
M3 S30
; Layer C00
G1X23.98
G1X24.06
G1X24.05Y13.96
G1X23.98Y13.95
G1X23.92Y13.96
G1Y13.98
M5
G0X24.03Y13.77
M3 S30
; Layer C00
G1X24.06
G1X24.12Y13.78
G1X24.21
G1Y13.76
G1X24.14Y13.75
G1X24.05
G1X24.03Y13.77
M5
G0X24.48Y13.78
M3 S30
; Layer C00
G1X24.53
G1X24.6
G1Y13.76
G1X24.56Y13.75
G1X24.5
G1X24.48Y13.78
M5
G0X24.16Y13.47
M3 S30
; Layer C00
G1Y13.46
G1X24.09Y13.45
G1X24.02
G1Y13.47
G1X24.09Y13.48
G1X24.16
M5
G0X24.01Y13.12
M3 S30
; Layer C00
G1X24Y13.1
G1X23.93
G1X23.87
G1X23.86Y13.12
G1X23.93
G1X24.01
M5
G0X23.44Y13.11
M3 S30
; Layer C00
G1X23.4Y13.09
G1X23.34Y13.1
G1X23.32Y13.12
G1X23.37Y13.13
G1X23.44
G1Y13.11
M5
G0X23.28Y12.77
M3 S30
; Layer C00
G1Y12.75
G1X23.24
G1X23.18
G1X23.16Y12.77
G1X23.22Y12.78
G1X23.28
M5
G0X22.08Y13.73
M3 S30
; Layer C00
G1X22.06
G1Y13.76
G1Y13.8
G1Y13.87
G1X22.07Y14
G1X22.04Y14.14
G1X22.01Y14.26
G1Y14.35
G1X22.04Y14.42
G1X22.09Y14.45
G1X22.17Y14.42
G1X22.29Y14.36
G1X22.41Y14.28
G1X22.45Y14.23
G1Y14.19
G1X22.4Y14.13
G1X22.35Y14.04
G1X22.28Y13.94
G1X22.16Y13.79
G1X22.08Y13.73
M5
G0X22.67Y14.55
M3 S30
; Layer C00
G1X22.7Y14.56
G1Y14.6
G1X22.66Y14.63
G1X22.64Y14.65
G1X22.62Y14.63
G1Y14.6
G1Y14.56
G1X22.67Y14.55
M5
G0X22.5Y14.58
M3 S30
; Layer C00
G1X22.25Y14.73
G1X22.06Y14.83
G1X21.99Y14.86
G1X21.96Y14.88
G1Y14.89
G1X22
G1X22.14Y14.86
G1X22.35Y14.77
G1X22.45Y14.71
G1X22.51Y14.69
G1Y14.7
G1X22.47Y14.74
G1X22.4Y14.81
G1X22.36Y14.88
G1X22.35Y14.93
G1X22.38Y14.95
G1X22.43Y14.93
G1X22.52Y14.89
G1X22.65Y14.82
G1X22.81Y14.74
G1X22.96Y14.67
G1X23.09Y14.61
G1X23.19Y14.57
G1X23.23
G1X23.24Y14.62
G1X23.21Y14.69
G1X23.16Y14.75
G1X23.11Y14.77
G1X23.01Y14.82
G1X22.85Y14.94
G1X22.77Y15.01
G1X22.72Y15.05
G1X22.7Y15.08
G1X22.72
G1X22.81Y15.02
G1X22.92Y14.93
G1X23Y14.87
G1X23.04
G1X23.09Y14.85
G1X23.15Y14.81
G1X23.22Y14.75
G1X23.42Y14.6
G1X23.62Y14.5
G1X23.82Y14.45
G1X24.05Y14.43
G1X24.17
G1X24.26Y14.42
G1X24.33
G1X24.35Y14.41
G1X24.3Y14.38
G1X24.19Y14.33
G1X24.03Y14.27
G1X23.89Y14.22
G1X23.8Y14.21
G1Y14.23
G1X23.79Y14.25
G1X23.75Y14.26
G1X23.69
G1X23.6
G1X23.34
G1X23.06Y14.32
G1X22.77Y14.43
G1X22.5Y14.58
M5
G0X23Y15.11
M3 S30
; Layer C00
G1X22.94Y15.16
G1X22.92Y15.19
G1Y15.22
G1X22.95Y15.25
G1X23.02Y15.28
G1X23.15Y15.33
G1X23.21Y15.34
G1Y15.31
G1X23.16Y15.23
G1X23.1Y15.14
G1X23.05Y15.11
G1X23
M5
G0X23.66Y14.92
M3 S30
; Layer C00
G1X23.7
G1X23.83
G1X24.04Y14.93
G1X24.25
G1X24.38
G1X24.41
G1Y14.92
G1X24.39
G1X24.34
G1X24.04Y14.9
G1X23.73Y14.91
G1X23.69
G1X23.66
M5
G0X23.92Y14.57
M3 S30
; Layer C00
G1X23.94
G1X24.04
G1X24.19
G1X24.35
G1X24.45
G1X24.47
G1X24.42Y14.56
G1X24.19
G1X23.97
G1X23.92
M5
G0X24.45Y14.28
M3 S30
; Layer C00
G1X24.48
G1X24.54
G1X24.63
G1Y14.26
G1X24.56
G1X24.47
G1X24.45
G1Y14.28
M5
G0X25.08Y14.56
M3 S30
; Layer C00
G1X25.06Y14.58
G1X25.11Y14.59
G1X25.18
G1Y14.57
G1X25.14Y14.55
G1X25.08Y14.56
M5
G0X25.09Y14.91
M3 S30
; Layer C00
G1X25
G1X24.98Y14.92
G1Y14.93
G1X25.03
G1X25.09
G1X25.16
G1X25.19
G1X25.2
G1X25.18Y14.91
G1X25.09
M5
G0X25.19Y15.26
M3 S30
; Layer C00
G1X25.13
G1X25.11Y15.29
G1X25.17
G1X25.23
G1Y15.27
G1X25.19Y15.26
M5
G0X25.59Y15.29
M3 S30
; Layer C00
G1X25.64
G1X25.7
G1Y15.27
G1X25.67Y15.26
G1X25.61
G1X25.59Y15.29
M5
G0X25.67Y15.66
M3 S30
; Layer C00
G1X25.61Y15.67
G1X25.6Y15.69
G1X25.67
G1X25.74
G1Y15.67
G1X25.67
M5
G0X26.06Y15.69
M3 S30
; Layer C00
G1X26.11Y15.7
G1X26.18
G1Y15.67
G1X26.14Y15.66
G1X26.08Y15.67
G1X26.06Y15.69
M5
G0X25.9Y16.02
M3 S30
; Layer C00
G1X25.82
G1X25.74
G1X25.71Y16.03
G1X25.75Y16.04
G1X25.8
G1X25.9
G1Y16.02
M5
G0X26.13Y16.28
M3 S30
; Layer C00
G1Y16.29
G1X26.2Y16.3
G1X26.27
G1Y16.28
G1X26.2Y16.26
G1X26.13Y16.28
M5
G0X26.35Y16.58
M3 S30
; Layer C00
G1X26.32Y16.6
G1X26.38
G1X26.44
G1Y16.58
G1X26.4Y16.57
G1X26.35
M5
G0X26.46Y16.87
M3 S30
; Layer C00
G1X26.4
G1X26.39Y16.9
G1X26.46
G1X26.54
G1X26.53Y16.88
G1X26.46Y16.87
M5
G0X26.9Y16.95
M3 S30
; Layer C00
G1X26.96
G1X27.02
G1Y16.93
G1X26.98Y16.92
G1X26.93
G1X26.9Y16.95
M5
G0X26.5Y17.23
M3 S30
; Layer C00
G1X26.46
G1X26.4
G1X26.38Y17.25
G1X26.43Y17.26
G1X26.49
G1X26.5Y17.23
M5
G0X26.71Y17.48
M3 S30
; Layer C00
G1Y17.5
G1X26.78
G1X26.85
G1Y17.48
G1X26.78
G1X26.71
M5
G0X27.22Y17.55
M3 S30
; Layer C00
G1X27.27Y17.56
G1X27.34
G1Y17.54
G1X27.3Y17.52
G1X27.24Y17.53
G1X27.22Y17.55
M5
G0X27.59Y17.55
M3 S30
; Layer C00
G1X27.64Y17.56
G1X27.71
G1Y17.54
G1X27.67Y17.52
G1X27.61Y17.53
G1X27.59Y17.55
M5
G0X27.19Y17.84
M3 S30
; Layer C00
G1X27.14Y17.82
G1X27.08Y17.83
G1X27.06Y17.86
G1X27.12
G1X27.18
G1Y17.84
M5
G0X27.4Y18.24
M3 S30
; Layer C00
G1X27.38Y18.26
G1X27.43
G1X27.49
G1X27.5Y18.24
G1X27.46Y18.23
G1X27.4
M5
G0X26.93Y18.25
M3 S30
; Layer C00
G1X26.88
G1X26.75Y18.23
G1X26.57Y18.22
G1X26.36Y18.21
G1X26.15Y18.2
G1X26.03
G1X26
G1X26.07Y18.22
G1X26.33Y18.25
G1X26.62Y18.26
G1X26.75
G1X26.85
G1X26.92
G1X26.93
M5
G0X26.93Y18.53
M3 S30
; Layer C00
G1X26.63
G1X26.59Y18.54
G1X26.56
G1X26.59
G1X26.71Y18.55
G1X26.91
G1X27.11
G1X27.24
G1X27.28
G1X27.21Y18.54
G1X26.93Y18.53
M5
G0X27.76Y18.75
M3 S30
; Layer C00
G1X27.82
G1X27.91Y18.76
G1X28
G1X28.06
G1X28.08Y18.75
G1X28.06Y18.74
G1X27.93
G1X27.79
G1X27.76
M5
G0X27.92Y18.56
M3 S30
; Layer C00
G1X27.99
G1X28.06
G1Y18.54
G1X27.99Y18.53
G1X27.92Y18.54
G1Y18.56
M5
G0X28.22Y19.09
M3 S30
; Layer C00
G1X28.19Y19.1
G1Y19.11
G1X28.23
G1X28.28
G1X28.37
G1Y19.09
G1X28.3
G1X28.22
M5
G0X28.39Y19.35
M3 S30
; Layer C00
G1X28.4
G1X28.45Y19.36
G1X28.54
G1X28.64
G1X28.7
G1X28.71
G1X28.69Y19.34
G1X28.56
G1X28.43
G1X28.39Y19.35
M5
G0X28.44Y19.58
M3 S30
; Layer C00
G1X28.36Y19.6
G1X28.33Y19.61
G1X28.35
G1X28.41
G1X28.55
G1X28.7Y19.58
G1X28.78Y19.56
G1X28.81Y19.55
G1X28.79
G1X28.73
G1X28.59
G1X28.44Y19.58
M5
G0X28.6Y19.8
M3 S30
; Layer C00
G1X28.62Y19.81
G1X28.68
G1X28.78
G1X28.88
G1X28.94
G1X28.96
G1X28.93Y19.8
G1X28.78Y19.79
G1X28.64
G1X28.6Y19.8
M5
G0X28.73Y19.96
M3 S30
; Layer C00
G1X28.75Y19.98
G1X28.85
G1X28.97Y19.96
G1X29.07Y19.93
G1X29.11Y19.91
G1X29.05
G1X28.97
G1X28.81Y19.94
G1X28.73Y19.96
M5
G0X28.59Y20.18
M3 S30
; Layer C00
G1X28.32Y20.05
G1X28.33Y20.07
G1X28.37Y20.11
G1X28.44Y20.17
G1X28.52Y20.23
G1X28.66Y20.32
G1X28.75Y20.37
G1X28.81Y20.39
G1X28.83Y20.36
G1X28.59Y20.18
M5
G0X29.5Y19.97
M3 S30
; Layer C00
G1X29.57
G1X29.65
G1X29.64Y19.95
G1X29.57Y19.94
G1X29.51Y19.95
G1X29.5Y19.97
M5
G0X29.44Y19.78
M3 S30
; Layer C00
G1X29.5
G1Y19.75
G1X29.46Y19.74
G1X29.4
G1X29.38Y19.77
G1X29.44
M5
G0X29.29Y19.57
M3 S30
; Layer C00
G1Y19.55
G1X29.25Y19.54
G1X29.19
G1X29.17Y19.57
G1X29.22
G1X29.29
M5
G0X27.13Y20.35
M3 S30
; Layer C00
G1X27.15Y20.39
G1Y20.42
G1X27.12Y20.44
G1X27.1Y20.42
G1X27.07Y20.39
G1Y20.35
G1X27.09Y20.34
G1X27.13Y20.35
M5
G0X27.52Y21.12
M3 S30
; Layer C00
G1X27.56
G1X27.62Y21.17
G1X27.66Y21.22
G1Y21.24
G1X27.64Y21.23
G1X27.57Y21.19
G1X27.52Y21.15
G1Y21.12
M5
G0X27.44Y21.08
M3 S30
; Layer C00
G1X27.37
G1X27.23Y21.05
G1X27.1Y21.02
G1X27.04
G1X27.06Y21.04
G1X27.12Y21.07
G1X27.2Y21.12
G1X27.31Y21.18
G1X27.53Y21.29
G1X27.72Y21.37
G1X27.83Y21.4
G1X27.91Y21.43
G1X27.96
G1X27.99Y21.42
G1Y21.38
G1X27.98Y21.33
G1X27.94Y21.25
G1X27.88Y21.14
G1X27.7Y20.85
G1X27.52Y20.62
G1X27.34Y20.45
G1X27.13Y20.32
G1X26.89Y20.24
G1X26.61Y20.19
G1X26.28Y20.17
G1X25.88Y20.18
G1X25.68Y20.2
G1X25.64
G1X25.7Y20.21
G1X25.8
G1X26.8Y20.26
G1X26.17Y20.28
G1X25.92
G1X25.75Y20.3
G1X25.66Y20.32
G1X25.64Y20.33
G1X25.7Y20.35
G1X25.83Y20.37
G1X26.03
G1X26.3Y20.38
G1X26.86Y20.39
G1X26.49Y20.59
G1X26.66Y20.57
G1X26.78
G1X26.83Y20.6
G1X26.79Y20.63
G1X26.69
G1X26.62Y20.64
G1X26.58
G1Y20.66
G1X26.59
G1X26.71Y20.7
G1X26.92Y20.74
G1X27.23Y20.78
G1X26.88Y20.77
G1X26.7Y20.76
G1X26.62
G1Y20.78
G1X26.67Y20.81
G1X26.86Y20.88
G1X27.14Y20.97
G1X27.26Y21
G1X27.36Y21.04
G1X27.43Y21.06
G1X27.44Y21.08
M5
G0X25.71Y21.32
M3 S30
; Layer C00
G1X25.61Y21.07
G1X25.5Y20.8
G1X25.39Y20.55
G1X25.29Y20.34
G1X25.25Y20.25
G1X25.21Y20.19
G1X25.18Y20.15
G1X25.16Y20.13
G1Y20.17
G1Y20.26
G1X25.21Y20.4
G1X25.28Y20.58
G1X25.4Y20.91
G1X25.49Y21.24
G1X25.54Y21.52
G1X25.55Y21.72
G1Y21.77
G1X25.59Y21.81
G1X25.68Y21.85
G1X25.82Y21.89
G1Y21.83
G1Y21.68
G1X25.78Y21.54
G1X25.71Y21.32
M5
G0X25.02Y21.51
M3 S30
; Layer C00
G1Y21.54
G1X24.98Y21.58
G1X24.96Y21.59
G1X24.94Y21.58
G1Y21.54
G1Y21.51
G1X24.99Y21.49
G1X25.02Y21.51
M5
G0X24.6Y21.38
M3 S30
; Layer C00
G1X24.56Y21.42
G1X24.53
G1X24.51Y21.4
G1X24.53Y21.35
G1X24.56Y21.32
G1X24.6Y21.31
G1X24.62Y21.34
G1X24.6Y21.38
M5
G0X24.64Y21.04
M3 S30
; Layer C00
G1X24.62
G1Y21.02
G1X24.72Y20.78
G1X24.83Y20.62
G1X24.75Y20.86
G1X24.64Y21.04
M5
G0X24.6Y20.83
M3 S30
; Layer C00
G1X24.57Y20.82
G1Y20.76
G1Y20.71
G1X24.6Y20.73
G1X24.61Y20.78
G1X24.6Y20.83
M5
G0X24.51Y20.66
M3 S30
; Layer C00
G1Y20.33
G1Y20.17
G1X24.49Y20.05
G1X24.46Y19.98
G1X24.41Y19.92
G1X24.33Y19.87
G1X24.3Y19.89
G1X24.28Y19.92
G1X24.23Y19.89
G1X24.19Y19.86
G1X24.18Y19.87
G1X24.19Y19.92
G1X24.22Y20.02
G1X24.28Y20.24
G1X24.29Y20.49
G1X24.28Y20.73
G1X24.22Y20.93
G1X24.14Y21.14
G1X24.09Y21.34
G1X24.07Y21.5
G1X24.09Y21.63
G1X24.13Y21.69
G1X24.2Y21.73
G1X24.26
G1X24.35Y21.74
G1X24.47
G1X24.62
G1X24.83
G1X24.99Y21.73
G1X25.08Y21.71
G1X25.11Y21.68
G1X25.14Y21.59
G1X25.17Y21.47
G1X25.19Y21.39
G1Y21.36
G1X25.16
G1X25.06Y21.43
G1X25.04Y21.44
G1X25.05Y21.42
G1X25.08Y21.36
G1X25.13Y21.25
G1X25.14Y21.13
G1Y21.07
G1X25.13Y21.05
G1X25.1Y21.08
G1X25.06Y21.16
G1X24.99Y21.25
G1X24.95Y21.28
G1Y21.23
G1X24.98Y21.14
G1X25.02Y21.05
G1Y20.97
G1X25
G1X24.97Y21
G1X24.93Y21.06
G1X24.89Y21.14
G1X24.83Y21.25
G1X24.8Y21.3
G1X24.78
G1Y21.24
G1X24.79Y21.1
G1X24.83Y20.94
G1X24.86Y20.75
G1X24.85Y20.54
G1X24.81Y20.32
G1X24.74Y20.46
G1X24.68Y20.55
G1X24.63Y20.57
G1Y20.52
G1X24.67Y20.44
G1X24.7Y20.36
G1X24.72Y20.3
G1X24.71
G1X24.69Y20.33
G1X24.65Y20.39
G1X24.61Y20.46
G1X24.51Y20.66
M5
G0X23.49Y20.7
M3 S30
; Layer C00
G1Y21.05
G1X23.47Y21.37
G1X23.43Y21.67
G1X23.35Y21.47
G1X23.25Y21.21
G1X23.11Y20.94
G1X22.94Y20.68
G1X22.77Y20.45
G1X22.68Y20.34
G1X22.61Y20.27
G1X22.56Y20.23
G1X22.53Y20.21
G1Y20.23
G1X22.54Y20.27
G1X22.58Y20.34
G1X22.79Y20.65
G1X22.9Y20.83
G1X22.96Y20.96
G1Y21.03
G1X22.94
G1X22.93Y21.01
G1X22.9Y20.95
G1X22.83Y20.82
G1X22.72Y20.64
G1X22.59Y20.44
G1X22.45Y20.24
G1X22.33Y20.05
G1X22.22Y19.91
G1X22.15Y19.82
G1X22.08Y19.76
G1X22.01Y19.8
G1X21.97Y19.78
G1X21.93Y19.72
G1X21.79Y19.49
G1X21.71Y19.4
G1Y19.44
G1X21.73Y19.5
G1X21.77Y19.58
G1X21.88Y19.78
G1X22.02Y20
G1X22.1Y20.14
G1X22.12Y20.22
G1X22.09Y20.2
G1X22.04Y20.13
G1X21.97Y20.03
G1X21.89Y19.9
G1X21.63Y19.47
G1X21.59Y19.42
G1X21.57Y19.4
G1Y19.43
G1X21.64Y19.63
G1X21.7Y19.86
G1X21.72Y19.94
G1X21.73Y20.04
G1X21.72Y20.06
G1X21.7Y20.02
G1X21.66Y19.94
G1X21.63Y19.83
G1X21.59Y19.69
G1X21.52Y19.46
G1X21.45Y19.28
G1X21.42Y19.23
G1X21.41Y19.22
G1Y19.25
G1X21.42Y19.33
G1X21.46Y19.55
G1X21.48Y19.78
G1Y19.87
G1Y19.93
G1Y19.96
G1X21.46Y19.93
G1X21.43Y19.87
G1X21.42
G1X21.41Y19.92
G1Y20.03
G1X21.4Y20.26
G1X21.3Y19.91
G1X21.19Y19.58
G1X21.07Y19.28
G1X20.94Y19
G1X20.97Y19.86
G1X20.93Y19.45
G1X20.9Y19.28
G1X20.87Y19.11
G1X20.83Y18.97
G1X20.8Y18.87
G1X20.77Y18.81
G1X20.75Y18.77
G1X20.74
G1Y18.78
G1X20.81Y19.06
G1X20.85Y19.29
G1Y19.46
G1X20.82Y19.55
G1X20.79Y19.57
G1X20.78
G1Y19.55
G1Y19.51
G1X20.79Y19.44
G1Y19.32
G1X20.76Y19.18
G1X20.72Y19.03
G1X20.68Y18.89
G1X20.65Y18.8
G1X20.63Y18.76
G1X20.62Y18.78
G1X20.59Y18.93
G1X20.55Y19.09
G1X20.51Y19.22
G1X20.47Y19.26
G1Y19.19
G1X20.5Y19.05
G1X20.53Y18.9
G1Y18.84
G1X20.5Y18.88
G1X20.48Y18.93
G1X20.45Y19.01
G1X20.39Y19.16
G1X20.25Y19.36
G1X20.16Y19.54
G1X20.12Y19.64
G1X20.09Y19.71
G1X20.06Y19.76
G1X20.04Y19.78
G1Y19.73
G1Y19.6
G1Y19.4
G1Y19.17
G1X20.07Y18.55
G1X19.97Y18.74
G1X19.89Y18.95
G1X19.83Y19.19
G1X19.8Y19.33
G1X19.79Y19.38
G1X19.78Y19.36
G1Y19.27
G1X19.8Y19.06
G1X19.88Y18.81
G1X19.96Y18.59
G1X20.01Y18.43
G1X20.02Y18.36
G1Y18.33
G1X19.99Y18.34
G1X19.93Y18.39
G1X19.84Y18.45
G1X19.78
G1X19.67Y18.47
G1X19.5Y18.55
G1X19.33Y18.63
G1X19.23Y18.67
G1X19.2
G1X19.22Y18.64
G1X19.27Y18.6
G1X19.29Y18.58
G1X19.24
G1X19.11Y18.6
G1X18.9Y18.64
G1X18.65Y18.7
G1X18.43Y18.73
G1X18.23
G1X18
G1X17.58Y18.71
G1X18.03Y18.55
G1X18.16Y18.51
G1X18.18Y18.49
G1X18.15
G1X18.03Y18.5
G1X17.76Y18.56
G1X17.46Y18.66
G1X17.32Y18.71
G1X17.22Y18.74
G1X17.15Y18.76
G1X17.11
G1Y18.75
G1X17.14Y18.72
G1X17.21Y18.68
G1X17.33Y18.63
G1X17.58Y18.54
G1X17.82Y18.48
G1X18.06Y18.44
G1X18.28Y18.42
G1X18.4
G1X18.55Y18.37
G1X18.72Y18.32
G1X18.91Y18.24
G1X19.31Y18.06
G1X19.69Y17.83
G1X19.96Y17.63
G1X20.23Y17.39
G1X20.47Y17.14
G1X20.64Y16.93
G1X20.71Y16.83
G1X20.77Y16.77
G1X20.82Y16.76
G1X20.89Y16.8
G1X20.96Y16.91
G1X21.04Y17.08
G1X21.14Y17.32
G1X21.4Y17.97
G1X21.52Y18.24
G1X21.63Y18.48
G1X21.73Y18.68
G1X21.95Y19.02
G1X22.21Y19.31
G1X22.44Y19.52
G1X22.68Y19.69
G1X22.92Y19.81
G1X23.25Y19.9
G1X23.31Y19.94
G1X23.35Y20.01
G1X23.4Y20.11
G1X23.45Y20.37
G1X23.49Y20.7
M5
G0X22.81Y20.96
M3 S30
; Layer C00
G1X22.82Y21.02
G1Y21.07
G1X22.8Y21.09
G1X22.78Y21.07
G1X22.75Y21.02
G1Y20.96
G1X22.77Y20.94
G1X22.81Y20.96
M5
G0X22.71Y20.81
M3 S30
; Layer C00
G1X22.68Y20.78
G1X22.6Y20.69
G1X22.49Y20.54
G1X22.36Y20.35
G1X22.23Y20.17
G1X22.13Y20.01
G1X22.06Y19.9
G1X22.05Y19.85
G1X22.08Y19.88
G1X22.16Y19.98
G1X22.27Y20.13
G1X22.4Y20.31
G1X22.53Y20.5
G1X22.63Y20.66
G1X22.7Y20.77
G1X22.71Y20.81
M5
G0X22.22Y20.52
M3 S30
; Layer C00
G1X22.2
G1Y20.46
G1Y20.41
G1X22.23Y20.43
G1Y20.48
G1Y20.52
M5
G0X21.81Y20.42
M3 S30
; Layer C00
G1X21.78Y20.41
G1X21.75Y20.36
G1X21.73Y20.29
G1X21.74Y20.25
G1X21.77
G1X21.8Y20.31
G1X21.82Y20.37
G1X21.81Y20.42
M5
G0X20.96Y20.07
M3 S30
; Layer C00
G1X20.94
G1Y20
G1Y19.95
G1X20.96Y19.97
G1X20.97Y20.03
G1X20.96Y20.07
M5
G0X20.73Y19.87
M3 S30
; Layer C00
G1X20.72Y19.86
G1X20.73Y19.8
G1X20.77Y19.73
G1X20.8Y19.69
G1X20.82Y19.71
G1X20.8Y19.76
G1X20.77Y19.83
G1X20.73Y19.87
M5
G0X19.7Y19.79
M3 S30
; Layer C00
G1X19.68Y19.8
G1X19.67Y19.73
G1Y19.66
G1X19.7
G1Y19.73
G1Y19.79
M5
G0X19.51Y20.4
M3 S30
; Layer C00
G1X18.8Y20.2
G1X18.05Y20
G1X17.29Y19.81
G1X16.93Y19.73
G1X16.58Y19.65
G1X16.26Y19.58
G1X15.97Y19.53
G1X15.65Y19.48
G1X15.28Y19.44
G1X14.89Y19.41
G1X14.5Y19.39
G1X14.12
G1X13.79
G1X13.51Y19.4
G1X13.3Y19.43
G1X13.19Y19.46
G1X13.1Y19.49
G1X13.04Y19.51
G1X13.02Y19.53
G1X13.05Y19.56
G1X13.14Y19.63
G1X13.28Y19.71
G1X13.45Y19.8
G1X13.82Y20
G1X14.14Y20.15
G1X14.74Y20.37
G1X15.39Y20.54
G1X15.76Y20.6
G1X16.17Y20.66
G1X16.65Y20.71
G1X17.48Y20.79
G1X17.71Y20.81
G1X17.89Y20.83
G1X18.04Y20.85
G1X18.28Y20.91
G1X18.49Y20.99
G1X18.64Y21.04
G1X18.78Y21.1
G1X18.9Y21.14
G1X19.02Y21.18
G1X19.22Y21.26
G1X19.69Y21.45
G1X20.54Y21.79
G1X20.94Y21.95
G1X21.3Y22.08
G1X21.62Y22.19
G1X22.24Y22.36
G1X23.61Y22.66
G1X24.26Y22.82
G1X24.72Y22.96
G1X24.87Y23
G1X24.99Y23.02
G1X25.21Y23.04
G1X25.51
G1X25.75Y23.03
G1X25.92Y23
G1X26.07Y22.96
G1X26.22Y22.9
G1X26.4Y22.79
G1X26.58Y22.64
G1X26.65Y22.57
G1X26.7Y22.51
G1X26.72Y22.46
G1Y22.43
G1X26.67Y22.41
G1X26.18Y22.18
G1X25.72Y22
G1X25.26Y21.9
G1X25Y21.87
G1X24.7
G1X24.35
G1X23.58Y21.9
G1X23.28Y21.91
G1X23.16
G1X23.06
G1X22.99
G1X22.95Y21.89
G1X22.79Y21.81
G1X22.57Y21.68
G1X22.43Y21.6
G1X22.23Y21.5
G1X22.01Y21.39
G1X21.79Y21.29
G1X21.32Y21.08
G1X20.91Y20.88
G1X20.79Y20.82
G1X20.62Y20.75
G1X20.4Y20.67
G1X20.13Y20.59
G1X19.51Y20.4
M5
G0X19.54Y19.16
M3 S30
; Layer C00
G1X19.51
G1Y19.1
G1Y19.05
G1X19.54Y19.07
G1Y19.12
G1Y19.16
M5
G0X19.57Y18.97
M3 S30
; Layer C00
G1Y18.95
G1X19.59Y18.91
G1X19.62Y18.85
G1X19.72Y18.71
G1X19.85Y18.57
G1X19.91Y18.52
G1X19.92
G1X19.88Y18.58
G1X19.71Y18.81
G1X19.6Y18.94
G1X19.58Y18.96
G1X19.57
M5
G0X19.28Y18.89
M3 S30
; Layer C00
G1X19.25Y18.94
G1X19.2Y18.99
G1X19.16Y19.02
G1X19.14
G1Y19.01
G1X19.16Y18.97
G1X19.23Y18.92
G1X19.27Y18.89
G1X19.29Y18.88
G1Y18.89
M5
G0X19.37Y18.79
M3 S30
; Layer C00
G1X19.48Y18.68
G1X19.58Y18.58
G1X19.68Y18.51
G1X19.75Y18.49
G1Y18.52
G1X19.67Y18.59
G1X19.54Y18.68
G1X19.37Y18.79
M5
G0X19.06Y18.79
M3 S30
; Layer C00
G1Y18.83
G1X19.03Y18.86
G1X19Y18.88
G1X18.98Y18.86
G1Y18.83
G1X18.99Y18.79
G1X19.03Y18.78
G1X19.06Y18.79
M5
G0X18.71Y18.76
M3 S30
; Layer C00
G1X18.69Y18.81
G1X18.63Y18.84
G1X18.58Y18.86
G1X18.55
G1X18.58Y18.82
G1X18.63Y18.78
G1X18.69Y18.74
G1X18.71Y18.76
M5
G0X18.24Y18.06
M3 S30
; Layer C00
G1X18.62Y17.92
G1X18.96Y17.78
G1X19.23Y17.66
G1X19.42Y17.56
G1X19.58Y17.45
G1X19.79Y17.28
G1X20.03Y17.07
G1X20.3Y16.83
G1X20.55Y16.59
G1X20.76Y16.38
G1X20.85Y16.28
G1X20.93Y16.2
G1X20.98Y16.14
G1X21.02Y16.09
G1X21.06Y15.94
G1Y15.78
G1X21Y15.62
G1X20.89Y15.45
G1X20.77Y15.27
G1X20.66Y15.08
G1X20.61Y14.97
G1X20.57Y14.92
G1X20.55Y14.94
G1X20.53Y15
G1Y15.16
G1X20.58Y15.38
G1X20.63Y15.56
G1X20.66Y15.72
G1Y15.87
G1X20.64Y16
G1X20.59Y16.12
G1X20.53Y16.23
G1X20.43Y16.34
G1X20.19Y16.53
G1X20.01Y16.68
G1X19.8Y16.88
G1X19.36Y17.31
G1X19.17Y17.48
G1X19.01Y17.59
G1X18.87Y17.66
G1X18.72Y17.69
G1X18.55
G1X18.35Y17.65
G1X18.1Y17.58
G1X17.8Y17.51
G1X17.53Y17.47
G1X17.38Y17.46
G1X17.21
G1X17.01Y17.45
G1X16.76
G1X16.41
G1X16.1Y17.46
G1X15.82Y17.5
G1X15.52Y17.56
G1X15.18Y17.65
G1X14.77Y17.79
G1X14.53Y17.88
G1X14.26Y17.98
G1X13.62Y18.22
G1X12.88Y18.51
G1X12.56Y18.63
G1X12.28Y18.75
G1X11.79Y18.95
G1X11.38Y19.14
G1X10.71Y19.52
G1X9.78Y20.16
G1X9.55Y20.3
G1X9.32Y20.41
G1X9.1Y20.49
G1X8.89Y20.54
G1X8.67Y20.57
G1X8.46
G1X8.25Y20.54
G1X8.07Y20.51
G1X7.94Y20.49
G1X7.85
G1X7.8Y20.5
G1X7.76Y20.54
G1Y20.61
G1Y20.71
G1X7.77Y20.85
G1X7.78Y21.21
G1X7.73Y21.56
G1X7.68Y21.75
G1X7.67Y21.87
G1X7.68Y21.96
G1X7.72Y22.05
G1X7.79Y22.15
G1X7.88Y22.23
G1X8Y22.3
G1X8.17Y22.36
G1X8.27Y22.37
G1X8.42Y22.38
G1X8.61
G1X8.82Y22.37
G1X9.26Y22.32
G1X9.64Y22.25
G1X10Y22.13
G1X10.36Y21.98
G1X10.7Y21.8
G1X10.99Y21.61
G1X11.14Y21.49
G1X11.23Y21.38
G1X11.29Y21.25
G1X11.35Y21.04
G1X11.42Y20.72
G1X11.47Y20.39
G1X11.48Y20.25
G1X11.49Y20.14
G1Y20.06
G1X11.48Y20.03
G1X11.43Y20.05
G1X11.09Y20.18
G1X10.22Y20.52
G1X9.55Y20.78
G1X9.4Y20.84
G1X9.28Y20.88
G1X9.18Y20.89
G1X9.14
G1X9.18Y20.83
G1X9.31Y20.76
G1X10.27Y20.38
G1X10.66Y20.22
G1X11.01Y20.09
G1X11.63Y19.86
G1X12.25Y19.65
G1X12.46Y19.57
G1X12.64Y19.5
G1X12.77Y19.44
G1X12.83Y19.41
G1X12.95Y19.35
G1X13.15Y19.31
G1X13.3Y19.28
G1X13.52Y19.24
G1X13.76Y19.19
G1X14.02Y19.13
G1X14.67Y18.99
G1X15.37Y18.85
G1X15.69Y18.79
G1X16.03Y18.72
G1X16.33Y18.65
G1X16.58Y18.59
G1X17.4Y18.35
G1X18.24Y18.06
M5
G0X16.95Y18.79
M3 S30
; Layer C00
G1Y18.83
G1X16.91Y18.86
G1X16.86Y18.88
G1X16.83Y18.86
G1X16.84Y18.83
G1X16.88Y18.79
G1X16.93Y18.78
G1X16.95Y18.79
M5
G0X16.75Y18.84
M3 S30
; Layer C00
G1X16.74Y18.88
G1X16.69Y18.91
G1X16.61Y18.93
G1X16.57
G1X16.55Y18.92
G1X16.57Y18.9
G1X16.6Y18.88
G1X16.67Y18.84
G1X16.72Y18.83
G1X16.75Y18.84
M5
G0X15.86Y17.06
M3 S30
; Layer C00
G1X15.83Y17.05
G1Y17.01
G1X15.87Y16.98
G1X15.9Y16.96
G1X15.91Y16.98
G1Y17.01
G1Y17.05
G1X15.86Y17.06
M5
G0X16.1Y16.81
M3 S30
; Layer C00
G1X16.08Y16.8
G1Y16.76
G1X16.09Y16.73
G1X16.13Y16.71
G1X16.16Y16.73
G1Y16.76
G1X16.13Y16.8
G1X16.1Y16.81
M5
G0X16.2Y16.65
M3 S30
; Layer C00
G1X16.18Y16.64
G1X16.2Y16.58
G1X16.23Y16.51
G1X16.27Y16.47
G1X16.29Y16.48
G1X16.27Y16.54
G1X16.23Y16.61
G1X16.2Y16.65
M5
G0X15.9Y16.56
M3 S30
; Layer C00
G1X15.84Y16.64
G1X15.8Y16.69
G1X15.78Y16.7
G1Y16.69
G1X15.8Y16.64
G1X15.84Y16.57
G1X15.9Y16.46
G1X16.07Y16.19
G1X16.29Y15.91
G1X16.51Y15.68
G1X16.71Y15.52
G1X16.78Y15.46
G1X16.83Y15.43
G1X16.84Y15.41
G1X16.83
G1X16.79Y15.42
G1X16.72Y15.45
G1X16.63Y15.49
G1X16.52Y15.55
G1X16.24Y15.74
G1X15.97Y16
G1X15.72Y16.3
G1X15.52Y16.63
G1X15.34Y16.99
G1Y16.7
G1X15.36Y16.46
G1X15.43Y16.21
G1X15.54Y15.95
G1X15.7Y15.67
G1X15.76Y15.58
G1X15.8Y15.5
G1X15.81Y15.44
G1Y15.4
G1X15.79Y15.38
G1X15.75
G1X15.69
G1X15.61Y15.42
G1X15.42Y15.55
G1X15.23Y15.76
G1X15.06Y16.01
G1X14.92Y16.3
G1X14.86Y16.45
G1X14.81Y16.56
G1X14.77Y16.62
G1X14.79Y16.48
G1X14.88Y16.26
G1X14.99Y16.02
G1X15.1Y15.83
G1X15.15Y15.76
G1X15.18Y15.71
G1X15.19Y15.67
G1X15.18
G1X15.14
G1X15.08Y15.71
G1X15Y15.76
G1X14.9Y15.83
G1X14.72Y15.99
G1X14.58Y16.17
G1X14.47Y16.4
G1X14.37Y16.71
G1X14.26Y17
G1X14.13Y17.3
G1X14.07Y17.43
G1X14.01Y17.53
G1X13.96Y17.59
G1X13.94Y17.6
G1Y17.58
G1X13.96Y17.52
G1X13.99Y17.45
G1X14.04Y17.36
G1X14.1Y17.23
G1X14.18Y17.06
G1X14.26Y16.85
G1X14.42Y16.37
G1X14.5Y16.18
G1X14.59Y16.05
G1X14.72Y15.92
G1X14.95Y15.74
G1X15.19Y15.58
G1X15.3Y15.52
G1X15.38Y15.47
G1X15.44Y15.43
G1X15.47Y15.4
G1Y15.38
G1X15.44
G1X15.37Y15.41
G1X15.28Y15.46
G1X15.07Y15.57
G1X14.88Y15.7
G1X14.71Y15.85
G1X14.55Y16.02
G1X14.41Y16.21
G1X14.27Y16.43
G1X14.14Y16.68
G1X14.02Y16.96
G1X13.82Y17.44
G1X13.78Y17.25
G1X13.76Y17.05
G1Y16.8
G1X13.79Y16.56
G1X13.84Y16.36
G1X13.83
G1X13.8Y16.39
G1X13.75Y16.45
G1X13.65Y16.65
G1X13.56Y16.88
G1X13.52Y17.03
G1X13.51Y17.08
G1Y17.04
G1Y16.93
G1X13.52Y16.77
G1Y16.71
G1X13.49Y16.74
G1X13.45Y16.8
G1X13.4Y16.9
G1X13.34Y17.02
G1X13.24Y17.28
G1X13.17Y17.51
G1X13.15Y17.61
G1X13.12Y17.69
G1X13.1Y17.74
G1X13.09Y17.75
G1X13.08Y17.71
G1Y17.64
G1X13.11Y17.53
G1X13.14Y17.41
G1X13.24Y17.14
G1X13.35Y16.89
G1X13.42Y16.77
G1X13.47Y16.66
G1X13.51Y16.57
G1Y16.53
G1X13.55Y16.45
G1X13.62Y16.36
G1X13.68Y16.3
G1X13.71Y16.27
G1Y16.25
G1X13.69Y16.26
G1X13.59Y16.35
G1X13.44Y16.49
G1X13.35Y16.58
G1X13.29Y16.65
G1X13.27Y16.68
G1X13.31
G1X13.32
G1X13.33
G1Y16.72
G1X13.29Y16.76
G1X13.25Y16.78
G1X13.21Y16.8
G1X12.99Y17.48
G1X12.74Y18.05
G1X12.71Y18.06
G1X12.73Y17.99
G1X12.84Y17.7
G1X12.95Y17.39
G1X12.99Y17.25
G1X13.03Y17.14
G1X13.05Y17.06
G1Y17.03
G1X13.03Y17.06
G1X12.98Y17.14
G1X12.91Y17.28
G1X12.83Y17.44
G1X12.65Y17.77
G1X12.44Y18.07
G1X12.22Y18.3
G1X12.01Y18.45
G1X11.91Y18.49
G1X11.83Y18.52
G1X11.77
G1X11.75Y18.51
G1X11.79Y18.42
G1X12.2Y17.55
G1X12.39Y17.15
G1X12.58Y16.8
G1X12.66Y16.65
G1X12.74Y16.52
G1X12.8Y16.41
G1X12.86Y16.34
G1X13.09Y16.1
G1X13.37Y15.88
G1X13.68Y15.69
G1X14Y15.54
G1X14.24Y15.45
G1X14.42Y15.35
G1X14.59Y15.2
G1X14.8Y14.96
G1X14.99Y14.78
G1X15.19Y14.62
G1X15.41Y14.49
G1X15.64Y14.4
G1X15.88Y14.34
G1X16.12Y14.31
G1X16.37Y14.32
G1X16.6Y14.37
G1X16.84Y14.44
G1X17.03Y14.48
G1X17.18Y14.52
G1X17.31Y14.53
G1X17.55
G1X18.27Y14.37
G1X18.61Y14.32
G1X18.93
G1X19.3Y14.35
G1X19.69Y14.41
G1X20.02Y14.5
G1X20.29Y14.6
G1X20.26Y14.83
G1X20.25Y14.95
G1X20.26Y15.08
G1X20.29Y15.23
G1X20.41Y15.57
G1X20.44Y15.7
G1Y15.79
G1X20.42Y15.86
G1X20.39Y15.91
G1X20.37
G1Y15.87
G1Y15.75
G1X20.34Y15.55
G1X20.28Y15.37
G1X20.21Y15.2
G1X20.19Y15.01
G1Y14.92
G1X20.18Y14.88
G1X20.16
G1X20.13Y14.92
G1X20.1Y15.05
G1Y15.25
G1X20.11Y15.37
G1Y15.42
G1Y15.4
G1X20.07Y15.31
G1X20.04Y15.13
G1X20.07Y14.93
G1X20.1Y14.82
G1Y14.77
G1X20.05Y14.82
G1X20Y14.91
G1X19.98Y15
G1X19.97Y15.05
G1X19.91Y14.98
G1X19.89
G1X19.87Y15
G1X19.85Y15.05
G1X19.84Y15.12
G1X19.86Y15.21
G1X19.9Y15.32
G1X19.97Y15.46
G1X20.03Y15.57
G1X20.07Y15.67
G1X20.1Y15.73
G1Y15.75
G1X19.93Y15.68
G1X19.72Y15.53
G1X19.59Y15.43
G1X19.72Y15.68
G1X19.61Y15.56
G1X19.53Y15.43
G1X19.52Y15.32
G1Y15.25
G1X19.5Y15.23
G1X19.46Y15.32
G1X19.44Y15.49
G1Y15.62
G1Y15.67
G1X19.42Y15.65
G1X19.38Y15.46
G1X19.37Y15.42
G1X19.35Y15.44
G1X19.32Y15.5
G1X19.3Y15.58
G1X19.27Y15.71
G1X19.24Y15.87
G1X19.18Y16.2
G1X19.16Y16.29
G1X19.15Y16.3
G1Y16.23
G1Y16.12
G1X19.17Y15.96
G1X19.2Y15.77
G1X19.24Y15.58
G1X19.28Y15.41
G1X19.3Y15.28
G1X19.32Y15.19
G1Y15.13
G1Y15.12
G1X19.29Y15.15
G1X19.26Y15.22
G1X19.22Y15.34
G1X19.14Y15.62
G1X19.09Y15.97
G1X19.06Y16.29
G1Y16.53
G1X19.08Y16.66
G1X19.06Y16.71
G1X19Y16.66
G1X18.92Y16.53
G1X18.84Y16.38
G1X18.81Y16.26
G1Y16.2
G1X18.8
G1X18.78Y16.23
G1X18.74Y16.4
G1Y16.42
G1X18.72Y16.37
G1Y15.98
G1X18.52Y16.35
G1X18.44Y16.49
G1X18.38Y16.6
G1X18.33Y16.67
G1X18.3Y16.69
G1Y16.67
G1X18.32Y16.61
G1X18.36Y16.54
G1X18.4Y16.45
G1X18.51Y16.23
G1X18.28Y16.45
G1X18.19Y16.53
G1X18.1Y16.6
G1X18.04Y16.64
G1X18Y16.66
G1Y16.65
G1X18.02Y16.62
G1X18.08Y16.57
G1X18.15Y16.51
G1X18.28Y16.39
G1X18.38Y16.26
G1X18.47Y16.11
G1X18.56Y15.92
G1X18.58Y15.85
G1Y15.84
G1X18.53Y15.88
G1X18.44Y15.98
G1X18.26Y16.15
G1X18.05Y16.3
G1X17.84Y16.42
G1X17.69Y16.46
G1X17.64
G1Y16.44
G1X17.67Y16.42
G1X17.74Y16.4
G1X17.93Y16.31
G1X18.13Y16.18
G1X18.3Y16.04
G1X18.42Y15.89
G1X18.52Y15.73
G1X18.38Y15.84
G1X18.28Y15.9
G1X18.12Y15.97
G1X17.93Y16.06
G1X17.72Y16.14
G1X17.36Y16.29
G1X17.07Y16.46
G1X16.96Y16.54
G1X16.88Y16.63
G1X16.82Y16.71
G1X16.78Y16.79
G1X16.76Y16.85
G1X16.74Y16.88
G1X16.72Y16.89
G1X16.7Y16.88
G1X16.67Y16.79
G1Y16.65
G1X16.73Y16.44
G1X16.84Y16.23
G1X16.99Y16.01
G1X17.22Y15.76
G1X17.33Y15.64
G1X17.4Y15.55
G1X17.43Y15.5
G1X17.42
G1X17.27Y15.6
G1X17.09Y15.78
G1X16.93Y15.96
G1X16.84Y16.1
G1X16.81Y16.18
G1X16.78Y16.19
G1Y16.12
G1X16.85Y15.99
G1X16.96Y15.84
G1X17.08Y15.68
G1X17.15Y15.61
G1X17.19Y15.56
G1X17.22Y15.52
G1Y15.5
G1X17.18Y15.52
G1X17.12Y15.56
G1X17.04Y15.62
G1X16.95Y15.7
G1X16.77Y15.88
G1X16.62Y16.04
G1X16.55Y16.13
G1X16.5Y16.19
G1X16.46Y16.23
G1X16.45
G1X16.49Y16.13
G1X16.6Y15.97
G1X16.74Y15.81
G1X16.87Y15.67
G1X17.03Y15.55
G1X17.24Y15.43
G1X17.32Y15.38
G1X17.37Y15.35
G1Y15.33
G1X17.34
G1X17.2Y15.36
G1X16.97Y15.38
G1Y15.4
G1Y15.42
G1X16.94Y15.46
G1X16.87Y15.5
G1X16.79Y15.55
G1X16.6Y15.67
G1X16.4Y15.86
G1X16.19Y16.12
G1X15.97Y16.45
G1X15.9Y16.56
M5
G0X16.6Y16.42
M3 S30
; Layer C00
G1X16.62Y16.37
G1X16.66Y16.33
G1X16.69
G1X16.71Y16.35
G1X16.69Y16.4
G1X16.66Y16.43
G1X16.62Y16.44
G1X16.6Y16.42
M5
G0X17.24Y16.64
M3 S30
; Layer C00
G1X17.27Y16.6
G1X17.36Y16.55
G1X17.42Y16.52
G1X17.44
G1Y16.53
G1X17.4Y16.58
G1X17.35Y16.63
G1X17.29Y16.66
G1X17.25
G1X17.24Y16.64
M5
G0X17.79Y16.76
M3 S30
; Layer C00
G1X17.82Y16.73
G1X17.85Y16.71
G1X17.86Y16.73
G1Y16.76
G1Y16.8
G1X17.81Y16.81
G1X17.78Y16.8
G1Y16.76
M5
G0X19.2Y16.68
M3 S30
; Layer C00
G1Y16.61
G1Y16.54
G1X19.22
G1X19.23Y16.61
G1Y16.67
G1X19.2Y16.68
M5
G0X19.74Y16.61
M3 S30
; Layer C00
G1Y16.59
G1Y16.54
G1X19.78Y16.48
G1X19.83Y16.46
G1X19.85Y16.48
G1X19.82Y16.54
G1X19.77Y16.59
G1X19.74Y16.61
M5
G0X19.92Y16.41
M3 S30
; Layer C00
G1X19.89Y16.39
G1Y16.36
G1X19.93Y16.32
G1X19.95Y16.31
G1X19.97Y16.32
G1Y16.36
G1Y16.39
G1X19.92Y16.41
M5
G0X19.82Y15.86
M3 S30
; Layer C00
G1X19.78Y15.84
G1X19.77Y15.8
G1X19.78Y15.77
G1X19.82Y15.78
G1X19.86Y15.81
G1X19.87Y15.83
G1X19.86Y15.85
G1X19.82
M5
G0X19.5Y15.86
M3 S30
; Layer C00
G1X19.49Y15.89
G1X19.45Y15.91
G1X19.42Y15.89
G1Y15.86
G1X19.45Y15.82
G1X19.48Y15.81
G1X19.5Y15.82
G1Y15.86
M5
G0X20.2Y15.63
M3 S30
; Layer C00
G1Y15.57
G1Y15.52
G1X20.22Y15.54
G1X20.23Y15.6
G1Y15.64
G1X20.2
M5
G0X23.04Y16.67
M3 S30
; Layer C00
G1X23.06Y16.69
G1X23.12Y16.78
G1X23.17Y16.89
G1Y16.94
G1X23.15Y16.92
G1X23.1Y16.83
G1X23.05Y16.72
G1X23.04Y16.67
M5
G0X23.25Y16.67
M3 S30
; Layer C00
G1X23.31Y16.84
G1X23.39Y16.94
G1Y16.89
G1X23.33Y16.78
G1X23.27Y16.69
G1X23.25Y16.67
M5
G0X23.53Y17.04
M3 S30
; Layer C00
G1Y17.08
G1X23.55Y17.14
G1X23.59Y17.22
G1X23.71Y17.42
G1X23.85Y17.59
G1X24Y17.74
G1X24.16Y17.87
G1X24.27Y17.94
G1X24.35Y17.99
G1X24.4Y18.01
G1X24.41
G1X24.39Y17.97
G1X24.34Y17.92
G1X24.26Y17.84
G1X24.14Y17.74
G1X23.88Y17.47
G1X23.69Y17.23
G1X23.63Y17.15
G1X23.59Y17.09
G1X23.55Y17.05
G1X23.53Y17.04
M5
G0X23.45Y17.1
M3 S30
; Layer C00
G1X23.44
G1Y17.12
G1X23.46Y17.18
G1X23.49Y17.26
G1X23.54Y17.36
G1X23.65Y17.58
G1X23.68Y17.66
G1X23.7Y17.72
G1Y17.75
G1X23.68
G1X23.65Y17.72
G1X23.61Y17.65
G1X23.57Y17.57
G1X23.45Y17.33
G1X23.33Y17.02
G1X23.18Y16.71
G1X23.02Y16.49
G1X22.95Y16.41
G1X22.91Y16.38
G1Y16.4
G1X22.95Y16.47
G1X23Y16.58
G1Y16.67
G1X23.01Y16.73
G1X23.05Y16.84
G1X23.11Y16.99
G1X23.27Y17.31
G1X23.33Y17.45
G1X23.36Y17.53
G1Y17.57
G1X23.31Y17.55
G1X23.24Y17.5
G1X23.15Y17.43
G1X23.05Y17.35
G1X22.86Y17.15
G1X22.71Y16.97
G1X22.65Y16.88
G1X22.6Y16.82
G1X22.57Y16.79
G1Y16.83
G1X22.61Y16.9
G1X22.66Y16.98
G1X22.82Y17.24
G1X22.87Y17.34
G1Y17.37
G1X22.84Y17.34
G1X22.79Y17.29
G1X22.69Y17.14
G1X22.58Y16.94
G1X22.49Y16.76
G1X22.46Y16.65
G1Y16.62
G1X22.54Y16.7
G1X22.56Y16.69
G1X22.55Y16.63
G1X22.51Y16.57
G1X22.47Y16.54
G1X22.43Y16.6
G1X22.42Y16.73
G1Y16.91
G1X22.44Y17.01
G1Y17.04
G1X22.41Y16.97
G1X22.38Y16.83
G1X22.3Y16.56
G1X22.22Y16.36
G1X22.17Y16.25
G1X22.14Y16.19
G1X22.15Y16.17
G1X22.19Y16.18
G1X22.24Y16.19
G1Y16.16
G1X22.2Y16.09
G1X22.13Y16
G1X22.1Y15.96
G1X22.07Y15.94
G1X22.06
G1X22.1Y16.05
G1X22.13Y16.27
G1X22.16Y16.42
G1X22.2Y16.59
G1X22.29Y16.96
G1X22.32Y17.11
G1X22.33Y17.22
G1Y17.28
G1X22.32
G1X22.28Y17.21
G1X22.23Y17.1
G1X22.16Y16.95
G1X22.08Y16.76
G1X21.99Y16.53
G1X21.88Y16.26
G1X21.77Y15.97
G1X21.62Y15.65
G1X21.42Y15.32
G1X21.33Y15.19
G1X21.25Y15.06
G1X21.2Y14.96
G1X21.16Y14.87
G1X21.15Y14.79
G1Y14.74
G1X21.17Y14.69
G1X21.21Y14.67
G1X21.27
G1X21.33Y14.69
G1X21.42Y14.75
G1X21.52Y14.84
G1X21.76Y15.02
G1X22.01Y15.15
G1X22.85Y15.5
G1X23.14Y15.65
G1X23.35Y15.86
G1X23.45Y16
G1X23.54Y16.17
G1X23.64Y16.39
G1X23.83Y16.88
G1X23.92Y17.08
G1X24.02Y17.26
G1X24.13Y17.41
G1X24.26Y17.55
G1X24.42Y17.7
G1X24.62Y17.86
G1X24.87Y18.04
G1X25.13Y18.25
G1X25.32Y18.44
G1X25.4Y18.54
G1X25.46Y18.63
G1X25.49Y18.68
G1X25.51Y18.72
G1X25.5
G1X25.46Y18.7
G1X25.41Y18.65
G1X25.33Y18.57
G1X25.11Y18.4
G1X24.84Y18.22
G1X24.71Y18.14
G1X24.6Y18.08
G1X24.51Y18.05
G1X24.46
G1X24.39
G1X24.29Y18.01
G1X24.17Y17.94
G1X24.03Y17.83
G1X23.76Y17.56
G1X23.54Y17.24
G1X23.49Y17.15
G1X23.45Y17.1
M5
G0X23.88Y17.92
M3 S30
; Layer C00
G1X23.91Y17.93
G1X23.93Y17.97
G1Y18.01
G1X23.91Y18.02
G1X23.88Y18.01
G1X23.85Y17.97
G1Y17.93
G1X23.88Y17.92
M5
G0X24.57Y17.55
M3 S30
; Layer C00
G1X24.41Y17.38
G1X24.28Y17.2
G1X24.19Y17.01
G1X24.11Y16.81
G1X23.96Y16.3
G1X23.87Y16.07
G1X23.77Y15.89
G1X23.64Y15.73
G1X23.48Y15.61
G1X23.27Y15.5
G1X23.01Y15.4
G1X22.69Y15.3
G1X22.47Y15.23
G1X22.29Y15.17
G1X22.13Y15.11
G1X21.99Y15.05
G1X21.76Y14.91
G1X21.52Y14.73
G1X21.39Y14.63
G1X21.29Y14.55
G1X21.21Y14.51
G1X21.15Y14.5
G1X21.12Y14.52
G1X21.1Y14.56
G1X21.09Y14.64
G1Y14.74
G1X21.13Y14.89
G1X21.2Y15.09
G1X21.3Y15.34
G1X21.44Y15.64
G1X21.74Y16.29
G1X22.01Y16.96
G1X22.15Y17.34
G1X22.29Y17.68
G1X22.43Y17.99
G1X22.56Y18.25
G1X22.69Y18.49
G1X22.83Y18.7
G1X22.97Y18.88
G1X23.11Y19.04
G1X23.21Y19.13
G1X23.29Y19.17
G1X23.39Y19.15
G1X23.54Y19.09
G1X23.68Y19.05
G1X23.89Y19.02
G1X24.04
G1X24.22Y19.01
G1X24.43
G1X25.09Y18.99
G1X25.45
G1X25.74Y18.97
G1X25.85
G1X25.92Y18.95
G1X26.04Y18.94
G1X26.11Y18.92
G1X26.14Y18.89
G1X26.12Y18.83
G1X26.03Y18.74
G1X25.87Y18.62
G1X25.77Y18.53
G1X25.32Y18.19
G1X25.01Y17.95
G1X24.76Y17.74
G1X24.57Y17.55
M5
G0X25.19Y17.54
M3 S30
; Layer C00
G1X25.21
G1X25.26
G1X25.44
G1X25.78Y17.52
G1X25.96Y17.51
G1X26.09Y17.49
G1X26.14
G1X26.13Y17.48
G1X26.06Y17.47
G1X25.96
G1X25.82
G1X25.53Y17.49
G1X25.28Y17.52
G1X25.22
G1X25.19Y17.53
M5
G0X25.22Y17.25
M3 S30
; Layer C00
G1X25.33
G1X25.4
G1X25.43Y17.24
G1X25.4Y17.23
G1X25.24Y17.22
G1X25.08
G1X25.04Y17.24
G1X25.05
G1X25.11
G1X25.22
M5
G0X25.33Y16.89
M3 S30
; Layer C00
G1X25.55
G1X25.69
G1X25.72
G1X25.71Y16.88
G1X25.66
G1X25.35Y16.87
G1X25.03
G1X24.97
G1X24.95Y16.88
G1X24.98
G1X25.11Y16.89
G1X25.33
M5
G0X25.31Y16.6
M3 S30
; Layer C00
G1X25.35
G1X25.36Y16.58
G1X25.34
G1X25.25Y16.57
G1X25.16
G1X25.14Y16.58
G1Y16.59
G1X25.18
G1X25.25
G1X25.31
M5
G0X25.32Y16.29
M3 S30
; Layer C00
G1X25.46
G1X25.49
G1Y16.28
G1X25.47
G1X25.42
G1X25.09Y16.26
G1X24.76Y16.27
G1X24.71
G1X24.69
G1Y16.28
G1X24.72
G1X24.86
G1X25.09
G1X25.32
M5
G0X25.12Y15.98
M3 S30
; Layer C00
G1X25.05Y15.97
G1X24.77
G1X24.5
G1X24.43
G1X24.47Y15.98
G1X24.58
G1X24.77
G1X24.97
G1X25.08
G1X25.12
M5
G0X24.79Y15.68
M3 S30
; Layer C00
G1X24.76Y15.67
G1X24.61Y15.66
G1X24.45
G1X24.4Y15.68
G1X24.42
G1X24.48
G1X24.59
G1X24.7
G1X24.77
G1X24.79
M5
G0X24.2Y15.63
M3 S30
; Layer C00
G1X24.18Y15.62
G1X24.09Y15.61
G1X24
G1X23.98Y15.63
G1X24.03Y15.64
G1X24.09
G1X24.15
G1X24.19
G1X24.2Y15.63
M5
G0X24.25Y15.28
M3 S30
; Layer C00
G1X24.39
G1X24.47
G1X24.49
G1X24.45Y15.27
G1X24.25Y15.26
G1X24.05
G1X24Y15.27
G1X24.03
G1X24.11Y15.28
G1X24.25
M5
G0X25.56Y17.84
M3 S30
; Layer C00
G1X25.6
G1X25.72
G1X25.93Y17.85
G1X26.15
G1X26.27
G1X26.3
G1Y17.84
G1X26.29
G1X26.24
G1X25.93Y17.82
G1X25.63Y17.83
G1X25.58
G1X25.56
M5
G0X22.26Y18.7
M3 S30
; Layer C00
G1X22.27Y18.75
G1X22.25Y18.78
G1X22.21Y18.75
G1X22.17Y18.7
G1Y18.65
G1X22.19Y18.62
G1X22.23Y18.65
G1X22.26Y18.7
M5
G0X22.31Y18.89
M3 S30
; Layer C00
G1X22.36Y18.92
G1X22.4Y18.97
G1Y19
G1X22.37
G1X22.33
G1X22.31Y18.95
G1X22.3Y18.91
G1X22.31Y18.89
M5
G0X23.03Y21.19
M3 S30
; Layer C00
G1X23.07Y21.21
G1X23.09Y21.24
G1Y21.28
G1X23.06Y21.29
G1X23.04Y21.28
G1X23.01Y21.24
G1Y21.21
G1X23.03Y21.19
M5
G0X22.42Y21.47
M3 S30
; Layer C00
G1X22.71Y21.64
G1X22.86Y21.73
G1X22.98Y21.77
G1X23.06Y21.79
G1X23.16
G1X23.29
G1X23.96
G1Y21.53
G1X24Y21.26
G1X24.08Y20.98
G1X24.16Y20.72
G1X24.19Y20.46
G1X24.17Y20.23
G1X24.1Y20.01
G1X24.01Y19.81
G1X23.61
G1X23.28Y19.78
G1X22.99Y19.7
G1X22.72Y19.56
G1X22.47Y19.34
G1X22.25Y19.11
G1X22.05Y18.82
G1X21.96Y18.66
G1X21.86Y18.47
G1X21.76Y18.26
G1X21.66Y18.02
G1X21.43Y17.51
G1X21.19Y17.02
G1X21.08Y16.83
G1X21Y16.66
G1X20.95Y16.53
G1X20.93Y16.47
G1X20.91
G1X20.88Y16.49
G1X20.82Y16.53
G1X20.74Y16.59
G1X20.54Y16.76
G1X20.04Y17.21
G1X19.79Y17.42
G1X19.68Y17.51
G1X19.58Y17.59
G1X19.5Y17.65
G1X19.45Y17.68
G1X19.3Y17.76
G1X19.08Y17.85
G1X18.81Y17.96
G1X18.49Y18.08
G1X17.81Y18.32
G1X17.16Y18.54
G1X16.74Y18.66
G1X16.26Y18.77
G1X15.96Y18.84
G1X15.62Y18.91
G1X15.21Y18.99
G1X14.73Y19.09
G1X14.53Y19.13
G1X14.39Y19.16
G1X14.3Y19.19
G1X14.26Y19.22
G1X14.29Y19.24
G1X14.37Y19.26
G1X14.51
G1X14.7Y19.27
G1X15.01Y19.29
G1X15.37Y19.33
G1X15.79Y19.39
G1X16.26Y19.48
G1X16.79Y19.59
G1X17.39Y19.73
G1X18.06Y19.89
G1X18.82Y20.09
G1X19.25Y20.21
G1X19.61Y20.31
G1X19.91Y20.39
G1X20.16Y20.47
G1X20.57Y20.62
G1X20.95Y20.79
G1X21.53Y21.06
G1X22.03Y21.28
G1X22.42Y21.47
M5
G0X22.61Y22.76
M3 S30
; Layer C00
G1X22.65Y22.77
G1Y22.79
G1X22.58
G1X22.53
G1X22.55Y22.77
G1X22.61Y22.76
M5
G0X22.71Y22.77
M3 S30
; Layer C00
G1X22.53Y22.65
G1X22.36Y22.6
G1X22.3
G1X22.27Y22.59
G1Y22.58
G1X22.29Y22.56
G1X22.31Y22.53
G1X22.28Y22.51
G1X22.22Y22.49
G1X22.12Y22.46
G1X21.94Y22.42
G1X21.85Y22.4
G1Y22.41
G1X21.88Y22.44
G1X21.98Y22.57
G1X22.12Y22.75
G1X22.31Y22.97
G1X22.69Y23.42
G1X23.09Y23.92
G1X23.28Y24.17
G1X23.46Y24.41
G1X23.62Y24.62
G1X23.8Y24.89
G1X23.85Y24.95
G1X23.89Y25
G1X23.91Y25.02
G1Y24.98
G1X23.87Y24.9
G1X23.83Y24.76
G1X23.76Y24.6
G1X23.63Y24.21
G1X23.53Y23.83
G1X23.46Y23.48
G1X23.48Y23.78
G1X23.49Y23.89
G1Y23.98
G1Y24.03
G1X23.48Y24.05
G1X23.46Y24.01
G1X23.42Y23.94
G1X23.27Y23.61
G1X23.23Y23.54
G1X23.2Y23.52
G1Y23.55
G1X23.18Y23.62
G1X23.14Y23.63
G1X23.1Y23.55
G1X23.09Y23.4
G1Y23.29
G1X23.06Y23.22
G1X23.01Y23.18
G1X22.86Y23.1
G1X22.82Y23.07
G1Y23.05
G1X22.84Y23.01
G1Y22.97
G1X22.83Y22.91
G1X22.78Y22.84
G1X22.71Y22.77
M5
G0X21.07Y23.63
M3 S30
; Layer C00
G1X21.14Y23.68
G1X21.18Y23.74
G1Y23.75
G1X21.14Y23.74
G1X21.06Y23.68
G1X21.01Y23.63
G1Y23.61
G1X21.07Y23.63
M5
G0X20.72Y23.59
M3 S30
; Layer C00
G1X20.7Y23.6
G1X20.66
G1X20.63
G1X20.61Y23.55
G1X20.63Y23.53
G1X20.66
G1X20.7Y23.56
G1X20.72Y23.59
M5
G0X20.49Y23.5
M3 S30
; Layer C00
G1X20.46
G1X20.4Y23.46
G1X20.36Y23.42
G1X20.38Y23.41
G1X20.44Y23.42
G1X20.48Y23.46
G1X20.5Y23.49
G1Y23.5
M5
G0X21.6Y24.4
M3 S30
; Layer C00
G1X21.54Y24.44
G1X21.31Y24.55
G1X21.02Y24.63
G1X20.84Y24.66
G1X20.62Y24.68
G1X20.36Y24.7
G1X19.77Y24.73
G1X19.55
G1X19.37Y24.75
G1X19.23Y24.77
G1X18.99Y24.82
G1X18.5Y25
G1X18.28Y25.06
G1X18.02Y25.09
G1X17.37Y25.15
G1X17.1Y25.19
G1X16.86Y25.25
G1X16.61Y25.33
G1X16.31Y25.43
G1X16.06Y25.51
G1X15.85Y25.57
G1X15.68Y25.62
G1X15.36Y25.68
G1X15.02Y25.71
G1X14.79Y25.73
G1X14.72
G1X14.67Y25.74
G1X14.64Y25.76
G1X14.71Y25.78
G1X15.07Y25.81
G1X15.5
G1X15.94Y25.79
G1X16.29Y25.73
G1X17.18Y25.5
G1X17.72Y25.38
G1X18.28Y25.29
G1X18.58Y25.25
G1X18.9Y25.21
G1X19.25Y25.18
G1X19.97Y25.12
G1X20.25Y25.09
G1X20.47Y25.06
G1X20.66Y25.04
G1X20.99Y24.96
G1X21.36Y24.83
G1X21.48Y24.79
G1X21.57Y24.75
G1X21.64Y24.72
G1X21.68Y24.68
G1X21.71Y24.6
G1X21.68Y24.48
G1X21.66Y24.42
G1X21.64Y24.4
G1X21.6
M5
G0X21.62Y24.89
M3 S30
; Layer C00
G1X21.53Y24.91
G1X21.38Y24.94
G1X21.19Y25.01
G1X20.88Y25.09
G1X20.59Y25.15
G1X20.42Y25.18
G1X20.22Y25.2
G1X19.98Y25.22
G1X19.3Y25.28
G1X18.94Y25.31
G1X18.61Y25.35
G1X18.3Y25.39
G1X17.72Y25.5
G1X17.13Y25.63
G1X16.63Y25.76
G1X16.17Y25.86
G1X16.1Y25.89
G1X16.05Y25.91
G1X16.03Y25.93
G1X16.05Y25.95
G1X16.09Y25.96
G1X16.16Y25.97
G1X16.26
G1X16.46Y25.99
G1X16.64Y26.04
G1X16.84Y26.12
G1X17.18Y26.33
G1X17.31Y26.36
G1X17.4Y26.37
G1X17.52
G1X17.67
G1X17.87Y26.35
G1X18.46Y26.31
G1X19.02Y26.24
G1X19.4Y26.18
G1X19.74Y26.11
G1X20.06Y26.02
G1X20.35Y25.91
G1X20.63Y25.78
G1X20.88Y25.63
G1X21.11Y25.47
G1X21.33Y25.28
G1X21.48Y25.14
G1X21.59Y25.03
G1X21.65Y24.95
G1Y24.91
G1X21.62Y24.89
M5
G0X23.81Y24.2
M3 S30
; Layer C00
G1X23.79Y24.13
G1X23.84Y24.15
G1X23.92Y24.25
G1X24.04Y24.42
G1X24.14Y24.62
G1X24.18Y24.7
G1X24.21Y24.77
G1X24.23Y24.83
G1Y24.85
G1X24.18Y24.81
G1X24.12Y24.69
G1X24.02Y24.5
G1X23.81Y24.2
M5
G0X24.24Y24.92
M3 S30
; Layer C00
G1X24.28Y24.93
G1X24.3Y24.97
G1Y25
G1X24.28Y25.02
G1X24.25Y25
G1X24.22Y24.97
G1Y24.93
G1X24.24Y24.92
M5
G0X24.26Y25.08
M3 S30
; Layer C00
G1X24.28Y25.09
G1X24.31Y25.13
G1X24.34Y25.2
G1Y25.24
G1X24.32Y25.26
G1X24.28Y25.24
G1X24.26Y25.19
G1X24.25Y25.12
G1Y25.09
G1X24.26Y25.08
M5
G0X25.93Y24.97
M3 S30
; Layer C00
G1X25.97Y24.98
G1X26.07Y24.99
G1X26.23
G1X26.44Y25
G1X26.71Y25.01
G1X27.02
G1X27.75
G1X28.46
G1X29.04
G1X29.43
G1X29.53Y25
G1X29.57
G1X29.12Y24.3
G1X28.63Y23.59
G1X28.55Y23.57
G1X28.42
G1X28.25Y23.58
G1X28.6Y24.12
G1X28.73Y24.34
G1X28.83Y24.52
G1X28.9Y24.65
G1X28.91Y24.71
G1X28.88Y24.73
G1X28.8
G1X28.68Y24.75
G1X28.51
G1X28.3
G1X28.05Y24.76
G1X27.77
G1X26.57
G1X26.3Y24.78
G1X26.12Y24.79
G1X26.01Y24.82
G1X25.96Y24.85
G1X25.94Y24.9
G1Y24.97
M5
G0X25.7Y24.45
M3 S30
; Layer C00
G1X25.68
G1Y24.38
G1Y24.33
G1X25.71Y24.35
G1Y24.41
G1Y24.45
M5
G0X26.38Y24.43
M3 S30
; Layer C00
G1X26.42
G1X26.53Y24.44
G1X26.73
G1X26.92
G1X27.03
G1X27.07
G1X27Y24.43
G1X26.73Y24.42
G1X26.45
G1X26.38Y24.43
M5
G0X26.55Y24.05
M3 S30
; Layer C00
G1X26.62
G1X26.69
G1Y24.03
G1X26.62Y24.02
G1X26.55
G1Y24.05
M5
G0X26.84Y24.08
M3 S30
; Layer C00
G1X26.86Y24.09
G1X26.91
G1X26.99
G1X27.07
G1X27.12
G1X27.13
G1X27.11Y24.08
G1X26.99Y24.07
G1X26.87
G1X26.84Y24.08
M5
G0X27.64Y24.1
M3 S30
; Layer C00
G1X27.7
G1X27.76
G1Y24.08
G1X27.72Y24.07
G1X27.66
G1X27.64Y24.1
M5
G0X27.67Y23.8
M3 S30
; Layer C00
G1X27.74
G1X27.78
G1Y23.78
G1X27.77
G1X27.67Y23.76
G1X27.58Y23.77
G1X27.56Y23.78
G1X27.57Y23.79
G1X27.61
G1X27.67
M5
G0X27.88Y24.47
M3 S30
; Layer C00
G1X27.79
G1X27.77Y24.49
G1X27.8Y24.5
G1X27.86
G1X27.95
G1Y24.48
G1X27.88Y24.47
M5
G0X26.49Y23.39
M3 S30
; Layer C00
G1X26.47
G1Y23.33
G1Y23.27
G1X26.5Y23.3
G1Y23.35
G1Y23.39
M5
G0X25.93Y23.4
M3 S30
; Layer C00
G1X25.92Y23.27
G1Y23.23
G1X25.9Y23.24
G1Y23.29
G1Y23.38
G1Y23.47
G1Y23.53
G1X25.91Y23.54
G1Y23.52
G1X25.93Y23.4
M5
G0X25.34Y23.47
M3 S30
; Layer C00
G1Y23.56
G1Y23.65
G1X25.33Y23.67
G1Y23.66
G1X25.32Y23.62
G1Y23.56
G1Y23.5
G1Y23.46
G1Y23.45
G1X25.34Y23.47
M5
G0X25.55Y23.88
M3 S30
; Layer C00
G1X25.57Y23.9
G1X25.55Y23.95
G1X25.51Y23.99
G1X25.48
G1X25.46Y23.97
G1X25.48Y23.92
G1X25.51Y23.88
G1X25.55
M5
G0X25.63Y23.86
M3 S30
; Layer C00
G1X25.6Y23.81
G1X25.56Y23.78
G1X25.46
G1X25.43Y23.77
G1X25.41Y23.71
G1Y23.62
G1X25.39Y23.46
G1X25.36Y23.36
G1X25.31Y23.32
G1X25.24Y23.34
G1X25.18Y23.39
G1X25.12Y23.41
G1X25.1Y23.39
G1X25.19Y23.32
G1X25.15Y23.31
G1X25.11Y23.29
G1Y23.26
G1Y23.22
G1X25.07Y23.21
G1X25.01Y23.19
G1X24.98Y23.16
G1X24.91Y23.12
G1X24.79Y23.08
G1X24.62Y23.05
G1X24.86Y23.44
G1X24.98Y23.64
G1X25.13Y23.9
G1X25.28Y24.18
G1X25.55Y24.69
G1X25.65Y24.88
G1X25.73Y25.01
G1X25.76Y25.05
G1X25.79Y24.97
G1X25.82Y24.79
G1X25.84Y24.53
G1X25.82Y24.22
G1X25.8Y24.08
G1X25.77Y23.96
G1X25.75Y23.88
G1X25.73Y23.82
G1X25.71Y23.8
G1Y23.82
G1X25.7Y23.88
G1Y24.08
G1X25.71Y24.14
G1Y24.17
G1Y24.18
G1X25.69Y24.16
G1Y24.12
G1X25.67Y24.05
G1X25.65Y23.95
G1X25.63Y23.86
M5
G0X27.06Y22.99
M3 S30
; Layer C00
G1X27.04Y22.95
G1X27.06Y22.92
G1X27.09
G1X27.13Y22.96
G1X27.15Y22.98
G1X27.13Y23
G1X27.09
G1X27.06Y22.99
M5
G0X27.08Y22.83
M3 S30
; Layer C00
G1X27.04Y22.79
G1X26.97Y22.67
G1X26.94Y22.61
G1X26.92Y22.56
G1Y22.53
G1X26.94
G1X27.04Y22.68
G1X27.08Y22.83
M5
G0X26.66Y22.24
M3 S30
; Layer C00
G1X26.67Y22.23
G1X26.66Y22.2
G1X26.62Y22.17
G1X26.58
G1X26.57Y22.2
G1X26.58Y22.23
G1X26.62Y22.25
G1X26.66
M5
G0X28.3Y22.68
M3 S30
; Layer C00
G1Y22.67
G1X28.36Y22.68
G1X28.5Y22.73
G1X28.62Y22.78
G1X28.69Y22.83
G1X28.68Y22.85
G1X28.57Y22.82
G1X28.41Y22.75
G1X28.33Y22.7
G1X28.3Y22.68
M5
G0X28.25Y22.93
M3 S30
; Layer C00
G1X28.36Y22.98
G1X28.47Y23.04
G1X28.52Y23.08
G1Y23.1
G1X28.49
G1X28.44Y23.07
G1X28.35Y23.03
G1X28.24Y22.96
G1X28.2Y22.93
G1X28.25
M5
G0X28.9Y22.88
M3 S30
; Layer C00
G1X28.93Y22.87
G1X29.04Y22.86
G1X29.16
G1X29.19Y22.88
G1X29.18
G1X29.13
G1X29.04
G1X28.96
G1X28.91
G1X28.9
M5
G0X28.84Y22.73
M3 S30
; Layer C00
G1X28.57Y22.68
G1X28.35Y22.64
G1X28.22
G1X28.16Y22.63
G1X28.05Y22.59
G1X27.9Y22.53
G1X27.72Y22.45
G1X27.47Y22.34
G1X27.4Y22.31
G1X27.36Y22.29
G1X27.35
G1X27.36Y22.31
G1X27.4Y22.35
G1X27.46Y22.4
G1X27.66Y22.55
G1X27.87Y22.69
G1X27.96Y22.75
G1X28.03Y22.8
G1X28.08Y22.84
G1X28.1Y22.87
G1X28.07
G1X27.99Y22.83
G1X27.88Y22.77
G1X27.62Y22.6
G1X27.52Y22.53
G1X27.44Y22.5
G1X27.39Y22.48
G1X27.37
G1Y22.51
G1X27.4Y22.56
G1X27.46Y22.63
G1X27.54Y22.74
G1X27.57Y22.82
G1X27.56
G1X27.52Y22.79
G1X27.47Y22.74
G1X27.41Y22.66
G1X27.31Y22.52
G1X27.26Y22.44
G1Y22.41
G1X27.35Y22.44
G1Y22.42
G1X27.29Y22.39
G1X27.23Y22.37
G1X27.19
G1X27.18Y22.39
G1Y22.42
G1X27.25Y22.63
G1Y22.7
G1X27.2
G1X27.1Y22.6
G1X27.02Y22.51
G1X26.96Y22.47
G1X26.91
G1X26.87Y22.49
G1X26.83Y22.53
G1X26.81Y22.57
G1Y22.62
G1X26.87Y22.8
G1Y22.89
G1Y22.91
G1X26.86
G1X26.84Y22.87
G1X26.78Y22.73
G1X26.75Y22.69
G1X26.72
G1X26.68Y22.71
G1X26.64Y22.8
G1X26.62Y22.94
G1X26.61Y23.06
G1X26.58Y23.12
G1X26.55Y23.1
G1Y23
G1Y22.9
G1X26.52Y22.85
G1X26.47Y22.86
G1X26.43Y22.93
G1X26.38Y22.98
G1X26.31Y23
G1X26.2Y23.03
G1X26.14Y23.12
G1X26.12Y23.19
G1X26.1Y23.29
G1Y23.41
G1Y23.56
G1Y24
G1X26.42Y23.86
G1X26.76Y23.74
G1X27.09Y23.64
G1X27.29Y23.6
G1X27.58Y23.56
G1X27.93Y23.5
G1X28.67Y23.41
G1X29Y23.35
G1X29.29Y23.3
G1X29.54Y23.25
G1X29.74Y23.19
G1X29.9Y23.13
G1X30.03Y23.06
G1X30.12Y22.99
G1X30.28Y22.84
G1X30.11Y22.78
G1X29.99Y22.71
G1X29.9Y22.61
G1X29.87Y22.53
G1X29.83Y22.43
G1X29.8Y22.3
G1X29.76Y22.14
G1X29.67Y21.78
G1X29.57Y21.45
G1X29.44Y21.17
G1X29.3Y20.91
G1X29.2Y20.77
G1X29.09Y20.66
G1X28.95Y20.56
G1X28.73Y20.45
G1X28.42Y20.28
G1X28.21Y20.08
G1X28.07Y19.85
G1X27.92Y19.31
G1X27.82Y19.14
G1X27.67Y19.01
G1X27.48Y18.92
G1X27.3Y18.89
G1X27.07
G1X26.93Y18.91
G1X26.75Y18.93
G1X26.54Y18.96
G1X26.3Y19.01
G1X26.04Y19.04
G1X25.72Y19.07
G1X25.33Y19.09
G1X24.85
G1X24.58Y19.1
G1X24.34
G1X24.15Y19.11
G1X23.99Y19.12
G1X23.75Y19.15
G1X23.36Y19.25
G1X23.2Y19.24
G1X23.13Y19.2
G1X23.05Y19.14
G1X22.96Y19.05
G1X22.86Y18.93
G1X22.64Y18.63
G1X22.42Y18.23
G1X22.3Y17.99
G1X22.19Y17.72
G1X22.06Y17.42
G1X21.81Y16.75
G1X21.7Y16.46
G1X21.6Y16.21
G1X21.51Y16.01
G1X21.44Y15.85
G1X21.38Y15.74
G1X21.34Y15.68
G1X21.32Y15.67
G1Y15.73
G1X21.46Y16.05
G1X21.55Y16.33
G1X21.59Y16.46
G1X21.61Y16.56
G1X21.62Y16.63
G1Y16.66
G1X21.57Y16.61
G1X21.54Y16.5
G1X21.52Y16.43
G1X21.49Y16.33
G1X21.44Y16.21
G1X21.38Y16.07
G1X21.25Y15.74
G1X21.1Y15.41
G1Y15.36
G1X21.12
G1X21.14
G1Y15.32
G1X21.11Y15.25
G1X21.08Y15.15
G1X21.01Y14.92
G1X20.98Y14.71
G1Y14.63
G1X20.97Y14.58
G1X20.95
G1X20.93Y14.6
G1X20.88Y14.7
G1Y14.81
G1X20.91Y14.95
G1X20.98Y15.11
G1X21.05Y15.26
G1X21.07Y15.33
G1X21.05
G1X21.01Y15.28
G1X20.97Y15.22
G1X20.93Y15.13
G1X20.85Y14.96
G1X20.82Y14.83
G1X20.81Y14.78
G1X20.77
G1X20.72Y14.84
G1X20.73Y14.94
G1X20.8Y15.09
G1X20.93Y15.29
G1X21.01Y15.43
G1X21.08Y15.55
G1X21.14Y15.66
G1X21.17Y15.74
G1X21.21Y15.9
G1X21.27Y16.07
G1X21.33Y16.23
G1X21.34Y16.35
G1Y16.4
G1X21.33
G1X21.32Y16.37
G1X21.23Y16.16
G1X21.21Y16.1
G1X21.18Y16.08
G1X21.16
G1X21.14Y16.1
G1X21.12Y16.2
G1X21.15Y16.35
G1X21.2Y16.45
G1X21.25Y16.57
G1X21.33Y16.71
G1X21.42Y16.88
G1X21.63Y17.3
G1X21.85Y17.79
G1X21.95Y18.02
G1X22.02Y18.21
G1X22.07Y18.34
G1Y18.4
G1X22.05Y18.37
G1X21.99Y18.26
G1X21.92Y18.09
G1X21.83Y17.88
G1X21.61Y17.39
G1X21.34Y16.88
G1X21.22Y16.67
G1X21.13Y16.51
G1X21.09Y16.45
G1X21.06Y16.42
G1X21.04Y16.4
G1Y16.42
G1X21.05Y16.48
G1X21.1Y16.6
G1X21.17Y16.75
G1X21.27Y16.92
G1X21.49Y17.38
G1X21.72Y17.87
G1X21.83Y18.13
G1X21.93Y18.35
G1X22.03Y18.55
G1X22.12Y18.72
G1X22.31Y19.01
G1X22.52Y19.24
G1X22.78Y19.46
G1X23.05Y19.6
G1X23.2Y19.64
G1X23.38Y19.67
G1X23.58Y19.69
G1X24.13Y19.72
G1X24.36Y19.74
G1X24.56Y19.8
G1X25.06Y19.98
G1X25.27Y20.03
G1X25.4Y20.05
G1X25.56
G1X25.77
G1X26.29Y20.06
G1X26.49
G1X26.64
G1X26.77Y20.08
G1X26.95Y20.11
G1X27.11Y20.18
G1X27.35Y20.33
G1X27.57Y20.52
G1X27.76Y20.77
G1X27.95Y21.06
G1X28.03Y21.19
G1X28.09Y21.31
G1X28.12Y21.39
G1Y21.44
G1X28.15Y21.48
G1X28.24Y21.51
G1X28.26Y21.52
G1X28.2
G1X28.08
G1X27.91
G1X27.44Y21.51
G1X27.73Y21.6
G1X27.98Y21.66
G1X28.19Y21.69
G1X28.31Y21.71
G1X28.36Y21.74
G1X28.34Y21.75
G1X28.29
G1X28.22
G1X28.13
G1X27.93Y21.71
G1X27.69Y21.65
G1X27.67
G1X27.73Y21.69
G1X27.83Y21.74
G1X27.96Y21.79
G1X28.11Y21.84
G1X28.42Y21.94
G1X28.68Y22
G1X28.97Y22.04
G1X28.68Y22.03
G1X28.35Y21.97
G1X27.96Y21.85
G1X27.79Y21.79
G1X27.66Y21.73
G1X27.57Y21.67
G1X27.55Y21.63
G1Y21.6
G1X27.52Y21.62
G1X27.49Y21.64
G1Y21.67
G1X27.53Y21.71
G1X27.59Y21.76
G1X27.68Y21.82
G1X27.8Y21.89
G1X27.96Y21.97
G1X28.34Y22.17
G1X28.49Y22.24
G1X28.59Y22.3
G1X28.62Y22.33
G1X28.58
G1X28.45Y22.28
G1X28.25Y22.19
G1X28Y22.07
G1X27.65Y21.89
G1X27.83Y22.04
G1X28.08Y22.23
G1X28.34Y22.39
G1X28.62Y22.53
G1X28.9Y22.63
G1X29.11Y22.69
G1X29.17Y22.71
G1X29.2Y22.73
G1X29.18Y22.74
G1X29.07
G1X28.84Y22.73
M5
G0X25.05Y26.75
M3 S30
; Layer C00
G1X25.07Y26.77
G1X25.08Y26.83
G1Y26.87
G1X25.05Y26.86
G1Y26.8
G1Y26.75
M5
G0X24.99Y27.38
M3 S30
; Layer C00
G1X25.02Y27.4
G1Y27.43
G1X24.98Y27.47
G1X24.96Y27.48
G1X24.94Y27.47
G1Y27.43
G1Y27.4
G1X24.99Y27.38
M5
G0X23.33Y26.81
M3 S30
; Layer C00
G1X23.27Y26.85
G1X23.19Y26.87
G1X23.1
G1X23.06
G1Y26.86
G1X23.11Y26.84
G1X23.21Y26.81
G1X23.29Y26.77
G1X23.34Y26.74
G1X23.35Y26.77
G1X23.33Y26.81
M5
G0X23.21Y26.66
M3 S30
; Layer C00
G1X23.1Y26.71
G1X22.97Y26.73
G1X22.91
G1Y26.71
G1X22.94Y26.69
G1X23.02Y26.65
G1X23.17Y26.56
G1X23.29Y26.42
G1X23.37Y26.25
G1X23.4Y26.07
G1Y25.9
G1X23.35Y26.06
G1X23.3Y26.18
G1X23.28Y26.22
G1X23.27Y26.16
G1Y26.01
G1X23.3Y25.8
G1X23.2Y25.99
G1X23.12Y26.13
G1X23.04Y26.2
G1X22.98Y26.18
G1X22.95Y26.09
G1Y26.03
G1Y26
G1X22.97
G1X23.01Y26.05
G1X23.02
G1Y26
G1X22.99Y25.79
G1Y25.68
G1X22.97Y25.65
G1X22.95
G1X22.91Y25.68
G1X22.85Y25.75
G1X22.72Y25.9
G1Y25.69
G1Y25.59
G1X22.7Y25.52
G1X22.68Y25.5
G1X22.64
G1X22.58
G1X22.55Y25.44
G1X22.54Y25.42
G1X22.53Y25.43
G1X22.52Y25.47
G1Y25.55
G1Y25.64
G1Y25.68
G1X22.54Y25.7
G1X22.56Y25.67
G1X22.6Y25.63
G1X22.61
G1X22.59Y25.7
G1X22.53Y25.79
G1X22.49Y25.88
G1X22.47Y26
G1Y26.18
G1Y26.43
G1X22.48Y26.95
G1X22.77Y27.09
G1X23.04Y27.21
G1X23.29Y27.28
G1X23.55Y27.31
G1X23.85
G1X24.05
G1X24.17Y27.28
G1X24.27Y27.23
G1X24.36Y27.14
G1X24.44Y27.05
G1X24.48Y26.96
G1X24.51Y26.85
G1Y26.69
G1X24.49Y26.47
G1X24.42Y26.22
G1X24.31Y25.94
G1X24.14Y25.62
G1X23.93Y25.27
G1X23.66Y24.87
G1X23.33Y24.42
G1X22.94Y23.91
G1X22.64Y23.53
G1X22.37Y23.2
G1X22.13Y22.93
G1X21.93Y22.7
G1X21.75Y22.51
G1X21.61Y22.38
G1X21.49Y22.29
G1X21.4Y22.24
G1X21.35Y22.22
G1X21.14Y22.15
G1X20.67Y21.96
G1X19.91Y21.65
G1X19.55Y21.51
G1X19.13Y21.34
G1X18.71Y21.19
G1X18.87Y21.49
G1X18.97Y21.64
G1X19.09Y21.79
G1X19.24Y21.96
G1X19.42Y22.13
G1X19.85Y22.49
G1X20.37Y22.88
G1X21.09Y23.39
G1X21.74Y23.87
G1X22.3Y24.33
G1X22.78Y24.76
G1X23Y24.98
G1X23.19Y25.18
G1X23.33Y25.36
G1X23.44Y25.52
G1X23.57Y25.83
G1X23.62Y26.18
G1Y26.43
G1Y26.51
G1Y26.56
G1X23.59Y26.61
G1X23.54Y26.6
G1X23.5Y26.54
G1Y26.44
G1Y26.36
G1Y26.34
G1X23.47Y26.37
G1X23.41Y26.46
G1X23.32Y26.58
G1X23.21Y26.66
M5
G0X22.64Y27.63
M3 S30
; Layer C00
G1Y27.65
G1X22.66Y27.73
G1X22.65Y27.8
G1X22.63
G1Y27.71
G1Y27.66
G1Y27.63
G1X22.64
M5
G0X22.57Y27.6
M3 S30
; Layer C00
G1X22.54Y27.66
G1X22.51Y27.74
G1X22.48Y27.85
G1X22.42Y28
G1X22.36Y28.05
G1X22.31Y28.07
G1X22.27Y28.13
G1X22.22Y28.22
G1X22.14Y28.31
G1X22.08Y28.36
G1X22.06
G1X22.08Y28.28
G1X22.19Y27.98
G1X22.22Y27.87
G1X22.24Y27.79
G1Y27.76
G1X22.22
G1X22.19Y27.8
G1X22.15Y27.89
G1X21.95Y28.33
G1X21.83Y28.57
G1X21.75Y28.7
G1X21.72Y28.77
G1X21.73Y28.78
G1X21.78
G1X21.84Y28.79
G1X21.93
G1X22.17
G1X22.44
G1X22.74Y28.78
G1X23.03Y28.76
G1X23.28Y28.74
G1X23.48Y28.72
G1X23.97Y28.62
G1X24.45Y28.48
G1X24.66Y28.41
G1X24.84Y28.34
G1X24.99Y28.27
G1X25.09Y28.21
G1X25.21Y28.07
G1X25.32Y27.84
G1X25.38Y27.68
G1X25.43Y27.48
G1X25.49Y27.25
G1X25.56Y26.98
G1X25.66Y26.53
G1X25.72Y26.16
G1X25.75Y25.86
G1X25.74Y25.59
G1X25.68Y25.33
G1X25.58Y25.05
G1X25.43Y24.73
G1X25.23Y24.34
G1X25.05Y24
G1X24.87Y23.69
G1X24.79Y23.55
G1X24.66Y23.33
G1X24.61Y23.26
G1X24.49Y23.09
G1X24.38Y23
G1X24.31Y22.96
G1X24.21Y22.92
G1X24.09Y22.89
G1X23.93Y22.84
G1X23.73Y22.79
G1X23.55Y22.74
G1X23.41Y22.71
G1X23.33
G1X23.28
G1X23.25Y22.76
G1Y22.82
G1X23.29Y22.92
G1X23.35Y23.05
G1X23.44Y23.2
G1X23.55Y23.38
G1X23.69Y23.59
G1X24Y24.04
G1X24.23Y24.46
G1X24.4Y24.83
G1X24.51Y25.16
G1X24.54Y25.33
G1Y25.43
G1X24.52Y25.48
G1X24.48Y25.46
G1X24.46Y25.42
G1X24.44Y25.35
G1X24.41Y25.24
G1X24.38Y25.12
G1X24.28Y24.84
G1X24.13Y24.5
G1X23.95Y24.16
G1X23.77Y23.88
G1X23.71Y23.8
G1X23.68Y23.77
G1Y23.79
G1X23.69Y23.86
G1X23.72Y24
G1X23.75Y24.15
G1X23.79Y24.31
G1X23.88Y24.44
G1X23.95Y24.53
G1X23.93Y24.57
G1Y24.62
G1X23.95Y24.75
G1X24.01Y24.92
G1X24.09Y25.12
G1X24.17Y25.32
G1X24.26Y25.5
G1X24.33Y25.64
G1X24.39Y25.71
G1X24.44Y25.75
G1X24.42Y25.79
G1X24.48Y25.83
G1X24.56Y25.9
G1X24.62Y25.99
G1X24.65Y26.05
G1X24.66Y26.06
G1Y26.03
G1Y25.96
G1X24.65Y25.9
G1Y25.86
G1X24.66Y25.85
G1X24.68Y25.86
G1X24.74Y25.96
G1X24.82Y26.15
G1X24.92Y26.49
G1Y26.8
G1X24.85Y27.07
G1X24.68Y27.3
G1X24.62Y27.36
G1X24.59Y27.4
G1Y27.41
G1X24.63
G1X24.74Y27.33
G1X24.86Y27.19
G1X24.91Y27.12
G1X24.95Y27.08
G1X24.98Y27.06
G1X24.93Y27.18
G1X24.81Y27.32
G1X24.66Y27.44
G1X24.55Y27.49
G1X24.52
G1X24.54Y27.51
G1X24.59Y27.52
G1X24.67Y27.53
G1X24.91Y27.57
G1X24.43Y27.59
G1X24.58Y27.66
G1X24.68Y27.72
G1X24.72Y27.75
G1X24.68
G1X24.58
G1X24.23
G1X24.03
G1X23.85
G1X23.71
G1X23.64Y27.78
G1X23.6Y27.8
G1X23.61Y27.81
G1X23.67
G1X23.85
G1X23.89
G1X23.84Y27.82
G1X23.73Y27.84
G1X23.68Y27.87
G1Y27.92
G1X23.73Y27.99
G1X23.76Y28.02
G1X23.74
G1X23.69Y27.98
G1X23.56Y27.89
G1X23.38Y27.79
G1X23.28Y27.74
G1X23.22Y27.72
G1X23.2
G1X23.22Y27.77
G1X23.27Y27.91
G1X23.29Y27.97
G1X23.27
G1X23.2Y27.92
G1X23.12Y27.86
G1X23.09
G1X23.05Y27.84
G1X22.95Y27.75
G1X22.82Y27.61
G1X22.85Y27.74
G1X22.86Y27.79
G1Y27.81
G1X22.83Y27.77
G1X22.77Y27.69
G1X22.72Y27.63
G1X22.68Y27.59
G1X22.64Y27.57
G1X22.61
G1X22.57Y27.6
M5
G0X21.28Y28.3
M3 S30
; Layer C00
G1X21.27Y28.34
G1X21.23Y28.38
G1X21.18Y28.39
G1X21.16Y28.38
G1Y28.34
G1X21.2Y28.3
G1X21.25Y28.29
G1X21.28Y28.3
M5
G0X20.26Y28.31
M3 S30
; Layer C00
G1Y28.32
G1X20.16Y28.33
G1X20.11
G1X20.08
G1Y28.31
G1X20.1
G1X20.18Y28.3
G1X20.26
M5
G0X20.33Y28.21
M3 S30
; Layer C00
G1X20.02Y28.23
G1X19.72
G1X19.42Y28.2
G1X19.95Y28.34
G1X19.69Y28.31
G1X19.46Y28.28
G1X19.27
G1X19.19Y28.26
G1Y28.24
G1X19.21Y28.2
G1X19.15Y28.17
G1X19.08Y28.16
G1X19.04Y28.19
G1X19Y28.21
G1X18.91Y28.16
G1X18.82Y28.11
G1X18.76Y28.09
G1X18.73
G1X18.71Y28.13
G1X18.73Y28.16
G1X18.79Y28.19
G1X18.88Y28.24
G1X18.99Y28.29
G1X19.22Y28.39
G1X19.42Y28.46
G1X19.55Y28.47
G1X19.77
G1X19.92Y28.46
G1X20.1Y28.45
G1X20.53Y28.41
G1X20.87Y28.38
G1Y28.21
G1X20.84Y28.08
G1X20.76Y27.9
G1X20.64Y27.7
G1X20.49Y27.49
G1X20.34Y27.29
G1X20.2Y27.13
G1X20.09Y27.03
G1X20.01Y27.02
G1X19.99
G1Y26.99
G1Y26.94
G1X19.96Y26.88
G1X19.89Y26.85
G1X19.85Y26.88
G1Y26.92
G1X19.88Y26.98
G1X19.93Y27.05
G1X20Y27.13
G1X20.14Y27.3
G1X20.19Y27.41
G1Y27.44
G1X20.16
G1X20.12
G1X20.05Y27.4
G1X19.96Y27.35
G1X19.94Y27.37
G1X19.99Y27.45
G1X20.16Y27.64
G1X20.18Y27.68
G1Y27.71
G1X20.13Y27.74
G1X20.05Y27.76
G1X19.95
G1X19.9Y27.74
G1X19.88
G1Y27.76
G1X19.92Y27.81
G1X19.99Y27.86
G1X20.07
G1X20.11
G1Y27.94
G1X20.19Y28.01
G1X20.31Y28.08
G1X20.45Y28.13
G1X20.64Y28.17
G1X20.33Y28.21
M5
G0X20.16Y28.08
M3 S30
; Layer C00
G1X19.91Y27.99
G1X19.71Y27.93
G1X19.58
G1X19.53Y27.94
G1Y27.97
G1X19.55Y28
G1X19.59Y28.03
G1X19.73Y28.07
G1X19.92Y28.09
G1X20.16
M5
G0X20.04Y27.74
M3 S30
; Layer C00
G1X20.06Y27.72
G1Y27.69
G1X20.02Y27.65
G1X19.97Y27.63
G1X19.94Y27.65
G1X19.95Y27.69
G1X19.99Y27.72
G1X20.04Y27.74
M5
G0X19.3Y27.58
M3 S30
; Layer C00
G1X19.44Y27.41
G1X19.57Y27.19
G1X19.68Y26.94
G1X19.72Y26.83
G1X19.73Y26.76
G1Y26.71
G1X19.68Y26.68
G1X19.65Y26.65
G1X19.62
G1Y26.66
G1X19.61Y26.7
G1X19.57Y26.84
G1X19.46Y27.05
G1X19.33Y27.26
G1X19.21Y27.41
G1X19.12Y27.49
G1X19.02Y27.53
G1X18.93Y27.54
G1X18.84Y27.52
G1X18.77Y27.48
G1X18.71Y27.41
G1X18.67Y27.32
G1X18.66Y27.21
G1X18.63Y27.11
G1X18.56Y27.03
G1X18.47Y26.99
G1X18.42
G1X18.4
G1X18.44Y27.04
G1X18.5Y27.16
G1X18.49Y27.29
G1X18.41Y27.39
G1X18.28Y27.43
G1X18.16Y27.46
G1X18.02Y27.51
G1X17.92Y27.58
G1X17.89Y27.63
G1X17.88Y27.66
G1X17.8
G1X17.75Y27.64
G1X17.72
G1Y27.65
G1X17.76Y27.68
G1X17.81Y27.72
G1Y27.73
G1X17.72Y27.71
G1X17.59Y27.66
G1X17.43Y27.62
G1X17.31
G1X17.25
G1X17.29Y27.57
G1Y27.54
G1X17.26Y27.49
G1X17.21Y27.42
G1X17.12Y27.33
G1X17.08Y27.31
G1X17.1Y27.37
G1X17.17Y27.44
G1X17.21Y27.51
G1X17.19Y27.53
G1X17.15Y27.55
G1X17.16Y27.59
G1Y27.63
G1X17.1Y27.62
G1X17.05Y27.6
G1X17.03
G1X17.05Y27.62
G1X17.1Y27.66
G1X17.23Y27.71
G1X17.41Y27.74
G1X17.54
G1X17.58Y27.78
G1X17.53Y27.82
G1X17.28Y27.9
G1X17.24Y27.94
G1X17.29Y27.95
G1X17.43Y27.93
G1X17.68Y27.88
G1X18.5Y27.71
G1X18.56Y27.7
G1X18.59
G1Y27.73
G1X18.56Y27.76
G1X18.44Y27.83
G1X18.27Y27.89
G1X18.03Y27.96
G1X17.74Y28.04
G1X17.43Y28.11
G1X17.11Y28.14
G1X16.82Y28.12
G1X16.61Y28.06
G1X16.51Y28
G1X16.44Y27.93
G1X16.4Y27.84
G1Y27.72
G1X16.39Y27.66
G1Y27.64
G1X16.36Y27.65
G1X16.33Y27.7
G1X16.3Y27.86
G1X16.36Y28.04
G1X16.49Y28.2
G1X16.66Y28.3
G1X16.73Y28.31
G1X16.87
G1X17.06
G1X17.27
G1X17.58Y28.3
G1X17.81Y28.26
G1X17.92Y28.23
G1X18.05Y28.19
G1X18.2Y28.14
G1X18.38Y28.06
G1X18.61Y27.96
G1X18.84Y27.86
G1X19.02Y27.77
G1X19.14Y27.71
G1X19.3Y27.58
M5
G0X18.92Y27.96
M3 S30
; Layer C00
G1X18.87
G1X18.84Y28
G1X18.87Y28.07
G1X18.93Y28.11
G1X18.98Y28.14
G1X19.01
G1X19.03Y28.1
G1X19.01Y28.04
G1X18.97Y27.99
G1X18.92Y27.96
M5
G0X19.11Y28.06
M3 S30
; Layer C00
G1Y28.09
G1X19.19Y28.14
G1X19.24Y28.12
G1X19.22Y28.1
G1X19.16Y28.07
G1X19.11
M5
G0X18.45Y28.17
M3 S30
; Layer C00
G1X18.42
G1X18.34Y28.19
G1X18.23Y28.24
G1X18.09Y28.29
G1X17.88Y28.36
G1X17.7Y28.41
G1X17.6
G1X17.48Y28.42
G1X17.33
G1X16.96
G1X16.81
G1X16.7Y28.41
G1X16.62Y28.4
G1X16.5Y28.35
G1X16.41Y28.28
G1X16.29Y28.19
G1X16.21Y28.18
G1X16.19Y28.17
G1X16.21Y28.02
G1X16.19Y27.99
G1X16.17Y27.97
G1X16.12Y27.92
G1X16.07Y27.84
G1X16.02Y27.75
G1X15.94Y27.61
G1X15.9Y27.46
G1X15.86Y27.27
G1X15.82Y26.74
G1X15.79Y26.55
G1X15.73Y26.38
G1X15.66Y26.23
G1X15.6Y26.12
G1X15.53Y26.03
G1X15.47Y25.96
G1X15.43Y25.93
G1X15.39
G1Y25.97
G1X15.41Y26.04
G1X15.47Y26.16
G1X15.54Y26.3
G1X15.59Y26.48
G1X15.64Y26.69
G1X15.68Y26.96
G1X15.74Y27.35
G1X15.83Y27.66
G1X15.95Y27.92
G1X16.12Y28.17
G1X16.26Y28.33
G1X16.4Y28.45
G1X16.56Y28.54
G1X16.74Y28.59
G1X16.94Y28.61
G1X17.17
G1X17.42Y28.57
G1X17.71Y28.51
G1X17.93Y28.43
G1X18.17Y28.33
G1X18.28Y28.28
G1X18.37Y28.23
G1X18.43Y28.19
G1X18.45Y28.17
M5
G0X17.36Y27.82
M3 S30
; Layer C00
G1Y27.8
G1X17.29
G1X17.22
G1Y27.82
G1X17.29
G1X17.36
M5
G0X17.53Y27.51
M3 S30
; Layer C00
G1X17.65Y27.53
G1X17.79Y27.51
G1X17.92Y27.45
G1X18.05Y27.38
G1X18.21Y27.34
G1X18.33Y27.29
G1X18.39Y27.21
G1Y27.15
G1Y27.13
G1X18.36Y27.15
G1X18.31Y27.19
G1X18.21Y27.25
G1X18.11Y27.29
G1X18Y27.32
G1X17.9Y27.36
G1X17.79Y27.4
G1X17.9Y27.32
G1X18Y27.26
G1X18.12Y27.23
G1X18.21Y27.22
G1X18.26Y27.18
G1X18.28Y27.13
G1X18.24Y27.07
G1X18.21Y27.05
G1X18.17
G1X18.12Y27.07
G1X18.06Y27.12
G1X17.99Y27.18
G1X17.9Y27.21
G1X17.77Y27.23
G1X17.45
G1X17.34Y27.25
G1X17.26Y27.26
G1X17.24Y27.28
G1X17.28Y27.36
G1X17.39Y27.44
G1X17.53Y27.51
M5
G0X17.56Y27.13
M3 S30
; Layer C00
G1X17.67
G1X17.77
G1X17.85
G1X17.9Y27.12
G1X17.92
G1X17.64Y27.07
G1X17.39Y27.09
G1X17.42Y27.1
G1X17.47Y27.12
G1X17.56
M5
G0X18.51Y26.76
M3 S30
; Layer C00
G1Y26.73
G1Y26.69
G1X18.56Y26.68
G1X18.59Y26.69
G1Y26.73
G1X18.55Y26.76
G1X18.52Y26.78
G1X18.51Y26.76
M5
G0X18.49Y26.65
M3 S30
; Layer C00
G1X18.32Y26.71
G1X18.18Y26.73
G1X18.13
G1X18.11Y26.71
G1X18.14Y26.67
G1X18.22Y26.6
G1X18.37Y26.47
G1X18.22Y26.55
G1X18.12Y26.6
G1X18.1Y26.59
G1X18.08Y26.55
G1X18Y26.52
G1X17.93
G1X17.87Y26.54
G1X17.8Y26.61
G1X17.72Y26.72
G1X17.66Y26.81
G1X17.62Y26.88
G1X17.61Y26.93
G1X17.62Y26.96
G1X17.67Y26.97
G1X17.75
G1X17.86Y26.96
G1X18.01Y26.93
G1X18.26Y26.9
G1X18.43Y26.88
G1X18.55Y26.91
G1X18.66Y26.99
G1X18.74Y27.1
G1X18.77Y27.22
G1Y27.33
G1X18.8Y27.4
G1X18.86Y27.43
G1X18.93
G1X19.02Y27.41
G1X19.09Y27.37
G1X19.27Y27.17
G1X19.42Y26.9
G1X19.48Y26.76
G1X19.51Y26.63
G1X19.53Y26.52
G1X19.52Y26.44
G1X19.5Y26.4
G1X19.48Y26.39
G1X19.47Y26.41
G1X19.44Y26.46
G1X19.42Y26.56
G1X19.4Y26.69
G1X19.38Y26.79
G1X19.31Y26.83
G1X19.26Y26.85
G1Y26.9
G1Y26.94
G1X19.21Y26.96
G1X19.15Y26.94
G1X19.11Y26.89
G1X19.07Y26.85
G1X19.03
G1X18.99Y26.87
G1Y26.85
G1Y26.76
G1X18.98Y26.71
G1X18.95
G1X18.9Y26.73
G1X18.86Y26.75
G1X18.82Y26.76
G1X18.77Y26.75
G1X18.72Y26.72
G1X18.65Y26.66
G1Y26.6
G1X18.61
G1X18.56Y26.62
G1X18.49Y26.65
M5
G0X18.21Y26.46
M3 S30
; Layer C00
G1X18.2Y26.44
G1X18.13
G1X18.07
G1X18.06Y26.46
G1X18.13
G1X18.21
M5
G0X19.29Y26.43
M3 S30
; Layer C00
G1X19.31Y26.5
G1X19.35Y26.53
G1X19.38Y26.5
G1X19.4Y26.43
G1X19.38Y26.36
G1X19.35Y26.33
G1X19.31Y26.36
G1X19.29Y26.43
M5
G0X19.79Y26.31
M3 S30
; Layer C00
G1X19.81Y26.29
G1X19.87
G1X19.91
G1Y26.32
G1X19.84
G1X19.79
M5
G0X19.8Y26.23
M3 S30
; Layer C00
G1X19.7Y26.24
G1X19.63Y26.29
G1X19.61Y26.35
G1X19.64Y26.41
G1X19.72Y26.51
G1X19.85Y26.64
G1X20Y26.79
G1X20.35Y27.14
G1X20.65Y27.51
G1X20.9Y27.88
G1X20.93Y27.34
G1X20.95Y27.09
G1X20.98Y26.86
G1X21.03Y26.64
G1X21.08Y26.46
G1X21.15Y26.17
G1X21.19Y25.87
G1Y25.75
G1Y25.66
G1X21.17Y25.6
G1X21.14
G1X21.1Y25.65
G1X21.08Y25.72
G1Y25.79
G1X21.05Y25.9
G1X21Y26.05
G1X20.95Y26.21
G1X20.86Y26.57
G1X20.82Y26.91
G1Y27.04
G1X20.8Y27.14
G1X20.78Y27.2
G1X20.76Y27.23
G1X20.73
G1X20.69Y27.19
G1X20.66Y27.12
G1X20.62Y27.01
G1X20.56Y26.85
G1X20.5Y26.78
G1X20.47Y26.73
G1X20.45Y26.62
G1Y26.54
G1X20.44Y26.5
G1X20.42
G1X20.36Y26.57
G1X20.32Y26.55
G1X20.27Y26.58
G1X20.19Y26.61
G1X20.13Y26.59
G1X20.1Y26.53
G1Y26.42
G1Y26.34
G1X20.09Y26.3
G1X20.04Y26.27
G1X19.94Y26.25
G1X19.8Y26.23
M5
G0X16.49Y26.5
M3 S30
; Layer C00
G1Y26.52
G1X16.45
G1X16.41Y26.5
G1X16.37Y26.44
G1X16.36Y26.41
G1Y26.39
G1X16.38
G1X16.42Y26.43
G1X16.47Y26.47
G1X16.49Y26.5
M5
G0X16.52Y26.46
M3 S30
; Layer C00
G1X16.45Y26.38
G1X16.36Y26.35
G1X16.29
G1X16.27Y26.36
G1Y26.4
G1X16.37Y26.59
G1X16.39Y26.64
G1X16.37Y26.66
G1X16.32Y26.65
G1X16.29
G1X16.27Y26.67
G1Y26.73
G1Y26.82
G1X16.28Y27.01
G1X16.24Y26.82
G1X16.22Y26.72
G1X16.19Y26.65
G1X16.18Y26.61
G1X16.16
G1X16.15Y26.63
G1X16.13Y26.68
G1Y26.77
G1X16.12Y27.03
G1Y27.1
G1X16.1Y27.11
G1X16.08Y27.06
G1X16.04Y26.91
G1X16Y27.06
G1X15.99Y27.21
G1Y27.39
G1X16.03Y27.57
G1X16.09Y27.76
G1X16.15Y27.9
G1X16.19Y27.77
G1X16.24Y27.65
G1X16.3Y27.55
G1X16.35Y27.51
G1X16.44Y27.45
G1X16.57Y27.39
G1X16.7Y27.33
G1X17Y27.18
G1X17.27Y27.02
G1X17.47Y26.86
G1X17.61Y26.7
G1X17.68Y26.58
G1X17.71Y26.51
G1X17.69
G1X17.62Y26.49
G1X17.53Y26.47
G1X17.41Y26.46
G1X17.26Y26.44
G1X17.06Y26.42
G1X17
G1X16.95Y26.39
G1Y26.37
G1Y26.34
G1X16.9Y26.33
G1X16.86
G1X16.84Y26.35
G1Y26.38
G1X16.87Y26.44
G1X16.9Y26.5
G1Y26.52
G1X16.88Y26.5
G1X16.82Y26.43
G1X16.75Y26.36
G1X16.72Y26.35
G1Y26.4
G1X16.76Y26.51
G1X16.82Y26.65
G1X16.7Y26.55
G1X16.63Y26.5
G1Y26.51
G1Y26.56
G1X16.62Y26.58
G1X16.57Y26.54
G1X16.52Y26.46
M5
G0X15.02Y26.96
M3 S30
; Layer C00
G1X15.07Y27.03
G1X15.26Y27.34
G1X15.35Y27.47
G1X15.38Y27.52
G1Y27.56
G1X15.35
G1X15.3Y27.5
G1X15.24Y27.41
G1X15.16Y27.3
G1X15.09Y27.18
G1X15.03Y27.07
G1X14.99Y26.98
G1X14.97Y26.93
G1X14.98
G1X15.02Y26.96
M5
G0X14.38Y26.36
M3 S30
; Layer C00
G1X14.68Y26.15
G1X14.94Y25.93
G1X14.8Y25.9
G1X14.66
G1X14.37Y26.01
G1X14.22Y26.03
G1X14.12
G1X14.07Y26.07
G1X14.02Y26.09
G1X13.76Y26.1
G1X13.7Y26.13
G1X13.68Y26.16
G1X13.63Y26.18
G1X13.57Y26.19
G1X13.52Y26.24
G1Y26.2
G1Y26.13
G1X13.53Y25.9
G1Y25.83
G1X13.52Y25.8
G1X13.5Y25.82
G1X13.46Y25.91
G1X13.44Y26.01
G1X13.43Y26.1
G1X13.39Y26.15
G1X13.36Y26.14
G1Y26.07
G1X13.39Y25.94
G1X13.45Y25.78
G1X13.48Y25.67
G1X13.47Y25.64
G1X13.42Y25.68
G1X13.36Y25.79
G1X13.31Y25.98
G1X13.28Y26.19
G1X13.27Y26.43
G1X13.19Y26.91
G1Y27.05
G1X13.24Y27.11
G1X13.31Y27.08
G1X13.37Y27.02
G1X13.39Y26.97
G1X13.43Y26.87
G1X13.56Y26.76
G1X13.76Y26.64
G1X14.02Y26.53
G1X14.38Y26.36
M5
G0X12.99Y26.78
M3 S30
; Layer C00
G1Y26.8
G1X12.94Y26.86
G1X12.86Y26.91
G1X12.79Y26.93
G1Y26.91
G1X12.84Y26.86
G1X12.93Y26.8
G1X12.99Y26.78
M5
G0X11.96Y26.79
M3 S30
; Layer C00
G1X11.94Y26.75
G1X11.89Y26.74
G1X11.79Y26.75
G1X11.28Y26.83
G1X10.98Y26.88
G1X10.75Y26.93
G1X10.65Y26.95
G1X10.49Y26.97
G1X10.32
G1X10.13Y26.98
G1X9.8Y26.96
G1X9.53Y26.9
G1X9.34Y26.8
G1X9.22Y26.67
G1X9.19Y26.61
G1Y26.59
G1X9.23Y26.62
G1X9.31Y26.69
G1X9.46Y26.8
G1X9.61Y26.88
G1X9.69Y26.9
G1X9.81Y26.91
G1X9.95Y26.92
G1X10.11
G1X10.42
G1X10.65Y26.88
G1X10.58Y26.86
G1X10.44
G1X9.99Y26.85
G1X9.81Y26.84
G1X9.7Y26.82
G1X9.64Y26.78
G1X9.6Y26.75
G1Y26.73
G1X9.62
G1X9.67Y26.76
G1X9.83Y26.79
G1X10.07Y26.81
G1X10.36Y26.83
G1X10.04Y26.68
G1X9.92Y26.62
G1X9.83Y26.57
G1X9.78Y26.54
G1Y26.53
G1X9.8Y26.52
G1X9.77Y26.49
G1X9.62Y26.29
G1X9.54Y26.04
G1Y26
G1X9.56
G1X9.58Y26.01
G1X9.63Y26.07
G1X9.78Y26.21
G1X10.02Y26.32
G1X10.3Y26.4
G1X10.61Y26.43
G1X10.73
G1X10.83Y26.41
G1X10.9
G1X10.95Y26.38
G1X10.97Y26.37
G1X10.95Y26.35
G1X10.9Y26.33
G1X10.78Y26.3
G1X10.83
G1X11
G1X11.06
G1X11.08Y26.29
G1X11.06Y26.27
G1X10.98Y26.24
G1X10.88Y26.22
G1X10.84
G1X10.82Y26.21
G1X10.85Y26.2
G1X10.91Y26.18
G1X10.98Y26.15
G1Y26.13
G1X10.89Y26.09
G1X10.79Y26.02
G1X10.73Y25.95
G1Y25.92
G1X10.78Y25.93
G1X10.83Y25.96
G1X10.9Y25.99
G1X11.02
G1X11.13
G1X11.17Y25.96
G1X11.22Y25.93
G1X11.32Y25.92
G1X11.45Y25.9
G1X11.57Y25.87
G1X11.61Y25.85
G1Y25.84
G1X11.57Y25.83
G1X11.48
G1X11.33Y25.81
G1X11.26Y25.77
G1X11.3Y25.72
G1X11.42Y25.65
G1X11.52Y25.61
G1X11.55Y25.59
G1X11.54
G1X11.47
G1X11.37Y25.6
G1X11.36Y25.57
G1X11.43Y25.54
G1X11.55Y25.52
G1X11.69Y25.51
G1X11.81Y25.47
G1X11.87Y25.42
G1X11.88Y25.37
G1X11.84Y25.34
G1X11.76
G1X11.58Y25.38
G1X11.47Y25.4
G1X11.41
G1Y25.37
G1X11.47Y25.33
G1X11.56Y25.32
G1X11.62
G1X11.64Y25.31
G1X11.63Y25.3
G1X11.52Y25.25
G1X11.5Y25.24
G1X11.53Y25.22
G1X11.6Y25.2
G1X11.68Y25.17
G1Y25.14
G1X11.61
G1X11.48Y25.16
G1X11.36Y25.2
G1X11.29
G1X11.3Y25.19
G1X11.35Y25.16
G1X11.41Y25.13
G1X11.63Y25.06
G1X11.68Y25.03
G1X11.67Y25.01
G1X11.6Y24.98
G1X11.5Y24.93
G1X11.47Y24.89
G1X11.46Y24.82
G1X11.42Y24.73
G1X11.37Y24.62
G1X11.21Y24.74
G1X11.09Y24.81
G1X10.89Y24.92
G1X10.63Y25.05
G1X10.35Y25.19
G1X10Y25.36
G1X9.73Y25.52
G1X9.51Y25.67
G1X9.3Y25.84
G1X9.17Y25.96
G1X9.07Y26.07
G1X8.99Y26.17
G1X8.93Y26.27
G1X8.89Y26.45
G1X8.93Y26.65
G1X9.01Y26.81
G1X9.11Y26.94
G1X9.24Y27.05
G1X9.41Y27.14
G1X9.61Y27.2
G1X9.89Y27.23
G1X10.08Y27.22
G1X10.32Y27.2
G1X10.62Y27.17
G1X10.99Y27.13
G1X11.34Y27.09
G1X11.93Y27.03
G1X11.95Y26.99
G1X11.96Y26.88
G1Y26.79
M5
G0X11.46Y26.01
M3 S30
; Layer C00
G1Y25.99
G1X11.38Y25.98
G1X11.32Y25.99
G1Y26.01
G1X11.38
G1X11.46
M5
G0X12.82Y25.5
M3 S30
; Layer C00
G1X13.02Y25.57
G1X13.28Y25.61
G1X13.31
G1X13.26Y25.57
G1X13.11Y25.53
G1X12.96Y25.5
G1X12.85Y25.48
G1X12.82Y25.5
M5
G0X11.34Y24.5
M3 S30
; Layer C00
G1X11.69Y24.23
G1X12.05Y23.96
G1X12.15Y23.88
G1X12.28Y23.79
G1X12.65Y23.53
G1X13.09Y23.23
G1X14.04Y22.59
G1X14.44Y22.32
G1X14.79Y22.08
G1X15.09Y21.86
G1X15.59Y21.49
G1X15.99Y21.14
G1X16.35Y20.82
G1X15.39Y20.66
G1X15.26Y20.64
G1X15.17
G1X15.04
G1X14.89Y20.69
G1X14.77Y20.75
G1X14.6Y20.86
G1X14.39Y21.04
G1X13.83Y21.53
G1X13.59Y21.72
G1X13.35Y21.88
G1X13.09Y22.01
G1X12.82Y22.15
G1X12.63Y22.28
G1X12.47Y22.44
G1X12.08Y22.88
G1X11.92Y23.04
G1X11.76Y23.15
G1X11.59Y23.26
G1X11.3Y23.41
G1X11.08Y23.55
G1X10.99Y23.63
G1X10.87Y23.75
G1X10.73Y23.9
G1X10.58Y24.07
G1X10.25Y24.47
G1X9.95Y24.87
G1X9.79Y25.08
G1X9.68Y25.24
G1X9.62Y25.34
G1Y25.38
G1X9.68
G1X9.8Y25.33
G1X9.99Y25.24
G1X10.26Y25.11
G1X10.57Y24.95
G1X10.88Y24.79
G1X11.15Y24.63
G1X11.34Y24.5
M5
G0X11.04Y22.85
M3 S30
; Layer C00
G1Y22.83
G1Y22.8
G1X11.07Y22.74
G1X11.33Y22.12
G1X11.51Y21.67
G1X11.65Y21.25
G1X11.74Y20.85
G1X11.79Y20.47
G1X11.81Y20.32
G1X11.83Y20.18
G1X11.86Y20.09
G1X11.88Y20.04
G1X11.94Y20.01
G1X12.05Y19.96
G1X12.2Y19.9
G1X12.37Y19.84
G1X12.79Y19.69
G1X13.27Y19.95
G1X13.48Y20.06
G1X13.62Y20.15
G1X13.7Y20.22
G1Y20.26
G1Y20.32
G1X13.74Y20.41
G1X13.79Y20.5
G1X13.81Y20.58
G1Y20.6
G1X13.78Y20.59
G1X13.74Y20.55
G1X13.69Y20.49
G1X13.58Y20.31
G1X13.55Y20.46
G1X13.51Y20.55
G1X13.46Y20.62
G1X13.41Y20.64
G1X13.39Y20.59
G1X13.41Y20.56
G1X13.49Y20.58
G1X13.45Y20.52
G1X13.38Y20.46
G1X13.31Y20.44
G1X13.23Y20.4
G1X13.12Y20.31
G1X13.02Y20.22
G1X12.96Y20.19
G1X12.95Y20.23
G1X12.99Y20.33
G1X13.05Y20.46
G1X13.07Y20.52
G1X13.04Y20.5
G1X12.96Y20.39
G1X12.88Y20.28
G1X12.83Y20.25
G1Y20.28
G1Y20.34
G1X12.84Y20.43
G1X12.86Y20.53
G1X12.9Y20.73
G1Y20.85
G1X12.88
G1X12.86Y20.79
G1Y20.74
G1X12.85Y20.71
G1X12.83
G1X12.81Y20.74
G1X12.77Y20.84
G1X12.71Y21.1
G1X12.69Y21.15
G1X12.67Y21.16
G1X12.63Y21.15
G1X12.59Y21.06
G1X12.57Y20.94
G1X12.55Y20.8
G1X12.51Y20.65
G1X12.49Y20.59
G1X12.47
G1X12.46Y20.68
G1X12.44Y20.84
G1X12.4Y21.17
G1X12.38Y20.46
G1X12.3Y20.66
G1X12.23Y20.91
G1X12.18Y21.22
G1X12.14Y21.57
G1Y21.27
G1X12.13Y21.16
G1X12.12Y21.07
G1X12.11Y21.01
G1X12.1Y21
G1X12.08Y21.04
G1X12.05Y21.14
G1X12.01Y21.28
G1X11.94Y21.55
G1X11.9Y21.69
G1X11.89Y21.72
G1X11.88
G1X11.9Y21.52
G1Y21.45
G1Y21.42
G1X11.88
G1X11.86Y21.46
G1X11.83Y21.53
G1X11.79Y21.65
G1X11.74Y21.79
G1X11.69Y21.93
G1X11.64Y22.05
G1X11.6Y22.12
G1X11.58Y22.15
G1X11.52Y22.16
G1X11.48Y22.21
G1X11.46Y22.29
G1Y22.37
G1X11.47Y22.43
G1X11.46Y22.41
G1X11.43Y22.4
G1X11.39Y22.42
G1X11.33Y22.49
G1X11.25Y22.6
G1X11.18Y22.69
G1X11.13Y22.76
G1X11.08Y22.81
G1X11.05Y22.84
G1X11.04
M5
G0X11.71Y22.5
M3 S30
; Layer C00
G1Y22.48
G1Y22.42
G1Y22.33
G1X11.75Y22.27
G1X11.79
G1X11.8Y22.28
G1X11.79Y22.34
G1X11.75Y22.42
G1X11.73Y22.48
G1X11.71Y22.5
M5
G0X11.82Y22.12
M3 S30
; Layer C00
G1Y22.05
G1Y21.98
G1X11.84
G1X11.85Y22.05
G1Y22.11
G1X11.82
M5
G0X12.03Y21.98
M3 S30
; Layer C00
G1Y21.92
G1Y21.86
G1X12.05Y21.89
G1X12.06Y21.94
G1X12.05Y21.98
G1X12.03
M5
G0X12.09Y21.77
M3 S30
; Layer C00
G1X12.08Y21.69
G1Y21.62
G1X12.11Y21.63
G1Y21.69
G1Y21.76
G1X12.09
M5
G0X12.34Y21.44
M3 S30
; Layer C00
G1Y21.42
G1Y21.38
G1Y21.31
G1X12.39Y21.27
G1X12.42Y21.26
G1X12.44Y21.28
G1X12.42Y21.33
G1X12.39Y21.39
G1X12.36Y21.43
G1X12.34Y21.44
M5
G0X13.15Y20.83
M3 S30
; Layer C00
G1X13.11Y20.81
G1X13.08Y20.76
G1Y20.69
G1Y20.66
G1Y20.65
G1X13.1Y20.66
G1X13.13Y20.7
G1X13.16Y20.77
G1Y20.81
G1X13.15Y20.83
M5
G0X13.76Y20.34
M3 S30
; Layer C00
G1X13.72Y20.31
G1X13.71Y20.3
G1X13.72Y20.29
G1X13.77
G1X13.84Y20.3
G1X13.89Y20.34
G1X13.9Y20.37
G1X13.88Y20.38
G1X13.83
G1X13.76Y20.34
M5
G0X14.03Y20.41
M3 S30
; Layer C00
G1X14.07
G1X14.13Y20.46
G1X14.17Y20.51
G1Y20.53
G1X14.14
G1X14.08Y20.49
G1X14.03Y20.45
G1Y20.41
M5
G0X14.4Y20.37
M3 S30
; Layer C00
G1X13.88Y20.14
G1X13.36Y19.87
G1X13.17Y19.76
G1X13.02Y19.68
G1X12.89Y19.63
G1X12.78Y19.61
G1X12.65Y19.63
G1X12.49Y19.67
G1X12.29Y19.74
G1X11.61Y19.99
G1X11.58Y20.35
G1X11.57Y20.46
G1X11.54Y20.6
G1X11.5Y20.79
G1X11.45Y21.01
G1X11.32Y21.54
G1X11.15Y22.15
G1X11.07Y22.44
G1X10.78Y23.49
G1X10.75Y23.62
G1X10.77
G1X10.82Y23.6
G1X10.9Y23.55
G1X10.99Y23.48
G1X11.25Y23.31
G1X11.55Y23.15
G1X11.72Y23.05
G1X11.87Y22.93
G1X12.03Y22.78
G1X12.41Y22.33
G1X12.57Y22.18
G1X12.75Y22.06
G1X13.01Y21.94
G1X13.26Y21.81
G1X13.49Y21.67
G1X13.6Y21.59
G1X13.72Y21.48
G1X13.86Y21.36
G1X14.03Y21.21
G1X14.26Y21
G1X14.47Y20.82
G1X14.64Y20.69
G1X14.75Y20.62
G1X14.91Y20.56
G1X14.4Y20.37
M5
G0X12.37Y18.51
M3 S30
; Layer C00
G1X12.33Y18.52
G1X12.3Y18.51
G1Y18.47
G1X12.35Y18.44
G1X12.39Y18.42
G1X12.42Y18.44
G1Y18.47
G1X12.37Y18.51
M5
G0X12.54Y18.27
M3 S30
; Layer C00
G1X12.51Y18.26
G1Y18.22
G1X12.55Y18.19
G1X12.57Y18.17
G1X12.59Y18.19
G1Y18.22
G1Y18.26
G1X12.54Y18.27
M5
G0X13.46Y17.37
M3 S30
; Layer C00
G1X13.45Y17.34
G1Y17.29
G1Y17.24
G1X13.49Y17.21
G1X13.52Y17.24
G1Y17.29
G1X13.49Y17.34
G1X13.46Y17.37
M5
G0X14.44Y17.47
M3 S30
; Layer C00
G1X14.46Y17.43
G1X14.49Y17.39
G1X14.52
G1Y17.44
G1X14.49Y17.49
G1X14.47Y17.51
G1X14.45
G1Y17.47
M5
G0X14.56Y17.3
M3 S30
; Layer C00
G1X14.55Y17.27
G1X14.56Y17.23
G1X14.6Y17.19
G1X14.64
G1X14.65Y17.21
G1X14.64Y17.25
G1X14.6Y17.29
G1X14.56
M5
G0X14.71Y16.96
M3 S30
; Layer C00
G1X14.68Y16.94
G1Y16.89
G1X14.71Y16.83
G1X14.74Y16.81
G1X14.75Y16.83
G1Y16.89
G1Y16.94
G1X14.71Y16.96
M5
G0X15.04Y16.77
M3 S30
; Layer C00
G1Y16.69
G1Y16.63
G1Y16.61
G1X15.06Y16.62
G1Y16.71
G1Y16.78
G1X15.04
M5
G0X15.12Y16.41
M3 S30
; Layer C00
G1X15.1Y16.37
G1X15.13Y16.28
G1X15.26Y16.01
G1X15.41Y15.76
G1X15.58Y15.56
G1X15.73Y15.44
G1X15.75
G1X15.73Y15.48
G1X15.68Y15.55
G1X15.59Y15.65
G1X15.39Y15.91
G1X15.25Y16.16
G1X15.21Y16.26
G1X15.17Y16.34
G1X15.14Y16.39
G1X15.12Y16.41
M5
G0X13.49Y16.51
M3 S30
; Layer C00
G1Y16.53
G1X13.45Y16.57
G1X13.4Y16.62
G1X13.37Y16.65
G1X13.34Y16.66
G1Y16.64
G1X13.36Y16.61
G1X13.43Y16.55
G1X13.48Y16.52
G1X13.49Y16.51
M5
G0X12.4Y16.29
M3 S30
; Layer C00
G1X12.27Y16.57
G1X11.99Y17.22
G1X11.55Y18.23
G1X11.3Y18.83
G1X11.21Y19.05
G1Y19.08
G1X11.24Y19.06
G1X11.66Y18.88
G1X11.81Y18.81
G1X12Y18.74
G1X12.46Y18.55
G1X13Y18.34
G1X13.58Y18.12
G1X14.15Y17.91
G1X14.66Y17.72
G1X15.08Y17.58
G1X15.24Y17.52
G1X15.37Y17.48
G1X15.65Y17.41
G1X15.9Y17.37
G1X16.05Y17.36
G1X16.23Y17.35
G1X16.44
G1X16.96
G1X17.18
G1X17.35
G1X17.5Y17.36
G1X17.76Y17.4
G1X18.33Y17.53
G1X18.59Y17.56
G1X18.79
G1X18.94Y17.51
G1X19.03Y17.45
G1X19.18Y17.32
G1X19.37Y17.15
G1X19.81Y16.73
G1X20.02Y16.53
G1X20.21Y16.36
G1X20.47Y16.13
G1X20.53Y16.04
G1X20.55Y15.95
G1Y15.81
G1X20.51Y15.57
G1X20.42Y15.14
G1X20.41Y15.04
G1X20.43Y14.95
G1X20.47Y14.85
G1X20.52Y14.72
G1X20.49Y14.63
G1X20.44Y14.58
G1X20.35Y14.53
G1X20.22Y14.47
G1X20.05Y14.39
G1X19.69Y14.25
G1X19.3Y14.16
G1X19.08Y14.13
G1X18.84Y14.11
G1X18.58Y14.1
G1X17.93Y14.09
G1X17.61Y14.07
G1X17.33Y14.04
G1X17.05Y13.99
G1X16.63Y13.92
G1X16.25
G1X15.87Y13.95
G1X15.44Y14.05
G1X15.04Y14.18
G1X14.69Y14.34
G1X14.38Y14.54
G1X14.08Y14.79
G1X13.7Y15.12
G1X13.27Y15.42
G1X12.96Y15.63
G1X12.73Y15.82
G1X12.57Y16.01
G1X12.43Y16.23
G1X12.4Y16.29
M5
G0X11.9Y16.23
M3 S30
; Layer C00
G1X11.86Y16.21
G1X11.8Y16.22
G1X11.77Y16.24
G1X11.83Y16.25
G1X11.89
G1Y16.23
M5
G0X11.55Y16.08
M3 S30
; Layer C00
G1X11.68Y15.88
G1X11.77Y15.73
G1X11.8Y15.68
G1Y15.66
G1X11.73Y15.59
G1X11.59Y15.55
G1X11.57Y15.57
G1X11.54Y15.61
G1X11.49Y15.67
G1X11.42Y15.75
G1X11.26Y15.96
G1X11.08Y16.22
G1X10.77Y16.66
G1X10.66Y16.82
G1X10.59Y16.94
G1X10.54Y17.03
G1X10.51Y17.08
G1Y17.11
G1X10.52
G1X10.77Y17.01
G1X10.89Y16.95
G1X11.01Y16.84
G1X11.08Y16.76
G1X11.16Y16.64
G1X11.27Y16.5
G1X11.39Y16.32
G1X11.55Y16.08
M5
G0X12Y15.89
M3 S30
; Layer C00
G1X12.07
G1X12.14
G1Y15.87
G1X12.07
G1X12
G1Y15.89
M5
G0X12.25Y15.59
M3 S30
; Layer C00
G1X12.39
G1X12.47Y15.55
G1X12.44Y15.52
G1X12.34Y15.5
G1X12.21Y15.48
G1X12.14Y15.42
G1X12.1Y15.38
G1X12.03
G1X11.95Y15.37
G1X11.88Y15.32
G1X11.83Y15.27
G1X11.74Y15.24
G1X11.59Y15.23
G1X11.36
G1X11.11
G1X11.04
G1X10.99Y15.21
G1X10.97Y15.19
G1X11.08Y15.1
G1X11.06Y15.07
G1X11.02Y15.06
G1X10.96Y15.05
G1X10.73Y15.03
G1X10.57Y15.02
G1X10.43Y15.01
G1X10.34
G1X10.29Y15.02
G1X10.33Y15.04
G1X10.46Y15.05
G1X10.67
G1X10.43Y15.29
G1X10.9Y15.31
G1X11.34Y15.37
G1X11.75Y15.47
G1X12.04Y15.55
G1X12.25Y15.59
M5
G0X12.3Y15.43
M3 S30
; Layer C00
G1X12.34
G1X12.41Y15.44
G1X12.49
G1X12.53
G1X12.55Y15.43
G1X12.53Y15.42
G1X12.43Y15.41
G1X12.32
G1X12.29Y15.43
M5
G0X12.28Y14.95
M3 S30
; Layer C00
G1X12.24Y14.93
G1X12.23Y14.9
G1X12.24Y14.86
G1X12.28Y14.85
G1X12.32Y14.86
G1X12.33Y14.9
G1X12.32Y14.93
G1X12.28Y14.95
M5
G0X12.19Y15
M3 S30
; Layer C00
G1X12.4Y14.98
G1X12.59Y14.95
G1X12.73Y14.92
G1X13.06Y14.85
G1X13.47Y14.8
G1X13.94Y14.76
G1X13.51
G1X13.32
G1X13.14Y14.77
G1X12.98Y14.79
G1X12.86Y14.82
G1X12.67Y14.88
G1X12.52Y14.9
G1X12.51Y14.89
G1X12.55Y14.86
G1X12.63Y14.83
G1X12.76Y14.79
G1X13.13Y14.72
G1X13.55Y14.69
G1X13.79
G1X13.86
G1X13.9Y14.68
G1X13.91Y14.65
G1X13.84Y14.62
G1X13.65Y14.57
G1X13.45Y14.55
G1X13.24Y14.57
G1X12.9Y14.67
G1X12.69Y14.7
G1X12.4Y14.73
G1X12.02Y14.75
G1X11.8
G1X11.61Y14.77
G1X11.45
G1X11.32Y14.79
G1X11.13Y14.83
G1X10.99Y14.88
G1X10.78Y14.97
G1X11.06Y14.99
G1X11.16
G1X11.25Y15.01
G1X11.31Y15.03
G1X11.33Y15.05
