; LightBurn 0.9.24
; GRBL device profile, absolute coords
; Bounds: X1.59 Y1.03 to X33.4 Y20.75
G00 G17 G40 G21 G54
G90
M4
; Cut @ 6000 mm/min, 20% power
M8
M5
G0X2.91Y1.29
M3 S30
; Layer C00
G1X3.03Y1.23S20F6000
G1X3.18Y1.22
G1X3.24Y1.23
G1X3.29Y1.26
G1X3.31Y1.29
G1X3.3Y1.34
G1X3.25Y1.37
G1X3.2
G1X3.17
G1X3.15Y1.42
G1X3.06Y1.67
G1X2.91Y1.89
G1X2.84Y1.97
G1X2.74Y2.13
G1X2.63Y2.32
G1X2.54Y2.49
G1X2.47Y2.62
G1X2.41Y2.67
G1X2.35Y2.74
G1X2.26Y2.88
G1X2.21Y3
G1X2.16Y3.08
G1X2.12Y3.15
G1X2.09Y3.19
G1X2.02Y3.21
G1X1.94Y3.18
G1X1.86Y3.15
G1X1.81Y3.14
G1X1.78
G1Y3.17
G1X1.86Y3.26
G1X2.01Y3.37
G1X2.11Y3.43
G1X2.2Y3.48
G1X2.25Y3.52
G1X2.28Y3.54
G1X2.27Y3.56
G1X2.23Y3.55
G1X2.19Y3.53
G1X1.94Y3.4
G1X1.74Y3.27
G1X1.63Y3.15
G1X1.59Y3.01
G1X1.61Y2.83
G1X1.63Y2.72
G1X1.65Y2.69
G1X1.68Y2.73
G1X1.72Y2.83
G1X1.76Y2.88
G1X1.82Y2.9
G1X1.89
G1X1.98Y2.87
G1X2.12Y2.77
G1X2.19Y2.63
G1X2.3Y2.37
G1X2.5Y2.07
G1X2.54Y1.94
G1X2.59Y1.78
G1X2.66Y1.63
G1X2.76Y1.48
G1X2.91Y1.29
M5
G0X3.33Y1.48
M3 S30
; Layer C00
G1X3.42Y1.44
G1X3.52
G1X3.61Y1.47
G1X3.66Y1.54
G1X3.68Y1.62
G1X3.67Y1.73
G1X3.63Y1.85
G1X3.56Y1.97
G1X3.46Y2.08
G1X3.34Y2.19
G1X3.25Y2.28
G1X3.21Y2.37
G1X3.19Y2.44
G1X3.13Y2.49
G1X3.09Y2.54
G1X3.01Y2.65
G1X2.93Y2.8
G1X2.75Y3.13
G1X2.67Y3.27
G1X2.6Y3.36
G1X2.57Y3.4
G1X2.51
G1X2.44Y3.43
G1X2.36
G1X2.29Y3.41
G1X2.26Y3.37
G1Y3.32
G1X2.29Y3.25
G1X2.37Y3.14
G1X2.42Y3.07
G1X2.47Y3.02
G1X2.49
G1X2.47Y3.14
G1X2.5Y3.2
G1X2.55Y3.18
G1X2.59Y3.09
G1X2.63Y2.99
G1X2.68Y2.95
G1X2.72Y2.9
G1X2.74Y2.78
G1X2.78Y2.61
G1X2.89Y2.43
G1X2.99Y2.26
G1X3.03Y2.12
G1X3.06Y2.03
G1X3.12Y1.97
G1X3.18Y1.92
G1X3.21Y1.86
G1Y1.83
G1X3.25Y1.81
G1X3.3
G1X3.38
G1X3.5Y1.83
G1X3.55Y1.8
G1X3.53Y1.73
G1X3.44Y1.62
G1X3.39Y1.56
G1X3.36Y1.54
G1X3.33
G1Y1.56
G1X3.31Y1.6
G1X3.29
G1X3.27Y1.54
G1X3.33Y1.48
M5
G0X3.78Y3.03
M3 S30
; Layer C00
G1X3.74Y3.05
G1X3.69Y3.1
G1X3.59Y3.23
G1X3.55Y3.32
G1Y3.36
G1X3.59Y3.38
G1X3.63Y3.36
G1Y3.32
G1Y3.3
G1X3.7Y3.34
G1X3.76Y3.42
G1X3.77Y3.52
G1Y3.59
G1X3.8Y3.62
G1X3.85Y3.59
G1X3.95Y3.47
G1X3.96Y3.5
G1X3.99Y3.54
G1X4.03
G1X4.07Y3.52
G1X4.06Y3.56
G1X4.05Y3.63
G1X4.09Y3.68
G1X4.15Y3.72
G1X4.18
G1Y3.71
G1X4.17Y3.65
G1X4.16Y3.59
G1X4.19Y3.54
G1X4.22Y3.48
G1Y3.38
G1Y3.26
G1X4.18Y3.19
G1X4.14
G1X4.08Y3.29
G1X4.05
G1X4Y3.25
G1X3.84Y3.07
G1X3.78Y3.03
M5
G0X4.33Y3.48
M3 S30
; Layer C00
G1X4.3Y3.51
G1X4.26Y3.56
G1X4.23Y3.65
G1X4.25Y3.7
G1X4.31
G1X4.34Y3.68
G1X4.36Y3.62
G1X4.33Y3.52
G1X4.37Y3.53
G1X4.41Y3.59
G1Y3.65
G1Y3.72
G1X4.44Y3.76
G1X4.47Y3.8
G1X4.49Y3.86
G1X4.47Y3.89
G1X4.42Y3.84
G1X4.35Y3.78
G1X4.28Y3.75
G1X4.22
G1X4.2Y3.79
G1X4.18Y3.82
G1X4.13Y3.81
G1X4.09Y3.8
G1X4.11Y3.84
G1X4.15Y3.87
G1X4.21
G1X4.29Y3.85
G1X4.37Y3.87
G1X4.4Y3.91
G1X4.37Y3.96
G1X4.33Y3.99
G1Y4
G1X4.34
G1X4.39
G1X4.47Y3.99
G1X4.52Y4.02
G1X4.57Y4.04
G1X4.7Y3.99
G1X4.75
G1X4.8Y4.03
G1X4.86
G1X4.91Y4.06
G1X4.95Y4.12
G1Y4.15
G1Y4.16
G1X4.93
G1X4.89Y4.15
G1X4.87
G1Y4.16
G1X4.9Y4.2
G1X4.95Y4.26
G1X5.05Y4.36
G1X5.16Y4.43
G1X5.2Y4.45
G1X5.23
G1Y4.43
G1X5.22Y4.39
G1X5.18Y4.37
G1X5.14
G1X5.09
G1X5.06Y4.32
G1Y4.25
G1X5.08Y4.17
G1X5.11Y4.14
G1X5.12Y4.12
G1Y4.14
G1X5.13Y4.17
G1X5.16Y4.21
G1X5.21
G1X5.29Y4.23
G1X5.36Y4.3
G1X5.43Y4.36
G1X5.49Y4.37
G1X5.52
G1Y4.41
G1X5.54Y4.46
G1X5.64Y4.48
G1Y4.53
G1X5.63Y4.6
G1X5.65Y4.64
G1X5.69Y4.65
G1X5.76Y4.62
G1X5.79Y4.59
G1X5.82
G1Y4.6
G1X5.83Y4.64
G1X5.86Y4.69
G1X5.93Y4.71
G1X6Y4.69
G1X6.05Y4.63
G1X6.09Y4.6
G1X6.14
G1X6.18Y4.61
G1X6.09Y4.5
G1X6.07Y4.44
G1X6.08Y4.42
G1X6.17Y4.45
G1X6.15Y4.4
G1X6.13Y4.37
G1X6.1Y4.36
G1X6.08Y4.37
G1X5.99Y4.47
G1X5.94Y4.5
G1X5.91Y4.51
G1X5.89Y4.5
G1X5.9Y4.41
G1X5.97Y4.25
G1X6.03Y4.16
G1X6.06Y4.1
G1Y4.08
G1X5.95Y4.2
G1X5.87Y4.23
G1X5.78Y4.2
G1X5.69Y4.12
G1X5.61Y4.05
G1X5.55Y4.02
G1X5.51
G1X5.48
G1X5.4Y3.99
G1X5.33
G1X5.29
G1Y4.02
G1X5.32Y4.04
G1X5.42
G1X5.45Y4.07
G1Y4.14
G1X5.42Y4.22
G1X5.39Y4.27
G1X5.37Y4.29
G1Y4.27
G1X5.39Y4.22
G1Y4.16
G1X5.37Y4.15
G1X5.32
G1X5.24Y4.09
G1X5.15
G1X5.06Y4.04
G1X5.01
G1X4.97
G1X4.96Y4.02
G1X4.97Y3.96
G1X5.01Y3.93
G1X5.06
G1X5.13Y3.97
G1X5.17Y4
G1X5.19Y4.01
G1Y3.99
G1X5.15Y3.95
G1X5.1Y3.85
G1Y3.75
G1X5.12Y3.7
G1Y3.68
G1Y3.7
G1X5.08Y3.75
G1X5.01Y3.81
G1X4.95
G1X4.88
G1X4.8Y3.85
G1X4.75Y3.89
G1X4.73
G1X4.75Y3.87
G1X4.79Y3.8
G1X4.83Y3.75
G1X4.87Y3.72
G1X4.91
G1X4.96Y3.75
G1X5Y3.78
G1X5.02
G1X5Y3.77
G1X4.97Y3.72
G1X4.91Y3.65
G1X4.86Y3.63
G1X4.81Y3.69
G1X4.72Y3.82
G1X4.63Y3.93
G1X4.55Y3.98
G1X4.52
G1Y3.95
G1Y3.91
G1X4.55Y3.85
G1X4.57Y3.76
G1X4.55Y3.68
G1X4.52Y3.6
G1X4.53Y3.54
G1X4.54Y3.51
G1X4.52Y3.52
G1X4.47Y3.53
G1X4.4Y3.51
G1X4.36Y3.48
G1X4.33
M5
G0X6.13Y4.67
M3 S30
; Layer C00
G1X6.04Y4.76
G1Y4.84
G1X6.06Y4.87
G1X6.1
G1X6.15Y4.84
G1X6.31Y4.71
G1X6.35
G1X6.36Y4.75
G1Y4.8
G1X6.37Y4.89
G1Y5
G1Y5.1
G1X6.41Y5.16
G1X6.46Y5.19
G1X6.54
G1X6.61Y5.23
G1X6.71Y5.35
G1X6.81Y5.46
G1X6.88Y5.49
G1X6.93
G1X7.01Y5.55
G1X7.1Y5.54
G1X7.15Y5.57
G1X7.18Y5.61
G1X7.21Y5.62
G1X7.23Y5.61
G1X7.27Y5.56
G1X7.28Y5.53
G1X7.25
G1X7.19Y5.54
G1X7.15Y5.52
G1Y5.48
G1X7.17Y5.46
G1X7.23Y5.45
G1X7.3
G1X7.32Y5.43
G1X7.31Y5.37
G1X7.3Y5.31
G1X7.33
G1X7.36Y5.28
G1X7.38Y5.18
G1X7.37Y5.07
G1X7.33Y5.03
G1X7.28Y5.02
G1X7.25Y4.96
G1X7.24Y4.93
G1Y4.92
G1X7.26
G1X7.34Y4.95
G1Y4.93
G1X7.3Y4.89
G1X7.22Y4.83
G1X7.13Y4.82
G1X7.04
G1X6.96Y4.78
G1X6.9Y4.75
G1X6.88Y4.76
G1X6.84
G1X6.75Y4.7
G1X6.68Y4.64
G1X6.65Y4.62
G1X6.66Y4.64
G1X6.72Y4.71
G1X6.77Y4.81
G1X6.78Y4.9
G1Y4.94
G1X6.8Y4.93
G1X6.84Y4.89
G1X6.91Y4.83
G1X6.97
G1X7.02Y4.86
G1X7.07Y4.87
G1X7.13Y4.9
G1X7.16Y4.95
G1Y5
G1X7.13
G1X7.05Y5.03
G1X6.95Y5.16
G1X6.87Y5.31
G1Y5.42
G1Y5.46
G1X6.82Y5.42
G1X6.79Y5.38
G1X6.78Y5.35
G1Y5.31
G1X6.82Y5.27
G1X6.86Y5.19
G1Y5.12
G1X6.84Y5.08
G1X6.88Y5.1
G1X6.91Y5.11
G1X6.93
G1Y5.09
G1Y5.06
G1X6.89Y5.01
G1X6.82Y4.99
G1X6.76Y4.96
G1X6.74Y4.9
G1X6.72Y4.81
G1X6.68Y4.74
G1X6.61Y4.71
G1X6.53
G1X6.48
G1X6.45
G1Y4.69
G1X6.47Y4.63
G1X6.45
G1X6.39Y4.65
G1X6.33Y4.63
G1X6.24Y4.62
G1X6.13Y4.67
M5
G0X7.57Y5.25
M3 S30
; Layer C00
G1X7.5Y5.33
G1X7.42Y5.43
G1X7.27Y5.7
G1X7.13Y6.01
G1X7.03Y6.33
G1X6.96Y6.63
G1X6.94Y6.76
G1Y6.87
G1X6.96Y6.96
G1X7Y7.02
G1X7.11Y7.1
G1X7.18Y7.13
G1X7.21Y7.11
G1X7.16Y7.03
G1X7.09Y6.93
G1X7.05Y6.82
G1Y6.72
G1X7.09Y6.67
G1X7.16Y6.6
G1X7.25Y6.46
G1X7.32Y6.3
G1X7.35Y6.18
G1X7.38Y6.09
G1X7.44Y6.02
G1X7.5Y5.93
G1X7.54Y5.73
G1X7.58Y5.61
G1X7.65Y5.47
G1X7.82Y5.16
G1X7.87Y5.06
G1Y5
G1X7.85Y4.98
G1X7.8Y4.99
G1Y5.02
G1Y5.06
G1X7.76
G1X7.72Y5.09
G1Y5.12
G1X7.74Y5.16
G1X7.71Y5.18
G1X7.64Y5.2
G1X7.57Y5.25
M5
G0X8.47Y5.65
M3 S30
; Layer C00
G1Y5.67
G1X8.54Y5.64
G1X8.56
G1Y5.66
G1Y5.69
G1X8.52Y5.74
G1X8.47Y5.75
G1X8.43Y5.77
G1X8.44Y5.83
G1X8.45Y5.89
G1X8.36Y5.88
G1X8.31Y5.91
G1X8.29Y5.95
G1X8.34Y5.93
G1X8.37Y5.92
G1X8.39
G1Y5.94
G1Y5.97
G1X8.35Y6.02
G1X8.29Y6.03
G1X8.26Y6.05
G1Y6.16
G1X8.22Y6.17
G1X8.16Y6.19
G1Y6.26
G1Y6.32
G1X8.11
G1X8.08
G1X8.1Y6.44
G1X8.07Y6.45
G1X8Y6.48
G1X7.9Y6.56
G1X7.82Y6.65
G1X7.8Y6.71
G1Y6.73
G1X7.77Y6.74
G1X7.73Y6.77
G1X7.66Y6.84
G1X7.59Y6.94
G1X7.51Y7.06
G1X7.43Y7.18
G1X7.37Y7.29
G1X7.34Y7.38
G1Y7.43
G1X7.35
G1X7.39Y7.41
G1X7.43Y7.37
G1X7.48Y7.3
G1X7.58Y7.19
G1X7.65Y7.16
G1X7.68Y7.2
G1X7.7Y7.26
G1X7.68Y7.29
G1X7.66Y7.25
G1X7.64Y7.21
G1X7.62
G1X7.61
G1X7.58Y7.24
G1X7.54Y7.35
G1X7.57Y7.4
G1X7.64Y7.38
G1X7.73Y7.29
G1X7.88Y7.05
G1X8.01Y6.86
G1X8.05Y6.79
G1X8.08Y6.73
G1Y6.7
G1Y6.68
G1X8.06Y6.7
G1X8.02Y6.76
G1X7.96Y6.84
G1X7.84Y7.03
G1X7.78Y7.11
G1X7.74Y7.16
G1X7.72
G1Y7.14
G1X7.75Y7.07
G1X7.81Y6.98
G1X7.94Y6.76
G1X7.99Y6.66
G1X8.02Y6.59
G1Y6.54
G1X8.03Y6.5
G1X8.09Y6.48
G1X8.14Y6.5
G1Y6.55
G1X8.13Y6.62
G1X8.14
G1X8.18Y6.59
G1X8.23Y6.51
G1X8.26Y6.46
G1Y6.43
G1Y6.42
G1X8.23Y6.43
G1X8.18Y6.45
G1X8.17Y6.41
G1X8.2Y6.35
G1X8.26Y6.26
G1X8.31Y6.2
G1X8.33Y6.18
G1Y6.2
G1X8.3Y6.33
G1Y6.35
G1X8.32Y6.33
G1X8.37Y6.27
G1X8.47Y6.14
G1X8.53Y6.04
G1X8.55Y5.99
G1X8.52
G1X8.47Y6
G1Y5.97
G1X8.5Y5.89
G1X8.58Y5.76
G1X8.63Y5.65
G1Y5.59
G1X8.57
G1X8.47Y5.65
M5
G0X8.9Y6.12
M3 S30
; Layer C00
G1X8.38Y6.95
G1X8.16Y7.29
G1X7.99Y7.56
G1X7.87Y7.74
G1X7.83Y7.8
G1X7.8Y7.83
G1X7.76Y7.85
G1X7.77Y7.83
G1X10.25Y3.74
G1X10.85Y2.77
G1X10.9Y2.69
G1X10.95Y2.63
G1X10.99Y2.59
G1X11.01
G1Y2.61
G1X10.98Y2.65
G1X10.89Y2.82
G1X10.75Y3.07
G1X10.55Y3.4
G1X10.06Y4.23
G1X9.48Y5.17
G1X8.9Y6.12
M5
G0X8.58Y6.08
M3 S30
; Layer C00
G1X8.48Y6.24
G1X8.34Y6.45
G1X8Y6.96
G1X7.88Y7.14
G1X7.78Y7.27
G1X7.71Y7.37
G1X7.65Y7.43
G1X7.6Y7.46
G1X7.57
G1X7.54
G1X7.49Y7.42
G1X7.47
G1X7.48Y7.44
G1X7.54Y7.55
G1Y7.59
G1Y7.61
G1X7.5
G1X7.45Y7.6
G1Y7.56
G1Y7.53
G1X7.41Y7.54
G1X7.37Y7.6
G1Y7.73
G1X7.34Y7.78
G1X7.3
G1X7.32Y7.74
G1Y7.71
G1X7.28Y7.76
G1X7.2Y7.81
G1X7.15
G1X7.13
G1X7.15Y7.88
G1X7.17Y7.95
G1X7.13
G1X7.05
G1X6.95Y8.05
G1X6.85Y8.2
G1X6.76Y8.39
G1X6.69Y8.6
G1X6.66Y8.79
G1Y8.95
G1X6.71Y9.04
G1X6.78Y9.11
G1Y9.15
G1X6.77Y9.18
G1X6.78Y9.19
G1X6.82
G1X6.87
G1X7Y9.15
G1X7.11Y9.09
G1X7.15Y9.04
G1X7.23Y8.93
G1X7.35Y8.75
G1X7.5Y8.52
G1X7.9Y7.91
G1X8.39Y7.15
G1X9.53Y5.36
G1X10.7Y3.49
G1X10.83Y3.28
G1X10.93Y3.1
G1X11Y2.94
G1X11.04Y2.81
G1X11.06Y2.7
G1X11.05Y2.61
G1X11.01Y2.53
G1X10.95Y2.47
G1X10.89Y2.42
G1X10.86Y2.41
G1Y2.42
G1X10.93Y2.51
G1X10.94Y2.54
G1X10.93Y2.56
G1X10.89Y2.57
G1X10.85Y2.61
G1X10.77Y2.71
G1X10.66Y2.86
G1X10.53Y3.06
G1X10.36Y3.3
G1X10.18Y3.58
G1X9.99Y3.88
G1X9.58Y4.53
G1X9.38Y4.83
G1X9.2Y5.11
G1X9.05Y5.35
G1X8.91Y5.54
G1X8.81Y5.69
G1X8.74Y5.79
G1X8.7Y5.82
G1X8.65Y5.84
G1X8.59Y5.87
G1Y5.9
G1X8.62Y5.88
G1X8.66Y5.86
G1X8.68
G1Y5.9
G1X8.64Y5.97
G1X8.58Y6.08
M5
G0X8.91Y6.51
M3 S30
; Layer C00
G1X8.83Y6.59
G1X8.75Y6.74
G1X8.72Y6.87
G1X8.74Y6.98
G1X8.79Y7.05
G1X8.87
G1X8.92
G1X8.98Y7.1
G1X9.04Y7.15
G1X9.15Y7.22
G1X9.28Y7.3
G1X9.44Y7.39
G1X9.6Y7.48
G1X10.05Y7.73
G1X10.15Y7.78
G1X10.24Y7.83
G1X10.34Y7.9
G1X10.4Y7.95
G1X10.42
G1Y7.94
G1Y7.88
G1X10.4Y7.85
G1X10.41
G1X10.44Y7.87
G1X10.48Y7.92
G1X10.58Y8.03
G1X10.66Y8.05
G1X10.73
G1X10.77Y8.11
G1X10.81Y8.16
G1X10.86Y8.19
G1X10.88Y8.16
G1X10.85Y8.08
G1X10.82Y8.01
G1X10.8Y7.97
G1Y7.94
G1X10.86Y7.99
G1X11.08Y8.26
G1X11.16Y8.34
G1X11.19Y8.36
G1Y8.33
G1X11.17Y8.29
G1Y8.27
G1X11.18Y8.29
G1X11.22Y8.32
G1X11.28Y8.38
G1X11.34Y8.44
G1X11.39Y8.48
G1X11.42Y8.49
G1X11.44Y8.46
G1X11.48Y8.47
G1X11.53Y8.51
G1X11.58Y8.56
G1X11.66Y8.63
G1X11.7Y8.66
G1X11.71
G1Y8.61
G1X11.68Y8.54
G1Y8.52
G1X11.7Y8.54
G1X11.75Y8.6
G1X11.82Y8.69
G1X11.84Y8.75
G1X11.87Y8.79
G1X11.93Y8.82
G1X11.97Y8.83
G1X11.99
G1Y8.81
G1Y8.77
G1X12.02Y8.8
G1X12.05Y8.84
G1X12.13Y8.93
G1X12.17Y8.94
G1Y8.89
G1X12.13Y8.77
G1X12.1Y8.68
G1Y8.64
G1X12.13Y8.67
G1X12.27Y8.82
G1X12.3Y8.85
G1Y8.83
G1X12.29Y8.76
G1X12.28Y8.7
G1Y8.67
G1X12.3
G1X12.33Y8.68
G1X12.41Y8.7
G1X12.51Y8.65
G1X12.57Y8.61
G1X12.59Y8.57
G1Y8.55
G1X12.54Y8.51
G1X12.28Y8.36
G1X11.36Y7.83
G1X10.27Y7.22
G1X9.63Y6.86
G1X9.4Y6.74
G1X9.27Y6.68
G1X9.13Y6.58
G1X9.01Y6.51
G1X8.91
M5
G0X8.55Y7.07
M3 S30
; Layer C00
G1X10.28Y8.11
G1X12.07Y9.11
G1Y9.08
G1X12.08Y9.05
G1X12.04Y9.02
G1X11.93Y8.95
G1X11.76Y8.84
G1X11.53Y8.71
G1X10.97Y8.39
G1X10.33Y8.02
G1X9.68Y7.66
G1X9.11Y7.35
G1X8.89Y7.23
G1X8.71Y7.14
G1X8.59Y7.08
G1X8.55Y7.07
M5
G0X10.06Y6.69
M3 S30
; Layer C00
G1X11.49Y7.56
G1X13Y8.41
G1X13.05
G1X13.06Y8.39
G1X13.01Y8.36
G1X12.75Y8.2
G1X12.07Y7.81
G1X11.53Y7.51
G1X10.99Y7.2
G1X10.34Y6.84
G1X10.1Y6.71
G1X10.06Y6.69
M5
G0X10.53Y6.45
M3 S30
; Layer C00
G1X10.74Y6.58
G1X11.28Y6.9
G1X13.33Y8.09
G1X13.42Y8.14
G1X13.49Y8.18
G1X13.55Y8.2
G1X13.59
G1X13.57Y8.14
G1X13.52Y8.1
G1X13.44Y8.04
G1X13.33Y7.97
G1X13.2Y7.89
G1X11.26Y6.78
G1X10.95Y6.6
G1X10.71Y6.47
G1X10.54Y6.38
G1X10.44Y6.33
G1X10.39
G1X10.41Y6.35
G1X10.49Y6.42
G1X10.53Y6.45
M5
G0X10.8Y6.28
M3 S30
; Layer C00
G1X10.82Y6.29
G1Y6.24
G1X10.76Y6.13
G1X10.68Y6.01
G1X10.6Y6
G1X10.56
G1X10.57Y5.95
G1Y5.9
G1X10.55Y5.83
G1X10.49Y5.74
G1X10.4Y5.65
G1X10.29Y5.53
G1X10.26Y5.5
G1X10.25
G1Y5.53
G1X10.28Y5.58
G1X10.39Y5.78
G1X10.47Y5.92
G1X10.54Y6.03
G1X10.6Y6.1
G1X10.64Y6.12
G1X10.69Y6.13
G1X10.74Y6.2
G1X10.8Y6.28
M5
G0X11.27Y6.17
M3 S30
; Layer C00
G1X11.31Y6.28
G1X11.38Y6.41
G1X11.45Y6.53
G1X11.5Y6.63
G1X11.55Y6.69
G1X11.58Y6.72
G1X11.59
G1Y6.68
G1X11.56Y6.61
G1X11.48Y6.4
G1X11.46Y6.34
G1Y6.31
G1X11.49Y6.33
G1X11.53Y6.38
G1X11.58Y6.46
G1X11.7Y6.68
G1X11.76Y6.77
G1X11.81Y6.85
G1X11.85Y6.88
G1X11.87Y6.89
G1X11.88
G1Y6.86
G1X11.78Y6.67
G1X11.73Y6.54
G1X11.69Y6.44
G1Y6.41
G1X11.72Y6.43
G1X11.76Y6.49
G1X11.81Y6.57
G1X11.93Y6.79
G1X11.99Y6.88
G1X12.04Y6.95
G1X12.07Y6.98
G1X12.09Y6.99
G1X12.1Y6.97
G1X12.09Y6.92
G1X12.02Y6.74
G1X12Y6.68
G1Y6.66
G1X12.01
G1X12.04Y6.68
G1X12.07Y6.73
G1X12.11Y6.81
G1X12.21Y6.99
G1X12.25Y7.06
G1X12.29Y7.11
G1X12.31Y7.13
G1X12.32Y7.11
G1X12.31Y7.04
G1X12.27Y6.95
G1X12.22Y6.84
G1X12.16Y6.72
G1X12.1Y6.63
G1X12.04Y6.57
G1X12Y6.55
G1X11.93Y6.52
G1X11.78Y6.38
G1X11.7Y6.35
G1X11.62Y6.33
G1X11.49Y6.22
G1X11.39Y6.21
G1X11.31Y6.1
G1X11.26Y6.07
G1X11.25Y6.1
G1X11.27Y6.17
M5
G0X11.5Y6.07
M3 S30
; Layer C00
G1X11.65Y6.16
G1X11.85Y6.28
G1X12.11Y6.44
G1X13.26Y7.13
G1X13.38Y7.19
G1X13.44Y7.22
G1X13.47
G1Y7.19
G1X13.45Y7.17
G1X13.4Y7.13
G1X13.3Y7.07
G1X13.18Y6.99
G1X12.88Y6.8
G1X12.53Y6.59
G1X12.17Y6.38
G1X11.84Y6.19
G1X11.58Y6.04
G1X11.5Y6
G1X11.44Y5.98
G1X11.39Y5.96
G1X11.38
G1X11.41Y6
G1X11.5Y6.07
M5
G0X12.5Y6.82
M3 S30
; Layer C00
G1X12.48
G1X12.67Y7.16
G1X12.87Y7.46
G1Y7.45
G1X12.85Y7.4
G1X12.82Y7.32
G1X12.72Y7.12
G1X12.68Y7.04
G1Y7
G1Y6.99
G1X12.71Y7.01
G1X12.76Y7.06
G1X12.82Y7.15
G1X13.02Y7.47
G1X13.11Y7.59
G1X13.14Y7.61
G1X13.16
G1Y7.59
G1X13.15Y7.54
G1Y7.51
G1X13.18Y7.54
G1X13.21Y7.59
G1X13.29Y7.7
G1X13.36Y7.74
G1X13.39Y7.73
G1X13.36Y7.64
G1X13.32Y7.55
G1X13.3Y7.48
G1X13.31
G1X13.34Y7.51
G1X13.38Y7.57
G1X13.47Y7.73
G1X13.52Y7.79
G1X13.55Y7.83
G1X13.57
G1Y7.78
G1X13.54Y7.7
G1X13.49Y7.6
G1X13.48Y7.54
G1X13.5
G1X13.56Y7.61
G1X13.61Y7.67
G1X13.63Y7.68
G1Y7.66
G1Y7.59
G1X13.58Y7.52
G1X13.44Y7.41
G1X13.26Y7.27
G1X13.05Y7.13
G1X12.84Y6.99
G1X12.66Y6.89
G1X12.59Y6.85
G1X12.53Y6.82
G1X12.5
M5
G0X11.92Y7.41
M3 S30
; Layer C00
G1X11.6Y7.24
G1X11.39Y7.12
G1X11.34Y7.1
G1X11.33
G1X12.36Y7.72
G1X13.38Y8.29
G1X13.41
G1X13.38Y8.25
G1X13.34Y8.22
G1X13.26Y8.17
G1X13Y8.02
G1X12.66Y7.82
G1X12.29Y7.61
G1X11.92Y7.41
M5
G0X13.77Y7.27
M3 S30
; Layer C00
G1X13.79Y7.42
G1X13.8Y7.46
G1Y7.47
G1X13.81
G1Y7.43
G1Y7.36
G1Y7.16
G1Y6.67
G1Y6.4
G1Y6.18
G1Y6.02
G1Y5.89
G1X13.86Y5.7
G1X13.95Y5.5
G1X14.02Y5.37
G1X14.06Y5.28
G1X14.08Y5.22
G1Y5.2
G1X14.06Y5.22
G1X14.02Y5.27
G1X13.95Y5.36
G1X13.86Y5.48
G1X13.73Y5.67
G1X13.68Y5.86
G1Y5.98
G1Y6.15
G1X13.69Y6.37
G1X13.73Y6.84
G1X13.77Y7.27
M5
G0X13.93Y8.32
M3 S30
; Layer C00
G1X13.68Y8.36
G1X13.62Y8.37
G1X13.64Y8.38
G1X13.71
G1X13.83
G1X14.17Y8.36
G1X14.6Y8.32
G1X14.79Y8.28
G1X14.94Y8.22
G1X15.02Y8.15
G1Y8.07
G1X14.97Y8.05
G1X14.91Y8.1
G1X14.81Y8.18
G1X14.65Y8.25
G1X14.45Y8.29
G1X13.93Y8.32
M5
G0X14.99Y8.96
M3 S30
; Layer C00
G1X15.04Y8.94
G1X15.09Y8.97
G1X15.11Y9.05
G1X15.14Y9.11
G1X15.21Y9.16
G1X15.25Y9.19
G1Y9.21
G1X15.21Y9.25
G1X15.11Y9.3
G1X14.96Y9.38
G1X14.87Y9.41
G1X14.84Y9.39
G1X14.85Y9.33
G1X14.9Y9.28
G1X14.95
G1X14.98Y9.3
G1X14.99
G1Y9.28
G1X14.95Y9.24
G1X14.92Y9.15
G1X14.94Y9.03
G1X14.99Y8.96
M5
G0X15.32Y9.65
M3 S30
; Layer C00
G1X15.37
G1X15.52
G1X15.74Y9.68
G1X15.99Y9.77
G1X16.22Y9.89
G1X16.36Y10.02
G1X16.38Y10.07
G1X16.36
G1X16.32Y10.05
G1X16.26Y10.02
G1X16.06Y9.91
G1X15.77Y9.78
G1X15.51Y9.7
G1X15.36Y9.67
G1X15.32Y9.65
M5
G0X18.08Y9.72
M3 S30
; Layer C00
G1X18.09Y9.75
G1X18.13Y9.7
G1X18.15Y9.64
G1X18.19Y9.55
G1X18.28Y9.3
G1X18.35Y9.11
G1X18.42Y8.98
G1X18.47Y8.91
G1X18.52Y8.89
G1X18.56
G1X18.58Y8.88
G1X18.59Y8.85
G1X18.57Y8.78
G1X18.58Y8.76
G1X18.61
G1X18.67
G1X18.75
G1X18.78Y8.71
G1X18.75Y8.65
G1X18.67Y8.58
G1X18.58Y8.55
G1X18.55Y8.58
G1X18.53Y8.61
G1X18.49
G1X18.45
G1X18.43Y8.68
G1X18.42Y8.77
G1X18.39Y8.81
G1X18.22Y9.23
G1X18.08Y9.72
M5
G0X18.92Y9.61
M3 S30
; Layer C00
G1Y9.46
G1X18.96Y9.39
G1X19
G1X19.01Y9.47
G1X19.11Y9.5
G1X19.13Y9.55
G1X19.15Y9.61
G1X19.19Y9.65
G1Y9.67
G1Y9.71
G1X19.15Y9.76
G1X19.1Y9.82
G1X19Y9.93
G1X18.95Y9.96
G1X18.93Y9.79
G1X18.92Y9.61
M5
G0X19.16Y8.68
M3 S30
; Layer C00
G1X19.22
G1X19.28Y8.67
G1X19.32Y8.62
G1X19.36Y8.6
G1X19.42Y8.67
G1X19.51Y8.72
G1X19.6
G1X19.68Y8.64
G1X19.72Y8.53
G1X19.7Y8.49
G1X19.66
G1X19.62
G1X19.6Y8.4
G1Y8.34
G1X19.59Y8.31
G1X19.57Y8.32
G1X19.54Y8.37
G1X19.48Y8.43
G1X19.35Y8.44
G1X19.25Y8.49
G1X19.17Y8.57
G1X19.13Y8.64
G1X19.16Y8.68
M5
G0X18.72Y8.49
M3 S30
; Layer C00
G1X18.7Y8.42
G1X18.58Y8.22
G1Y8.19
G1X18.6Y8.17
G1X18.56Y8.12
G1X18.51Y8.06
G1X18.5Y8.01
G1X18.52Y7.98
G1X18.59Y7.97
G1X18.64Y7.99
G1X18.65Y8.04
G1Y8.13
G1X18.7Y8.25
G1X18.75Y8.32
G1X18.77Y8.35
G1Y8.32
G1X18.78Y8.23
G1Y8.16
G1X18.81Y8.12
G1X18.84Y8.1
G1X18.9
G1X18.97
G1X18.99Y8.07
G1Y8.03
G1X19.04Y7.99
G1X19.08Y7.96
G1X19.1Y7.93
G1Y7.88
G1Y7.82
G1Y7.76
G1Y7.69
G1X19.14Y7.63
G1X19.33Y7.4
G1X19.4Y7.25
G1Y7.12
G1X19.33Y7.05
G1X19.3
G1X19.28
G1X19.3Y7.11
G1Y7.12
G1X19.27
G1X19.23
G1X19.17Y7.1
G1X19.16Y7.12
G1Y7.21
G1X19.1Y7.34
G1X19.03Y7.49
G1X18.99Y7.61
G1X18.91Y7.91
G1X18.87Y8.04
G1X18.83Y8.09
G1X18.78
G1X18.72Y8.01
G1X18.7Y7.96
G1Y7.91
G1X18.73Y7.86
G1X18.85Y7.73
G1X18.89Y7.66
G1X18.91Y7.59
G1Y7.51
G1X18.93Y7.43
G1X19.03Y7.17
G1Y7.11
G1X19.01Y7.07
G1X18.93Y7.03
G1X18.85Y7
G1X18.8
G1X18.76Y7.06
G1X18.72Y7.17
G1X18.65Y7.34
G1X18.59Y7.45
G1X18.57Y7.5
G1X18.6Y7.52
G1X18.65Y7.53
G1X18.66Y7.57
G1X18.64Y7.63
G1X18.58Y7.71
G1X18.51Y7.78
G1X18.45
G1Y7.73
G1X18.49Y7.66
G1X18.52Y7.62
G1X18.53Y7.58
G1Y7.54
G1X18.5Y7.5
G1X18.46Y7.4
G1X18.49Y7.24
G1X18.54Y7.07
G1Y6.97
G1X18.49Y6.93
G1X18.39
G1X18.19Y6.96
G1X18.15Y7.02
G1Y7.16
G1X18.14Y7.25
G1X18.12Y7.3
G1X18.1Y7.33
G1X18.05Y7.31
G1Y7.33
G1X18.07Y7.36
G1X18.16Y7.47
G1X18.18Y7.5
G1X18.07Y7.43
G1X18.04
G1Y7.49
G1Y7.59
G1Y7.75
G1X18.01Y7.82
G1X17.99Y7.84
G1X18.12Y7.87
G1X18.17Y7.9
G1X18.16Y7.94
G1X18.1
G1X18.02Y7.93
G1X17.96Y7.88
G1X17.89
G1X17.78Y7.94
G1X17.7Y8
G1X17.68Y8.02
G1X17.71Y7.98
G1X17.78Y7.9
G1X17.89Y7.73
G1X17.94Y7.52
G1X17.97Y7.34
G1X18Y7.24
G1Y7.2
G1X17.97Y7.16
G1X17.94Y7.11
G1Y7.06
G1Y7.03
G1X17.89Y7.07
G1X17.84Y7.1
G1X17.79Y7.12
G1X17.76Y7.11
G1X17.72Y7.08
G1X17.67Y7.05
G1X17.64Y7.03
G1X17.61Y7.04
G1X17.59Y7.08
G1X17.58Y7.15
G1X17.57Y7.26
G1Y7.41
G1Y7.76
G1Y7.89
G1Y8
G1Y8.07
G1X17.61Y8.17
G1X17.65Y8.21
G1X17.69Y8.23
G1X17.71Y8.25
G1Y8.28
G1X17.68Y8.32
G1X17.65Y8.38
G1Y8.43
G1X17.71Y8.41
G1X17.9Y8.23
G1X17.99Y8.19
G1X18.01Y8.21
G1X17.97Y8.24
G1X17.93Y8.27
G1Y8.29
G1X17.96
G1X18.1Y8.3
G1X18.12Y8.32
G1X18.08Y8.34
G1X17.98Y8.38
G1X17.85Y8.45
G1X17.79Y8.49
G1X17.83
G1X17.91Y8.46
G1X18.04Y8.43
G1X18.18
G1X18.26
G1X18.31Y8.41
G1X18.33Y8.36
G1Y8.29
G1X18.35Y8.24
G1X18.44
G1X18.55Y8.31
G1X18.63Y8.4
G1X18.7Y8.49
G1X18.72
M5
G0X19.32Y8.3
M3 S30
; Layer C00
G1X19.34Y8.28
G1X19.38Y8.22
G1X19.41Y8.17
G1X19.44Y8.15
G1X19.46Y8.16
G1X19.5Y8.2
G1X19.52Y8.23
G1X19.53
G1Y8.18
G1Y8.08
G1X19.58Y7.99
G1X19.63Y7.93
G1Y7.95
G1Y7.98
G1Y7.99
G1X19.65
G1X19.68
G1X19.74Y7.94
G1X19.79Y7.84
G1X19.81Y7.76
G1X19.82Y7.66
G1X19.84Y7.54
G1X19.86Y7.38
G1X19.88Y7.19
G1Y7.14
G1Y7.13
G1X19.86
G1X19.84Y7.18
G1X19.77Y7.35
G1X19.73Y7.47
G1X19.68Y7.57
G1X19.64Y7.65
G1X19.61Y7.68
G1X19.56Y7.75
G1X19.5Y7.85
G1X19.47Y7.92
G1X19.45Y7.94
G1X19.43
G1Y7.89
G1X19.46Y7.75
G1X19.55Y7.56
G1X19.64Y7.35
G1X19.69Y7.16
G1Y7.08
G1Y7.03
G1X19.67Y7
G1X19.64
G1X19.58Y7.05
G1X19.56Y7.14
G1X19.54Y7.23
G1X19.5Y7.29
G1X19.44Y7.38
G1X19.31Y7.62
G1X19.27Y7.68
G1X19.23Y7.72
G1X19.2
G1X19.18Y7.76
G1Y7.89
G1Y7.97
G1Y8.03
G1X19.16Y8.06
G1X19.1Y8.09
G1Y8.13
G1X19.15Y8.16
G1X19.22
G1X19.26Y8.15
G1X19.29
G1X19.3Y8.18
G1X19.31Y8.22
G1Y8.28
G1X19.32Y8.3
M5
G0X20.24Y8.28
M3 S30
; Layer C00
G1X20.26Y8.35
G1X20.32Y8.42
G1X20.41Y8.46
G1X20.53Y8.49
G1X20.68Y8.52
G1X20.75Y8.55
G1X20.78
G1X20.85Y8.56
G1X20.94
G1X21.05
G1X21.16
G1X21.22
G1X21.24Y8.55
G1X21.21Y8.53
G1X21.17Y8.5
G1Y8.48
G1X21.24Y8.45
G1X21.5Y8.38
G1X21.58Y8.35
G1X21.62Y8.33
G1X21.61Y8.32
G1X21.55
G1X21.46Y8.33
G1X21.32Y8.35
G1X21.15Y8.38
G1X20.85Y8.43
G1X20.64
G1X20.48Y8.4
G1X20.27Y8.27
G1X20.24
M5
G0X20.79Y7.74
M3 S30
; Layer C00
G1Y7.71
G1Y7.64
G1X20.81Y7.38
G1Y7.24
G1Y7.13
G1X20.79Y7.05
G1X20.77Y7.02
G1X20.71Y6.97
G1X20.65Y6.84
G1X20.62Y6.75
G1X20.61Y6.74
G1Y6.81
G1Y6.97
G1Y7.09
G1X20.63Y7.19
G1X20.65Y7.25
G1X20.66Y7.26
G1X20.7Y7.29
G1Y7.4
G1X20.72Y7.51
G1X20.74Y7.62
G1X20.76Y7.71
G1X20.79Y7.74
M5
G0X21.5Y7.71
M3 S30
; Layer C00
G1X21.58Y7.73
G1X21.68Y7.68
G1X21.78Y7.59
G1X21.82Y7.54
G1X21.84Y7.51
G1X21.86
G1Y7.54
G1X21.84Y7.59
G1Y7.62
G1X21.86
G1X21.89Y7.59
G1X21.98Y7.47
G1X22.18Y7.15
G1X22.24Y7.06
G1X22.29Y7.01
G1X22.32Y6.99
G1Y7.04
G1X22.28Y7.12
G1X22.18Y7.32
G1X22.15Y7.4
G1X22.13Y7.45
G1Y7.46
G1X22.33Y7.16
G1X22.52Y6.82
G1X22.47Y6.84
G1X22.36Y6.9
G1X22.19Y6.99
G1X21.8Y7.21
G1X21.63Y7.31
G1X21.49Y7.4
G1X21.41Y7.45
G1Y7.48
G1X21.46Y7.51
G1X21.5Y7.57
G1Y7.64
G1Y7.71
M5
G0X21.83Y7.87
M3 S30
; Layer C00
G1X21.66Y7.98
G1X21.55Y8.06
G1X21.52Y8.11
G1X21.56Y8.13
G1X21.6Y8.12
G1X21.82Y7.99
G1X22.21Y7.77
G1X23Y7.32
G1X23.56Y6.99
G1X24.22Y6.6
G1X24.47Y6.45
G1X24.51Y6.42
G1X24.59Y6.35
G1X24.61Y6.32
G1X24.56Y6.33
G1X24.46Y6.38
G1X24.28Y6.47
G1X24.04Y6.6
G1X23.74Y6.78
G1X22.41Y7.55
G1X21.83Y7.87
M5
G0X22.1Y7.97
M3 S30
; Layer C00
G1X21.84Y8.13
G1X21.76Y8.17
G1X21.73Y8.2
G1X21.7Y8.23
G1X21.73
G1X21.82Y8.18
G1X21.97Y8.1
G1X22.97Y7.52
G1X23.43Y7.26
G1X23.8Y7.03
G1X24.06Y6.88
G1X24.13Y6.84
G1X24.15Y6.82
G1X24.14Y6.8
G1X24.11Y6.82
G1X22.48Y7.75
G1X22.1Y7.97
M5
G0X22.45Y8.09
M3 S30
; Layer C00
G1X22.26Y8.21
G1X22.14Y8.28
G1X22.07Y8.33
G1X22.06Y8.35
G1X22.07
G1X22.11Y8.34
G1X22.2Y8.29
G1X22.52Y8.11
G1X22.98Y7.85
G1X23.54Y7.53
G1X24.09Y7.21
G1X24.53Y6.95
G1X24.83Y6.77
G1X24.91Y6.71
G1X24.94Y6.69
G1X24.91Y6.7
G1X24.82Y6.75
G1X24.53Y6.9
G1X24.1Y7.14
G1X23.59Y7.44
G1X22.45Y8.09
M5
G0X22.61Y8.41
M3 S30
; Layer C00
G1X22.52Y8.47
G1X22.46Y8.51
G1X22.43Y8.55
G1X22.42Y8.62
G1X22.48Y8.72
G1X22.53Y8.78
G1X22.57Y8.8
G1X22.61Y8.78
G1X22.71Y8.66
G1X22.73Y8.64
G1Y8.66
G1X22.69Y8.74
G1X22.66Y8.81
G1X22.64Y8.86
G1Y8.88
G1X22.66Y8.89
G1X22.72Y8.85
G1X22.81Y8.72
G1X22.87Y8.64
G1X22.91Y8.57
G1X22.94Y8.54
G1X22.96Y8.53
G1Y8.55
G1X22.94Y8.59
G1X22.91Y8.65
G1X22.87Y8.75
G1X22.8Y8.89
G1Y8.96
G1X22.82
G1X22.85Y8.95
G1X22.9Y8.91
G1X22.95Y8.84
G1X22.98Y8.8
G1X23.01Y8.77
G1Y8.81
G1Y8.83
G1X23.03
G1X23.07
G1X23.13Y8.79
G1X23.16Y8.75
G1X23.18Y8.69
G1X23.25Y8.6
G1X23.3Y8.54
G1X23.32Y8.52
G1Y8.54
G1X23.3Y8.61
G1X23.29Y8.65
G1X23.3Y8.66
G1X23.34Y8.63
G1X23.42Y8.56
G1X23.47Y8.51
G1X23.52Y8.47
G1X23.56
G1X23.58Y8.49
G1X23.61Y8.48
G1X23.66Y8.44
G1X23.78Y8.33
G1X23.82Y8.29
G1X23.83
G1Y8.3
G1Y8.32
G1X23.86Y8.31
G1X23.89Y8.27
G1X23.99Y8.16
G1X24.11Y8.02
G1X24.16Y7.94
G1X24.19Y7.92
G1Y7.95
G1X24.15Y8.04
G1X24.12Y8.15
G1X24.15Y8.19
G1X24.19Y8.18
G1X24.21Y8.14
G1X24.23Y8.08
G1X24.3Y7.99
G1X24.34Y7.94
G1X24.36Y7.92
G1Y7.93
G1X24.35Y7.98
G1X24.34Y8.06
G1X24.37Y8.07
G1X24.44Y8.03
G1X24.52Y7.92
G1X24.56Y7.87
G1X24.59Y7.84
G1Y7.88
G1X24.57Y7.94
G1Y7.96
G1X24.6Y7.95
G1X24.66Y7.9
G1X24.76Y7.83
G1X24.85Y7.78
G1X24.95Y7.73
G1X25.13Y7.63
G1X25.56Y7.39
G1X25.72Y7.3
G1X25.85Y7.22
G1X25.96Y7.15
G1X26.02Y7.1
G1X26.09Y7.04
G1X26.25Y6.99
G1X26.28Y6.92
G1Y6.82
G1X26.23Y6.69
G1X26.14Y6.56
G1X26.07Y6.5
G1X25.98Y6.51
G1X25.87Y6.59
G1X25.73Y6.68
G1X25.6Y6.74
G1X25.52Y6.78
G1X25.23Y6.94
G1X24.82Y7.17
G1X23.14Y8.12
G1X22.61Y8.41
M5
G0X23.22Y8.85
M3 S30
; Layer C00
G1X23.03Y8.96
G1X22.9Y9.04
G1X22.84Y9.08
G1X22.81Y9.13
G1X22.84
G1X22.93Y9.09
G1X23.11Y9.01
G1X23.37Y8.87
G1X23.72Y8.67
G1X24.72Y8.11
G1X25.07Y7.91
G1X25.4Y7.72
G1X25.7Y7.54
G1X25.95Y7.39
G1X26.16Y7.26
G1X26.32Y7.16
G1X26.42Y7.1
G1X26.45Y7.07
G1X26.41Y7.08
G1X26.29Y7.14
G1X26.12Y7.23
G1X25.89Y7.35
G1X25.33Y7.66
G1X24.68Y8.01
G1X24.03Y8.38
G1X23.45Y8.71
G1X23.22Y8.85
M5
G0X21.9Y9.74
M3 S30
; Layer C00
G1X22.07Y9.88
G1X22.14Y9.94
G1X22.18Y9.98
G1X22.21Y10
G1X22.19Y9.94
G1X22.21Y9.92
G1X22.27Y9.96
G1X22.33Y10.07
G1X22.37Y10.18
G1X22.36Y10.25
G1X22.33
G1X22.27Y10.22
G1X22.2Y10.16
G1X22.12Y10.09
G1X22.05Y10.02
G1X21.99Y9.97
G1X21.96Y9.95
G1Y10.01
G1X21.91Y10.03
G1X21.87
G1X21.85Y10.05
G1Y10.08
G1X21.87Y10.16
G1Y10.17
G1X21.83Y10.15
G1X21.65Y9.97
G1X21.5Y9.83
G1X21.4Y9.75
G1X21.36Y9.71
G1X21.39Y9.72
G1X21.48Y9.77
G1X21.55Y9.81
G1X21.6Y9.82
G1X21.63
G1X21.64Y9.79
G1Y9.76
G1X21.66
G1X21.68
G1X21.71Y9.79
G1X21.78Y9.84
G1X21.84Y9.86
G1Y9.85
G1X21.8Y9.81
G1X21.73Y9.75
G1X21.52Y9.61
G1X21.44Y9.55
G1X21.38Y9.51
G1Y9.49
G1X21.41
G1X21.48Y9.5
G1X21.57Y9.55
G1X21.68Y9.6
G1X21.9Y9.74
M5
G0X21.93Y11.55
M3 S30
; Layer C00
G1X22Y11.56
G1X22.04Y11.6
G1X22.06Y11.65
G1Y11.71
G1X22Y11.86
G1X21.87Y12.05
G1X21.81Y12.1
G1X21.78
G1X21.76Y12.05
G1X21.75Y11.94
G1Y11.77
G1X21.78Y11.64
G1X21.84Y11.56
G1X21.93Y11.55
M5
G0X22.02Y12.51
M3 S30
; Layer C00
G1X22
G1X21.94Y12.59
G1X21.85Y12.73
G1X21.77Y12.9
G1X21.72Y13.08
G1X21.7Y13.24
G1Y13.29
G1X21.72Y13.31
G1X21.73Y13.29
G1X21.78Y13.19
G1X21.8Y13.17
G1X21.81Y13.2
G1X21.83
G1X21.87Y13.16
G1X21.92Y13.06
G1X21.99Y12.93
G1X22.06Y12.79
G1X22.11Y12.68
G1X22.13Y12.61
G1X22.14Y12.57
G1Y12.56
G1X22.11Y12.59
G1X22.06Y12.65
G1X21.94Y12.86
G1X21.89Y12.92
G1X21.86Y12.95
G1X21.84
G1Y12.93
G1X21.85Y12.88
G1X21.88Y12.8
G1X21.93Y12.69
G1X22Y12.56
G1X22.02Y12.51
M5
G0X21.5Y12.84
M3 S30
; Layer C00
G1X21.47Y12.86
G1X21.43Y12.95
G1X21.38Y13.09
G1X21.36Y13.18
G1Y13.24
G1X21.41Y13.26
G1X21.44Y13.27
G1Y13.31
G1X21.45Y13.36
G1X21.44Y13.44
G1X21.42Y13.52
G1Y13.56
G1X21.44
G1X21.46Y13.54
G1X21.49Y13.5
G1X21.51Y13.48
G1X21.52Y13.49
G1Y13.53
G1X21.54Y13.61
G1X21.56Y13.72
G1X21.6Y13.85
G1X21.65Y14
G1X21.7Y14.14
G1X21.75Y14.25
G1X21.78Y14.33
G1X21.8Y14.35
G1Y14.3
G1X21.77Y14.18
G1X21.73Y14.01
G1X21.67Y13.8
G1X21.6Y13.58
G1X21.55Y13.36
G1X21.52Y13.17
G1X21.51Y13.03
G1Y12.89
G1X21.5Y12.84
M5
G0X20.66Y12.82
M3 S30
; Layer C00
G1X20.57Y12.96
G1X20.45Y13.05
G1X20.31Y13.09
G1X20.27
G1X20.26Y13.07
G1X20.28Y13.06
G1X20.33Y13.03
G1X20.39Y13
G1Y12.98
G1X20.38
G1X20.4Y12.95
G1X20.44Y12.91
G1X20.58Y12.81
G1X20.61Y12.78
G1X20.56
G1X20.47
G1X20.44Y12.73
G1X20.47Y12.64
G1X20.56Y12.53
G1X20.64Y12.47
G1X20.67
G1X20.69Y12.52
G1Y12.65
G1X20.66Y12.82
M5
G0X20.66Y13.06
M3 S30
; Layer C00
G1X20.73Y13.08
G1X20.79Y13.13
G1X20.84Y13.2
G1X20.88Y13.3
G1X20.92Y13.42
G1X20.95Y13.55
G1X21.03Y13.8
G1X21.08Y13.99
G1X21.13Y14.22
G1X21.18Y14.46
G1X21.23Y14.7
G1X21.26Y14.93
G1X21.29Y15.12
G1X21.3Y15.26
G1Y15.38
G1X21.31Y15.52
G1Y15.54
G1X21.33Y15.49
G1X21.36Y15.22
G1X21.38Y15.1
G1Y15.09
G1Y15.1
G1X21.39Y15.14
G1Y15.31
G1Y15.55
G1X21.35Y15.81
G1X21.32Y15.93
G1X21.29Y16.02
G1X21.26Y16.09
G1X21.23Y16.13
G1X21.22Y16.1
G1X21.21Y16.03
G1Y15.9
G1Y15.75
G1Y15.58
G1Y15.47
G1X21.19Y15.43
G1X21.17Y15.46
G1X21.15Y15.49
G1X21.14Y15.47
G1Y15.39
G1X21.15Y15.15
G1Y15.08
G1Y15.06
G1X21.1Y15.16
G1X21.08
G1X21.05Y15.08
G1X21.01Y14.91
G1X20.97Y14.65
G1Y14.48
G1X20.99Y14.42
G1Y14.39
G1X20.97
G1X20.94Y14.4
G1X20.91Y14.41
G1X20.89Y14.39
G1Y14.33
G1Y14.23
G1Y14.03
G1X20.87Y13.87
G1X20.85Y13.79
G1X20.84Y13.77
G1Y13.8
G1Y13.88
G1X20.85Y13.96
G1Y14
G1X20.83
G1X20.79Y13.97
G1X20.74Y13.9
G1Y13.82
G1X20.75Y13.77
G1X20.73
G1X20.66
G1X20.54Y13.69
G1X20.46Y13.62
G1X20.43Y13.6
G1X20.45Y13.64
G1X20.57Y13.82
G1Y13.85
G1X20.55Y13.83
G1X20.51Y13.8
G1X20.37Y13.69
G1X20.27Y13.61
G1X20.18Y13.54
G1X20.1Y13.5
G1X20.06Y13.48
G1X20.04Y13.49
G1X20.06Y13.52
G1X20.11Y13.56
G1X20.32Y13.72
G1X20.43Y13.83
G1X20.5Y13.93
G1X20.53Y14
G1X20.49Y13.99
G1X20.45Y13.95
G1X20.39Y13.89
G1X20.24Y13.75
G1X20.06Y13.62
G1X19.95Y13.56
G1X19.9Y13.55
G1Y13.57
G1X19.96Y13.63
G1X20Y13.68
G1X19.98
G1X19.88Y13.65
G1X19.71Y13.57
G1X19.5Y13.48
G1X19.32Y13.43
G1X19.21Y13.41
G1X19.09
G1X18.94Y13.4
G1X18.76
G1X18.48Y13.38
G1X18.26Y13.36
G1X18.09Y13.33
G1X17.98Y13.29
G1X17.85Y13.22
G1X17.77Y13.15
G1X17.76Y13.12
G1X17.83
G1X17.89Y13.15
G1X17.91
G1X17.89Y13.12
G1X17.81Y13
G1X17.79Y12.98
G1X17.82Y12.99
G1X17.88Y13.04
G1X18.23Y13.24
G1X18.53Y13.37
G1Y13.36
G1X18.5Y13.33
G1X18.44Y13.3
G1X18.36Y13.25
G1X18.28Y13.21
G1X18.21Y13.16
G1X18.18Y13.12
G1Y13.09
G1Y13.06
G1X18.12
G1X18.05Y13.07
G1X18Y13.04
G1Y13.01
G1X18.06
G1X18.1Y13.03
G1X18.13
G1Y13.01
G1X18.1Y12.95
G1Y12.94
G1X18.14
G1X18.19Y12.98
G1X18.28Y13.03
G1X18.29Y13.08
G1X18.31Y13.11
G1X18.4Y13.13
G1X18.47
G1X18.6Y13.16
G1X18.74Y13.19
G1X18.9Y13.23
G1X19.29Y13.29
G1X19.67
G1X20.04Y13.24
G1X20.36Y13.13
G1X20.47Y13.09
G1X20.57Y13.06
G1X20.66
M5
G0X22.84Y13.71
M3 S30
; Layer C00
G1X22.88
G1X22.92Y13.79
G1X22.96Y13.91
G1X23Y14.09
G1X23.04Y14.32
G1X23.08Y14.6
G1Y14.8
G1X23.04Y15.06
G1X22.98Y15.35
G1X22.9Y15.65
G1X22.8Y15.93
G1X22.71Y16.16
G1X22.66Y16.25
G1X22.62Y16.32
G1X22.58Y16.36
G1X22.54Y16.38
G1Y16.36
G1X22.56Y16.31
G1X22.59Y16.24
G1X22.64Y16.15
G1X22.71Y15.95
G1Y15.8
G1Y15.75
G1Y15.72
G1X22.75Y15.76
G1X22.79Y15.81
G1X22.81Y15.79
G1X22.79Y15.74
G1X22.76Y15.66
G1X22.73Y15.63
G1X22.71
G1X22.69Y15.65
G1X22.66Y15.7
G1X22.62Y15.8
G1X22.58
G1X22.55Y15.73
G1Y15.57
G1Y15.48
G1Y15.41
G1X22.57Y15.36
G1Y15.35
G1X22.6Y15.32
G1X22.61Y15.21
G1Y15.12
G1Y15.09
G1X22.58
G1X22.5Y15.19
G1X22.48
G1Y15.17
G1X22.5Y15.1
G1X22.51Y15.04
G1Y15.01
G1X22.5Y15
G1X22.47
G1X22.46Y14.99
G1Y14.91
G1X22.5Y14.79
G1X22.55Y14.64
G1X22.67Y14.25
G1X22.77Y13.88
G1X22.8Y13.76
G1X22.84Y13.71
M5
G0X23.19Y14.16
M3 S30
; Layer C00
G1X23.17Y14.2
G1X23.2Y14.25
G1X23.26Y14.32
G1X23.36Y14.41
G1X23.5Y14.5
G1X23.66Y14.59
G1X24.08Y14.8
G1X24.25Y14.9
G1X24.35Y14.97
G1X24.37Y15
G1X24.34Y15.02
G1X24.35Y15.03
G1X24.42
G1X24.5Y14.98
G1X24.54Y14.96
G1X24.55Y14.94
G1X24.51Y14.93
G1X24.47Y14.91
G1Y14.87
G1Y14.84
G1X24.34Y14.87
G1Y14.83
G1X24.31Y14.79
G1X24.2Y14.71
G1X24.04Y14.6
G1X23.85Y14.47
G1X23.66Y14.35
G1X23.48Y14.25
G1X23.34Y14.18
G1X23.26Y14.15
G1X23.19Y14.16
M5
G0X21.5Y15.26
M3 S30
; Layer C00
G1X21.52Y15.3
G1X21.55Y15.46
G1X21.59Y15.7
G1X21.66Y15.99
G1X21.74Y16.31
G1X21.83Y16.61
G1X21.86Y16.77
G1X21.84Y16.94
G1X21.78Y17.12
G1X21.69Y17.29
G1X21.57Y17.46
G1X21.42Y17.62
G1X21.24Y17.77
G1X21.03Y17.9
G1X20.91Y17.97
G1X20.82Y18.02
G1X20.77Y18.03
G1X20.75
G1X20.77Y17.99
G1X20.83Y17.92
G1X20.93Y17.82
G1X21.06Y17.69
G1X21.21Y17.54
G1X21.34Y17.4
G1X21.45Y17.28
G1X21.51Y17.2
G1X21.53Y17.17
G1X21.51Y17.18
G1X21.45Y17.23
G1X21.37Y17.31
G1X21.21Y17.46
G1X21.1Y17.54
G1X21.07Y17.55
G1Y17.51
G1X21.12Y17.45
G1X21.18Y17.38
G1Y17.34
G1Y17.33
G1Y17.31
G1X21.19Y17.26
G1X21.2Y17.16
G1X21.23Y17.02
G1X21.28Y16.89
G1X21.4Y16.67
G1X21.46Y16.46
G1X21.49Y16.27
G1X21.45Y15.86
G1Y15.54
G1X21.48Y15.34
G1X21.49Y15.28
G1X21.5Y15.26
M5
G0X17.49Y13.78
M3 S30
; Layer C00
G1X17.45Y13.76
G1X17.35Y13.66
G1X17.27Y13.58
G1X17.23Y13.55
G1X17.24Y13.57
G1X17.29Y13.65
G1X17.34Y13.74
G1X17.36Y13.82
G1Y13.88
G1Y13.93
G1X17.32Y13.95
G1X17.28
G1X17.23Y13.9
G1X17.17Y13.83
G1X17.09Y13.73
G1X17.07Y13.68
G1X17.09
G1X17.24Y13.75
G1X17.27
G1X17.25Y13.72
G1X17.19Y13.66
G1X17Y13.53
G1X16.72Y13.44
G1X16.38Y13.39
G1X15.68
G1X15.36Y13.36
G1X15.22Y13.34
G1X15.12Y13.3
G1X15.05Y13.27
G1X15.03Y13.23
G1X15.01Y13.19
G1X14.96Y13.15
G1X14.87Y13.09
G1X14.76Y13.03
G1X14.62Y12.96
G1X14.53Y12.93
G1X14.51Y12.94
G1Y13.04
G1Y13.07
G1X14.48Y13.08
G1X14.43Y13.09
G1X14.42Y13.1
G1X14.46Y13.14
G1X14.56Y13.19
G1X14.97Y13.4
G1X15.19Y13.53
G1X15.35Y13.66
G1X15.47Y13.8
G1X15.54Y13.93
G1X15.57Y14
G1X15.55Y14.02
G1X15.48Y13.95
G1X15.44Y13.89
G1X15.41
G1Y13.93
G1X15.43Y14.02
G1X15.45Y14.15
G1X15.44Y14.2
G1X15.41Y14.17
G1X15.37Y14.05
G1X15.3Y13.87
G1X15.15Y13.68
G1X14.98Y13.51
G1X14.8Y13.39
G1X14.59Y13.33
G1X14.33Y13.29
G1X14.21
G1X14.11
G1X14.05Y13.3
G1X14.04Y13.33
G1Y13.36
G1X14.01
G1X13.96Y13.34
G1X13.93Y13.26
G1Y13.17
G1X13.95Y13.1
G1X13.97Y13.06
G1X13.89Y13.03
G1X13.79Y12.91
G1X13.7Y12.78
G1X13.67Y12.64
G1X13.59Y12.58
G1X13.51Y12.51
G1X13.48Y12.46
G1X13.44Y12.37
G1X13.3Y12.18
G1X13.28Y12.13
G1Y12.11
G1X13.29
G1X13.33Y12.13
G1X13.35
G1Y12.09
G1X13.33Y12.03
G1Y11.99
G1X13.34
G1X13.4Y12.03
G1X13.5Y12.13
G1X13.71Y12.33
G1X13.97Y12.51
G1X14.09Y12.59
G1X14.2Y12.65
G1X14.29Y12.69
G1X14.36Y12.7
G1X14.45Y12.73
G1X14.53Y12.79
G1X14.62Y12.87
G1X14.72Y12.93
G1X14.78Y12.96
G1X14.8
G1X14.77Y12.92
G1X14.62Y12.75
G1X14.6Y12.72
G1X14.64Y12.74
G1X14.74Y12.81
G1X14.87Y12.91
G1X14.9Y12.99
G1X14.89Y13.02
G1X14.92
G1X14.99Y13
G1X15.08Y13.02
G1X15.15Y13.06
G1X15.18Y13.12
G1X15.16Y13.16
G1X15.07Y13.23
G1Y13.26
G1X15.09Y13.28
G1X15.15
G1X15.32Y13.3
G1X15.56
G1X16.12Y13.25
G1X16.6Y13.14
G1X16.86Y13.07
G1X17.09Y13.04
G1X17.18
G1X17.23Y13.05
G1Y13.06
G1X17.18Y13.08
G1X17.12Y13.11
G1X17.1Y13.13
G1X17.12Y13.14
G1X17.17Y13.16
G1X17.25Y13.21
G1X17.23Y13.26
G1X17.14Y13.3
G1X17.01
G1X16.93Y13.28
G1X16.91Y13.29
G1X16.97Y13.33
G1X17.1Y13.4
G1X17.32Y13.53
G1X17.44Y13.64
G1X17.49Y13.75
G1Y13.78
M5
G0X18.18Y12.81
M3 S30
; Layer C00
G1X18.15Y12.8
G1X18.1Y12.75
G1X18.04Y12.64
G1X18.03Y12.51
G1X18.07Y12.39
G1X18.16Y12.28
G1X18.27Y12.2
G1X18.36Y12.16
G1X18.41
G1X18.45Y12.23
G1X18.53Y12.22
G1X18.55Y12.25
G1X18.52Y12.29
G1X18.46Y12.31
G1X18.38Y12.35
G1X18.33Y12.43
G1X18.31Y12.5
G1X18.29Y12.52
G1X18.28Y12.51
G1X18.23Y12.4
G1X18.21
G1Y12.43
G1X18.23Y12.59
G1Y12.63
G1X18.21Y12.62
G1X18.17Y12.56
G1X18.11Y12.51
G1X18.09Y12.53
G1Y12.6
G1X18.14Y12.7
G1X18.18Y12.78
G1Y12.81
M5
G0X13.5Y13.14
M3 S30
; Layer C00
G1X13.46Y12.97
G1X13.36Y12.77
G1X13.19Y12.51
G1X13.13Y12.43
G1X13.1Y12.39
G1X13.08Y12.38
G1Y12.39
G1Y12.43
G1X13.11Y12.5
G1X13.15Y12.59
G1X13.27Y12.81
G1X13.31Y12.89
G1X13.33Y12.95
G1Y12.97
G1X13.32
G1X13.29Y12.93
G1X13.24Y12.86
G1X13.11Y12.66
G1X13.07Y12.59
G1X13.04Y12.56
G1X13.03
G1Y12.6
G1X13.05Y12.66
G1X13.1Y12.75
G1X13.23Y13.01
G1X13.27Y13.1
G1X13.29Y13.16
G1X13.25Y13.14
G1X13.2Y13.07
G1X13.13Y12.96
G1X12.95Y12.64
G1X12.88Y12.53
G1X12.83Y12.46
G1X12.81Y12.44
G1Y12.47
G1X12.84Y12.55
G1X12.9Y12.67
G1X13.06Y13.02
G1X13.12Y13.14
G1X13.16Y13.23
G1X13.17Y13.28
G1Y13.3
G1X13.14Y13.27
G1X13.1Y13.21
G1X13.03Y13.12
G1X12.98Y13.05
G1X12.95Y13.01
G1X12.93
G1Y13.02
G1Y13.07
G1X12.95Y13.13
G1X12.99Y13.22
G1X13.05Y13.33
G1X13.1Y13.44
G1Y13.48
G1X13.08Y13.46
G1X13.04Y13.41
G1X13Y13.34
G1X12.9Y13.17
G1X12.86Y13.1
G1X12.82Y13.05
G1X12.8Y13.03
G1Y13.06
G1X12.82Y13.12
G1X12.85Y13.21
G1X12.89Y13.31
G1X12.98Y13.52
G1X13.04Y13.66
G1X13.06Y13.69
G1X13.04Y13.7
G1X12.99Y13.64
G1X12.85Y13.42
G1X12.81Y13.37
G1X12.79Y13.35
G1X12.78
G1X12.81Y13.47
G1X12.89Y13.65
G1X12.94Y13.75
G1X12.98Y13.83
G1X13Y13.88
G1Y13.9
G1X12.99
G1X12.96Y13.87
G1X12.92Y13.82
G1X12.81Y13.66
G1X12.77Y13.62
G1X12.75
G1Y13.63
G1Y13.68
G1X12.78Y13.75
G1X12.82Y13.84
G1X12.92Y14.05
G1X12.93Y14.08
G1X12.91Y14.06
G1X12.84Y13.98
G1X12.74Y13.83
G1X12.68Y13.68
G1X12.66Y13.62
G1X12.65Y13.58
G1X12.63Y13.56
G1X12.62Y13.58
G1Y13.63
G1X12.64Y13.72
G1X12.69Y13.83
G1X12.79Y14.08
G1X12.83Y14.17
G1X12.86Y14.24
G1Y14.29
G1Y14.31
G1X12.84Y14.3
G1X12.8Y14.25
G1X12.71Y14.1
G1X12.69Y14.07
G1X12.67Y14.05
G1X12.68Y14.14
G1X12.79Y14.42
G1X12.8Y14.48
G1X12.77Y14.45
G1X12.65Y14.27
G1X12.63Y14.23
G1X12.61
G1Y14.25
G1X12.63Y14.35
G1X12.7Y14.51
G1X12.74Y14.59
G1X12.77Y14.65
G1X12.81Y14.68
G1X12.84
G1X12.87Y14.66
G1X12.92Y14.61
G1X12.98Y14.54
G1X13.05Y14.43
G1X13.13Y14.31
G1X13.19Y14.19
G1X13.23Y14.09
G1X13.24Y14.02
G1X13.27Y13.86
G1X13.33Y13.65
G1X13.36Y13.56
G1X13.39Y13.5
G1X13.41Y13.46
G1X13.43Y13.49
G1X13.44Y13.47
G1X13.46Y13.41
G1X13.48Y13.32
G1X13.5Y13.14
M5
G0X12.37Y13.02
M3 S30
; Layer C00
G1X12.38Y12.87
G1X12.42Y12.78
G1X12.47Y12.66
G1X12.51Y12.45
G1X12.54Y12.21
G1X12.59Y11.95
G1Y11.92
G1X12.56Y11.95
G1X12.53Y12.02
G1X12.48Y12.14
G1X12.43Y12.3
G1X12.36Y12.5
G1X12.28Y12.73
G1X12.18Y13.07
G1X12.09Y13.39
G1X12.01Y13.7
G1X11.95Y13.98
G1X11.9Y14.24
G1X11.87Y14.48
G1X11.85Y14.71
G1Y14.91
G1Y15.06
G1X11.86Y15.15
G1X11.87Y15.18
G1X11.9Y14.98
G1X11.95Y14.75
G1X12.01Y14.47
G1X12.08Y14.17
G1X12.14Y13.88
G1X12.2Y13.62
G1X12.24Y13.42
G1X12.25Y13.32
G1X12.27Y13.24
G1X12.31Y13.2
G1X12.35Y13.15
G1X12.37Y13.02
M5
G0X12.11Y12.96
M3 S30
; Layer C00
G1Y12.89
G1X12.09
G1X12.04Y12.9
G1X11.98Y12.94
G1X11.92Y13.01
G1X11.78Y13.19
G1X11.64Y13.41
G1X11.54Y13.58
G1X11.45Y13.72
G1X11.35Y13.82
G1X11.26Y13.88
G1X11.15Y13.94
G1X11.12Y13.92
G1X11.13Y13.89
G1X11.17Y13.83
G1X11.36Y13.49
G1X11.42Y13.39
G1X11.45Y13.32
G1Y13.28
G1X11.43
G1X11.39Y13.29
G1X11.31Y13.33
G1X11.21Y13.4
G1X11.13Y13.45
G1X11.07Y13.5
G1X11.04Y13.53
G1X11.05Y13.55
G1X11.04Y13.6
G1X11.01Y13.66
G1X10.97Y13.74
G1X10.87Y13.92
G1X10.76Y14.07
G1X10.74Y14.08
G1Y14.05
G1X10.78Y13.97
G1X10.92Y13.73
G1X10.96Y13.64
G1X10.98Y13.58
G1X10.96Y13.56
G1X10.9Y13.58
G1X10.8Y13.63
G1X10.65Y13.71
G1X10.29Y13.93
G1X10.17Y14.01
G1X10.07Y14.09
G1X9.98Y14.17
G1X9.9Y14.28
G1X9.82Y14.41
G1X9.72Y14.59
G1X9.59Y14.82
G1X9.45Y15.08
G1X9.36Y15.28
G1X9.33Y15.34
G1X9.31Y15.39
G1Y15.41
G1Y15.4
G1X9.41Y15.32
G1X9.48Y15.3
G1X9.55Y15.27
G1X9.62Y15.18
G1X9.7Y15.09
G1X9.76Y15.08
G1X9.79
G1X9.78Y15.05
G1Y14.96
G1X9.83Y14.83
G1X9.89Y14.7
G1X9.95Y14.65
G1Y14.68
G1X9.92Y14.76
G1X9.88Y14.85
G1X9.86Y14.9
G1X9.88Y14.92
G1X9.95Y14.89
G1Y14.9
G1Y14.93
G1X9.89Y15.04
G1X9.88Y15.07
G1X9.9
G1X9.96Y15.05
G1X10.08Y14.99
G1X10.26Y14.89
G1X11.2Y14.36
G1X11.44Y14.21
G1X11.62Y14.09
G1X11.75Y13.98
G1X11.83Y13.88
G1X11.88Y13.78
G1X11.91Y13.66
G1X11.93Y13.51
G1X11.97Y13.29
G1X12.05Y13.09
G1X12.11Y12.96
M5
G0X11.76Y14.17
M3 S30
; Layer C00
G1X11.7
G1X11.63Y14.2
G1X11.53Y14.25
G1X11.2Y14.44
G1X10.97Y14.58
G1X10.79Y14.7
G1X10.68Y14.78
G1X10.66Y14.83
G1Y14.87
G1X10.53Y14.84
G1Y14.87
G1Y14.91
G1X10.49Y14.93
G1X10.46
G1X10.45Y14.94
G1X10.46Y14.96
G1X10.5Y14.98
G1X10.58Y15.02
G1X10.65Y15.03
G1X10.66
G1X10.63Y15
G1X10.65Y14.97
G1X10.75Y14.9
G1X10.92Y14.8
G1X11.15Y14.69
G1X11.33Y14.6
G1X11.47Y14.53
G1X11.57Y14.47
G1X11.65Y14.42
G1X11.74Y14.34
G1X11.76Y14.25
G1Y14.17
M5
G0X12.93Y14.97
M3 S30
; Layer C00
G1Y14.99
G1X12.94Y15.04
G1Y15.22
G1X12.96Y15.47
G1X12.99Y15.63
G1X13Y15.68
G1Y15.7
G1X12.99
G1X12.96Y15.68
G1X12.91Y15.6
G1X12.88Y15.49
G1X12.86Y15.43
G1Y15.42
G1X12.85Y15.45
G1Y15.54
G1Y15.74
G1X12.9Y15.95
G1X12.92Y16.04
G1X12.94Y16.11
G1Y16.16
G1Y16.18
G1X12.92
G1X12.9Y16.15
G1X12.87Y16.09
G1X12.84Y16
G1X12.78Y15.8
G1X12.77Y15.57
G1X12.79Y15.35
G1X12.86Y15.12
G1X12.91Y15
G1X12.93Y14.97
M5
G0X13.54Y14.76
M3 S30
; Layer C00
G1X13.51Y14.68
G1X13.49Y14.59
G1Y14.51
G1X13.52Y14.42
G1X13.58Y14.31
G1X13.67Y14.12
G1X13.71Y13.97
G1Y13.91
G1X13.72Y13.88
G1X13.74Y13.89
G1X13.77Y13.93
G1X13.81Y14.03
G1X13.82Y14.15
G1Y14.21
G1Y14.24
G1X13.79
G1X13.77Y14.2
G1X13.74Y14.17
G1X13.72Y14.18
G1Y14.23
G1X13.7Y14.41
G1Y14.45
G1X13.68
G1X13.65Y14.4
G1X13.63Y14.36
G1X13.61Y14.37
G1X13.59Y14.44
G1X13.57Y14.72
G1X13.56Y14.78
G1X13.54Y14.76
M5
G0X5.97Y16.49
M3 S30
; Layer C00
G1X5.95
G1X5.91
G1X5.83Y16.54
G1X5.57Y16.69
G1X5.37Y16.82
G1X5.22Y16.93
G1X5.12Y17.02
G1X5.06Y17.1
G1X5.04Y17.17
G1Y17.2
G1X5.08Y17.16
G1X5.25Y16.98
G1X5.28Y16.95
G1Y16.99
G1X5.18Y17.17
G1X5.16Y17.23
G1Y17.26
G1X5.19Y17.24
G1X5.22Y17.19
G1X5.27Y17.11
G1X5.34Y17.01
G1X5.4Y16.92
G1X5.45Y16.85
G1X5.49Y16.81
G1X5.52Y16.79
G1Y16.83
G1X5.5Y16.9
G1X5.41Y17.07
G1X5.39Y17.12
G1Y17.15
G1X5.42Y17.12
G1X5.46Y17.07
G1X5.51Y17
G1X5.63Y16.81
G1X5.69Y16.73
G1X5.73Y16.69
G1X5.76Y16.68
G1Y16.74
G1X5.7Y16.85
G1X5.63Y16.96
G1X5.6Y17.03
G1X5.62
G1X5.67Y16.97
G1X5.76Y16.84
G1X5.93Y16.57
G1X5.96Y16.52
G1Y16.49
M5
G0X4.6Y17.51
M3 S30
; Layer C00
G1X4.57Y17.59
G1X4.5Y17.74
G1X4.4Y17.94
G1X4.31Y18.12
G1X4.18Y18.36
G1X4.14Y18.43
G1X4.09Y18.49
G1Y18.47
G1X4.12Y18.38
G1X4.25Y18.12
G1X4.28Y18.04
G1X4.3Y17.98
G1Y17.95
G1X4.28Y17.96
G1X4.24Y18
G1X4.2Y18.06
G1X4.1Y18.22
G1X4.06Y18.28
G1X4.04Y18.31
G1X4.03
G1X4.04Y18.25
G1X4.08Y18.16
G1X4.14Y18.05
G1X4.21Y17.94
G1X4.29Y17.84
G1X4.36Y17.76
G1X4.41Y17.71
G1X4.45Y17.69
G1X4.48
G1X4.47Y17.63
G1X4.45Y17.56
G1X4.47
G1X4.52
G1X4.59Y17.5
G1X4.6
M5
G0X4.28Y17.61
M3 S30
; Layer C00
G1Y17.65
G1X4.25Y17.73
G1X4.19Y17.84
G1X4.03Y18.15
G1X3.98Y18.27
G1X3.96Y18.34
G1Y18.36
G1X4.01Y18.34
G1X4.02Y18.36
G1X4.01Y18.41
G1X3.96Y18.5
G1X3.85Y18.61
G1X3.67Y18.74
G1X3.58Y18.8
G1X3.5Y18.84
G1X3.43Y18.86
G1X3.4
G1X3.35
G1X3.29Y18.93
G1X3.23Y18.98
G1X3.21
G1X3.25Y18.86
G1X3.34Y18.7
G1X3.43Y18.57
G1X3.5Y18.52
G1X3.53
G1Y18.47
G1Y18.4
G1X3.58Y18.35
G1X3.63Y18.31
G1X3.71Y18.22
G1X3.79Y18.1
G1X3.97Y17.82
G1X4.04Y17.72
G1X4.09Y17.65
G1X4.12Y17.63
G1Y17.64
G1X4.11Y17.7
G1X4.07Y17.8
G1X3.94Y18.05
G1X3.89Y18.14
G1X3.88Y18.19
G1Y18.21
G1X3.9Y18.18
G1X3.94Y18.13
G1X4Y18.04
G1X4.16Y17.77
G1X4.23Y17.67
G1X4.27Y17.62
G1X4.28
M5
G0X3.66Y17.4
M3 S30
; Layer C00
G1X3.62Y17.41
G1X3.54Y17.45
G1X3.43Y17.5
G1X3.15Y17.69
G1X2.84Y17.94
G1X2.54Y18.23
G1X2.32Y18.49
G1X2.2Y18.67
G1Y18.68
G1X2.21Y18.67
G1X2.37Y18.49
G1X2.6Y18.25
G1X2.83Y18.03
G1X3.08Y17.82
G1X3.37Y17.62
G1X3.49Y17.54
G1X3.58Y17.47
G1X3.64Y17.43
G1X3.66Y17.4
M5
G0X3.11Y18.22
M3 S30
; Layer C00
G1X3.07Y18.24
G1X3.02Y18.31
G1X2.96Y18.41
G1X2.83Y18.65
G1X2.77Y18.74
G1X2.73Y18.8
G1X2.71Y18.81
G1Y18.74
G1X2.77Y18.61
G1X2.83Y18.49
G1Y18.44
G1X2.78Y18.49
G1X2.71Y18.61
G1X2.63Y18.72
G1X2.49Y18.77
G1X2.4Y18.89
G1X2.29Y19.05
G1X2.19Y19.16
G1X2.03Y19.37
G1X1.95Y19.55
G1Y19.61
G1X1.98Y19.64
G1X2.03
G1X2.11Y19.59
G1X2.17Y19.52
G1Y19.47
G1Y19.45
G1X2.21Y19.47
G1X2.28
G1X2.36Y19.4
G1X2.42Y19.35
G1X2.46Y19.36
G1X2.49Y19.33
G1X2.53Y19.27
G1X2.58Y19.19
G1X2.86Y18.73
G1X2.95Y18.56
G1X3.03Y18.43
G1X3.08Y18.33
G1X3.1Y18.26
G1X3.11Y18.23
G1Y18.22
M5
G0X4.24Y18.74
M3 S30
; Layer C00
G1Y18.79
G1X4.19Y18.9
G1X4.12Y19.04
G1X4.03Y19.21
G1X3.93Y19.38
G1X3.84Y19.53
G1X3.76Y19.65
G1X3.71Y19.72
G1X3.64Y19.76
G1X3.62Y19.75
G1X3.92Y19.21
G1X4.24Y18.74
M5
G0X4.44Y18.95
M3 S30
; Layer C00
G1X4.82Y18.38
G1X4.81Y18.43
G1X4.75Y18.56
G1X4.65Y18.75
G1X4.53Y18.97
G1X4.41Y19.19
G1X4.3Y19.38
G1X4.21Y19.52
G1X4.16Y19.58
G1X4.1
G1X4.08Y19.56
G1X4.44Y18.95
M5
G0X16.48Y7.59
M3 S30
; Layer C00
G1X16.46Y7.53
G1Y7.4
G1X16.42Y7.25
G1X16.37Y7.12
G1X16.32Y7.07
G1X16.31Y7.04
G1X16.34Y6.96
G1X16.38Y6.89
G1X16.41Y6.87
G1X16.44Y6.88
G1X16.5Y6.93
G1X16.57Y7.07
G1X16.6Y7.29
G1Y7.4
G1X16.59Y7.49
G1X16.56Y7.56
G1X16.53Y7.6
G1X16.48
M5
G0X16.08Y7.58
M3 S30
; Layer C00
G1X16.06Y7.6
G1X16.04
G1X15.93Y7.36
G1X15.85Y7.04
G1X15.81Y6.99
G1X15.72Y7.02
G1X15.63Y7.09
G1X15.57Y7.19
G1X15.55Y7.27
G1X15.53Y7.29
G1Y7.26
G1X15.49Y7.15
G1Y7.18
G1Y7.24
G1X15.52Y7.42
G1X15.57Y7.64
G1Y7.67
G1X15.56
G1X15.53Y7.66
G1X15.47Y7.55
G1X15.4Y7.38
G1X15.36Y7.26
G1X15.31Y7.17
G1X15.28Y7.11
G1X15.24Y7.08
G1X15.21
G1X15.18Y7.12
G1X15.16Y7.19
G1X15.14Y7.28
G1Y7.48
G1X15.16Y7.59
G1X15.18Y7.61
G1X15.2Y7.6
G1Y7.57
G1X15.19Y7.51
G1X15.17Y7.44
G1Y7.41
G1X15.21Y7.44
G1X15.28Y7.52
G1X15.36Y7.64
G1X15.4Y7.74
G1Y7.78
G1X15.39Y7.8
G1X15.37Y7.78
G1X15.34Y7.74
G1X15.3Y7.7
G1X15.26
G1X15.24Y7.75
G1X15.26Y7.82
G1X15.3Y7.88
G1X15.38Y7.93
G1Y7.97
G1Y8
G1X15.44Y7.98
G1X15.52Y7.94
G1X15.59Y7.89
G1X15.63Y7.84
G1X15.64
G1Y7.88
G1X15.63Y7.94
G1X15.56Y8.13
G1X15.46Y8.33
G1X15.36Y8.51
G1X15.29Y8.66
G1X15.28Y8.7
G1Y8.71
G1X15.29
G1X15.33Y8.65
G1X15.41Y8.61
G1X15.58Y8.63
G1X15.66Y8.65
G1X15.71Y8.67
G1X15.72Y8.69
G1X15.66Y8.76
G1Y8.81
G1X15.65Y8.84
G1X15.56Y8.86
G1X15.4
G1X15.22Y8.89
G1X15.11Y8.91
G1X15.06
G1X15.07Y8.88
G1X15.19Y8.75
G1Y8.73
G1X15.11Y8.76
G1X14.96Y8.84
G1X14.86Y8.89
G1X14.78Y8.92
G1X14.73Y8.94
G1Y8.92
G1Y8.87
G1X14.71Y8.86
G1X14.66Y8.88
G1X14.6Y8.92
G1X14.56Y8.95
G1X14.54Y8.96
G1X14.53
G1Y8.93
G1X14.5Y8.89
G1X14.43
G1X14.38Y8.91
G1X14.36
G1Y8.89
G1X14.38Y8.85
G1X14.39Y8.82
G1X14.38
G1X14.34Y8.84
G1X14.21Y8.91
G1X14.16Y8.93
G1X14.14
G1Y8.91
G1Y8.88
G1X14.07
G1X13.96Y8.91
G1X13.83Y8.97
G1X13.78Y9
G1Y9.01
G1X13.79Y9.02
G1X13.84
G1X13.92Y9.05
G1X13.93Y9.11
G1X13.9Y9.17
G1X13.86Y9.19
G1X13.81Y9.21
G1X13.76Y9.26
G1X13.73Y9.29
G1X13.72
G1X13.71
G1X13.7Y9.22
G1X13.69Y9.21
G1X13.67Y9.23
G1X13.62Y9.33
G1X13.6
G1Y9.31
G1X13.61Y9.23
G1Y9.13
G1X13.59Y9.09
G1X13.54Y9.11
G1X13.47Y9.19
G1X13.41Y9.26
G1X13.36Y9.27
G1X13.31Y9.22
G1Y9.16
G1X13.33Y9.1
G1X13.38Y9.08
G1X13.47Y9.05
G1X13.59Y8.97
G1X13.76Y8.88
G1X14.01Y8.8
G1X14.24Y8.74
G1X14.44Y8.66
G1X14.51Y8.63
G1X14.56Y8.6
G1Y8.59
G1X14.54Y8.58
G1X14.42Y8.6
G1X14.15Y8.7
G1X14.07Y8.71
G1X14.01
G1X13.96Y8.68
G1X13.91Y8.65
G1X13.88Y8.66
G1X13.86Y8.67
G1X13.81Y8.65
G1X13.71Y8.62
G1X13.53Y8.61
G1X13.31Y8.62
G1X13.08Y8.66
G1X12.94Y8.71
G1X12.78Y8.8
G1X12.65Y8.89
G1X12.6Y8.96
G1X12.57Y9.03
G1X12.48Y9.12
G1X12.38Y9.27
G1X12.31Y9.45
G1X12.28Y9.57
G1X12.26Y9.61
G1Y9.56
G1X12.29Y9.29
G1Y9.23
G1X12.27
G1X12.23Y9.27
G1X12.19Y9.45
G1X12.17Y9.71
G1Y9.85
G1X12.15Y9.93
G1X12.14Y9.94
G1X12.11Y9.9
G1X12.09Y9.74
G1Y9.53
G1X12.11Y9.4
G1Y9.35
G1X12.1
G1X12.07Y9.41
G1X12.02Y9.6
G1Y9.81
G1X12.07Y10.01
G1X12.14Y10.2
G1X12.23Y10.34
G1X12.34Y10.43
G1X12.39Y10.45
G1X12.45
G1X12.5Y10.41
G1X12.55Y10.36
G1X12.57Y10.33
G1X12.59Y10.31
G1Y10.32
G1Y10.35
G1X12.62Y10.4
G1X12.69Y10.42
G1X12.74Y10.44
G1Y10.51
G1Y10.54
G1X12.75
G1X12.78Y10.5
G1X12.83Y10.44
G1X12.91Y10.3
G1X12.95Y10.19
G1Y10.15
G1X12.96Y10.14
G1X12.98Y10.15
G1X13.04Y10.23
G1X13.05Y10.24
G1X13.06Y10.22
G1X13.07Y10.12
G1Y10.1
G1X13.09
G1X13.14Y10.16
G1X13.16
G1X13.18Y10.13
G1X13.2Y10.08
G1X13.24Y10
G1X13.28Y9.99
G1Y10.06
G1X13.1Y10.35
G1X13.06Y10.48
G1Y10.55
G1X13.05Y10.58
G1X13.03Y10.55
G1X13Y10.47
G1X12.98Y10.42
G1X12.97
G1Y10.47
G1X12.98Y10.57
G1X12.99Y10.68
G1Y10.74
G1X12.98Y10.78
G1X12.93
G1X12.91Y10.82
G1X12.9Y10.88
G1Y10.98
G1Y11.11
G1Y11.17
G1X12.93
G1X13.02Y11.06
G1X13.05Y11.04
G1Y11.05
G1X13.06Y11.09
G1X13.1Y11.17
G1X13.18Y11.27
G1X13.27Y11.35
G1X13.3Y11.41
G1X13.26Y11.45
G1X13.18
G1X13.1Y11.42
G1X13.06Y11.37
G1Y11.35
G1X13.04Y11.36
G1X13.02Y11.41
G1X12.96Y11.59
G1X12.93Y11.62
G1X12.91Y11.6
G1X12.86Y11.41
G1Y11.38
G1X12.84Y11.41
G1Y11.51
G1X12.85Y11.61
G1X12.9Y11.75
G1X12.98Y11.92
G1X13.1Y12.12
G1X13.37Y12.59
G1X13.59Y13.02
G1X13.67Y13.2
G1X13.74Y13.36
G1X13.78Y13.49
G1X13.8Y13.59
G1X13.81Y13.68
G1Y13.72
G1X13.8
G1X13.74Y13.62
G1X13.72Y13.6
G1Y13.61
G1Y13.66
G1X13.69Y13.73
G1X13.65
G1X13.61Y13.75
G1X13.59Y13.85
G1Y13.95
G1X13.55Y13.96
G1X13.52Y13.98
G1X13.45Y14.04
G1X13.36Y14.14
G1X13.26Y14.28
G1X12.8Y14.91
G1X12.71Y15.04
G1X12.64Y15.17
G1X12.6Y15.28
G1X12.58Y15.37
G1X12.56Y15.48
G1X12.53Y15.5
G1X12.49
G1Y15.52
G1X12.5Y15.58
G1X12.58Y15.73
G1Y15.75
G1X12.56Y15.73
G1X12.5Y15.66
G1X12.44Y15.6
G1X12.39Y15.58
G1X12.36
G1X12.34Y15.62
G1Y15.76
G1X12.42Y15.97
G1X12.46Y16.06
G1X12.49Y16.13
G1Y16.17
G1Y16.18
G1X12.44Y16.17
G1X12.43Y16.19
G1X12.44Y16.24
G1X12.52Y16.39
G1X12.53Y16.43
G1X12.51
G1X12.44Y16.34
G1X12.34Y16.2
G1X12.28Y16.1
G1X12.23Y16.04
G1X12.21Y16.01
G1X12.2
G1Y16.05
G1X12.24Y16.12
G1X12.28Y16.21
G1X12.42Y16.48
G1X12.45Y16.56
G1X12.44Y16.57
G1X12.39Y16.54
G1X12.36
G1X12.37Y16.56
G1X12.42Y16.62
G1X12.49Y16.71
G1X12.58Y16.81
G1X12.66Y16.89
G1X12.72Y16.94
G1X12.85Y17.01
G1X12.99Y17.13
G1X13.17Y17.27
G1X13.41Y17.43
G1X13.71Y17.59
G1X14.05Y17.76
G1X14.81Y18.08
G1X15.58Y18.33
G1X15.95Y18.44
G1X16.08Y18.47
G1X16.17Y18.48
G1X16.35
G1X16.6Y18.43
G1X16.75Y18.4
G1X16.83Y18.37
G1X16.86Y18.35
G1X16.83Y18.33
G1X16.81Y18.31
G1X16.85Y18.3
G1X16.94
G1X17.27Y18.29
G1X17.45Y18.28
G1X17.6Y18.27
G1X17.73Y18.25
G1X17.82Y18.22
G1X17.88Y18.2
G1X17.9Y18.17
G1X17.88Y18.14
G1X17.84Y18.1
G1X17.86Y18.07
G1X17.97Y18.05
G1X18.18Y18.03
G1X18.38
G1X18.62Y18.05
G1X18.89Y18.09
G1X19.15Y18.14
G1X19.38Y18.19
G1X19.55Y18.25
G1X19.61Y18.27
G1X19.64Y18.3
G1Y18.32
G1X19.62Y18.33
G1X19.56Y18.36
G1X19.55Y18.37
G1X19.57
G1X19.68Y18.39
G1X19.7Y18.4
G1X19.67Y18.41
G1X19.54Y18.46
G1X19.51Y18.47
G1Y18.48
G1X19.56
G1X19.78Y18.47
G1X20.06Y18.4
G1X20.37Y18.29
G1X20.7Y18.14
G1X21.03Y17.97
G1X21.35Y17.78
G1X21.64Y17.58
G1X21.88Y17.38
G1X22.24Y16.99
G1X22.55Y16.58
G1X22.79Y16.16
G1X22.96Y15.72
G1X23.08Y15.26
G1X23.13Y14.78
G1X23.12Y14.28
G1X23.05Y13.76
G1X22.98Y13.46
G1X22.89Y13.1
G1X22.79Y12.73
G1X22.68Y12.36
G1X22.58Y12.03
G1X22.49Y11.76
G1X22.45Y11.66
G1X22.42Y11.59
G1X22.4Y11.55
G1X22.38
G1X22.36
G1Y11.48
G1X22.39Y11.35
G1X22.44Y11.18
G1Y11.11
G1X22.41Y11.09
G1X22.39Y11.1
G1X22.36Y11.16
G1X22.34Y11.24
G1X22.32Y11.33
G1X22.26Y11.52
G1X22.2Y11.65
G1X22.16Y11.67
G1X22.13
G1X22.12Y11.64
G1X22.11Y11.57
G1X22.14Y11.4
G1X22.22Y11.19
G1X22.3Y10.99
G1X22.34Y10.84
G1X22.32Y10.73
G1X22.25Y10.68
G1X22.21Y10.67
G1X22.19Y10.68
G1X22.17Y10.71
G1Y10.77
G1X22.16Y10.83
G1Y10.86
G1X22.14Y10.84
G1X22.11Y10.78
G1X22.08Y10.64
G1Y10.46
G1Y10.28
G1X22.05Y10.13
G1X22.01Y10.06
G1Y10.03
G1X22.02Y10.04
G1X22.07Y10.08
G1X22.17Y10.21
G1X22.28Y10.39
G1X22.32Y10.47
G1X22.36Y10.52
G1X22.39Y10.54
G1Y10.53
G1X22.4Y10.49
G1X22.41Y10.48
G1X22.43Y10.49
G1X22.46Y10.54
G1X22.5Y10.56
G1X22.58Y10.54
G1X22.67Y10.48
G1X22.77Y10.41
G1X22.96Y10.21
G1X23.07Y10.02
G1Y9.81
G1X22.98Y9.56
G1X22.82Y9.29
G1X22.62Y9.02
G1X22.38Y8.78
G1X22.15Y8.58
G1X22.03Y8.51
G1X21.92Y8.46
G1X21.81Y8.43
G1X21.72
G1X21.64
G1X21.62Y8.45
G1X21.67
G1X21.77
G1X21.93Y8.48
G1X21.99Y8.53
G1X22.01Y8.56
G1X22.05
G1X22.09
G1Y8.66
G1X22.07Y8.76
G1X22.01Y8.82
G1X22.04Y8.87
G1X22.07Y8.95
G1Y9.03
G1Y9.07
G1X22.09Y9.09
G1X22.12Y9.1
G1X22.17
G1X22.25
G1X22.37Y9.16
G1X22.47Y9.13
G1X22.56Y9.1
G1X22.62
G1Y9.13
G1X22.59
G1X22.55Y9.16
G1X22.54Y9.22
G1Y9.27
G1X22.58
G1X22.64
G1X22.7Y9.34
G1X22.75Y9.46
G1X22.78Y9.59
G1X22.8Y9.75
G1X22.86Y9.95
G1X22.84
G1X22.78
G1X22.72Y10.01
G1X22.68Y10.06
G1X22.65
G1X22.62Y10.04
G1X22.58Y9.97
G1X22.55Y9.88
G1X22.57Y9.8
G1X22.63Y9.77
G1X22.71Y9.79
G1X22.73Y9.77
G1X22.69Y9.69
G1X22.67Y9.64
G1X22.66Y9.61
G1Y9.6
G1X22.69
G1X22.73Y9.63
G1X22.75Y9.62
G1Y9.58
G1X22.71Y9.5
G1X22.69Y9.46
G1X22.66
G1X22.61Y9.51
G1X22.48Y9.68
G1X22.42Y9.74
G1X22.37Y9.77
G1X22.34
G1X22.3
G1X22.26Y9.82
G1X22.24Y9.85
G1Y9.8
G1Y9.7
G1X22.29Y9.6
G1X22.34Y9.53
G1X22.4Y9.5
G1X22.48Y9.47
G1X22.5Y9.42
G1X22.44Y9.34
G1X22.33Y9.27
G1X22.16Y9.19
G1X22.03Y9.15
G1X21.97
G1Y9.2
G1X21.99Y9.24
G1X21.97
G1X21.93Y9.21
G1X21.78Y9.15
G1X21.26Y9.06
G1X21.06Y8.99
G1X21Y8.95
G1X20.98Y8.94
G1X21.03
G1X21.25Y8.99
G1X21.53Y9.02
G1X21.67
G1X21.79Y9.03
G1X21.87
G1X21.91Y9.02
G1Y8.98
G1X21.88Y8.95
G1X21.82Y8.92
G1X21.74Y8.89
G1X21.54Y8.85
G1X21.32Y8.83
G1X21.08
G1X20.91Y8.82
G1X20.85Y8.8
G1X20.81Y8.79
G1Y8.77
G1X20.82Y8.75
G1X20.83Y8.73
G1X20.81
G1X20.76Y8.71
G1X20.69
G1X20.55Y8.73
G1X20.52Y8.77
G1Y8.79
G1X20.47
G1X20.35Y8.77
G1X20.14Y8.73
G1X20.08Y8.7
G1X19.97Y8.64
G1X19.94
G1X19.92Y8.71
G1Y8.81
G1X19.94Y8.91
G1X19.91Y8.96
G1X19.83
G1X19.58Y8.94
G1X19.52
G1Y8.95
G1X19.53Y8.97
G1X19.59Y8.98
G1X19.67Y9.01
G1X19.78Y9.03
G1X20.01Y9.07
G1X20.07Y9.09
G1X20.1Y9.1
G1Y9.12
G1X20.06Y9.13
G1X19.99Y9.14
G1X19.9
G1X19.78
G1X19.53Y9.15
G1X19.34Y9.19
G1X19.19Y9.22
G1X19.09Y9.18
G1X19.05Y9.15
G1X19.03
G1Y9.16
G1Y9.2
G1Y9.23
G1X19Y9.26
G1X18.94Y9.27
G1X18.85
G1X18.69Y9.3
G1X18.62Y9.36
G1Y9.4
G1Y9.41
G1X18.63
G1X18.67Y9.37
G1X18.77Y9.3
G1X18.84
G1X18.85Y9.34
G1X18.79Y9.43
G1X18.71Y9.53
G1Y9.6
G1Y9.63
G1X18.69
G1X18.65Y9.66
G1X18.63Y9.74
G1Y9.84
G1Y9.96
G1X18.66Y10.08
G1X18.69Y10.18
G1X18.73Y10.26
G1X18.78Y10.3
G1X18.88Y10.29
G1X18.98Y10.25
G1X19.04Y10.2
G1Y10.14
G1X19.02Y10.06
G1X19.04Y9.99
G1X19.11Y9.94
G1X19.22Y9.9
G1X19.53Y9.85
G1X19.93
G1X20.36Y9.88
G1X20.77Y9.96
G1X20.96Y10.02
G1X21.12Y10.08
G1X21.25Y10.15
G1X21.35Y10.24
G1X21.41Y10.3
G1X21.43Y10.33
G1X21.24Y10.2
G1X21.17Y10.17
G1X21.16
G1Y10.19
G1X21.19Y10.23
G1X21.24Y10.28
G1X21.36Y10.44
G1X21.45Y10.61
G1X21.49Y10.77
G1Y10.91
G1Y10.99
G1X21.55Y11.05
G1X21.59
G1X21.62Y11.01
G1Y10.9
G1X21.6Y10.55
G1Y10.45
G1X21.61Y10.42
G1X21.64Y10.44
G1X21.68Y10.56
G1X21.7Y10.68
G1X21.72Y10.77
G1X21.77Y10.81
G1X21.82Y10.83
G1X21.84Y10.9
G1Y11
G1X21.8Y11.13
G1X21.68Y11.4
G1X21.5Y11.64
G1X21.4Y11.75
G1X21.32Y11.84
G1X21.28Y11.9
G1Y11.94
G1X21.25Y11.97
G1X21.14
G1X21.01Y12
G1X20.96Y12.06
G1X20.98Y12.11
G1X21.01
G1X21.04
G1X21.06Y12.15
G1X21.09Y12.19
G1X21.24
G1X21.27Y12.24
G1X21.25Y12.29
G1X21.2
G1X21.16
G1X21.14Y12.33
G1X21.19Y12.38
G1X21.33Y12.4
G1X21.48Y12.37
G1X21.61Y12.32
G1X21.67Y12.28
G1X21.7Y12.3
G1X21.68Y12.35
G1X21.64Y12.39
G1X21.6Y12.45
G1X21.59Y12.52
G1Y12.55
G1X21.61
G1X21.64Y12.52
G1X21.69Y12.45
G1X21.75Y12.32
G1X21.77Y12.24
G1Y12.21
G1X21.81Y12.2
G1X21.84Y12.17
G1X21.91Y12.11
G1X21.99Y12.01
G1X22.08Y11.89
G1X22.16Y11.78
G1X22.24Y11.7
G1X22.31Y11.65
G1X22.36Y11.63
G1X22.39
G1X22.4Y11.67
G1Y11.74
G1X22.35Y11.84
G1X22.32Y11.91
G1Y11.94
G1Y11.96
G1X22.38Y11.93
G1X22.39
G1Y11.96
G1Y12
G1X22.37Y12.06
G1X22.4Y12.09
G1X22.43Y12.11
G1Y12.17
G1X22.42Y12.23
G1X22.5Y12.34
G1X22.52Y12.44
G1Y12.49
G1Y12.52
G1X22.55
G1X22.6Y12.46
G1X22.62Y12.45
G1X22.64Y12.48
G1X22.66Y12.54
G1X22.67Y12.63
G1X22.69Y12.77
G1X22.7Y12.95
G1X22.72Y13.18
G1Y13.63
G1X22.66Y14.07
G1X22.56Y14.45
G1X22.41Y14.75
G1X22.39Y14.76
G1X22.38Y14.72
G1X22.37Y14.65
G1Y14.55
G1X22.39Y14.35
G1X22.42Y14.21
G1X22.43Y14.14
G1X22.4Y14.05
G1X22.37Y14
G1X22.35Y13.99
G1Y14.01
G1X22.37Y14.07
G1Y14.17
G1X22.34Y14.26
G1X22.31Y14.29
G1X22.3
G1Y14.27
G1X22.33Y14.16
G1Y14.12
G1X22.32Y14.11
G1X22.26Y14.13
G1Y14.11
G1Y14.07
G1X22.33Y13.89
G1Y13.83
G1X22.31
G1X22.19Y13.97
G1X22.17
G1X22.19Y13.9
G1X22.3Y13.62
G1X22.34Y13.51
G1X22.36Y13.43
G1X22.37Y13.37
G1Y13.34
G1X22.34Y13.35
G1X22.31Y13.4
G1X22.26Y13.48
G1X22.2Y13.57
G1X22.16Y13.64
G1X22.13Y13.68
G1X22.12
G1Y13.67
G1Y13.62
G1X22.16Y13.55
G1X22.25Y13.32
G1X22.26Y13.27
G1X22.24Y13.29
G1X22.17Y13.37
G1X22.13Y13.41
G1X22.1Y13.42
G1X22.08Y13.4
G1X22.07Y13.36
G1X22.09Y13.19
G1X22.16Y12.94
G1X22.18Y12.85
G1X22.2Y12.8
G1Y12.77
G1X22.19
G1X22.16Y12.8
G1X22.12Y12.86
G1X22.07Y12.95
G1X22Y13.07
G1X21.89Y13.28
G1X21.83Y13.43
G1X21.82Y13.48
G1Y13.51
G1X21.83Y13.53
G1X21.86Y13.52
G1X21.88
G1Y13.57
G1X21.9Y13.63
G1Y13.8
G1Y13.85
G1Y13.87
G1X21.92Y13.84
G1X21.94Y13.83
G1X21.97Y13.87
G1X22.01Y13.96
G1X22.06Y14.08
G1X22.13Y14.36
G1X22.17Y14.6
G1X22.18Y14.71
G1X22.22Y14.79
G1X22.25Y14.84
G1X22.28Y14.94
G1X22.31Y15.06
G1X22.34Y15.2
G1X22.38Y15.51
G1X22.4Y15.79
G1Y15.88
G1Y15.94
G1X22.39Y15.97
G1X22.37
G1X22.35Y15.92
G1X22.31Y15.83
G1X22.13Y15.33
G1X22.07Y15.18
G1X22.03Y15.08
G1X22Y15.03
G1Y15.08
G1X22.03Y15.19
G1X22.08Y15.35
G1X22.16Y15.73
G1X22.21Y16.16
G1Y16.37
G1Y16.55
G1X22.18Y16.71
G1X22.15Y16.82
G1X22.12Y16.89
G1X22.09Y16.93
G1X22.07
G1Y16.9
G1X22.05Y16.83
G1Y16.72
G1Y16.56
G1Y16.35
G1Y16.27
G1X22.03Y16.23
G1X22.02
G1X21.96Y16.3
G1X21.94
G1Y16.26
G1X21.97Y16.13
G1Y16.09
G1Y16.06
G1X21.94
G1X21.92
G1X21.9Y16
G1Y15.9
G1X21.92Y15.61
G1Y15.51
G1X21.9Y15.47
G1X21.88Y15.48
G1X21.86Y15.5
G1X21.85Y15.48
G1Y15.42
G1X21.87Y15.2
G1Y15.14
G1X21.85Y15.12
G1X21.82Y15.15
G1X21.79Y15.18
G1X21.77
G1Y15.13
G1X21.8Y14.96
G1Y14.91
G1Y14.89
G1X21.76
G1X21.72
G1X21.68Y14.79
G1X21.64
G1X21.62
G1X21.6Y14.78
G1Y14.74
G1X21.62Y14.68
G1Y14.52
G1X21.56Y14.34
G1X21.47Y14.14
G1X21.41Y13.91
G1X21.39Y13.83
G1X21.38Y13.78
G1X21.36Y13.77
G1X21.33Y13.9
G1X21.29Y13.95
G1X21.25Y13.93
G1X21.23Y13.84
G1X21.18Y13.67
G1X21.06Y13.45
G1X20.93Y13.23
G1X20.88Y13.04
G1X20.87Y12.92
G1X20.83Y12.9
G1X20.78Y12.91
G1X20.77Y12.89
G1X20.79Y12.83
G1X20.84Y12.74
G1X20.89Y12.62
G1X20.91Y12.5
G1X20.94Y12.39
G1X21Y12.28
G1X21.04Y12.23
G1Y12.2
G1X20.96
G1X20.8Y12.22
G1X20.46Y12.25
G1X20.04Y12.27
G1X19.89
G1X19.72
G1X19.7
G1X19.74Y12.28
G1X19.82Y12.29
G1X20.35Y12.32
G1X20.56Y12.34
G1X20.59
G1X20.56
G1X20.47
G1X19.92Y12.36
G1X19.75
G1X19.61Y12.34
G1X19.5Y12.32
G1X19.29Y12.24
G1X19.06Y12.08
G1X18.95Y12
G1X18.89Y11.96
G1X18.85
G1X18.82Y12.06
G1X18.78
G1X18.74
G1X18.73Y12.09
G1X18.71Y12.12
G1X18.66
G1X18.62Y12.04
G1Y11.93
G1X18.63Y11.8
G1X18.61Y11.7
G1X18.58Y11.67
G1X18.56Y11.69
G1Y11.76
G1X18.54Y11.87
G1Y12.01
G1Y12.06
G1X18.52Y12.03
G1X18.47Y11.83
G1X18.45Y11.79
G1Y11.8
G1X18.43Y11.94
G1X18.42Y11.96
G1X18.39Y11.93
G1X18.3Y11.74
G1X18.27Y11.71
G1X18.25Y11.75
G1X18.23Y11.85
G1X18.18Y11.97
G1X18.13Y12
G1X18.06
G1X17.97Y12.08
G1X17.92Y12.13
G1X17.88Y12.16
G1X17.84
G1X17.79Y12.13
G1X17.76Y12.1
G1X17.74
G1Y12.13
G1X17.77Y12.26
G1X17.74Y12.24
G1X17.71Y12.16
G1X17.63Y12.03
G1X17.55Y11.95
G1X17.53Y11.93
G1X17.52Y11.94
G1Y11.97
G1X17.59Y12.09
G1X17.61Y12.14
G1Y12.16
G1X17.59
G1X17.54Y12.13
G1X17.47Y12.09
G1X17.38Y12.01
G1X17.26Y11.92
G1X17.04Y11.72
G1X16.9Y11.56
G1X16.84Y11.42
G1Y11.31
G1X16.86Y11.28
G1X16.88Y11.27
G1X16.89
G1X16.9Y11.3
G1X16.93Y11.34
G1X16.97
G1X17.01Y11.35
G1X17.09Y11.41
G1X17.21Y11.5
G1X17.34Y11.61
G1X17.53Y11.77
G1X17.59Y11.82
G1X17.63Y11.84
G1X17.67
G1X17.7Y11.69
G1X17.73Y11.65
G1X17.77Y11.62
G1X17.93Y11.6
G1X18.01Y11.56
G1Y11.54
G1X17.95
G1X17.87Y11.56
G1X17.86Y11.52
G1X17.92Y11.44
G1X18.05Y11.34
G1X18.18Y11.25
G1X18.27Y11.2
G1X18.3
G1X18.27Y11.28
G1X18.29
G1X18.32Y11.27
G1X18.36Y11.23
G1X18.45Y11.12
G1X18.49Y11.01
G1Y10.95
G1X18.48Y10.93
G1X18.46
G1X18.44Y10.97
G1X18.41Y11.04
G1Y11.13
G1X18.38Y11.17
G1X18.33Y11.16
G1X18.29Y11.09
G1X18.25Y11.01
G1X18.2
G1X18.18Y10.99
G1Y10.91
G1X18.2Y10.85
G1Y10.82
G1X18.17
G1X18.14Y10.84
G1X18.1Y10.86
G1X18.09
G1Y10.83
G1X18.14Y10.79
G1X18.17Y10.74
G1X18.19Y10.7
G1Y10.67
G1X18.15Y10.65
G1X18.13Y10.61
G1X18.11Y10.55
G1Y10.47
G1Y10.37
G1Y10.24
G1Y10.18
G1X18.08Y10.2
G1X17.95Y10.33
G1X17.92Y10.36
G1X17.93Y10.33
G1X18.01Y10.17
G1Y10.15
G1X17.97Y10.18
G1X17.87Y10.26
G1X17.74Y10.36
G1X17.62Y10.41
G1X17.53
G1X17.51Y10.35
G1X17.49Y10.3
G1X17.33Y10.26
G1X17.31Y10.21
G1X17.3Y10.17
G1X17.24
G1X17.2
G1X17.14Y10.14
G1X17.08Y10.08
G1X17.01Y9.99
G1X16.95Y9.91
G1X16.9Y9.86
G1X16.87Y9.83
G1X16.86
G1X16.89Y9.92
G1X16.96Y10.03
G1X17.04Y10.17
G1X17.08Y10.32
G1Y10.38
G1Y10.43
G1X17.07Y10.45
G1X17.03
G1X17Y10.43
G1Y10.47
G1X17.07Y10.61
G1X17.09Y10.66
G1X17.07Y10.68
G1X17Y10.65
G1Y10.66
G1Y10.69
G1X17.02Y10.74
G1X17.06Y10.83
G1X16.99Y10.98
G1X17.06Y11.17
G1X17.04Y11.2
G1X16.97Y11.16
G1X16.9Y11.07
G1X16.86Y10.97
G1X16.82Y10.77
G1Y10.64
G1X16.8Y10.49
G1X16.79Y10.31
G1X16.78Y10.11
G1X16.76Y9.75
G1X16.73Y9.43
G1X16.69Y9.17
G1X16.6Y8.77
G1Y8.61
G1X16.61Y8.55
G1Y8.54
G1X16.58Y8.56
G1X16.45Y8.71
G1X16.4Y8.74
G1X16.36Y8.72
G1X16.31Y8.66
G1X16.25Y8.6
G1X16.22
G1X16.23Y8.69
G1X16.27Y8.85
G1X16.3Y9.02
G1X16.27Y9.14
G1X16.26Y9.2
G1X16.28Y9.27
G1X16.34Y9.37
G1X16.6Y9.67
G1X16.67Y9.82
G1X16.69Y9.91
G1X16.7Y10.02
G1Y10.17
G1Y10.37
G1Y10.51
G1Y10.62
G1Y10.7
G1X16.68Y10.74
G1X16.66Y10.76
G1X16.63Y10.74
G1X16.6Y10.69
G1X16.54Y10.57
G1X16.53Y10.56
G1Y10.59
G1X16.55Y10.67
G1X16.58Y10.84
G1X16.59Y11.01
G1X16.61Y11.12
G1X16.63Y11.15
G1X16.67Y11.1
G1X16.71Y10.93
G1X16.72
G1Y10.98
G1X16.73Y11.07
G1Y11.2
G1X16.72Y11.28
G1X16.68Y11.33
G1X16.54Y11.4
G1Y11.42
G1X16.61Y11.46
G1X16.67Y11.56
G1X16.72Y11.69
G1X16.74Y11.81
G1X16.77Y11.91
G1X16.89Y12.08
G1Y12.14
G1Y12.19
G1X16.92Y12.23
G1X16.96Y12.24
G1Y12.22
G1X16.98Y12.16
G1X17.1Y12.1
G1X17.21Y12.06
G1X17.26
G1X17.23Y12.11
G1X17.15Y12.2
G1X17.07Y12.33
G1X17.04Y12.55
G1X16.98Y12.61
G1X16.9Y12.64
G1X16.81Y12.62
G1X16.78
G1X16.75Y12.66
G1X16.71Y12.72
G1X16.61Y12.96
G1X16.55Y13.06
G1X16.51Y13.08
G1X16.53Y13.03
G1Y12.88
G1X16.48Y12.65
G1X16.45Y12.51
G1X16.43Y12.42
G1X16.45Y12.37
G1X16.48Y12.34
G1X16.53
G1Y12.39
G1Y12.45
G1X16.55Y12.5
G1X16.59Y12.47
G1Y12.36
G1X16.56Y12.22
G1X16.5Y12.1
G1X16.46Y12.05
G1X16.45Y12.03
G1X16.47Y12.04
G1X16.52Y12.08
G1X16.6Y12.11
G1X16.65Y12.1
G1X16.67Y12.02
G1X16.65Y11.95
G1X16.6Y11.91
G1X16.53
G1X16.47
G1X16.45Y11.88
G1X16.41Y11.84
G1X16.3Y11.82
G1X16.22
G1X16.18Y11.83
G1X16.17Y11.87
G1Y11.92
G1X16.18Y11.99
G1X16.15Y12
G1X16.12
G1X16.1Y12.05
G1Y12.09
G1X16.07Y12.11
G1X16.01
G1X15.92Y12.08
G1X15.79Y12.05
G1X15.71
G1Y12.08
G1X15.84Y12.1
G1X15.89Y12.14
G1Y12.15
G1X15.84Y12.17
G1X15.76
G1X15.54
G1X15.47
G1X15.44Y12.19
G1Y12.23
G1Y12.29
G1X15.42Y12.3
G1X15.34Y12.28
G1X15.1Y12.16
G1X15.03Y12.15
G1Y12.18
G1X15.12Y12.26
G1X15.19Y12.32
G1X15.21Y12.35
G1X15.17Y12.33
G1X15.06Y12.28
G1X14.91Y12.23
G1X14.83
G1X14.78
G1X14.72Y12.19
G1X14.66Y12.16
G1X14.64
G1X14.63Y12.17
G1X14.59Y12.16
G1X14.53Y12.12
G1X14.46Y12.06
G1X14.29Y11.95
G1X14.14Y11.89
G1X14.04Y11.85
G1X14Y11.8
G1X13.95Y11.77
G1X13.84Y11.75
G1X13.69Y11.74
G1X13.57Y11.7
G1X13.48Y11.66
G1X13.44Y11.61
G1X13.42Y11.54
G1X13.37Y11.44
G1X13.33Y11.28
G1Y11.05
G1X13.36Y10.95
G1X13.37Y10.88
G1X13.39Y10.85
G1X13.4
G1X13.42Y10.87
G1X13.46Y10.85
G1X13.51Y10.8
G1X13.57Y10.71
G1X13.66Y10.57
G1X13.7Y10.47
G1Y10.43
G1X13.64Y10.45
G1X13.6
G1Y10.41
G1X13.64Y10.36
G1X13.68Y10.33
G1X13.74Y10.32
G1X13.81Y10.29
G1X13.86Y10.27
G1X13.88Y10.29
G1X13.86Y10.34
G1X13.81Y10.41
G1X13.78Y10.45
G1X13.79Y10.47
G1X13.8Y10.5
G1X13.75Y10.59
G1X13.78Y10.57
G1X13.84Y10.51
G1X13.93Y10.43
G1X14.02Y10.33
G1X14.1Y10.24
G1X14.14Y10.18
G1Y10.14
G1Y10.09
G1X14.19Y10.04
G1X14.28Y9.98
G1X14.4Y9.94
G1X14.72Y9.87
G1X15.07Y9.84
G1X15.27
G1X15.4
G1X15.46Y9.82
G1Y9.79
G1X15.43Y9.77
G1Y9.76
G1X15.49
G1X15.58Y9.77
G1X15.8Y9.84
G1X16.02Y9.97
G1X16.19Y10.12
G1X16.29Y10.28
G1X16.38Y10.63
G1X16.42Y10.79
G1X16.43Y10.81
G1X16.42Y10.69
G1Y10.5
G1X16.46Y10.34
G1X16.5Y10.2
G1X16.47Y10.07
G1X16.42Y9.96
G1X16.39Y9.89
G1X16.32Y9.81
G1X16.19Y9.69
G1X16.04Y9.57
G1X15.94Y9.48
G1X15.85Y9.43
G1X15.76Y9.41
G1X15.72
G1X15.7Y9.4
G1X15.73Y9.38
G1X15.78Y9.36
G1X15.82Y9.34
G1Y9.32
G1X15.75Y9.31
G1X15.52
G1X15.45Y9.29
G1X15.43Y9.27
G1X15.46Y9.25
G1X15.5Y9.22
G1X15.51Y9.2
G1X15.46
G1X15.44Y9.18
G1X15.46Y9.14
G1X15.5Y9.09
G1X15.58Y9.02
G1X15.73Y8.91
G1X15.82Y8.86
G1X15.85Y8.82
G1Y8.73
G1Y8.68
G1X15.86Y8.64
G1X15.88Y8.62
G1X15.95
G1X15.97Y8.6
G1Y8.56
G1Y8.5
G1Y8.41
G1X15.99Y8.39
G1X16.03
G1Y8.32
G1X16.01Y8.2
G1X15.89Y7.94
G1Y7.88
G1X15.94Y7.9
G1X16.04Y8
G1X16.1Y8.07
G1X16.15Y8.1
G1X16.18Y8.11
G1X16.2Y8.09
G1X16.24Y8.05
G1X16.28
G1X16.36
G1X16.48Y8
G1X16.63Y7.94
G1X16.78Y7.92
G1X16.87
G1X16.91
G1X16.88Y7.94
G1X16.79
G1X16.66Y8
G1X16.51Y8.1
G1X16.45Y8.16
G1X16.41Y8.2
G1Y8.23
G1X16.43Y8.24
G1X16.49Y8.21
G1X16.55Y8.13
G1X16.63Y8.05
G1X16.72Y8.02
G1X16.76
G1X16.77Y8.04
G1X16.75Y8.07
G1X16.69Y8.12
G1X16.6Y8.23
G1X16.53Y8.36
G1X16.51Y8.43
G1X16.52Y8.45
G1X16.56Y8.41
G1X16.65Y8.31
G1X16.77Y8.21
G1X16.89Y8.14
G1X16.93Y8.12
G1X16.96
G1Y8.15
G1X16.95Y8.19
G1Y8.22
G1X17Y8.24
G1X17.06
G1X17.11Y8.23
G1X17.15Y8.24
G1X17.23Y8.29
G1X17.32Y8.35
G1X17.36Y8.33
G1X17.34Y8.25
G1X17.26Y8.12
G1X17.17Y7.98
G1X17.11Y7.83
G1X17.09Y7.78
G1Y7.74
G1X17.1
G1X17.13Y7.77
G1X17.23Y7.87
G1X17.31Y7.93
G1X17.36Y7.94
G1Y7.9
G1Y7.83
G1X17.37Y7.8
G1X17.39Y7.76
G1X17.4Y7.67
G1X17.42Y7.53
G1Y7.37
G1X17.43Y7.17
G1Y7.05
G1X17.41Y7.01
G1X17.38Y7.04
G1X17.34Y7.08
G1X17.3Y7.1
G1X17.25
G1X17.2
G1X17.14Y7.09
G1X17.1Y7.1
G1Y7.16
G1Y7.26
G1Y7.41
G1X17.08Y7.5
G1X17.05
G1X17.03Y7.47
G1X17.02Y7.34
G1X16.95Y7.15
G1X16.9Y7.01
G1Y6.94
G1Y6.92
G1X16.83Y6.94
G1X16.78Y6.96
G1X16.76
G1Y6.94
G1X16.77Y6.9
G1X16.79Y6.86
G1X16.77
G1X16.72Y6.9
G1X16.66Y6.94
G1X16.62
G1X16.57Y6.92
G1X16.41Y6.78
G1X16.34Y6.75
G1X16.27Y6.77
G1X16.19Y6.85
G1X16.13Y6.92
G1X16.11Y6.95
G1X16.13
G1X16.25Y6.92
G1X16.26
G1X16.24Y6.95
G1X16.17Y7.01
G1X16.11Y7.08
G1X16.07Y7.15
G1Y7.25
G1Y7.5
G1Y7.58
M5
G0X15.94Y6.88
M3 S30
; Layer C00
G1X16.01Y6.85
G1X16.08Y6.77
G1X16.18Y6.62
G1X16.22Y6.56
G1X16.24Y6.51
G1Y6.48
G1X16.23
G1X16.18Y6.5
G1X16.15Y6.48
G1X16.13Y6.12
G1X16.11Y5.9
G1X16.08Y5.77
G1X16.03Y5.7
G1X15.96Y5.68
G1X15.92Y5.71
G1X15.89Y5.77
G1X15.86Y5.86
G1X15.84Y5.98
G1X15.82Y6.24
G1X15.84Y6.46
G1Y6.61
G1X15.82Y6.72
G1X15.79Y6.75
G1X15.76
G1X15.72Y6.73
G1X15.69Y6.67
G1X15.64Y6.51
G1X15.61Y6.2
G1X15.59Y6.14
G1X15.56Y6.12
G1X15.53Y6.13
G1X15.48Y6.23
G1X15.46Y6.41
G1X15.49Y6.58
G1X15.57Y6.72
G1X15.68Y6.82
G1X15.79
G1X15.85
G1X15.9Y6.86
G1X15.94Y6.88
M5
G0X16.49Y6.62
M3 S30
; Layer C00
G1X16.58Y6.71
G1X16.69Y6.74
G1X16.74Y6.73
G1X16.77Y6.66
G1Y6.6
G1Y6.52
G1Y6.42
G1Y6.02
G1X16.76Y5.95
G1Y5.93
G1X16.77
G1X16.79Y5.99
G1X16.83Y6.2
G1X16.9Y6.5
G1X16.98Y6.71
G1X17.06Y6.84
G1X17.14Y6.89
G1X17.2Y6.86
G1X17.26Y6.74
G1X17.3Y6.55
G1X17.32Y6.27
G1Y6.08
G1X17.3Y5.92
G1X17.26Y5.8
G1X17.21Y5.71
G1X17.14Y5.65
G1X17.05Y5.63
G1X16.95Y5.65
G1X16.84Y5.69
G1X16.71Y5.74
G1X16.48Y5.75
G1X16.39Y5.79
G1X16.31Y5.84
G1X16.24Y5.92
G1X16.2Y6
G1X16.19Y6.08
G1X16.21Y6.15
G1X16.26Y6.2
G1X16.29Y6.17
G1Y6.05
G1Y5.97
G1Y5.93
G1X16.3
G1X16.33Y5.96
G1X16.37Y6.1
G1X16.4Y6.3
G1X16.43Y6.48
G1X16.49Y6.62
M5
G0X17.62Y6.48
M3 S30
; Layer C00
G1X17.71Y6.66
G1X17.7Y6.7
G1Y6.76
G1X17.74Y6.85
G1X17.78Y6.91
G1X17.83
G1X17.88Y6.88
G1X17.93Y6.81
G1X17.97Y6.7
G1X18.01Y6.56
G1X18.04Y6.4
G1Y6.22
G1X18.06Y6.06
G1X18.07Y5.91
G1X18.09Y5.8
G1X18.11Y5.75
G1Y5.72
G1X18.07Y5.7
G1X17.99Y5.69
G1X17.85
G1X17.72
G1X17.63
G1X17.57Y5.72
G1X17.55Y5.75
G1Y5.83
G1X17.52Y5.93
G1Y6.08
G1X17.56Y6.28
G1X17.62Y6.48
M5
G0X18.28Y6.47
M3 S30
; Layer C00
G1X18.29Y6.59
G1X18.34Y6.7
G1X18.41Y6.74
G1X18.48Y6.71
G1X18.55Y6.63
G1X18.59Y6.53
G1Y6.42
G1Y6.29
G1X18.61Y6.2
G1X18.64Y6.14
G1X18.7Y6.13
G1X18.76Y6.09
G1X18.78Y5.99
G1X18.76Y5.89
G1X18.69Y5.83
G1X18.55Y5.79
G1X18.43
G1X18.34Y5.84
G1X18.3Y5.92
G1X18.27Y6.06
G1Y6.18
G1X18.28Y6.26
G1X18.32Y6.29
G1X18.36Y6.31
G1X18.32Y6.37
G1X18.28Y6.47
M5
G0X18.93Y6.49
M3 S30
; Layer C00
G1X18.96Y6.66
G1X18.99Y6.77
G1X19.03Y6.84
G1X19.07Y6.86
G1X19.13Y6.82
G1X19.18Y6.74
G1X19.24Y6.6
G1X19.29Y6.38
G1Y6.14
G1X19.24Y5.94
G1X19.16Y5.79
G1X19.1Y5.74
G1X19.05Y5.72
G1X19Y5.73
G1X18.97Y5.78
G1X18.95Y5.85
G1X18.93Y5.97
G1Y6.11
G1Y6.28
G1Y6.49
M5
G0X18.78Y5.68
M3 S30
; Layer C00
G1X18.84Y5.65
G1X18.9Y5.56
G1X18.94Y5.36
G1X18.89Y5.14
G1X18.85Y5.05
G1X18.8Y4.99
G1X18.75Y4.97
G1X18.7Y5.01
G1Y5.06
G1X18.72Y5.1
G1X18.77Y5.18
G1X18.78Y5.32
G1X18.76Y5.46
G1X18.71Y5.53
G1X18.68Y5.56
G1Y5.61
G1X18.73Y5.66
G1X18.78Y5.68
M5
G0X18.54Y5.55
M3 S30
; Layer C00
G1X18.57Y5.47
G1X18.55Y5.32
G1X18.5Y5.16
G1X18.43Y5.04
G1X18.33Y4.96
G1X18.23Y4.98
G1X18.17Y5.08
G1X18.14Y5.24
G1X18.16Y5.35
G1X18.2Y5.46
G1X18.26Y5.54
G1X18.32Y5.57
G1X18.35Y5.55
G1Y5.51
G1Y5.48
G1X18.41Y5.45
G1X18.42Y5.42
G1Y5.36
G1X18.4Y5.22
G1Y5.17
G1X18.41Y5.15
G1X18.43
G1X18.47Y5.23
G1X18.51Y5.51
G1X18.54Y5.55
M5
G0X18.06Y5.42
M3 S30
; Layer C00
G1X18.08Y5.35
G1X18.06Y5.26
G1X17.94Y5.11
G1Y5.04
G1X17.93Y4.94
G1X17.86Y4.87
G1X17.76Y4.84
G1X17.67Y4.88
G1X17.58Y5.07
G1X17.56Y5.3
G1X17.57Y5.4
G1X17.6Y5.49
G1X17.64Y5.55
G1X17.7Y5.57
G1X17.82Y5.55
G1X17.89Y5.48
G1X17.94Y5.43
G1X18
G1X18.06Y5.42
M5
G0X17.48Y5.3
M3 S30
; Layer C00
G1X17.49Y5.19
G1X17.47Y5.1
G1X17.41Y5.05
G1X17.35Y5
G1X17.33Y4.93
G1X17.31Y4.86
G1X17.26
G1X17.19Y4.91
G1X17.1Y5.03
G1X17.03Y5.17
G1X16.98Y5.29
G1X16.96Y5.4
G1X16.98Y5.49
G1X17.01Y5.55
G1X17.08Y5.57
G1X17.16
G1X17.27Y5.51
G1X17.31Y5.49
G1X17.33Y5.47
G1X17.31
G1X17.23Y5.46
G1X17.21Y5.45
G1X17.22Y5.43
G1X17.26Y5.41
G1X17.31Y5.37
G1X17.33Y5.33
G1Y5.22
G1Y5.15
G1X17.35Y5.1
G1X17.38
G1X17.42Y5.18
G1Y5.34
G1X17.4Y5.43
G1Y5.47
G1X17.41
G1X17.44Y5.43
G1X17.48Y5.3
M5
G0X16.91Y5.3
M3 S30
; Layer C00
G1Y5.18
G1X16.89Y5.08
G1X16.83Y5.02
G1X16.75Y4.99
G1X16.69Y5.05
G1X16.65Y5.18
G1Y5.36
G1X16.67Y5.51
G1X16.74Y5.57
G1X16.82Y5.56
G1X16.88Y5.45
G1X16.91Y5.3
M5
G0X16.2Y4.82
M3 S30
; Layer C00
G1X16.18
G1Y4.79
G1X16.21Y4.71
G1X16.26Y4.56
G1X16.28Y4.43
G1Y4.39
G1X16.26Y4.37
G1X16.24Y4.39
G1X16.21Y4.44
G1X16.19Y4.51
G1X16.16Y4.55
G1X16.15Y4.56
G1X16.14
G1Y4.48
G1X16.18Y4.31
G1X16.21Y4.17
G1X16.25Y4.11
G1X16.29Y4.13
G1X16.37Y4.22
G1X16.46Y4.34
G1X16.5Y4.43
G1X16.49Y4.49
G1X16.42Y4.51
G1X16.36Y4.54
G1X16.33Y4.62
G1X16.31Y4.71
G1X16.24Y4.79
G1X16.2Y4.82
M5
G0X16.2Y4.93
M3 S30
; Layer C00
G1X16.22Y4.95
G1Y4.97
G1X16.26Y4.98
G1X16.31
G1X16.39Y4.95
G1X16.51Y4.89
G1X16.54Y4.84
G1Y4.8
G1X16.57Y4.76
G1X16.61
G1X16.63Y4.79
G1Y4.83
G1X16.67
G1X16.74Y4.85
G1X16.84Y4.89
G1X16.97Y4.94
G1X17.04Y4.92
G1Y4.85
G1X16.89Y4.59
G1Y4.49
G1X16.94Y4.42
G1X17.06Y4.4
G1X17.15
G1X17.18Y4.42
G1Y4.46
G1X17.06Y4.63
G1X17.04Y4.68
G1X17.07Y4.71
G1X17.15Y4.7
G1X17.27
G1X17.4Y4.75
G1X17.46Y4.78
G1X17.52Y4.8
G1X17.57
G1X17.62Y4.77
G1X17.72Y4.75
G1X17.83Y4.76
G1X17.97Y4.81
G1X18.09Y4.83
G1X18.19Y4.82
G1X18.26Y4.79
G1X18.3Y4.75
G1Y4.69
G1X18.26Y4.62
G1X18.17Y4.54
G1X18.07Y4.46
G1X18.03Y4.4
G1X18.05Y4.36
G1X18.13Y4.35
G1X18.24Y4.41
G1X18.36Y4.55
G1X18.46Y4.73
G1X18.51Y4.88
G1Y4.94
G1X18.53Y4.97
G1X18.58
G1X18.68Y4.94
G1X18.76Y4.9
G1X18.79Y4.88
G1Y4.86
G1X18.74Y4.84
G1X18.69Y4.81
G1X18.71Y4.79
G1X18.78Y4.76
G1Y4.7
G1X18.73Y4.64
G1X18.64Y4.59
G1X18.54Y4.55
G1X18.47Y4.48
G1X18.45Y4.43
G1X18.53Y4.38
G1Y4.34
G1Y4.32
G1X18.55Y4.3
G1X18.6Y4.29
G1X18.68
G1X18.79Y4.28
G1X18.82Y4.27
G1X18.79Y4.26
G1X18.61Y4.22
G1X18.59
G1X18.65Y4.2
G1X18.78Y4.18
G1X18.93Y4.14
G1X19.02Y4.06
G1X19.06Y3.96
G1X19.04Y3.85
G1X18.97Y3.73
G1X18.86Y3.62
G1X18.71Y3.53
G1X18.52Y3.47
G1X18.41Y3.45
G1X18.32
G1X18.26
G1X18.22Y3.46
G1Y3.49
G1X18.26Y3.51
G1X18.33
G1X18.43
G1X18.47
G1Y3.52
G1X18.46Y3.54
G1X18.41Y3.57
G1X18.24Y3.62
G1X18.02
G1X17.77Y3.57
G1X17.51Y3.47
G1X17.35Y3.4
G1X17.24Y3.35
G1X17.17Y3.32
G1X17.13Y3.31
G1X17.14
G1X17.19Y3.35
G1X17.28Y3.41
G1X17.58Y3.58
G1X17.66Y3.64
G1Y3.66
G1X17.59
G1X17.49Y3.64
G1X17.46
G1X17.5Y3.66
G1X17.61Y3.72
G1X17.7Y3.78
G1X17.75Y3.81
G1Y3.84
G1X17.71Y3.86
G1X17.61Y3.89
G1X17.54
G1X17.51Y3.87
G1Y3.82
G1Y3.76
G1X17.46Y3.71
G1X17.41Y3.67
G1Y3.63
G1X17.4Y3.59
G1X17.33Y3.53
G1X17.22Y3.48
G1X17.08Y3.42
G1X16.76Y3.33
G1X16.48Y3.29
G1X16.25Y3.33
G1X16.06Y3.43
G1X15.96Y3.52
G1X15.85Y3.64
G1X15.73Y3.79
G1X15.59Y3.98
G1X15.3Y4.32
G1X15Y4.62
G1X14.82Y4.76
G1X14.77Y4.8
G1X14.74Y4.81
G1X14.75Y4.78
G1X14.84Y4.66
G1X14.96Y4.46
G1X15.03Y4.3
G1X15.05Y4.24
G1X15.07Y4.21
G1X15.09
G1X15.12Y4.24
G1X15.14Y4.28
G1X15.15
G1X15.16
G1Y4.24
G1X15.21Y4.15
G1X15.32Y4.03
G1X15.44Y3.92
G1X15.52Y3.88
G1X15.58Y3.83
G1X15.68Y3.69
G1X15.76Y3.58
G1X15.78Y3.53
G1X15.74Y3.55
G1X15.62Y3.62
G1X15.51Y3.71
G1X15.35Y3.83
G1X15.18Y3.98
G1X15.01Y4.14
G1X14.85Y4.3
G1X14.71Y4.43
G1X14.62Y4.54
G1X14.58Y4.59
G1X14.57Y4.64
G1X14.52Y4.72
G1X14.46Y4.83
G1X14.3Y5.07
G1X14.24Y5.17
G1X14.2Y5.24
G1X14.18Y5.29
G1Y5.32
G1X14.2
G1X14.24Y5.31
G1X14.35Y5.22
G1X14.37
G1X14.34Y5.3
G1X14.27Y5.46
G1X14.16Y5.78
G1X14.09Y6.13
G1Y6.25
G1X14.07Y6.38
G1Y6.4
G1X14.08Y6.39
G1X14.09Y6.34
G1X14.14Y6.15
G1X14.21Y5.91
G1X14.28Y5.72
G1X14.34Y5.61
G1X14.38Y5.58
G1Y5.61
G1X14.36Y5.68
G1X14.33Y5.78
G1X14.29Y5.89
G1X14.21Y6.18
G1X14.17Y6.45
G1Y6.57
G1Y6.64
G1X14.14Y6.66
G1X14.11Y6.63
G1X14.08Y6.59
G1Y6.62
G1Y6.68
G1X14.1Y6.84
G1X14.08Y7.07
G1X14.06Y7.21
G1X14.04Y7.27
G1X14.02Y7.25
G1X14Y7.16
G1X13.98Y7.12
G1X13.97Y7.17
G1X13.96Y7.29
G1Y7.49
G1Y7.67
G1Y7.8
G1X13.98Y7.85
G1Y7.83
G1X14.01Y7.73
G1Y7.7
G1X14.03Y7.72
G1X14.06Y7.8
G1X14.08Y7.85
G1X14.11Y7.86
G1X14.14Y7.84
G1X14.17Y7.8
G1X14.22Y7.63
G1X14.24Y7.39
G1Y7.28
G1X14.25Y7.22
G1X14.27Y7.23
G1X14.29Y7.3
G1X14.31Y7.34
G1X14.33Y7.31
G1Y7.2
G1X14.35Y6.85
G1Y6.7
G1X14.37Y6.59
G1X14.38Y6.49
G1X14.4Y6.43
G1X14.42Y6.39
G1X14.45
G1X14.5Y6.44
G1X14.52Y6.43
G1X14.55Y6.39
G1X14.59Y6.32
G1X14.69Y6.09
G1X14.8Y5.89
G1X14.84Y5.81
G1X14.88Y5.75
G1X14.91Y5.72
G1X14.93
G1X14.98
G1X15.04Y5.66
G1X15.09Y5.57
G1X15.11Y5.47
G1Y5.41
G1X15.09Y5.38
G1X15.06
G1X15.01Y5.41
G1X14.95Y5.47
G1X14.87Y5.57
G1X14.78Y5.7
G1X14.56Y6
G1X14.47Y6.12
G1X14.4Y6.2
G1X14.35Y6.26
G1X14.32Y6.28
G1Y6.27
G1X14.33Y6.22
G1X14.37Y6.14
G1X14.44Y5.99
G1X14.5Y5.74
G1X14.59Y5.58
G1X14.72Y5.43
G1X14.89Y5.3
G1X15.18Y5.08
G1X15.52Y4.79
G1X15.66Y4.66
G1X15.77Y4.56
G1X15.83Y4.51
G1Y4.54
G1X15.85Y4.53
G1X15.88Y4.49
G1X15.95Y4.4
G1X15.98Y4.32
G1X16.01Y4.26
G1X16.07Y4.21
G1X16.13Y4.19
G1X16.15Y4.21
G1X16.13Y4.28
G1X16.07Y4.42
G1X16.04Y4.5
G1X16.02Y4.56
G1Y4.61
G1Y4.62
G1Y4.66
G1X15.91Y4.79
G1X15.88Y4.84
G1Y4.88
G1X15.91Y4.91
G1X15.95Y4.98
G1Y5.06
G1X15.93Y5.09
G1X15.95
G1X15.99Y5.07
G1X16.12Y4.97
G1X16.17Y4.94
G1X16.2
M5
G0X15.79Y4.93
M3 S30
; Layer C00
G1X15.81Y4.8
G1X15.83Y4.75
G1Y4.71
G1Y4.69
G1X15.8
G1X15.7Y4.74
G1X15.55Y4.88
G1X15.43Y5
G1X15.37Y5.11
G1Y5.24
G1X15.4Y5.39
G1X15.43Y5.42
G1X15.47Y5.36
G1X15.5Y5.27
G1Y5.16
G1Y5.03
G1X15.53Y4.93
G1X15.58Y4.87
G1X15.65Y4.85
G1X15.67Y4.87
G1X15.62Y4.94
G1X15.58Y5.03
G1X15.56Y5.13
G1X15.58Y5.2
G1X15.62Y5.24
G1X15.69Y5.22
G1X15.75Y5.17
G1X15.78Y5.11
G1Y5.04
G1Y4.93
M5
G0X17.8Y3.51
M3 S30
; Layer C00
G1X17.87Y3.55
G1X17.92Y3.56
G1X17.95
G1X17.97Y3.52
G1X18.02Y3.47
G1X18.16Y3.39
G1X18.34Y3.32
G1X18.55Y3.26
G1X18.53
G1X18.47
G1X18.38Y3.27
G1X18.1Y3.3
G1X17.73
G1X17.66Y3.31
G1X17.63Y3.33
G1X17.61Y3.34
G1X17.62Y3.36
G1X17.66Y3.38
G1X17.73Y3.39
G1X17.82Y3.4
G1X17.88
G1X17.9Y3.41
G1X17.89Y3.42
G1X17.83Y3.44
G1X17.78Y3.45
G1X17.75Y3.47
G1X17.76Y3.49
G1X17.8Y3.51
M5
G0X18.71Y3.29
M3 S30
; Layer C00
G1X18.73Y3.32
G1X18.77Y3.35
G1X18.84Y3.39
G1X19.19Y3.59
G1X19.56Y3.87
G1X19.94Y4.21
G1X20.31Y4.59
G1X20.64Y4.97
G1X20.92Y5.34
G1X21.03Y5.51
G1X21.12Y5.67
G1X21.18Y5.81
G1X21.22Y5.94
G1X21.24Y6.02
G1X21.25Y6.06
G1X21.27Y6.08
G1Y6.06
G1Y5.9
G1X21.21Y5.66
G1X21.15Y5.53
G1X21.07Y5.38
G1X20.95Y5.21
G1X20.81Y5.03
G1X20.46Y4.63
G1X20.07Y4.24
G1X19.67Y3.87
G1X19.29Y3.57
G1X19.12Y3.45
G1X18.96Y3.36
G1X18.83Y3.31
G1X18.73Y3.29
G1X18.71
M5
G0X19.25Y4.05
M3 S30
; Layer C00
G1X19.17Y4.1
G1Y4.15
G1X19.24Y4.19
G1X19.34Y4.21
G1X19.4
G1X19.44
G1Y4.17
G1X19.46Y4.15
G1X19.51
G1X19.56Y4.18
G1X19.57Y4.2
G1Y4.23
G1X19.53Y4.28
G1X19.49Y4.33
G1Y4.34
G1X19.5
G1X19.55Y4.3
G1X19.64Y4.26
G1X19.71
G1X19.74
G1X19.75Y4.21
G1X19.74Y4.14
G1X19.7Y4.08
G1X19.59Y4.05
G1X19.42Y4.04
G1X19.25Y4.05
M5
G0X19.28Y4.31
M3 S30
; Layer C00
G1X19.19
G1Y4.4
G1X19.23Y4.54
G1X19.32Y4.68
G1X19.4Y4.76
G1X19.44
G1X19.45
G1Y4.73
G1X19.41Y4.68
G1X19.37Y4.59
G1X19.38Y4.54
G1X19.43Y4.53
G1X19.52Y4.57
G1X19.58Y4.6
G1X19.6Y4.62
G1X19.57
G1X19.45Y4.58
G1X19.43
G1X19.45Y4.6
G1X19.51Y4.65
G1X19.61Y4.71
G1X19.68Y4.73
G1Y4.77
G1X19.63Y4.85
G1X19.58Y4.9
G1X19.53Y4.92
G1X19.49
G1X19.41Y4.87
G1X19.38Y4.88
G1Y4.94
G1X19.37Y5.03
G1X19.38Y5.17
G1X19.42Y5.23
G1X19.46Y5.21
G1X19.5Y5.11
G1X19.51Y5.04
G1X19.53Y5.03
G1X19.55Y5.06
G1X19.59Y5.15
G1X19.62Y5.23
G1X19.63Y5.29
G1X19.62Y5.34
G1X19.59Y5.39
G1X19.55Y5.43
G1Y5.46
G1X19.6Y5.45
G1X19.64Y5.42
G1X19.67Y5.36
G1X19.68Y5.26
G1Y5.12
G1X19.69Y4.97
G1X19.71Y4.88
G1X19.74Y4.83
G1X19.79Y4.82
G1X19.87Y4.8
G1X19.93Y4.77
G1X19.95Y4.74
G1X19.91Y4.75
G1X19.87
G1X19.81Y4.73
G1X19.75Y4.68
G1X19.54Y4.46
G1X19.4Y4.36
G1X19.28Y4.31
M5
G0X19.93Y4.39
M3 S30
; Layer C00
G1Y4.43
G1X19.89Y4.49
G1Y4.54
G1X19.93Y4.63
G1X20.04Y4.76
G1X20.44Y5.16
G1X20.58Y5.33
G1X20.68Y5.52
G1X20.78Y5.78
G1X20.84Y5.97
G1X20.89Y6.15
G1X20.93Y6.31
G1X20.94Y6.43
G1Y6.51
G1X20.93Y6.53
G1X20.89Y6.48
G1X20.79Y6.25
G1X20.74Y6.18
G1X20.69Y6.15
G1X20.62
G1X20.56Y6.17
G1X20.54
G1X20.55Y6.15
G1X20.61Y6.11
G1X20.65Y6.06
G1X20.66Y5.98
G1Y5.89
G1X20.63Y5.79
G1X20.52Y5.56
G1X20.35Y5.32
G1X20.27Y5.22
G1X20.16Y5.04
G1X20.07Y4.91
G1X19.99Y4.85
G1X19.94Y4.88
G1Y4.99
G1Y5.04
G1X19.91Y5.02
G1X19.89Y4.99
G1X19.87
G1X19.84Y5.01
G1X19.8Y5.05
G1X19.78Y5.12
G1Y5.21
G1X19.79Y5.33
G1X19.82Y5.45
G1X19.85Y5.56
G1X19.9Y5.65
G1X19.94Y5.72
G1X19.98Y5.73
G1X20.01Y5.69
G1Y5.61
G1X19.99Y5.51
G1X19.94Y5.43
G1X19.9Y5.38
G1Y5.33
G1X19.92Y5.3
G1X19.98
G1X20.04Y5.32
G1X20.07Y5.38
G1X20.08Y5.43
G1X20.17Y5.48
G1X20.18Y5.54
G1X20.23Y5.63
G1X20.47Y5.85
G1X20.5Y5.92
G1Y5.95
G1X20.53Y5.96
G1X20.55Y5.98
G1Y6.02
G1X20.52Y6.09
G1X20.44Y6.27
G1X20.41Y6.34
G1Y6.4
G1Y6.43
G1X20.46
G1X20.51Y6.38
G1Y6.39
G1X20.53Y6.43
G1Y6.49
G1X20.54Y6.58
G1Y6.61
G1X20.56Y6.59
G1X20.58Y6.52
G1X20.64Y6.42
G1X20.71Y6.36
G1X20.75
G1X20.76
G1X20.72Y6.4
G1X20.68Y6.42
G1Y6.45
G1X20.69Y6.48
G1X20.75Y6.51
G1X20.81Y6.55
G1Y6.57
G1X20.79Y6.59
G1X20.81Y6.64
G1X20.84Y6.72
G1X20.86Y6.81
G1X20.88Y6.99
G1X20.9Y7.05
G1X20.94Y7.07
G1X20.98Y7.05
G1X21Y6.98
G1X21.01Y6.95
G1X21.03
G1X21.05Y6.99
G1X21.11Y7.13
G1X21.13Y7.16
G1X21.15
G1Y7.13
G1Y7.07
G1Y6.97
G1X21.13Y6.85
G1X21.1Y6.69
G1X21.07Y6.56
G1X21.06Y6.45
G1Y6.38
G1Y6.34
G1X21.08
G1X21.1Y6.38
G1X21.13Y6.46
G1X21.19Y6.67
G1X21.21Y6.71
G1X21.22Y6.69
G1Y6.63
G1X21.2Y6.46
G1X21.13Y6.22
G1X21.09Y6.11
G1X21.05Y6.02
G1X21.02Y5.95
G1X20.95Y5.88
G1X20.92Y5.74
G1X20.78Y5.45
G1X20.71Y5.27
G1X20.68Y5.19
G1X20.65Y5.14
G1X20.61Y5.1
G1X20.59
G1X20.55
G1X20.53Y5.08
G1X20.5Y5.01
G1X20.43Y4.91
G1X20.31Y4.76
G1X20.14Y4.58
G1X19.99Y4.43
G1X19.94Y4.39
M5
G0X19.16Y5.16
M3 S30
; Layer C00
G1X19.07Y5.12
G1X19.05Y5.16
G1Y5.24
G1X19.1Y5.46
G1X19.13Y5.55
G1X19.16Y5.62
G1X19.2Y5.66
G1X19.23Y5.68
G1X19.26
G1X19.29Y5.64
G1X19.3Y5.58
G1Y5.49
G1X19.29Y5.36
G1X19.23Y5.24
G1X19.16Y5.16
M5
G0X22.33Y6.69
M3 S30
; Layer C00
G1X22.28Y6.74
G1X22.33
G1X22.47Y6.67
G1X22.66Y6.57
G1X22.89Y6.44
G1X23.12Y6.31
G1X23.33Y6.18
G1X23.5Y6.08
G1X23.59Y6.01
G1X23.63Y5.97
G1Y5.96
G1X23.6
G1X23.53Y5.99
G1X23.43Y6.05
G1X23.29Y6.12
G1X23.12Y6.21
G1X22.92Y6.33
G1X22.67Y6.47
G1X22.47Y6.6
G1X22.33Y6.69
M5
G0X22.94Y6.82
M3 S30
; Layer C00
G1X22.89Y6.92
G1X22.88Y6.99
G1X22.9Y7.02
G1X22.92Y6.99
G1X22.97Y6.93
G1X23.03Y6.83
G1X23.11Y6.71
G1X23.18Y6.59
G1X23.24Y6.5
G1X23.28Y6.44
G1X23.31Y6.41
G1Y6.45
G1X23.27Y6.52
G1X23.22Y6.63
G1X23.14Y6.79
G1X23.11Y6.88
G1Y6.9
G1X23.12
G1X23.15Y6.87
G1X23.19Y6.82
G1X23.33Y6.63
G1X23.44Y6.42
G1X23.48Y6.34
G1X23.5Y6.27
G1Y6.23
G1X23.48Y6.22
G1X23.42Y6.25
G1X23.39Y6.29
G1X23.36Y6.33
G1X23.28Y6.37
G1X23.22Y6.4
G1X23.15Y6.48
G1X23.07Y6.59
G1X23Y6.7
G1X22.94Y6.82
M5
G0X23.41Y6.74
M3 S30
; Layer C00
G1X23.45Y6.71
G1X23.51Y6.61
G1X23.61Y6.43
G1X23.66Y6.31
G1X23.72Y6.22
G1X23.76Y6.16
G1X23.78Y6.15
G1Y6.22
G1X23.71Y6.35
G1X23.67Y6.46
G1X23.65Y6.55
G1X23.66Y6.59
G1X23.7Y6.57
G1X23.81Y6.41
G1X23.93Y6.18
G1X23.98Y6.08
G1X24.02Y5.99
G1X24.04Y5.93
G1Y5.9
G1X23.98Y5.94
G1X23.92Y6.01
G1X23.85Y6.08
G1X23.77Y6.09
G1X23.73Y6.1
G1X23.68Y6.15
G1X23.62Y6.23
G1X23.55Y6.33
G1X23.44Y6.54
G1X23.39Y6.69
G1X23.41Y6.74
M5
G0X24.17Y6.28
M3 S30
; Layer C00
G1X24.19Y6.27
G1X24.24Y6.21
G1X24.31Y6.14
G1X24.37Y6.13
G1X24.4Y6.11
G1X24.45Y6.04
G1X24.52Y5.93
G1X24.61Y5.79
G1X24.72Y5.59
G1X24.75Y5.53
G1X24.76Y5.5
G1Y5.49
G1X24.73Y5.5
G1X24.69Y5.54
G1X24.63Y5.59
G1X24.56Y5.66
G1X24.51Y5.73
G1X24.48Y5.79
G1Y5.84
G1X24.5Y5.87
G1Y5.89
G1X24.48
G1X24.42Y5.87
G1Y5.9
G1X24.44Y5.98
G1Y6
G1X24.42
G1X24.4
G1X24.36
G1X24.32Y6.02
G1X24.28Y6.07
G1X24.24Y6.14
G1X24.19Y6.24
G1X24.17Y6.28
M5
G0X26.19Y5.69
M3 S30
; Layer C00
G1X26.09Y5.54
G1X25.95Y5.34
G1X25.79Y5.1
G1X25.61Y4.82
G1X25.42Y4.52
G1X24.99Y3.85
G1X24.79Y3.54
G1X24.6Y3.26
G1X24.44Y3.02
G1X24.31Y2.83
G1X24.2Y2.68
G1X24.13Y2.59
G1X24.09Y2.56
G1X24.06
G1X24.05Y2.54
G1X24.07Y2.52
G1X24.12Y2.48
G1X24.18Y2.42
G1Y2.4
G1X24.09Y2.43
G1X24Y2.52
G1X23.94Y2.59
G1X23.95Y2.6
G1X23.99
G1X24.04Y2.65
G1X24.08Y2.7
G1X24.13Y2.77
G1X24.2Y2.87
G1X24.29Y3.01
G1X24.53Y3.38
G1X25.08Y4.28
G1X27.04Y7.52
G1X27.22Y7.83
G1X27.27Y7.93
G1Y7.95
G1X27.26Y7.94
G1X27.23Y7.91
G1X27.12Y7.73
G1X26.81Y7.26
G1X26.56Y6.85
G1X24.82Y4.04
G1X24.29Y3.18
G1X24.17Y2.99
G1X24.06Y2.84
G1X23.98Y2.73
G1X23.93Y2.69
G1X23.89
G1Y2.76
G1X23.91Y2.81
G1X23.95Y2.9
G1X24.01Y3
G1X24.09Y3.14
G1X24.19Y3.32
G1X24.47Y3.77
G1X24.87Y4.41
G1X26.48Y6.96
G1X27.46Y8.49
G1X27.71Y8.88
G1X27.82Y9.02
G1X27.87Y9.09
G1X27.97Y9.16
G1X28.1Y9.19
G1X28.19
G1Y9.13
G1Y9.1
G1Y9.09
G1X28.21
G1X28.25
G1X28.32Y9.11
G1X28.34Y9.09
G1Y9.03
G1X28.38Y8.95
G1Y8.85
G1X28.35Y8.71
G1X28.29Y8.53
G1X28.2Y8.35
G1X28.11Y8.18
G1X28.01Y8.05
G1X27.93Y7.96
G1X27.86Y7.95
G1X27.83
G1X27.86Y7.83
G1X27.83
G1X27.77Y7.82
G1X27.67Y7.76
G1X27.62Y7.72
G1X27.64
G1X27.68Y7.73
G1X27.69
G1Y7.7
G1X27.65Y7.64
G1X27.6Y7.55
G1X27.56Y7.52
G1X27.54Y7.53
G1X27.56Y7.57
G1Y7.6
G1X27.5Y7.61
G1X27.47
G1X27.45Y7.59
G1Y7.55
G1X27.52Y7.44
G1Y7.41
G1X27.51
G1X27.46Y7.45
G1X27.43Y7.47
G1X27.4
G1X27.35Y7.44
G1X27.3Y7.38
G1X27.22Y7.29
G1X27.13Y7.16
G1X27.01Y6.98
G1X26.86Y6.76
G1X26.53Y6.26
G1X26.43Y6.09
G1X26.36Y5.98
G1X26.32Y5.9
G1Y5.87
G1X26.33Y5.86
G1X26.42Y5.9
G1X26.41Y5.87
G1X26.35Y5.84
G1X26.3Y5.82
G1X26.26Y5.79
G1X26.19Y5.69
M5
G0X26.52Y5.89
M3 S30
; Layer C00
G1Y5.91
G1X26.54Y5.98
G1Y6
G1X26.52
G1X26.45Y5.97
G1Y5.98
G1Y6.01
G1X26.48Y6.07
G1X26.53Y6.15
G1X26.57Y6.18
G1X26.58Y6.16
G1X26.56Y6.09
G1Y6.04
G1Y6.03
G1X26.58Y6.04
G1X26.62Y6.1
G1X26.69Y6.18
G1X26.71Y6.25
G1X26.7Y6.28
G1X26.65Y6.26
G1X26.63
G1Y6.29
G1X26.66Y6.34
G1X26.7Y6.41
G1X26.81Y6.54
G1X26.89Y6.6
G1X26.95Y6.62
G1X27Y6.68
G1X27.05Y6.75
G1X27.07Y6.82
G1X27.04
G1X26.98Y6.76
G1X26.93Y6.71
G1X26.91Y6.69
G1Y6.71
G1X26.95Y6.78
G1X27.01Y6.86
G1X27.07Y6.88
G1X27.13Y6.91
G1X27.21Y7.03
G1X27.27Y7.13
G1Y7.17
G1X27.25Y7.15
G1X27.11Y7
G1X27.08Y6.97
G1X27.09Y7
G1X27.28Y7.3
G1X27.32Y7.37
G1X27.36Y7.4
G1X27.4Y7.42
G1X27.45Y7.36
G1X27.49Y7.31
G1X27.52Y7.3
G1X27.54Y7.32
G1X27.56Y7.37
G1X27.61Y7.43
G1X27.65
G1X27.66Y7.4
G1X27.64Y7.32
G1X27.58Y7.22
G1X27.51Y7.11
G1X27.33Y6.85
G1X27.14Y6.64
G1X27.06Y6.57
G1X27.01Y6.51
G1X26.98Y6.48
G1Y6.46
G1Y6.41
G1X26.92Y6.29
G1X26.84Y6.18
G1X26.76Y6.16
G1X26.72
G1X26.74Y6.04
G1X26.71Y5.96
G1X26.66Y5.9
G1X26.58Y5.87
G1X26.54
G1X26.52Y5.89
M5
G0X27.46Y5.71
M3 S30
; Layer C00
G1X27.5Y5.92
G1X27.57Y6.08
G1X27.7Y6.32
G1X27.74Y6.4
G1X27.77Y6.47
G1X27.79Y6.56
G1Y6.61
G1Y6.65
G1X27.87Y6.66
G1X27.94Y6.7
G1X27.96Y6.79
G1X27.93Y6.91
G1X27.79Y7.11
G1X27.82Y7.13
G1X27.89Y7.1
G1X28Y7.02
G1X28.06Y6.89
G1X28.07Y6.71
G1X28.04Y6.48
G1X27.96Y6.22
G1X27.84Y5.95
G1X27.7Y5.68
G1X27.54Y5.44
G1X27.36Y5.23
G1X27.29Y5.15
G1Y5.09
G1Y5.08
G1X27.21Y5.11
G1X27.19
G1Y5.09
G1Y5.06
G1X27.21Y4.99
G1Y4.94
G1X27.17Y4.92
G1X27.11Y4.94
G1Y4.98
G1X27.14Y5.06
G1X27.19Y5.18
G1X27.35Y5.47
G1X27.41Y5.6
G1X27.46Y5.71
M5
G0X27.77Y5.57
M3 S30
; Layer C00
G1Y5.55
G1X27.81Y5.5
G1X27.85Y5.4
G1X27.83Y5.29
G1X27.78Y5.22
G1X27.7
G1X27.67Y5.21
G1X27.7Y5.13
G1X27.76Y5.05
G1X27.79Y5.02
G1X27.81Y5.04
G1X27.79Y5.11
G1X27.78Y5.16
G1X27.81Y5.15
G1X27.85Y5.1
G1X27.94Y5.02
G1X28Y4.99
G1X28.08Y4.94
G1X28.19Y4.84
G1X28.24Y4.79
G1X28.27Y4.77
G1Y4.76
G1Y4.78
G1X28.24Y4.84
G1X28.25Y4.88
G1Y4.95
G1X28.2Y5.05
G1X28.15Y5.17
G1Y5.25
G1Y5.27
G1X28.12Y5.24
G1X28.08Y5.19
G1X28.02Y5.14
G1X27.97Y5.11
G1X27.92
G1X27.89Y5.12
G1X27.87Y5.22
G1X27.92Y5.37
G1X27.95Y5.43
G1X27.97Y5.48
G1Y5.5
G1X27.91
G1X27.83Y5.53
G1X27.78Y5.56
G1X27.77Y5.57
M5
G0X27.75Y5.59
M3 S30
; Layer C00
G1X27.8
G1X27.92Y5.53
G1X27.94Y5.55
G1X27.95
G1X27.99Y5.54
G1X28.04Y5.5
G1X28.15Y5.41
G1X28.19Y5.38
G1X28.21
G1Y5.42
G1X28.25Y5.39
G1X28.3Y5.34
G1X28.44Y5.24
G1X28.57Y5.21
G1X28.65
G1Y5.17
G1X28.62Y5.08
G1X28.66Y4.82
G1X28.63Y4.75
G1X28.59
G1X28.63Y4.84
G1X28.59Y4.82
G1X28.55Y4.77
G1Y4.71
G1Y4.66
G1X28.49Y4.64
G1X28.45Y4.66
G1Y4.7
G1Y4.72
G1X28.4Y4.69
G1X28.35Y4.66
G1X28.31
G1X28.27
G1X28.23Y4.71
G1X28.17Y4.76
G1X28.11
G1X28.07
G1X28.02Y4.8
G1Y4.84
G1X28.06Y4.82
G1X28.09Y4.8
G1X28.11
G1Y4.82
G1Y4.85
G1X28.07Y4.91
G1X28.01Y4.94
G1X27.95
G1X27.91Y4.96
G1X27.87Y4.97
G1X27.78Y5
G1X27.67Y5.04
G1X27.56Y5.06
G1Y5.11
G1X27.62Y5.21
G1X27.67Y5.33
G1Y5.41
G1Y5.45
G1X27.71Y5.43
G1X27.74Y5.41
G1X27.76
G1Y5.43
G1Y5.47
G1X27.74Y5.55
G1X27.75Y5.59
M5
G0X28.81Y4.82
M3 S30
; Layer C00
G1X28.91Y4.85
G1X29Y4.8
G1X29.08Y4.73
G1X29.13Y4.72
G1X29.16
G1Y4.65
G1X29.17Y4.61
G1X29.18Y4.59
G1X29.21
G1X29.29Y4.65
G1X29.32
G1X29.35
G1X29.37Y4.62
G1X29.39Y4.58
G1X29.35
G1X29.31
G1X29.3Y4.52
G1Y4.47
G1X29.32Y4.44
G1X29.35
G1X29.38Y4.47
G1X29.43Y4.49
G1X29.46
G1Y4.45
G1Y4.38
G1X29.47Y4.36
G1X29.51
G1X29.57
G1X29.64Y4.31
G1X29.68Y4.26
G1X29.69Y4.24
G1X29.68
G1X29.61Y4.27
G1X29.59
G1X29.58
G1Y4.23
G1X29.63Y4.18
G1X29.71Y4.15
G1X29.76
G1X29.79
G1Y4.18
G1Y4.22
G1X29.78Y4.25
G1X29.79
G1X29.83Y4.23
G1X29.92Y4.12
G1X29.95Y4.1
G1X29.97
G1Y4.13
G1X29.95Y4.22
G1X29.98Y4.26
G1X30.04
G1X30.11Y4.19
G1X30.15Y4.15
G1Y4.13
G1X30.11Y4.15
G1X30.05Y4.16
G1Y4.13
G1X30.08Y4.08
G1X30.13Y4.06
G1X30.22Y4.04
G1X30.27Y3.99
G1X30.29Y3.92
G1X30.27Y3.84
G1X30.24Y3.75
G1Y3.68
G1Y3.64
G1X30.18
G1X30.1Y3.68
G1X30.03Y3.73
G1X29.99Y3.77
G1Y3.78
G1X30
G1X30.05Y3.74
G1X30.1Y3.71
G1X30.13
G1X30.16
G1X30.17Y3.75
G1Y3.8
G1X30.09Y3.82
G1X30Y3.79
G1X29.92Y3.73
G1X29.9Y3.7
G1X29.88
G1Y3.73
G1Y3.79
G1Y3.85
G1Y3.89
G1X29.85Y3.91
G1X29.82
G1X29.78
G1Y3.96
G1X29.83Y3.99
G1X29.89Y3.96
G1X29.95Y3.93
G1X29.99
G1X30.03Y3.97
G1X30.04Y4.02
G1X30.03Y4.05
G1X29.99
G1X29.94Y4.03
G1X29.9Y4.06
G1X29.84Y4.09
G1X29.66
G1X29.56Y4.15
G1X29.49
G1X29.44Y4.1
G1Y4.06
G1X29.47Y4.03
G1X29.56Y4.04
G1X29.6Y4.02
G1Y3.98
G1X29.55
G1X29.47Y4
G1X29.39Y4.05
G1X29.31Y4.09
G1X29.25Y4.08
G1X29.23Y4.07
G1X29.24Y4.1
G1X29.25Y4.18
G1X29.18Y4.2
G1X29.07Y4.18
G1X28.97Y4.11
G1X28.94Y4.07
G1Y4.08
G1X28.96Y4.14
G1X29.08Y4.36
G1X29.11Y4.44
G1Y4.48
G1X29.08Y4.49
G1X29.03
G1X29.02Y4.42
G1X28.96Y4.38
G1X28.89
G1X28.84Y4.41
G1X28.83Y4.45
G1X28.92Y4.42
G1X28.93Y4.44
G1X28.91Y4.5
G1X28.83Y4.61
G1X28.85
G1X28.91
G1X28.96Y4.65
G1Y4.69
G1Y4.71
G1X28.93
G1X28.88Y4.68
G1X28.78Y4.61
G1X28.71Y4.52
G1X28.67Y4.44
G1X28.69Y4.36
G1X28.65Y4.34
G1X28.6Y4.37
G1X28.61Y4.44
G1X28.64Y4.53
G1X28.66Y4.61
G1X28.72Y4.74
G1X28.81Y4.82
M5
G0X30.7Y3.72
M3 S30
; Layer C00
G1X30.79Y3.73
G1X30.91Y3.68
G1X30.95Y3.63
G1Y3.56
G1X30.93Y3.52
G1X30.97Y3.53
G1X31.01
G1X31.04Y3.5
G1X31.06Y3.49
G1X31.12Y3.57
G1X31.17Y3.64
G1X31.2Y3.66
G1X31.22Y3.6
G1Y3.48
G1X31.24Y3.43
G1X31.27Y3.4
G1X31.31Y3.38
G1X31.36
G1X31.43
G1X31.46Y3.36
G1X31.44Y3.3
G1X31.37Y3.2
G1X31.32Y3.12
G1X31.28Y3.06
G1X31.25Y3.03
G1X31.23Y3.01
G1Y3.02
G1Y3.06
G1X31.26Y3.11
G1X31.35Y3.29
G1X31.36Y3.33
G1X31.34Y3.31
G1X31.28Y3.24
G1X31.18Y3.16
G1X31.08Y3.14
G1X31Y3.18
G1X30.97Y3.27
G1Y3.32
G1X30.96Y3.34
G1X30.93Y3.32
G1X30.85Y3.22
G1X30.82Y3.2
G1X30.8
G1Y3.23
G1X30.78Y3.4
G1Y3.49
G1X30.83Y3.63
G1X30.82
G1X30.78Y3.6
G1X30.64Y3.45
G1X30.6Y3.42
G1X30.59Y3.43
G1Y3.5
G1X30.64Y3.64
G1X30.7Y3.72
M5
G0X32.31Y3.28
M3 S30
; Layer C00
G1X32.27Y3.21
G1X32.22Y3.11
G1X32.08Y2.81
G1X32.02Y2.7
G1X31.96Y2.6
G1X31.91Y2.53
G1X31.81Y2.44
G1X31.79Y2.37
G1X31.75Y2.28
G1X31.66Y2.19
G1X31.45Y1.97
G1X31.33Y1.74
G1X31.31Y1.63
G1X31.32Y1.54
G1X31.37Y1.47
G1X31.44Y1.43
G1X31.54
G1X31.59Y1.46
G1Y1.54
G1X31.53Y1.64
G1X31.48Y1.77
G1X31.51Y1.85
G1X31.6
G1X31.72Y1.77
G1X31.76Y1.74
G1X31.78
G1Y1.77
G1X31.79Y1.82
G1X31.82Y1.91
G1X31.94Y2.03
G1X31.97Y2.12
G1X32.01Y2.26
G1X32.11Y2.44
G1X32.22Y2.63
G1X32.26Y2.8
G1X32.27Y2.91
G1X32.31Y2.95
G1X32.36Y2.99
G1X32.4Y3.1
G1X32.42Y3.16
G1X32.45Y3.2
G1X32.48
G1X32.51Y3.18
G1X32.61Y3.16
G1X32.69Y3.22
G1X32.74Y3.3
G1X32.71Y3.39
G1X32.66Y3.43
G1X32.62Y3.45
G1X32.56Y3.44
G1X32.46Y3.4
G1X32.39Y3.36
G1X32.31Y3.28
M5
G0X32.87Y3.15
M3 S30
; Layer C00
G1X32.83Y3.07
G1X32.76Y2.95
G1X32.71Y2.9
G1X32.68Y2.87
G1X32.67Y2.81
G1X32.64Y2.72
G1X32.59Y2.65
G1X32.54Y2.6
G1X32.48Y2.51
G1X32.4Y2.4
G1X32.15Y1.98
G1X32Y1.74
G1X31.89Y1.57
G1X31.85Y1.44
G1X31.83Y1.37
G1X31.78Y1.35
G1X31.73
G1X31.69Y1.3
G1X31.68Y1.21
G1X31.71Y1.17
G1X31.79
G1X31.88Y1.2
G1X32.1Y1.35
G1X32.27Y1.57
G1X32.34Y1.68
G1X32.39Y1.73
G1X32.42Y1.75
G1X32.43Y1.81
G1X32.45Y1.9
G1X32.49Y2.02
G1X32.57Y2.16
G1X32.66Y2.31
G1X32.74Y2.45
G1X32.78Y2.56
G1X32.82Y2.65
G1X32.9Y2.73
G1X32.98Y2.81
G1X33.04Y2.93
G1X33.1Y2.95
G1X33.17Y2.96
G1X33.22Y2.98
G1X33.24Y3.01
G1Y3.05
G1X33.17Y3.13
G1X33.03Y3.2
G1X32.96Y3.21
G1X32.91
G1X32.87Y3.15
M5
G0X25.86Y4.61
M3 S30
; Layer C00
G1X25.6Y4.19
G1X25.27Y3.7
G1X25.12Y3.47
G1X25Y3.29
G1X24.91Y3.17
G1X24.87Y3.12
G1X24.86Y3.13
G1X24.9Y3.2
G1X24.95Y3.28
G1X25.4Y3.97
G1X25.5Y4.13
G1X25.58Y4.25
G1X25.63Y4.35
G1X25.66Y4.41
G1Y4.44
G1X25.64
G1X25.61Y4.43
G1X25.56Y4.41
G1X25.57Y4.45
G1X25.62Y4.49
G1X25.67
G1X25.72
G1X25.78Y4.57
G1X25.84Y4.65
G1X25.88Y4.68
G1Y4.66
G1X25.86Y4.61
M5
G0X10.14Y3.13
M3 S30
; Layer C00
G1X10.13Y3.12
G1X10.11Y3.13
G1X10.08Y3.17
G1X9.98Y3.31
G1X9.84Y3.52
G1X9.67Y3.77
G1X9.31Y4.32
G1X9.1Y4.65
G1X9.04Y4.75
G1X9.01Y4.81
G1X9Y4.84
G1X9.03Y4.82
G1X9.09Y4.75
G1X9.16Y4.64
G1X9.25Y4.51
G1X9.38Y4.32
G1X9.47Y4.2
G1X9.5Y4.18
G1X9.51
G1Y4.2
G1X9.49Y4.25
G1Y4.3
G1X9.53Y4.33
G1X9.58Y4.3
G1X9.6Y4.23
G1X9.59Y4.17
G1X9.55Y4.16
G1X9.52Y4.17
G1Y4.14
G1X9.53Y4.09
G1X9.57Y4.02
G1X9.63Y3.93
G1X9.7Y3.81
G1X10Y3.35
G1X10.11Y3.19
G1X10.14Y3.13
M5
G0X28.53Y16.18
M3 S30
; Layer C00
G1X28.85Y16.77
G1X29.2Y17.32
G1Y17.28
G1X29.14Y17.18
G1X29.06Y17.02
G1X28.87Y16.64
G1X28.8Y16.5
G1X28.75Y16.4
G1X28.73Y16.34
G1Y16.33
G1X28.77Y16.36
G1X28.83Y16.44
G1X28.97Y16.67
G1X29.01Y16.74
G1X29.05Y16.79
G1X29.07Y16.81
G1X29.09
G1Y16.79
G1X29.07Y16.75
G1X29.02Y16.6
G1X29Y16.54
G1Y16.51
G1X29.03Y16.53
G1X29.06Y16.58
G1X29.11Y16.65
G1X29.24Y16.86
G1X29.3Y16.94
G1X29.34Y17
G1X29.37Y17.04
G1X29.38
G1Y17.02
G1X29.36Y16.96
G1X29.27Y16.78
G1X29.24Y16.72
G1Y16.69
G1Y16.68
G1X29.28Y16.7
G1X29.32Y16.74
G1X29.37Y16.81
G1X29.49Y17
G1X29.54Y17.07
G1X29.58Y17.12
G1X29.61Y17.15
G1Y17.12
G1X29.59Y17.07
G1X29.49Y16.89
G1X29.47Y16.82
G1Y16.79
G1X29.48
G1X29.52Y16.82
G1X29.56Y16.88
G1X29.62Y16.96
G1X29.76Y17.19
G1X29.82Y17.28
G1X29.87Y17.34
G1X29.89Y17.37
G1X29.9
G1Y17.32
G1X29.86Y17.25
G1X29.81Y17.14
G1X29.74Y17.01
G1X29.72Y16.96
G1X29.75Y16.98
G1X29.92Y17.17
G1X29.96Y17.2
G1Y17.17
G1X29.92Y17.09
G1X29.86Y17.01
G1X29.75Y16.92
G1X29.6Y16.8
G1X29.43Y16.69
G1X29.27Y16.59
G1X29.13Y16.51
G1X29.03Y16.47
G1X28.99
G1X28.98Y16.49
G1X28.95Y16.46
G1X28.72Y16.27
G1X28.53Y16.18
M5
G0X30.72Y17.04
M3 S30
; Layer C00
G1X30.75Y17.07
G1X30.82Y17.12
G1X30.92Y17.19
G1X31.05Y17.26
G1X31.36Y17.46
G1X31.74Y17.7
G1X32.08Y17.96
G1X32.39Y18.25
G1X32.65Y18.54
G1X32.72Y18.62
G1X32.77Y18.67
G1X32.81Y18.7
G1X32.82Y18.71
G1Y18.7
G1X32.8Y18.66
G1X32.76Y18.59
G1X32.69Y18.51
G1X32.53Y18.31
G1X32.33Y18.12
G1X32.11Y17.92
G1X31.87Y17.73
G1X31.34Y17.36
G1X30.77Y17.06
G1X30.72Y17.04
M5
G0X30.57Y17.08
M3 S30
; Layer C00
G1X30.37Y16.98
G1X30.22Y16.92
G1X30.15
G1X30.11
G1X30.12Y16.89
G1Y16.83
G1X30.04Y16.77
G1X29.95Y16.73
G1X29.83Y16.75
G1Y16.71
G1X29.81Y16.65
G1X29.76Y16.61
G1X29.72
G1X29.71
G1Y16.63
G1X29.72Y16.66
G1X29.74Y16.7
G1X29.7Y16.69
G1X29.66Y16.65
G1Y16.61
G1Y16.58
G1X29.59Y16.53
G1X29.5Y16.47
G1X29.39Y16.4
G1X29.27Y16.34
G1X29.16Y16.29
G1X29.06Y16.25
G1X29.01
G1X28.96
G1X28.95Y16.22
G1X28.9Y16.14
G1X28.76Y16.03
G1X28.69Y15.99
G1X28.63Y15.97
G1X28.61
G1Y15.98
G1X28.63Y16.01
G1Y16.03
G1X28.61
G1X28.58
G1X28.52Y15.99
G1X28.51Y15.94
G1X28.46Y15.87
G1X28.32Y15.76
G1X28.24Y15.71
G1X28.18Y15.66
G1X28.15Y15.62
G1X28.14Y15.54
G1X28.07Y15.5
G1X27.98Y15.47
G1X27.84
G1Y15.44
G1Y15.42
G1X27.77Y15.37
G1X27.68Y15.3
G1X27.55Y15.22
G1X27.23Y15.01
G1X26.85Y14.79
G1X26.47Y14.57
G1X26.12Y14.37
G1X25.97Y14.3
G1X25.85Y14.24
G1X25.76Y14.2
G1X25.64Y14.18
G1X25.62Y14.13
G1X25.6Y14.09
G1X25.53
G1X25.46Y14.08
G1Y14.05
G1Y14.01
G1X25.39
G1X25.32Y13.99
G1X25.29Y13.9
G1X25.22Y13.91
G1X25.16Y13.92
G1Y13.89
G1Y13.85
G1X25.1Y13.83
G1X25.03Y13.82
G1X25.01Y13.77
G1Y13.73
G1X24.91
G1X24.79Y13.69
G1X24.71Y13.65
G1X24.61Y13.6
G1X24.49Y13.52
G1X24.34Y13.44
G1X24.25Y13.39
G1X24.21
G1X24.23Y13.41
G1X24.28Y13.45
G1X24.37Y13.51
G1X24.48Y13.58
G1X24.77Y13.74
G1X25.09Y13.93
G1X25.42Y14.11
G1X25.72Y14.26
G1X25.84Y14.32
G1X25.93Y14.36
G1X26Y14.39
G1X26.03
G1X26.06
G1Y14.41
G1Y14.44
G1X26.09Y14.47
G1X26.16Y14.52
G1X26.24Y14.58
G1X26.49Y14.74
G1X27.11Y15.11
G1X27.36Y15.26
G1X27.45Y15.32
G1X27.52Y15.37
G1X27.56Y15.4
G1Y15.41
G1X27.55
G1X27.49Y15.39
G1X27.41Y15.35
G1X27.3Y15.29
G1X27.03Y15.14
G1X26.71Y14.96
G1X26.39Y14.77
G1X25.98Y14.54
G1X25.87Y14.48
G1X25.82Y14.45
G1X25.81
G1X25.84Y14.48
G1X25.9Y14.53
G1X25.95Y14.58
G1X25.98Y14.61
G1Y14.64
G1X25.95Y14.66
G1Y14.7
G1X25.97Y14.77
G1X26.06Y14.97
G1X26.1Y15.05
G1X26.12Y15.1
G1Y15.13
G1X26.09Y15.12
G1X26.05Y15.06
G1X25.99Y14.97
G1X25.86Y14.72
G1X25.8Y14.62
G1X25.75Y14.54
G1X25.72Y14.51
G1X25.68Y14.49
G1Y14.52
G1X25.69Y14.58
G1X25.75Y14.67
G1X25.83Y14.81
G1X25.87Y14.93
G1X25.88Y15.01
G1X25.84
G1X25.82
G1Y15.03
G1X25.83Y15.08
G1X25.87Y15.15
G1X25.95Y15.27
G1X26.02Y15.32
G1X26.05Y15.34
G1X26.1Y15.39
G1X26.16Y15.47
G1X26.29Y15.66
G1X26.35Y15.74
G1X26.39Y15.78
G1X26.48Y15.81
G1X26.64Y15.99
G1X26.72Y16.04
G1X26.76
G1X26.74Y15.96
G1X26.76Y15.97
G1X26.8Y16.01
G1X26.93Y16.14
G1X26.98Y16.18
G1X26.99
G1Y16.13
G1X26.97Y16.08
G1Y16.06
G1X27.01Y16.09
G1X27.07Y16.15
G1X27.11Y16.2
G1X27.13
G1Y16.18
G1X27.11Y16.13
G1X27.07Y16.04
G1X27.01Y15.93
G1X26.94Y15.78
G1X26.85Y15.61
G1X26.76Y15.43
G1X26.72Y15.33
G1X26.75Y15.35
G1X26.86Y15.52
G1X26.89Y15.56
G1X26.92Y15.57
G1X26.94Y15.55
G1X26.95Y15.52
G1X26.97
G1X27Y15.54
G1X27.08Y15.63
G1X27.11Y15.64
G1X27.12Y15.6
G1X27.13
G1X27.15Y15.61
G1X27.19Y15.66
G1X27.24Y15.72
G1X27.36Y15.9
G1X27.5Y16.13
G1X27.65Y16.36
G1X27.76Y16.53
G1X27.83Y16.63
G1X27.87Y16.68
G1Y16.67
G1X27.83Y16.59
G1X27.76Y16.45
G1X27.54Y16.05
G1X27.47Y15.92
G1X27.44Y15.85
G1Y15.84
G1X27.49Y15.88
G1X27.56Y15.98
G1X27.66Y16.14
G1X27.93Y16.56
G1X28.04Y16.72
G1X28.1Y16.82
G1X28.14Y16.85
G1Y16.83
G1X28.11Y16.75
G1X28.04Y16.61
G1X27.87Y16.28
G1X27.82Y16.17
G1X27.79Y16.1
G1X27.78Y16.07
G1X27.81Y16.1
G1X27.86Y16.16
G1X27.97Y16.3
G1X27.99Y16.32
G1Y16.3
G1X27.96Y16.2
G1Y16.17
G1X27.99Y16.19
G1X28.04Y16.25
G1X28.1Y16.35
G1X28.27Y16.63
G1X28.38Y16.82
G1X28.47Y16.95
G1X28.54Y17.04
G1X28.57Y17.05
G1X28.6Y17.02
G1X28.64
G1X28.66
G1Y16.99
G1X28.64Y16.93
G1X28.61Y16.86
G1X28.52Y16.66
G1X28.35Y16.31
G1X28.31Y16.24
G1Y16.19
G1X28.34Y16.2
G1X28.37Y16.25
G1X28.43Y16.33
G1X28.56Y16.55
G1X28.61Y16.64
G1X28.65Y16.69
G1X28.67Y16.7
G1Y16.68
G1X28.65Y16.63
G1X28.61Y16.54
G1X28.56Y16.42
G1X28.45Y16.21
G1X28.29Y16.05
G1X28.16Y15.95
G1X27.97Y15.83
G1X27.84Y15.76
G1X26.75Y15.12
G1X26.57Y15.02
G1X26.46Y14.97
G1X26.41Y14.95
G1X26.4Y14.98
G1X26.42Y15.03
G1X26.46Y15.1
G1X26.51Y15.23
G1X26.52Y15.3
G1X26.5Y15.29
G1X26.45Y15.24
G1X26.4Y15.15
G1X26.28Y14.93
G1X26.22Y14.84
G1X26.18Y14.79
G1X26.16Y14.78
G1X26.17Y14.86
G1X26.33Y15.16
G1X26.35Y15.24
G1X26.32
G1X26.28Y15.18
G1X26.22Y15.09
G1X26.16Y14.98
G1X26.09Y14.85
G1X26.06Y14.76
G1Y14.71
G1X26.12
G1X26.23Y14.75
G1X26.42Y14.85
G1X26.54Y14.92
G1X27.42Y15.42
G1X27.73Y15.6
G1X27.86Y15.66
G1X27.95Y15.71
G1X28.01Y15.74
G1X28.04
G1Y15.72
G1X27.99Y15.69
G1X27.92Y15.65
G1X27.73Y15.55
G1X27.66Y15.5
G1X27.62Y15.47
G1Y15.45
G1X27.68
G1X27.79Y15.51
G1X27.92Y15.56
G1X28.04
G1X28.09Y15.55
G1X28.11
G1X28.1Y15.56
G1X28.02Y15.62
G1X28.01Y15.64
G1X28.03Y15.66
G1X28.12Y15.7
G1X28.14Y15.72
G1Y15.74
G1X28.12Y15.76
G1Y15.8
G1X28.18Y15.86
G1X28.28Y15.93
G1X28.41Y16
G1X28.54Y16.08
G1X28.68Y16.13
G1X28.79Y16.17
G1X28.86
G1X28.91
G1X28.92
G1X28.88Y16.2
G1X28.86Y16.26
G1X28.92Y16.32
G1X29.02Y16.35
G1X29.2Y16.34
G1X29.25Y16.37
G1Y16.41
G1X29.18Y16.4
G1X29.13Y16.39
G1X29.12
G1X29.14Y16.41
G1X29.19Y16.46
G1X29.28Y16.52
G1X29.35Y16.54
G1X29.38
G1X29.37Y16.48
G1X29.36Y16.46
G1X29.4
G1X29.45Y16.48
G1X29.54Y16.54
G1X29.57Y16.57
G1X29.55Y16.58
G1X29.41Y16.55
G1X29.45Y16.59
G1X29.55Y16.66
G1X29.71Y16.76
G1X29.93Y16.9
G1X30.22Y17.08
G1X30.95Y17.51
G1X31.45Y17.79
G1X31.59Y17.87
G1X31.67Y17.91
G1X31.71Y17.92
G1Y17.91
G1X31.7Y17.87
G1Y17.85
G1X31.72Y17.86
G1X31.77Y17.89
G1X31.84Y17.93
G1X31.97Y18.03
G1X32.02Y18.08
G1X31.99
G1X31.94Y18.05
G1X31.86Y18.01
G1X31.82Y17.99
G1Y18
G1X31.86Y18.04
G1X31.94Y18.11
G1X32.35Y18.46
G1X32.68Y18.81
G1X32.92Y19.15
G1X33.07Y19.47
G1X33.14Y19.64
G1X33.19Y19.75
G1Y19.79
G1X33.1Y19.81
G1X33Y19.8
G1X32.96Y19.74
G1X32.94Y19.69
G1X32.91Y19.66
G1X32.83Y19.63
G1X32.72Y19.54
G1X32.62Y19.46
G1X32.56Y19.41
G1X32.5Y19.39
G1X32.44
G1X32.41Y19.35
G1X32.34Y19.26
G1X32.26Y19.13
G1X32.08Y18.81
G1X32Y18.68
G1X31.95Y18.6
G1X31.92Y18.57
G1Y18.62
G1X32.01Y18.81
G1Y18.86
G1X31.99
G1X31.97Y18.82
G1X31.93Y18.76
G1X31.89Y18.68
G1X31.85Y18.61
G1X31.84Y18.55
G1Y18.52
G1X31.89Y18.54
G1X31.91Y18.52
G1X31.89Y18.46
G1X31.85Y18.37
G1X31.81Y18.29
G1Y18.24
G1X31.83
G1X31.86Y18.28
G1X31.91Y18.34
G1X31.97Y18.44
G1X32.13Y18.7
G1X32.31Y19.04
G1X32.39Y19.17
G1X32.46Y19.27
G1X32.52Y19.34
G1X32.55Y19.35
G1X32.6
G1X32.65Y19.41
G1X32.7Y19.47
G1X32.77
G1X32.83Y19.46
G1Y19.47
G1Y19.53
G1X32.9Y19.59
G1X32.98Y19.63
G1X33.02
G1X33.05Y19.6
G1Y19.55
G1X32.99Y19.4
G1X32.85Y19.22
G1X32.74Y19.1
G1X32.57Y18.83
G1X32.5Y18.75
G1X32.46Y18.73
G1Y18.8
G1X32.49Y18.85
G1Y18.88
G1X32.46
G1X32.4Y18.8
G1X32.32Y18.66
G1X32.27Y18.57
G1X32.22Y18.5
G1X32.19Y18.46
G1X32.17Y18.44
G1Y18.49
G1X32.23Y18.61
G1X32.29Y18.74
G1Y18.81
G1X32.27
G1X32.23Y18.75
G1X32.18Y18.67
G1X32.12Y18.57
G1X32.02Y18.42
G1X31.88Y18.26
G1X31.71Y18.09
G1X31.53Y17.94
G1X31.34Y17.8
G1X31.16Y17.69
G1X31Y17.61
G1X30.82Y17.57
G1X30.8Y17.54
G1X30.43Y17.28
G1X30.01Y17.05
G1X30.03Y17.1
G1X30.06Y17.16
G1X30.21Y17.45
G1X30.47Y17.95
G1X30.56Y18.13
G1X30.59Y18.19
G1X30.61Y18.23
G1Y18.25
G1X30.51Y18.17
G1X30.44Y18.15
G1X30.41Y18.13
G1Y18.08
G1X30.42Y18.02
G1X30.4
G1X30.36Y18.01
G1X30.3Y17.95
G1X30.23Y17.86
G1X30.16Y17.74
G1X30.09Y17.63
G1X30.03Y17.54
G1X29.98Y17.48
G1X29.96Y17.44
G1X29.94
G1X29.95Y17.48
G1X29.98Y17.54
G1X30.03Y17.64
G1X30.13Y17.85
G1X30.19Y18
G1Y18.05
G1Y18.06
G1X30.17Y18.04
G1X30.06Y17.88
G1X30.02Y17.83
G1X30Y17.85
G1X30.02Y17.92
G1Y17.95
G1X30
G1X29.96Y17.91
G1X29.84Y17.79
G1X29.79Y17.76
G1X29.77Y17.74
G1X29.79Y17.8
G1X29.75Y17.83
G1X29.69Y17.78
G1X29.6Y17.66
G1X29.53Y17.54
G1X29.48Y17.49
G1Y17.52
G1X29.52Y17.6
G1X29.55Y17.69
G1X29.52Y17.71
G1X29.45Y17.66
G1X29.37Y17.55
G1X29.31Y17.44
G1X29.26Y17.39
G1X29.24
G1X29.26Y17.46
G1X29.28Y17.52
G1X29.26Y17.55
G1X28.93Y17.37
G1X28.64Y17.16
G1X28.62Y17.13
G1X28.57Y17.12
G1X28.52Y17.1
G1X28.41Y17.05
G1X28.25Y16.96
G1X28.04Y16.85
G1X27.55Y16.58
G1X26.99Y16.27
G1X26.44Y15.95
G1X25.96Y15.67
G1X25.78Y15.56
G1X25.63Y15.47
G1X25.54Y15.41
G1X25.52Y15.39
G1Y15.36
G1X25.49Y15.29
G1X25.45Y15.2
G1X25.34Y14.97
G1X25.3Y14.89
G1X25.28Y14.84
G1Y14.83
G1X25.31Y14.85
G1X25.35Y14.91
G1X25.41Y15
G1X25.6Y15.3
G1X25.67Y15.41
G1X25.71Y15.45
G1Y15.43
G1X25.68Y15.36
G1X25.62Y15.22
G1X25.53Y15.04
G1X25.4Y14.8
G1X25.28Y14.58
G1X25.18Y14.4
G1X25.1Y14.27
G1X25.02Y14.17
G1X24.93Y14.09
G1X24.83Y14.01
G1X24.71Y13.93
G1X24.35Y13.72
G1X24.2Y13.63
G1X24.1Y13.58
G1X24.04Y13.56
G1X24.02Y13.57
G1Y13.61
G1X24.06Y13.68
G1X24.12Y13.78
G1X24.22Y13.97
G1X24.29Y14.13
G1X24.3Y14.18
G1Y14.22
G1X24.29Y14.24
G1X24.26Y14.23
G1X24.23Y14.2
G1Y14.16
G1Y14.13
G1X24.2Y14.06
G1X24.15Y13.96
G1X24.02Y13.72
G1X23.97Y13.62
G1X23.95Y13.56
G1Y13.52
G1X23.92Y13.49
G1X23.86Y13.45
G1X23.78Y13.39
G1X23.68Y13.33
G1X23.61Y13.29
G1X23.57Y13.28
G1X23.55
G1Y13.33
G1X23.58Y13.39
G1X23.64Y13.49
G1X23.71Y13.62
G1X23.79Y13.74
G1X23.84Y13.82
G1X23.88Y13.88
G1X23.9Y13.9
G1X23.91
G1Y13.85
G1X23.88Y13.78
G1X23.79Y13.57
G1X23.77Y13.51
G1Y13.48
G1X23.78Y13.49
G1X23.81Y13.53
G1X23.85Y13.6
G1X23.91Y13.7
G1X23.98Y13.83
G1X24.05Y13.98
G1X24.09Y14.07
G1Y14.09
G1X24.04Y14.05
G1X23.94Y13.96
G1X23.88Y13.92
G1X23.74Y13.88
G1X23.61Y13.78
G1X23.49Y13.63
G1X23.36Y13.42
G1X23.24Y13.21
G1X23.15Y13.06
G1X23.08Y12.99
G1X23.04
G1X23.02Y13.05
G1Y13.18
G1X23.06Y13.39
G1X23.12Y13.67
G1X23.15Y13.75
G1X23.21Y13.83
G1X23.31Y13.93
G1X23.43Y14.04
G1X23.72Y14.28
G1X24.06Y14.52
G1X24.41Y14.74
G1X24.73Y14.93
G1X24.88Y14.99
G1X25.01Y15.04
G1X25.11Y15.07
G1X25.24
G1X25.3Y15.1
G1X25.35Y15.15
G1X25.4Y15.22
G1X25.46Y15.32
G1X25.48Y15.36
G1X25.46Y15.37
G1X25.4Y15.35
G1X25.24Y15.3
G1X25.03Y15.26
G1X24.63Y15.19
G1X24.31Y15.11
G1X24.03Y15
G1X23.73Y14.87
G1X23.55Y14.8
G1X23.42Y14.76
G1X23.32
G1X23.26Y14.79
G1X23.24Y14.86
G1X23.26Y14.96
G1X23.32Y15.09
G1X23.42Y15.25
G1X23.48Y15.33
G1X23.52Y15.38
G1X23.55Y15.4
G1X23.56
G1Y15.39
G1X23.55Y15.35
G1X23.52Y15.28
G1X23.43Y15.11
G1X23.4Y15.05
G1Y15.02
G1X23.41
G1X23.44Y15.05
G1X23.49Y15.1
G1X23.55Y15.19
G1X23.7Y15.41
G1X23.76Y15.49
G1X23.81Y15.55
G1X23.83Y15.57
G1X23.84Y15.56
G1Y15.51
G1X23.8Y15.43
G1X23.69Y15.22
G1X23.66Y15.15
G1X23.65Y15.11
G1X23.68Y15.13
G1X23.73Y15.19
G1X23.79Y15.29
G1X23.87Y15.41
G1X23.97Y15.55
G1X24.07Y15.67
G1X24.18Y15.76
G1X24.3Y15.83
G1X24.5Y15.93
G1X24.66Y16.01
G1X24.78Y16.08
G1X24.87Y16.15
G1X24.94Y16.19
G1X24.96Y16.17
G1X24.93Y16.08
G1X24.85Y15.94
G1X24.77Y15.8
G1X24.75Y15.73
G1X24.78Y15.74
G1X24.83Y15.8
G1X24.89Y15.89
G1X25.05Y16.15
G1X25.12Y16.26
G1X25.17Y16.32
G1X25.2Y16.34
G1X25.21Y16.33
G1X25.19Y16.27
G1X25.15Y16.17
G1X25.02Y15.91
G1X24.98Y15.82
G1X24.97Y15.78
G1X24.98
G1X25.02Y15.82
G1X25.08Y15.91
G1X25.16Y16.04
G1X25.27Y16.21
G1X25.36Y16.34
G1X25.44Y16.44
G1X25.51Y16.5
G1X25.54Y16.52
G1X25.61Y16.53
G1X25.78Y16.67
G1X25.9Y16.7
G1X26.07Y16.84
G1X26.13Y16.85
G1X26.19
G1X26.25Y16.91
G1X26.29Y16.95
G1X26.32Y16.96
G1X26.35
G1X26.39Y16.91
G1X26.41
G1X26.43Y16.93
G1X26.45Y16.98
G1X26.5Y17.07
G1X26.58Y17.12
G1X26.62Y17.14
G1X26.64Y17.13
G1Y17.1
G1Y17.06
G1X26.62Y17.01
G1Y17
G1X26.64Y17.02
G1X26.69Y17.07
G1X26.75Y17.16
G1X26.78Y17.22
G1X26.79Y17.26
G1X26.83
G1X26.84Y17.24
G1X26.82Y17.17
G1X26.78Y17.06
G1X26.72Y16.93
G1X26.64Y16.79
G1X26.59Y16.68
G1X26.57Y16.63
G1Y16.62
G1X26.61Y16.65
G1X26.67Y16.73
G1X26.75Y16.85
G1X26.98Y17.19
G1X27.06Y17.31
G1X27.12Y17.39
G1X27.15Y17.42
G1Y17.4
G1X27.12Y17.33
G1X27.06Y17.21
G1X26.89Y16.88
G1X26.83Y16.76
G1X26.81Y16.69
G1Y16.67
G1X26.84Y16.7
G1X26.9Y16.79
G1X26.98Y16.92
G1X27.09Y17.1
G1X27.28Y17.37
G1X27.44Y17.59
G1X27.5Y17.66
G1X27.54Y17.69
G1Y17.67
G1X27.5Y17.58
G1X27.51
G1X27.53Y17.6
G1X27.57Y17.64
G1X27.66Y17.74
G1X27.72Y17.76
G1Y17.72
G1X27.68Y17.6
G1X27.64Y17.52
G1X27.61Y17.47
G1Y17.44
G1X27.64Y17.47
G1X27.68Y17.52
G1X27.73Y17.59
G1X27.79Y17.69
G1X27.91Y17.85
G1X28Y17.93
G1X28.03Y17.94
G1Y17.93
G1Y17.88
G1X28Y17.81
G1X27.97Y17.75
G1Y17.72
G1Y17.74
G1X28.09Y17.9
G1X28.15Y17.97
G1X28.19Y18
G1X28.2
G1Y17.96
G1X28.16Y17.88
G1X28.11Y17.77
G1X27.92Y17.4
G1X27.84Y17.24
G1X27.81Y17.15
G1Y17.13
G1X27.84Y17.17
G1X27.92Y17.28
G1X28.03Y17.45
G1X28.29Y17.87
G1X28.4Y18.03
G1X28.48Y18.15
G1X28.55Y18.23
G1X28.58Y18.26
G1Y18.25
G1X28.56Y18.18
G1X28.5Y18.05
G1X28.44Y17.93
G1Y17.88
G1X28.48Y17.93
G1X28.56Y18.06
G1X28.66Y18.22
G1X28.77Y18.36
G1X28.87Y18.45
G1X28.94Y18.46
G1X28.98Y18.47
G1X29.02Y18.53
G1X29.07Y18.58
G1X29.14
G1X29.22Y18.59
G1X29.29Y18.67
G1X29.35Y18.74
G1X29.5Y18.77
G1X29.57Y18.84
G1X29.6Y18.9
G1X29.58Y18.91
G1X29.51Y18.88
G1X29.36Y18.8
G1X26.88Y17.41
G1X24.41Y16
G1X23.96Y15.74
G1X23.57Y15.54
G1X23.42Y15.46
G1X23.31Y15.4
G1X23.23Y15.37
G1X23.2Y15.36
G1X23.18Y15.38
G1X23.2Y15.42
G1X23.29Y15.49
G1X23.45Y15.59
G1X23.72Y15.75
G1X24.1Y15.97
G1X26.36Y17.25
G1X27.82Y18.08
G1X29.42Y18.99
G1X30.23Y19.46
G1X30.52Y19.64
G1X30.59Y19.69
G1X30.55Y19.68
G1X30.49Y19.65
G1X30.27Y19.53
G1X29.7Y19.22
G1X28.45Y18.52
G1X25.46Y16.83
G1X23.28Y15.6
G1X23.21Y15.57
G1X23.15Y15.6
G1X23.1Y15.68
G1X23.02Y15.85
G1X22.74Y16.39
G1X22.44Y16.87
G1X22.11Y17.27
G1X21.75Y17.62
G1X21.34Y17.91
G1X20.89Y18.16
G1X20.38Y18.36
G1X19.8Y18.53
G1X19.2Y18.65
G1X18.58Y18.72
G1X17.94Y18.74
G1X17.3Y18.71
G1X16.66Y18.64
G1X16.03Y18.52
G1X15.41Y18.37
G1X14.82Y18.18
G1X14.26Y17.96
G1X13.74Y17.71
G1X13.26Y17.43
G1X12.84Y17.13
G1X12.49Y16.8
G1X12.2Y16.46
G1X11.99Y16.09
G1X11.86Y15.72
G1X11.84Y15.6
G1X11.8Y15.55
G1X11.77Y15.56
G1X11.72Y15.58
G1X11.65Y15.62
G1X11.56Y15.67
G1X11.22Y15.88
G1X10.16Y16.48
G1X9.02Y17.13
G1X7.15Y18.18
G1X5.49Y19.11
G1X4.6Y19.6
G1X4.43Y19.68
G1X4.4Y19.7
G1X4.44Y19.67
G1X4.52Y19.62
G1X4.8Y19.45
G1X5.49Y19.04
G1X6.87Y18.25
G1X11.37Y15.69
G1X11.52Y15.6
G1X11.64Y15.53
G1X11.72Y15.47
G1X11.77Y15.43
G1X11.78Y15.4
G1X11.77Y15.38
G1X11.73
G1X11.69Y15.39
G1X11.59Y15.44
G1X11.27Y15.61
G1X10.81Y15.87
G1X9.32Y16.72
G1X7.09Y17.99
G1X5.72Y18.76
G1X5.5Y18.88
G1X5.42Y18.91
G1X5.39
G1Y18.89
G1X5.43Y18.83
G1X5.5Y18.76
G1X5.55Y18.75
G1X5.61Y18.74
G1X5.79Y18.61
G1X5.96Y18.54
G1X6.02Y18.48
G1X6.05Y18.45
G1X6.07Y18.46
G1Y18.48
G1X6.11
G1X6.15Y18.44
G1X6.2Y18.39
G1X6.32Y18.25
G1X6.42Y18.09
G1X6.51Y17.94
G1X6.57Y17.88
G1X6.56Y17.93
G1X6.5Y18.05
G1X6.44Y18.18
G1X6.41Y18.25
G1Y18.26
G1X6.45Y18.23
G1X6.52Y18.15
G1X6.6Y18.03
G1X6.7Y17.87
G1X6.97Y17.45
G1X7.08Y17.28
G1X7.16Y17.17
G1X7.2Y17.12
G1Y17.14
G1X7.17Y17.22
G1X7.09Y17.37
G1X6.88Y17.75
G1X6.82Y17.89
