; LightBurn 0.9.24
; GRBL device profile, absolute coords
; Bounds: X3 Y3 to X33 Y32.25
G00 G17 G40 G21 G54
G90
M4
; Cut @ 6000 mm/min, 20% power
M8
M5
G0X12.43Y6.98
M3 S30
; Layer C00
G1Y7.03S20F6000
G1X12.47Y7.1
G1X12.53Y7.16
G1X12.59Y7.19
G1X12.84Y7.23
G1X13.02Y7.25
G1X13.21
G1X13.33Y7.27
G1X13.39Y7.31
G1X13.44Y7.34
G1X13.58Y7.35
G1X13.72
G1X13.8Y7.37
G1X13.85Y7.39
G1X13.91Y7.38
G1X13.97Y7.35
G1X13.99Y7.31
G1X14.02Y7.27
G1X14.1Y7.24
G1X14.17Y7.2
G1Y7.13
G1X14.14Y7.08
G1X14.08Y7.06
G1X14.02Y7.09
G1X13.94Y7.15
G1X13.91Y7.19
G1X13.89Y7.2
G1Y7.18
G1X13.9Y7.13
G1X13.92Y7.08
G1X13.9Y7.07
G1X13.84Y7.09
G1X13.73Y7.15
G1X13.64Y7.2
G1X13.57Y7.22
G1X13.53
G1X13.51Y7.21
G1X13.48Y7.18
G1X13.43
G1X13.39
G1X13.35Y7.12
G1X13.33Y7.08
G1X13.31Y7.07
G1X13.29
G1X13.25Y7.13
G1X13.23
G1Y7.12
G1X13.22Y7.03
G1X13.21Y7.01
G1X13.19
G1X13.17Y7.04
G1X13.15Y7.06
G1X13.13
G1X13.11Y7.03
G1X13.09Y6.96
G1X13.05Y6.81
G1X12.97Y6.97
G1X12.92Y7.06
G1X12.9
G1X12.86Y7.02
G1X12.78
G1X12.72
G1X12.69
G1Y6.98
G1Y6.93
G1X12.71Y6.87
G1Y6.85
G1X12.67Y6.9
G1X12.61Y6.96
G1X12.54
G1X12.48
G1X12.43Y6.98
M5
G0X16.58Y5.14
M3 S30
; Layer C00
G1X16.6
G1X16.66Y5.13
G1X16.72Y5.11
G1Y5.19
G1X16.81Y5.24
G1X16.94Y5.27
G1X17.09
G1X17.23Y5.26
G1X17.33Y5.25
G1X17.36Y5.23
G1Y5.2
G1X17.32Y5.17
G1X17.2Y5.18
G1X17.18Y5.15
G1X17.16Y5.12
G1X17.13
G1X17.07
G1X17.01Y5.08
G1X16.94Y5.02
G1X16.87Y5
G1X16.8Y4.97
G1X16.73Y4.89
G1X16.68Y4.79
G1Y4.7
G1X16.63Y4.63
G1X16.49Y4.54
G1X16.36Y4.47
G1X16.32Y4.4
G1X16.36Y4.36
G1X16.49
G1X16.65
G1X16.49Y4.3
G1X16.4Y4.24
G1Y4.21
G1X16.42Y4.17
G1X16.35Y4.12
G1X16.3Y4.09
G1X16.26
G1X16.24Y4.1
G1Y4.19
G1X16.23
G1X16.21Y4.17
G1X16.19Y4.12
G1X16.12Y4.04
G1X16.04Y4
G1X15.99
G1X15.98Y4.01
G1Y4.03
G1X16.02Y4.05
G1X16.06Y4.1
G1Y4.15
G1X16.04Y4.2
G1X16.11Y4.25
G1X16.17Y4.34
G1X16.2Y4.41
G1Y4.45
G1Y4.47
G1X16.16
G1X16.1Y4.49
G1X16.05Y4.53
G1Y4.55
G1X16.09Y4.56
G1X16.16Y4.57
G1X16.25
G1X16.42Y4.58
G1X16.51Y4.62
G1X16.54Y4.66
G1X16.62Y4.65
G1Y4.7
G1X16.6Y4.77
G1X16.63Y4.82
G1X16.66Y4.85
G1Y4.9
G1X16.65Y4.93
G1X16.69Y4.95
G1X16.71Y4.98
G1X16.65Y5.05
G1X16.6Y5.11
G1X16.58Y5.14
M5
G0X18.72Y3.95
M3 S30
; Layer C00
G1X18.79Y3.97
G1X18.86
G1X18.9Y3.95
G1Y3.92
G1X18.89Y3.89
G1X18.85Y3.84
G1X18.79Y3.77
G1X18.82Y3.74
G1X18.86Y3.73
G1Y3.69
G1Y3.66
G1X19.05
G1X19.29Y3.6
G1X19.68Y3.55
G1X19.85Y3.5
G1X19.87Y3.53
G1X19.92Y3.56
G1X20.06
G1X20.2
G1X20.25Y3.58
G1X20.29Y3.62
G1X20.36Y3.65
G1X20.44
G1X20.47Y3.63
G1X20.5Y3.62
G1X20.63Y3.71
G1X20.68
G1Y3.68
G1X20.64Y3.61
G1X20.56Y3.56
G1X20.49
G1X20.41
G1X20.22Y3.48
G1X20.05Y3.45
G1X19.49Y3.4
G1X19.33Y3.39
G1X19.23
G1X19.18Y3.4
G1Y3.43
G1X19.2Y3.46
G1Y3.47
G1X19.18
G1X19.14
G1X19.06
G1X18.99Y3.5
G1X18.96Y3.52
G1X18.94
G1X18.98Y3.45
G1Y3.43
G1X18.96
G1X18.84Y3.47
G1X18.79
G1X18.78Y3.49
G1Y3.52
G1Y3.57
G1X18.73Y3.63
G1X18.68Y3.67
G1X18.66Y3.68
G1Y3.67
G1X18.67Y3.63
G1Y3.58
G1X18.64Y3.54
G1X18.56Y3.5
G1X18.43Y3.46
G1X18.32Y3.43
G1X18.22Y3.41
G1X18.15Y3.4
G1X18.04
G1X17.73Y3.33
G1X17.5Y3.3
G1X17.39Y3.29
G1X17.31
G1X17.25Y3.3
G1X17.23Y3.32
G1Y3.35
G1X17.27Y3.37
G1X17.34Y3.39
G1X17.48Y3.4
G1X17.6Y3.41
G1X17.69Y3.44
G1X17.96Y3.47
G1X18.07Y3.49
G1X18.14Y3.52
G1X18.21Y3.55
G1X18.27Y3.57
G1X18.34Y3.55
G1X18.38
G1X18.36Y3.58
G1Y3.62
G1X18.39Y3.63
G1X18.49
G1X18.56Y3.64
G1X18.6Y3.68
G1X18.63Y3.74
G1X18.68Y3.82
G1X18.76Y3.85
G1X18.8
G1X18.81Y3.86
G1X18.8Y3.87
G1X18.7Y3.9
G1X18.68Y3.91
G1Y3.93
G1X18.72Y3.95
M5
G0X20.76Y3.71
M3 S30
; Layer C00
G1X20.77Y3.77
G1X20.84Y3.89
G1X20.91Y4
G1X20.97Y4.03
G1X21.01Y4.02
G1Y4.04
G1Y4.12
G1X21.05Y4.18
G1X21.12Y4.26
G1X21.33Y4.4
G1X21.39Y4.45
G1X21.43Y4.49
G1X21.44Y4.51
G1Y4.56
G1X21.47Y4.64
G1X21.52Y4.74
G1X21.59Y4.86
G1X21.66Y4.98
G1X21.74Y5.09
G1X21.8Y5.16
G1X21.85Y5.19
G1X21.91Y5.23
G1Y5.29
G1Y5.4
G1X21.93Y5.56
G1X21.95Y5.65
G1X21.97Y5.69
G1X21.99Y5.7
G1X22.05Y5.64
G1X22.07Y5.66
G1X22.05Y5.71
G1X22.01Y5.77
G1X21.97Y5.85
G1X22.03Y6.12
G1X22Y6.23
G1X21.98Y6.32
G1Y6.42
G1X22Y6.47
G1Y6.5
G1X21.98
G1X21.92Y6.48
G1X21.91
G1Y6.51
G1Y6.56
G1X21.92Y6.65
G1X21.9Y6.69
G1X21.86Y6.72
G1X21.84Y6.78
G1X21.82Y6.85
G1X21.64Y7.14
G1X21.52Y7.39
G1X21.55Y7.38
G1X21.63Y7.29
G1X21.71Y7.19
G1X21.74Y7.11
G1X21.77Y7.05
G1X21.84Y6.97
G1X21.94Y6.83
G1X22.03Y6.63
G1X22.09Y6.43
G1Y6.3
G1X22.08Y6.27
G1X22.11
G1X22.16
G1X22.2Y6.2
G1X22.21Y6.03
G1Y5.77
G1X22.2Y5.59
G1X22.17Y5.46
G1X22.13Y5.35
G1X22.07Y5.25
G1X22.01Y5.17
G1X21.99Y5.14
G1Y5.13
G1X22.04Y5.16
G1X22.09Y5.2
G1X22.12
G1X22.11Y5.18
G1X22.08Y5.12
G1X22.01Y5.02
G1X21.95Y4.97
G1X21.88
G1X21.81Y5.01
G1X21.76Y5.04
G1X21.75
G1Y5.02
G1X21.79Y4.96
G1X21.83Y4.9
G1Y4.85
G1X21.81Y4.81
G1X21.7Y4.7
G1X21.72
G1X21.75Y4.72
G1X21.77
G1Y4.71
G1Y4.67
G1X21.76Y4.64
G1X21.77Y4.61
G1X21.8Y4.58
G1X21.86Y4.56
G1X21.93Y4.53
G1X21.95Y4.5
G1X21.89
G1X21.81Y4.52
G1X21.71Y4.55
G1X21.64Y4.51
G1X21.59Y4.48
G1X21.57Y4.52
G1X21.56Y4.58
G1X21.53
G1X21.5Y4.53
G1X21.48Y4.44
G1X21.41Y4.29
G1X21.25Y4.11
G1X21.16Y4.03
G1X21.08Y3.96
G1X21.01Y3.93
G1X20.96
G1X20.92Y3.94
G1Y3.92
G1Y3.85
G1X20.86Y3.78
G1X20.78Y3.72
G1X20.76
M5
G0X20.73Y6.62
M3 S30
; Layer C00
G1X20.7
G1X20.67Y6.69
G1X20.61Y6.81
G1X20.57Y6.9
G1X20.53Y6.97
G1X20.5Y7
G1X20.43Y6.99
G1X20.38Y7.07
G1X20.34Y7.17
G1X20.37Y7.22
G1X20.39Y7.23
G1Y7.27
G1Y7.32
G1X20.35Y7.39
G1X20.27Y7.51
G1X20.19Y7.61
G1X20.12Y7.66
G1X20.09Y7.65
G1X20.05
G1X19.95Y7.73
G1X19.87Y7.79
G1X19.82
G1Y7.76
G1X19.88Y7.69
G1X19.9Y7.64
G1X19.85
G1X19.75Y7.68
G1X19.65Y7.75
G1X19.57Y7.81
G1X19.54
G1X19.57Y7.73
G1X19.66Y7.61
G1X19.78Y7.44
G1X19.52Y7.65
G1X19.64Y7.45
G1X19.72Y7.31
G1X19.75Y7.23
G1X19.74Y7.22
G1X19.67Y7.29
G1X19.63Y7.34
G1X19.6Y7.35
G1Y7.32
G1X19.63Y7.16
G1Y7.14
G1X19.59Y7.19
G1X19.53Y7.3
G1X19.43Y7.45
G1X19.34Y7.52
G1X19.3
G1X19.29Y7.54
G1Y7.58
G1X19.3Y7.68
G1Y7.71
G1X19.25
G1X19.16
G1X19.04
G1X18.97Y7.76
G1X18.95Y7.82
G1X19.07Y7.91
G1Y7.96
G1X19.05Y7.99
G1X19.1Y7.96
G1X19.18Y7.92
G1X19.25
G1X19.28Y7.96
G1X19.26Y8.02
G1X19.23Y8.09
G1X19.28
G1X19.36Y8.06
G1X19.46Y7.99
G1X19.54Y7.92
G1X19.61Y7.89
G1X19.63Y7.9
G1X19.6Y7.96
G1X19.57Y8
G1Y8.02
G1X19.59
G1X19.63
G1X19.71Y8
G1X19.76Y7.99
G1X19.81
G1X19.89
G1X20Y7.96
G1X20.11Y7.89
G1X20.18Y7.83
G1X20.23Y7.81
G1X20.25Y7.82
G1X20.3Y7.91
G1X20.32Y7.93
G1X20.35Y7.91
G1X20.41Y7.87
G1X20.51Y7.82
G1X20.6Y7.84
G1X20.66Y7.9
G1Y8.01
G1X20.67Y8.03
G1X20.73Y8
G1X20.85Y7.91
G1X21.16Y7.63
G1X21.29Y7.52
G1X21.38Y7.46
G1X21.42Y7.45
G1X21.43
G1Y7.42
G1Y7.35
G1X21.62Y6.93
G1X21.73Y6.59
G1X21.69Y6.64
G1X21.65Y6.71
G1X21.55Y6.91
G1X21.51Y6.97
G1X21.48Y7.01
G1X21.47Y7
G1X21.45
G1X21.41Y7.04
G1X21.34Y7.12
G1X21.12Y7.46
G1X21Y7.61
G1X20.92Y7.7
G1X20.87
G1Y7.66
G1X20.95Y7.54
G1X20.88Y7.5
G1X20.89Y7.46
G1X20.9Y7.42
G1X20.77Y7.48
G1X20.68Y7.5
G1X20.63
G1X20.61
G1X20.62Y7.45
G1X20.7Y7.29
G1X20.72Y7.25
G1Y7.22
G1X20.7
G1X20.66Y7.24
G1X20.62Y7.22
G1Y7.21
G1Y7.24
G1X20.61Y7.28
G1X20.55
G1X20.5Y7.25
G1X20.48Y7.22
G1X20.49Y7.17
G1X20.54Y7.07
G1X20.6Y6.98
G1X20.67Y6.96
G1X20.73Y6.95
G1X20.76Y6.88
G1X20.78Y6.78
G1X20.75Y6.67
G1X20.73Y6.62
M5
G0X21.79Y7.26
M3 S30
; Layer C00
G1X21.75Y7.3
G1X21.77Y7.35
G1X21.86Y7.42
G1X22.04Y7.54
G1X22.09Y7.58
G1X22.12Y7.61
G1X22.11Y7.65
G1X22.07Y7.71
G1X22.03Y7.76
G1X22.1Y7.78
G1X22.13Y7.86
G1Y7.97
G1X22.1Y8.08
G1X22.08Y8.13
G1Y8.15
G1X22.09Y8.14
G1X22.14Y8.1
G1X22.21Y8.06
G1X22.23Y8.08
G1X22.21Y8.13
G1X22.14Y8.22
G1X22.11Y8.26
G1X22.09Y8.28
G1X22.12Y8.27
G1X22.19Y8.22
G1X22.26Y8.2
G1Y8.22
G1X22.23Y8.26
G1X22.18Y8.32
G1X22.09Y8.39
G1X21.97Y8.49
G1X21.93Y8.54
G1X21.96
G1X22.05Y8.49
G1X22.18Y8.42
G1X22.26Y8.36
G1X22.31Y8.3
G1X22.34
G1Y8.36
G1X22.31Y8.45
G1X22.27Y8.53
G1X22.26Y8.6
G1Y8.64
G1X22.28Y8.66
G1X22.32
G1X22.37Y8.64
G1X22.44Y8.6
G1X22.51Y8.53
G1X22.56Y8.48
G1X22.58Y8.45
G1Y8.44
G1X22.49Y8.5
G1X22.44Y8.51
G1X22.42Y8.49
G1X22.45Y8.44
G1X22.49Y8.38
G1Y8.36
G1Y8.34
G1X22.51Y8.29
G1X22.56Y8.22
G1X22.69Y8.05
G1X22.73Y8
G1Y7.97
G1X22.65Y8.01
G1X22.59
G1X22.57Y7.99
G1Y8.02
G1X22.58Y8.06
G1X22.54Y8.08
G1X22.49Y8.05
G1Y7.96
G1X22.52Y7.84
G1X22.59Y7.7
G1X22.63Y7.63
G1X22.65Y7.6
G1X22.63
G1X22.59Y7.65
G1X22.53Y7.71
G1X22.51
G1X22.46
G1X22.26Y7.81
G1X22.19
G1Y7.77
G1X22.26Y7.7
G1X22.3Y7.67
G1X22.32Y7.65
G1Y7.64
G1X22.29
G1X22.23Y7.62
G1X22.15Y7.45
G1X22.03Y7.34
G1X21.89Y7.27
G1X21.79
M5
G0X22.11Y8.68
M3 S30
; Layer C00
G1X22.07Y8.71
G1X22.04Y8.75
G1X22.02Y8.84
G1X22.01Y8.96
G1X22Y9.24
G1X21.99Y9.36
G1X21.97Y9.46
G1X21.93Y9.6
G1X21.95Y9.66
G1X22Y9.71
G1X22.09
G1X22.15
G1X22.17
G1X22.15Y9.7
G1X22.04Y9.65
G1X22.02Y9.63
G1X22.03Y9.61
G1X22.08Y9.59
G1X22.19Y9.57
G1X22.25Y9.58
G1Y9.63
G1X22.19Y9.71
G1X22.13Y9.77
G1X22.11Y9.81
G1X22.12Y9.83
G1X22.17Y9.84
G1X22.19Y9.85
G1Y9.87
G1X22.14Y9.89
G1X21.99Y9.95
G1X21.95Y9.96
G1Y9.97
G1X22.05Y9.99
G1X22.08Y10.01
G1X22.1Y10.04
G1Y10.09
G1X22.07Y10.18
G1X22.04Y10.24
G1Y10.29
G1X22.1Y10.34
G1X22.18Y10.38
G1X22.26Y10.4
G1X22.31Y10.38
G1X22.32Y10.32
G1X22.3Y10.27
G1X22.25
G1X22.2
G1Y10.25
G1X22.25Y10.21
G1X22.31Y10.19
G1X22.36Y10.18
G1X22.37Y10.14
G1Y10.08
G1X22.32Y10
G1X22.33Y9.93
G1X22.44Y9.86
G1X22.6Y9.75
G1X22.78Y9.58
G1X22.88Y9.48
G1X22.91Y9.44
G1X22.89Y9.45
G1X22.81Y9.52
G1X22.65Y9.64
G1X22.5Y9.74
G1X22.39Y9.79
G1X22.34
G1X22.37Y9.75
G1X22.44Y9.69
G1X22.49Y9.65
G1X22.5Y9.63
G1X22.48
G1X22.42Y9.65
G1X22.4
G1X22.41Y9.63
G1X22.46Y9.58
G1X22.72Y9.39
G1X22.81Y9.29
G1Y9.28
G1X22.8
G1X22.76Y9.3
G1X22.7Y9.34
G1X22.59Y9.42
G1X22.51Y9.46
G1X22.47Y9.45
G1X22.5Y9.37
G1X22.46
G1X22.42Y9.41
G1Y9.45
G1X22.38Y9.48
G1X22.24Y9.5
G1X22.14
G1X22.1
G1Y9.48
G1X22.16Y9.46
G1X22.25Y9.42
G1X22.28Y9.39
G1X22.26Y9.38
G1X22.19Y9.39
G1X22.14
G1X22.11
G1X22.1Y9.35
G1Y9.29
G1X22.11Y9.18
G1X22.18Y9.01
G1X22.2Y8.88
G1Y8.81
G1Y8.77
G1X22.17Y8.76
G1X22.13
G1X22.1Y8.78
G1X22.08
G1Y8.75
G1X22.11Y8.69
G1Y8.68
M5
G0X23.69Y8.84
M3 S30
; Layer C00
G1X23.63Y9.22
G1X23.54Y9.6
G1X23.42Y9.97
G1X23.3Y10.26
G1X23.2Y10.5
G1X23.16Y10.69
G1X23.11Y10.88
G1X23Y11.12
G1X22.94Y11.23
G1X22.88Y11.31
G1X22.82Y11.37
G1X22.79
G1X22.73Y11.39
G1X22.66Y11.44
G1X22.63Y11.49
G1X22.62Y11.51
G1X22.64Y11.5
G1X22.69Y11.46
G1X22.75Y11.43
G1X22.78Y11.44
G1X22.76Y11.5
G1X22.71Y11.55
G1X22.64Y11.58
G1X22.58
G1Y11.62
G1Y11.67
G1X22.54Y11.75
G1X22.46Y11.83
G1X22.36Y11.92
G1X22.12Y12.09
G1X21.86Y12.21
G1X21.59Y12.27
G1X21.28Y12.29
G1X20.95Y12.27
G1X20.37Y12.17
G1X20.08Y12.14
G1X19.81
G1X19.62Y12.18
G1X19.57Y12.22
G1X19.52Y12.29
G1X19.48Y12.41
G1X19.38Y12.73
G1X19.34Y12.83
G1X19.3Y12.88
G1X19.24
G1X19.19
G1X19.17
G1Y12.89
G1X19.2Y12.92
G1X19.25Y12.97
G1X19.24Y13.02
G1X19.19Y13.06
G1X19.12
G1X19.07
G1Y13.08
G1Y13.11
G1X19.02Y13.15
G1X18.93Y13.2
G1X18.83Y13.25
G1X18.68Y13.31
G1X18.61Y13.35
G1Y13.39
G1X18.65Y13.43
G1X18.73Y13.48
G1X18.8Y13.49
G1X18.9Y13.46
G1X19.08Y13.37
G1X19.34Y13.27
G1X19.63Y13.24
G1X19.78
G1X19.89Y13.21
G1X19.99Y13.16
G1X20.19Y12.99
G1X20.3Y12.94
G1X20.38Y12.93
G1X20.49
G1X20.63
G1X21.01
G1X21.15
G1X21.27
G1X21.37Y12.91
G1X21.56Y12.86
G1X21.8Y12.75
G1X22.08Y12.63
G1X22.35Y12.54
G1X22.6Y12.47
G1X22.83Y12.42
G1X23.03Y12.41
G1X23.22Y12.42
G1X23.38Y12.46
G1X23.52Y12.53
G1X23.59Y12.56
G1X23.64Y12.58
G1X23.69Y12.56
G1X23.74Y12.51
G1X23.88Y12.43
G1X24.07Y12.38
G1X24.21Y12.35
G1X24.27Y12.33
G1X24.29Y12.28
G1X24.26Y12.21
G1X24.22Y12.01
G1Y11.75
G1X24.23Y11.48
G1X24.29Y11.28
G1X24.41Y11.1
G1X24.59Y10.91
G1X24.82Y10.71
G1X24.8Y10.35
G1X24.78Y10.15
G1X24.75Y10.02
G1X24.71Y9.92
G1X24.63Y9.83
G1X24.48Y9.62
G1X24.34Y9.32
G1X24.18Y8.99
G1X23.97Y8.72
G1X23.73Y8.48
G1X23.69Y8.84
M5
G0X26.06Y9.01
M3 S30
; Layer C00
G1Y9.06
G1X26.09
G1X26.12Y9.05
G1X26.13
G1Y9.06
G1X26.09Y9.1
G1X26.04Y9.19
G1X26.03Y9.31
G1X26.05Y9.43
G1X26.1Y9.54
G1X26.15Y9.6
G1X26.17Y9.61
G1X26.19Y9.6
G1X26.21Y9.55
G1X26.26Y9.4
G1X26.28Y9.33
G1X26.26Y9.31
G1X26.16Y9.34
G1X26.14
G1X26.16Y9.32
G1X26.21Y9.28
G1X26.27Y9.22
G1Y9.2
G1Y9.16
G1X26.36Y9.06
G1X26.4Y9.01
G1X26.43Y8.97
G1Y8.96
G1X26.37Y8.98
G1Y8.95
G1X26.45Y8.91
G1X26.57Y8.9
G1X26.7
G1X26.77Y8.94
G1Y8.97
G1X26.73Y8.99
G1X26.69
G1X26.71Y9.07
G1X26.68Y9.15
G1X26.66Y9.22
G1X26.67Y9.27
G1X26.7Y9.33
G1Y9.45
G1X26.72Y9.56
G1X26.77Y9.6
G1X26.83Y9.58
G1X26.85Y9.53
G1X26.83Y9.48
G1X26.79Y9.46
G1X26.75Y9.44
G1Y9.39
G1X26.79Y9.35
G1X26.85Y9.33
G1X26.89Y9.34
G1X26.92Y9.39
G1X26.94Y9.49
G1X26.97Y9.66
G1X26.99Y9.71
G1X27.02Y9.72
G1X27.05Y9.69
G1X27.07Y9.62
G1X27.05Y9.54
G1X27.01Y9.51
G1X26.97Y9.49
G1Y9.45
G1Y9.35
G1X26.91Y9.22
G1X26.87Y9.14
G1X26.84Y9.11
G1X26.81
G1X26.79Y9.17
G1X26.77Y9.22
G1X26.75Y9.24
G1Y9.23
G1Y9.18
G1X26.76Y9.11
G1X26.82Y9.06
G1X26.86Y9.04
G1X26.87Y9.02
G1Y8.99
G1X26.84Y8.96
G1X26.81Y8.9
G1X26.83Y8.88
G1Y8.86
G1X26.77Y8.81
G1X26.67Y8.76
G1X26.55Y8.77
G1X26.45Y8.8
G1X26.32Y8.79
G1Y8.82
G1Y8.88
G1X26.26Y8.94
G1X26.21Y8.98
G1X26.19
G1X26.23Y8.93
G1X26.26Y8.88
G1Y8.84
G1X26.24Y8.8
G1X26.19Y8.75
G1X26.13Y8.7
G1X26.1Y8.69
G1X26.08Y8.7
G1Y8.74
G1X26.1Y8.81
G1X26.15Y8.83
G1X26.18Y8.84
G1X26.1Y8.93
G1X26.06Y9.01
M5
G0X26.32Y9.51
M3 S30
; Layer C00
G1X26.24Y9.58
G1X26.19Y9.65
G1X26.17Y9.7
G1X26.2Y9.75
G1X26.3Y9.87
G1X26.33Y9.9
G1Y9.92
G1X26.26Y9.9
G1X26.24Y9.93
G1X26.26Y9.97
G1X26.33Y10
G1Y10.03
G1Y10.11
G1X26.39Y10.24
G1X26.43Y10.33
G1X26.45Y10.4
G1Y10.47
G1X26.41Y10.55
G1X26.35Y10.66
G1X26.33Y10.74
G1Y10.8
G1X26.37Y10.86
G1X26.38Y10.91
G1X26.35Y10.96
G1X26.31Y10.97
G1X26.33Y10.89
G1X26.31Y10.88
G1X26.27Y10.94
G1Y11.08
G1Y11.18
G1X26.29Y11.26
G1X26.34Y11.32
G1X26.41Y11.38
G1X26.51Y11.46
G1X26.54Y11.52
G1Y11.55
G1X26.58Y11.56
G1X26.63Y11.57
G1X26.59Y11.59
G1X26.55Y11.63
G1Y11.67
G1X26.59Y11.7
G1X26.63Y11.66
G1X26.68Y11.63
G1X26.75
G1X26.73Y11.6
G1X26.66Y11.54
G1X26.58Y11.45
G1X26.48Y11.36
G1X26.4Y11.27
G1X26.34Y11.19
G1X26.31Y11.13
G1X26.32Y11.06
G1X26.36Y11.04
G1X26.41Y11.06
G1X26.45Y11.13
G1X26.53Y11.24
G1X26.67Y11.37
G1X26.81Y11.47
G1X26.89Y11.49
G1Y11.46
G1X26.83Y11.42
G1X26.77Y11.39
G1Y11.34
G1Y11.31
G1X26.76
G1X26.69Y11.3
G1X26.61Y11.27
G1X26.57Y11.25
G1X26.55Y11.23
G1Y11.2
G1X26.6Y11.12
G1Y11.09
G1X26.58Y11.07
G1X26.46Y11.02
G1X26.44Y10.98
G1X26.47Y10.91
G1X26.55Y10.78
G1X26.61Y10.7
G1X26.67Y10.63
G1X26.71Y10.58
G1X26.75Y10.56
G1X26.78Y10.54
G1X26.77Y10.47
G1X26.75Y10.43
G1Y10.41
G1X26.77
G1X26.8Y10.44
G1X26.83Y10.47
G1X26.87
G1X26.9Y10.46
G1X26.99Y10.37
G1Y10.39
G1X27.01Y10.44
G1X27.1Y10.47
G1X27.2
G1X27.23Y10.45
G1X27.17Y10.39
G1X27.03Y10.33
G1X26.93Y10.29
G1X26.85Y10.28
G1X26.8
G1X26.75Y10.31
G1X26.71Y10.34
G1X26.69Y10.35
G1X26.7Y10.31
G1X26.72Y10.27
G1X26.7Y10.25
G1X26.65Y10.2
G1X26.58Y10.09
G1X26.51Y9.98
G1X26.44Y9.97
G1X26.42
G1X26.48Y9.88
G1X26.49Y9.84
G1X26.47Y9.8
G1X26.43Y9.75
G1X26.38Y9.71
G1X26.35Y9.69
G1X26.32Y9.7
G1X26.29Y9.73
G1X26.26Y9.77
G1X26.24Y9.74
G1X26.27Y9.68
G1X26.33Y9.62
G1X26.37Y9.56
G1Y9.51
G1X26.32
M5
G0X27.33Y10.18
M3 S30
; Layer C00
G1X27.3Y10.22
G1Y10.23
G1X27.33Y10.24
G1X27.39
G1X27.46
G1X27.5
G1X27.52Y10.28
G1X27.53Y10.34
G1Y10.39
G1X27.52Y10.43
G1X27.48Y10.45
G1X27.37Y10.47
G1X27.38Y10.49
G1X27.41Y10.54
G1X27.39Y10.62
G1X27.32Y10.69
G1X27.24Y10.72
G1X27.2Y10.73
G1Y10.81
G1X27.16Y10.85
G1Y10.86
G1X27.22
G1X27.3
G1X27.31Y10.88
G1X27.25Y10.92
G1X27.16Y10.94
G1X27.1
G1X27.08
G1X27.09Y10.95
G1X27.19Y10.98
G1X27.21Y11
G1X27.2Y11.02
G1X27.15Y11.06
G1X27.1Y11.09
G1X27.09Y11.13
G1Y11.17
G1X27.11Y11.22
G1X27.16Y11.36
G1X27.2Y11.56
G1X27.26Y11.78
G1X27.32Y11.94
G1X27.35Y11.97
G1X27.36
G1X27.37Y11.93
G1Y11.85
G1X27.35Y11.75
G1X27.32Y11.67
G1Y11.63
G1X27.38Y11.59
G1X27.46Y11.53
G1X27.49Y11.43
G1X27.52Y11.3
G1X27.56Y11.2
G1X27.57Y11.13
G1X27.59Y11.01
G1Y10.85
G1Y10.67
G1Y10.45
G1X27.57Y10.31
G1X27.54Y10.22
G1X27.49Y10.17
G1X27.41Y10.15
G1X27.33Y10.18
M5
G0X27.63Y11.28
M3 S30
; Layer C00
G1Y11.31
G1Y11.37
G1Y11.56
G1X27.64Y11.9
G1X27.7Y12.24
G1X27.73Y12.41
G1X27.75Y12.62
G1X27.77Y12.86
G1Y13.1
G1Y13.34
G1Y13.57
G1X27.75Y13.76
G1X27.7Y14.03
G1Y14.14
G1X27.72Y14.25
G1X27.76Y14.38
G1X27.81Y14.62
G1X27.83Y14.88
G1X27.78Y15.09
G1X27.68Y15.25
G1X27.51Y15.35
G1X27.3Y15.39
G1X27.15Y15.4
G1X27.04Y15.43
G1X26.98Y15.47
G1X26.99Y15.51
G1X27.14Y15.56
G1X27.31Y15.58
G1X27.49Y15.56
G1X27.68Y15.49
G1X27.83Y15.42
G1X27.91Y15.36
G1X27.94Y15.29
G1Y15.18
G1X27.98Y15.01
G1X28.07Y14.82
G1X28.18Y14.67
G1X28.28Y14.6
G1X28.32Y14.62
G1Y14.65
G1X28.29Y14.7
G1X28.22Y14.75
G1X28.15Y14.81
G1X28.14Y14.86
G1Y14.91
G1X28.09Y14.96
G1X28.04Y15.05
G1X28.02Y15.16
G1Y15.23
G1Y15.26
G1X28.04
G1X28.07Y15.21
G1X28.1Y15.14
G1X28.09Y15.09
G1Y15.04
G1X28.15Y14.96
G1X28.2Y14.89
G1Y14.86
G1X28.22Y14.83
G1X28.29Y14.75
G1X28.41Y14.67
G1X28.53Y14.65
G1X28.58Y14.66
G1X28.59Y14.69
G1X28.54Y14.76
G1X28.43Y14.88
G1X28.32Y14.99
G1X28.26Y15.08
G1X28.24Y15.16
G1X28.25Y15.25
G1X28.27Y15.33
G1Y15.38
G1X28.23
G1X28.17
G1X28.07
G1X27.98Y15.41
G1X27.92Y15.46
G1X27.93Y15.51
G1X27.99Y15.54
G1X28.07
G1X28.14Y15.52
G1X28.17Y15.48
G1Y15.44
G1X28.2Y15.48
G1X28.24Y15.52
G1X28.27
G1X28.33
G1X28.39Y15.57
G1X28.47Y15.63
G1X28.56Y15.65
G1X28.62
G1X28.64Y15.64
G1Y15.61
G1X28.61Y15.57
G1X28.57Y15.52
G1X28.59Y15.49
G1Y15.47
G1X28.46Y15.36
G1Y15.34
G1X28.48Y15.31
G1X28.44Y15.26
G1X28.41Y15.22
G1Y15.18
G1Y15.15
G1X28.44Y15.11
G1X28.47Y15.05
G1X28.44Y15.01
G1Y14.99
G1X28.46Y14.93
G1X28.52Y14.86
G1X28.6Y14.77
G1X28.69Y14.69
G1X28.77Y14.63
G1X28.82Y14.6
G1X28.85
G1X28.89Y14.64
G1X28.93Y14.65
G1X28.96Y14.63
G1X28.97Y14.58
G1X28.94Y14.53
G1X28.86
G1X28.78
G1X28.74Y14.55
G1X28.68Y14.56
G1X28.54Y14.57
G1X28.42
G1X28.35Y14.55
G1X28.3Y14.46
G1X28.25Y14.3
G1X28.2Y14.13
G1X28.18Y13.93
G1Y13.8
G1X28.17Y13.65
G1Y13.48
G1Y13.28
G1Y12.91
G1X28.16Y12.63
G1X28.13Y12.4
G1X28.09Y12.22
G1X28.03Y11.95
G1X28Y11.76
G1X27.97Y11.64
G1X27.89Y11.56
G1X27.79Y11.48
G1X27.7Y11.36
G1X27.66Y11.29
G1X27.63
M5
G0X26.74Y13.77
M3 S30
; Layer C00
G1X26.7
G1X26.68Y13.82
G1X26.7Y13.85
G1X26.74
G1X26.78Y13.83
G1X26.79Y13.86
G1X26.77Y13.91
G1X26.71Y13.97
G1X26.63Y14.02
G1X26.53Y14.05
G1X26.46Y14.07
G1X26.42Y14.08
G1X26.4Y14.09
G1X26.25Y14.13
G1X26.16Y14.17
G1X26.1Y14.21
G1X26.08Y14.24
G1X26.04Y14.27
G1X25.95
G1X25.9Y14.25
G1X25.87
G1X25.95Y14.31
G1X25.96Y14.33
G1X25.94Y14.34
G1X25.89
G1X25.79Y14.35
G1X25.71
G1X25.67Y14.36
G1Y14.39
G1X25.65Y14.43
G1X25.58Y14.46
G1X25.51
G1X25.47Y14.44
G1X25.49Y14.41
G1X25.54Y14.39
G1X25.56Y14.37
G1X25.52Y14.34
G1X25.45Y14.31
G1X25.34Y14.29
G1X25.2Y14.27
G1X25.05
G1X24.88Y14.25
G1X24.78
G1X24.75Y14.27
G1X24.78Y14.29
G1X24.88Y14.32
G1X25
G1X25.13
G1X25.25Y14.37
G1X25.32Y14.45
G1X25.31Y14.53
G1X25.28Y14.57
G1X25.29Y14.6
G1X25.33
G1X25.38Y14.57
G1X25.44Y14.54
G1X25.54Y14.52
G1X25.69Y14.48
G1X26.05Y14.35
G1X26.15Y14.33
G1X26.18Y14.32
G1Y14.27
G1X26.23Y14.22
G1X26.32Y14.19
G1X26.43
G1X26.5Y14.18
G1X26.63
G1X26.68Y14.22
G1X26.65Y14.28
G1X26.55Y14.35
G1X26.46Y14.41
G1X26.45Y14.46
G1Y14.49
G1X26.39
G1X26.32Y14.48
G1X26.3Y14.51
G1X26.28Y14.54
G1X26.24Y14.5
G1X26.22Y14.46
G1X26.2Y14.45
G1Y14.46
G1X26.19Y14.51
G1Y14.54
G1X26.16Y14.57
G1X26.13
G1X26.08
G1X25.98
G1X25.89Y14.6
G1X25.79Y14.64
G1X25.52Y14.69
G1X25.47Y14.73
G1X25.51Y14.75
G1X25.58
G1X25.66Y14.74
G1X25.69Y14.76
G1X25.74Y14.78
G1X25.86
G1X25.98Y14.74
G1X26.02Y14.69
G1X26.04Y14.66
G1X26.07Y14.7
G1X26.1Y14.73
G1X26.13
G1X26.16
G1X26.27Y14.63
G1X26.32Y14.61
G1X26.33Y14.62
G1X26.32Y14.68
G1Y14.74
G1X26.35Y14.76
G1X26.39Y14.74
G1X26.42Y14.63
G1X26.46Y14.6
G1X26.5Y14.62
G1X26.54Y14.69
G1X26.58Y14.71
G1X26.61Y14.69
G1Y14.64
G1X26.62Y14.59
G1X26.69Y14.57
G1X26.73
G1X26.75Y14.59
G1Y14.6
G1X26.74Y14.62
G1X26.7Y14.69
G1X26.68Y14.77
G1X26.7Y14.84
G1X26.74Y14.86
G1X26.77Y14.85
G1Y14.8
G1Y14.78
G1X26.82Y14.84
G1X26.88Y14.92
G1X26.9Y14.98
G1X26.92Y15
G1X26.97
G1X26.99Y14.98
G1X27.01
G1Y15
G1X27Y15.04
G1X26.99Y15.08
G1Y15.11
G1X27.02Y15.12
G1X27.07
G1X27.14Y15.14
G1Y15.18
G1Y15.22
G1X27.17Y15.23
G1X27.22Y15.22
G1X27.23Y15.18
G1X27.2Y15.13
G1X27.09Y15.04
G1X27.11Y15.02
G1X27.14
G1X27.15Y15.01
G1Y14.99
G1X27.11Y14.95
G1X27.05Y14.9
G1X27
G1Y14.88
G1X27.03Y14.79
G1X27.06Y14.74
G1X27.1Y14.71
G1X27.15Y14.69
G1X27.2
G1X27.26Y14.7
G1X27.29
G1X27.27Y14.69
G1X27.2Y14.66
G1X27.15Y14.64
G1X27.1
G1X27.06Y14.67
G1X27.01Y14.72
G1X26.96Y14.77
G1X26.93Y14.79
G1X26.89Y14.78
G1X26.85Y14.74
G1X26.81Y14.68
G1X26.84Y14.66
G1X26.87Y14.63
G1Y14.52
G1X26.9Y14.5
G1X26.93Y14.48
G1X26.88Y14.41
G1X26.83Y14.34
G1Y14.28
G1Y14.25
G1X26.79Y14.24
G1X26.76Y14.21
G1X26.79Y14.13
G1X26.82Y14.08
G1Y14.05
G1Y14.03
G1X26.78
G1X26.74Y14.01
G1X26.79Y13.98
G1X26.83Y13.92
G1Y13.85
G1X26.79Y13.79
G1X26.74Y13.77
M5
G0X25.97Y15.25
M3 S30
; Layer C00
G1X25.8
G1X25.68
G1X25.54Y15.29
G1X25.36Y15.33
G1X25.14Y15.39
G1X24.85Y15.48
G1X24.64Y15.54
G1X24.52Y15.58
G1X24.48Y15.61
G1X24.52Y15.63
G1X24.64Y15.64
G1X24.85
G1X25.34
G1X25.51
G1X25.64
G1X25.75
G1X25.88Y15.66
G1X25.91Y15.69
G1Y15.73
G1X25.93Y15.75
G1X25.97
G1X26.05Y15.73
G1X26.1Y15.69
G1Y15.64
G1X26.06Y15.62
G1X26.02Y15.66
G1X25.99Y15.69
G1X25.98
G1X25.97Y15.64
G1X26.02Y15.57
G1X26.28Y15.48
G1X26.33Y15.42
G1Y15.37
G1X26.21
G1X25.97Y15.25
M5
G0X25.69Y15.77
M3 S30
; Layer C00
G1X25.64
G1X25.49Y15.75
G1X25.27
G1X25.01Y15.73
G1X24.75
G1X24.5
G1X24.3
G1X24.17Y15.75
G1X24.13Y15.77
G1Y15.82
G1Y15.86
G1X24.11Y15.85
G1Y15.81
G1X24.1Y15.78
G1X24.07Y15.73
G1X23.99Y15.65
G1X23.92Y15.58
G1Y15.55
G1X23.98Y15.57
G1X24.11Y15.68
G1X24.17Y15.7
G1X24.18Y15.67
G1X24.13Y15.6
G1X24Y15.53
G1X23.81Y15.5
G1X23.55Y15.49
G1X23.39Y15.47
G1X23.29Y15.45
G1X23.24Y15.43
G1X23.2Y15.4
G1X23.15Y15.39
G1X23.14Y15.41
G1X23.19Y15.46
G1X23.24Y15.52
G1Y15.56
G1X23.18Y15.58
G1X23.08
G1X23Y15.54
G1X22.98Y15.45
G1Y15.38
G1X22.94Y15.37
G1X22.87Y15.38
G1X22.83Y15.36
G1X22.82Y15.31
G1X22.85Y15.24
G1X22.87Y15.21
G1Y15.2
G1X22.85Y15.21
G1X22.8Y15.25
G1X22.69Y15.31
G1X22.6Y15.32
G1X22.53
G1X22.48Y15.37
G1Y15.42
G1X22.5
G1X22.55
G1X22.62Y15.44
G1X22.69Y15.46
G1X22.82Y15.42
G1X22.89Y15.44
G1X22.93Y15.47
G1Y15.48
G1X22.92Y15.49
G1X22.86
G1X22.75
G1X22.86Y15.56
G1X22.95Y15.63
G1X22.99Y15.7
G1Y15.73
G1Y15.75
G1X22.97Y15.74
G1X22.88Y15.68
G1X22.86
G1Y15.7
G1Y15.75
G1Y15.79
G1Y15.82
G1X22.83Y15.84
G1X22.79
G1X22.68
G1X22.54Y15.9
G1X22.41Y15.94
G1X22.32Y15.92
G1X22.26Y15.84
G1Y15.76
G1X22.31Y15.7
G1X22.4Y15.66
G1X22.53Y15.63
G1X22.57Y15.6
G1X22.52Y15.58
G1X22.38Y15.56
G1X22.21
G1X22.11Y15.61
G1X22.08Y15.64
G1Y15.59
G1X22.09Y15.52
G1X22.07Y15.47
G1X22.03
G1X22Y15.5
G1X21.97Y15.52
G1X21.91Y15.47
G1X21.87Y15.43
G1Y15.41
G1X21.92Y15.42
G1X21.96Y15.43
G1X21.99
G1X22.01Y15.39
G1Y15.34
G1X22Y15.26
G1X21.96Y15.23
G1X21.87
G1X21.85Y15.24
G1X21.82Y15.32
G1X21.78Y15.37
G1X21.77Y15.4
G1Y15.43
G1X21.79Y15.46
G1X21.84Y15.49
G1X21.91Y15.55
G1X21.98Y15.63
G1X22.05Y15.74
G1X22.12Y15.88
G1X22.22Y16.18
G1X22.27Y16.48
G1X22.29Y16.79
G1X22.31Y17.04
G1Y17.26
G1X22.25Y17.5
G1X22.2Y17.7
G1Y17.83
G1Y17.89
G1X22.17Y17.94
G1X22.14Y17.98
G1X22.12Y18.03
G1X22.13Y18.06
G1X22.15
G1X22.18Y18.02
G1X22.22Y17.97
G1X22.3Y17.8
G1X22.38Y17.6
G1X22.42Y17.48
G1X22.46Y17.39
G1X22.5Y17.32
G1X22.52Y17.29
G1X22.55Y17.24
G1X22.56Y17.14
G1X22.58Y17.05
G1X22.63Y17.03
G1X22.67Y17.08
G1X22.68Y17.18
G1Y17.24
G1Y17.26
G1X22.7
G1X22.72Y17.23
G1X22.77Y17.18
G1X22.78Y17.21
G1X22.79Y17.27
G1X22.83
G1X22.88Y17.23
G1X22.93Y17.15
G1X22.95Y17.08
G1Y17.02
G1X22.94Y16.96
G1X22.89Y16.88
G1X22.79Y16.74
G1X22.71Y16.87
G1X22.64Y16.93
G1X22.62
G1X22.63Y16.87
G1X22.67Y16.83
G1X22.68Y16.81
G1Y16.76
G1X22.64Y16.69
G1X22.53Y16.52
G1X22.5Y16.45
G1Y16.4
G1X22.51Y16.36
G1X22.54Y16.35
G1X22.58
G1X22.62Y16.38
G1X22.68Y16.43
G1X22.75Y16.51
G1X22.79
G1X22.8
G1X22.83Y16.57
G1X22.87Y16.63
G1X22.91Y16.61
G1Y16.55
G1X22.86Y16.47
G1X22.82Y16.41
G1X22.83Y16.39
G1X22.89Y16.41
G1X22.94Y16.48
G1X22.96Y16.56
G1Y16.64
G1Y16.68
G1X23Y16.7
G1X23.03Y16.69
G1Y16.65
G1X23.04Y16.59
G1X23.12Y16.52
G1X23.22Y16.48
G1X23.29
G1X23.32
G1X23.31Y16.45
G1X23.26Y16.4
G1X23.2
G1X22.99Y16.38
G1X22.82Y16.31
G1X22.71Y16.2
G1Y16.06
G1Y16.01
G1Y15.99
G1X22.7
G1X22.67
G1X22.63Y16.01
G1Y15.98
G1X22.69Y15.94
G1X22.77Y15.92
G1X23.01Y15.9
G1X23.16Y15.82
G1X23.23Y15.78
G1X23.27Y15.8
G1X23.35Y15.86
G1X23.51Y15.93
G1X23.61Y15.97
G1X23.68Y15.98
G1X23.71
G1X23.74Y15.94
G1X23.77Y15.88
G1X23.82Y15.86
G1X23.85Y15.88
G1Y15.93
G1X23.83Y16.02
G1X23.8Y16.17
G1Y16.25
G1Y16.3
G1X23.82Y16.32
G1X23.86
G1X23.92
G1X23.97Y16.34
G1Y16.38
G1X23.95Y16.37
G1X23.89
G1X23.85Y16.39
G1X23.84Y16.43
G1X23.88Y16.41
G1X23.91Y16.4
G1X23.93
G1Y16.42
G1X23.92Y16.46
G1Y16.54
G1X23.99Y16.6
G1X24.07Y16.62
G1X24.13Y16.59
G1Y16.53
G1X24.09Y16.47
G1X24.03Y16.37
G1X24.01Y16.23
G1X24.04Y16.11
G1X24.1Y16.06
G1X24.17Y16.09
G1X24.22Y16.13
G1X24.27Y16.16
G1X24.37Y16.13
G1X24.44Y16.07
G1X24.45Y16.01
G1X24.42Y15.98
G1X24.38Y16.02
G1X24.35
G1X24.34Y15.93
G1Y15.78
G1X25.02Y15.8
G1X25.28
G1X25.49
G1X25.64Y15.79
G1X25.69Y15.77
M5
G0X23.63Y14.83
M3 S30
; Layer C00
G1X23.65Y14.8
G1X23.69Y14.72
G1X23.77Y14.6
G1X23.84Y14.54
G1X23.9
G1X23.94
G1X23.97Y14.52
G1Y14.46
G1X24.01Y14.38
G1X24.1Y14.3
G1X24.24Y14.23
G1X24.07Y14.27
G1X23.93Y14.29
G1X23.81Y14.31
G1X23.74Y14.32
G1X23.72Y14.36
G1X23.75Y14.38
G1X23.9
G1Y14.4
G1X23.84Y14.43
G1X23.74
G1X23.64Y14.42
G1X23.58Y14.46
G1X23.57Y14.47
G1Y14.42
G1X23.59Y14.36
G1X23.56Y14.33
G1X23.48Y14.32
G1X23.34
G1X23.13Y14.33
G1X22.94Y14.38
G1X22.9Y14.35
G1X22.86Y14.32
G1X22.69Y14.37
G1X22.54Y14.36
G1X22.45Y14.4
G1X22.38Y14.46
G1X22.36Y14.52
G1Y14.58
G1X22.33Y14.61
G1X22.32Y14.65
G1X22.36Y14.7
G1X22.41Y14.74
G1X22.43
G1Y14.69
G1X22.42Y14.63
G1X22.45Y14.58
G1X22.49
G1Y14.6
G1X22.51Y14.65
G1X22.57Y14.68
G1X22.65
G1X22.7Y14.65
G1X22.74Y14.62
G1X22.79Y14.63
G1X22.82
G1X22.84Y14.59
G1X22.86Y14.58
G1X22.92Y14.7
G1X22.96Y14.73
G1X22.99Y14.75
G1X23.04Y14.74
G1X23.12
G1X23.2Y14.77
G1X23.25Y14.8
G1X23.28
G1X23.31
G1X23.33Y14.76
G1X23.41Y14.69
G1X23.5Y14.67
G1X23.58Y14.7
G1X23.61Y14.78
G1Y14.83
G1X23.63
M5
G0X22.48Y15.13
M3 S30
; Layer C00
G1X22.33Y15.02
G1X22.26Y14.96
G1X22.21Y14.89
G1X22.18Y14.82
G1Y14.74
G1Y14.65
G1X22.15Y14.59
G1X22.11Y14.55
G1X22.04Y14.53
G1X21.92Y14.51
G1X21.85Y14.52
G1X21.82
G1Y14.46
G1X21.84Y14.42
G1Y14.4
G1X21.83
G1X21.79Y14.43
G1X21.72Y14.48
G1X21.66Y14.5
G1X21.64Y14.48
G1X21.68Y14.45
G1X21.72Y14.42
G1X21.74Y14.4
G1X21.72
G1X21.68
G1X21.61
G1X21.55Y14.43
G1X21.46Y14.46
G1X21.29Y14.47
G1X21.12Y14.5
G1X21.02Y14.55
G1X20.98Y14.6
G1X20.95Y14.52
G1X20.91Y14.5
G1X20.88Y14.51
G1X20.89Y14.59
G1X20.87Y14.6
G1X20.82Y14.58
G1X20.79Y14.53
G1X20.73Y14.48
G1X20.62
G1X20.49Y14.45
G1X20.38Y14.38
G1X20.33Y14.31
G1X20.36
G1X20.41Y14.33
G1X20.4Y14.29
G1X20.34Y14.25
G1X20.27
G1X20.2Y14.24
G1X20.16Y14.19
G1X20.15Y14.16
G1Y14.14
G1X20.17
G1X20.24Y14.18
G1X20.25
G1Y14.16
G1X20.21Y14.12
G1X20.12Y14.05
G1X20.03Y14
G1X19.95Y13.95
G1X19.9Y13.85
G1X19.84
G1X19.78
G1X19.76Y13.82
G1X19.74Y13.77
G1X19.7
G1X19.66Y13.79
G1X19.64Y13.85
G1Y13.9
G1Y13.92
G1X19.63Y13.9
G1X19.61Y13.85
G1X19.59Y13.81
G1X19.57Y13.79
G1X19.55
G1X19.51Y13.82
G1X19.45Y13.88
G1X19.43Y13.94
G1Y13.96
G1X19.46
G1X19.52Y13.95
G1X19.6Y13.97
G1X19.68Y14
G1X19.72Y13.96
G1X19.74Y13.94
G1X19.75Y13.98
G1X19.81Y14.08
G1X19.95Y14.18
G1X20.09Y14.28
G1X20.14Y14.35
G1X20.16Y14.37
G1X20.2
G1X20.23
G1X20.22Y14.43
G1X20.2Y14.47
G1Y14.49
G1X20.23
G1X20.33Y14.46
G1X20.35
G1Y14.47
G1X20.33Y14.5
G1X20.3Y14.55
G1Y14.64
G1X20.33Y14.77
G1X20.4Y14.97
G1X20.46Y15.23
G1X20.48Y15.55
G1Y15.72
G1X20.46Y15.86
G1X20.43Y15.98
G1X20.4Y16.06
G1X20.39Y16.11
G1X20.41Y16.12
G1X20.47Y16.09
G1X20.53Y16.01
G1X20.56Y15.96
G1Y15.91
G1Y15.88
G1X20.52Y15.85
G1X20.49Y15.83
G1X20.52
G1X20.57
G1X20.66Y15.85
G1X20.7Y15.75
G1X20.85Y15.71
G1X20.87Y15.67
G1Y15.62
G1X20.9Y15.6
G1X20.96Y15.63
G1X21.04Y15.69
G1X21.09Y15.74
G1X21.12
G1Y15.71
G1X21.08Y15.63
G1X21.04Y15.52
G1Y15.46
G1X21.07Y15.47
G1X21.1Y15.54
G1X21.15Y15.62
G1X21.29Y15.69
G1X21.35Y15.77
G1X21.37Y15.82
G1X21.39Y15.84
G1X21.4
G1Y15.8
G1X21.36Y15.69
G1X21.24Y15.54
G1X21.15Y15.47
G1X21.09Y15.43
G1X21.04Y15.42
G1X20.93Y15.48
G1X20.91Y15.45
G1X20.87Y15.42
G1X20.75
G1X20.63
G1X20.55Y15.38
G1X20.54Y15.35
G1X20.58Y15.36
G1X20.61Y15.38
G1X20.62
G1Y15.35
G1X20.59Y15.3
G1X20.56Y15.24
G1X20.58Y15.21
G1X20.67
G1X20.83
G1X20.95
G1X21.05
G1X21.11Y15.19
G1X21.13Y15.17
G1X21.16Y15.16
G1X21.22Y15.2
G1X21.29Y15.26
G1X21.36Y15.28
G1X21.39Y15.27
G1X21.37Y15.22
G1X21.38Y15.2
G1X21.45Y15.25
G1X21.54Y15.31
G1X21.57Y15.29
G1X21.59Y15.25
G1X21.63Y15.23
G1X21.67Y15.25
G1Y15.36
G1X21.71
G1X21.76Y15.32
G1Y15.25
G1X21.73Y15.17
G1X21.66Y15.08
G1X21.57Y15.02
G1X21.5
G1X21.47Y15.06
G1X21.5Y15.16
G1X21.46Y15.12
G1X21.35Y15.06
G1X21.19Y15.03
G1X21.05Y15.05
G1X20.96Y15.1
G1X20.92Y15.12
G1Y15.09
G1X20.9Y15.04
G1X20.85Y15.02
G1X20.82Y15.04
G1X20.83Y15.08
G1X20.82Y15.1
G1X20.73Y15.05
G1X20.61Y15
G1X20.53
G1X20.49
G1X20.45Y14.97
G1Y14.94
G1X20.48Y14.93
G1X20.54Y14.9
G1X20.56Y14.81
G1Y14.75
G1X20.58Y14.71
G1X20.62Y14.68
G1X20.67
G1X21.01Y14.65
G1X21.11Y14.64
G1X21.18Y14.62
G1X21.22Y14.6
G1Y14.57
G1X21.25Y14.54
G1X21.33
G1X21.43Y14.56
G1X21.49Y14.61
G1Y14.63
G1X21.42
G1X21.38Y14.61
G1X21.36
G1Y14.62
G1X21.41Y14.65
G1X21.49Y14.69
G1X21.59Y14.71
G1X21.65Y14.72
G1X21.68Y14.76
G1X21.71Y14.79
G1X21.77Y14.78
G1X21.86
G1X21.98Y14.86
G1X22.08Y14.93
G1X22.14
G1X22.15Y14.95
G1Y15.01
G1Y15.1
G1X22.18Y15.16
G1X22.22Y15.17
G1X22.19Y15.1
G1X22.2Y15.08
G1X22.25
G1X22.32Y15.09
G1X22.48Y15.13
M5
G0X21.21Y13.92
M3 S30
; Layer C00
G1X21.23Y13.9
G1X21.21Y13.89
G1X21.17Y13.86
G1X21.14Y13.83
G1X21.12Y13.78
G1Y13.69
G1X21.15Y13.56
G1X21.22Y13.35
G1X21.29Y13.23
G1X21.34Y13.2
G1Y13.26
G1X21.38Y13.27
G1X21.44
G1X21.46Y13.23
G1X21.43Y13.18
G1X21.31Y13.09
G1X21.35
G1X21.43Y13.15
G1X21.5Y13.24
G1X21.55Y13.32
G1X21.58
G1X21.6Y13.14
G1X21.62Y13.05
G1X21.66Y12.99
G1X21.68
G1X21.66Y13.05
G1X21.65Y13.1
G1Y13.12
G1X21.67
G1X21.71Y13.08
G1X21.77Y13.01
G1X21.79Y12.96
G1X21.75Y12.94
G1X21.67
G1X21.43Y13
G1X21.22Y13.04
G1X21.15Y13.03
G1X21.01Y12.98
G1X20.98
G1Y12.99
G1Y13.02
G1X21Y13.06
G1X20.95Y13.08
G1X20.85Y13.11
G1X20.75Y13.19
G1X20.69Y13.29
G1X20.68Y13.38
G1Y13.42
G1Y13.44
G1X20.67
G1X20.6Y13.4
G1X20.58
G1X20.6Y13.42
G1X20.63Y13.47
G1X20.67Y13.51
G1X20.7Y13.52
G1X20.73
G1X20.75Y13.5
G1X20.8Y13.46
G1X20.89Y13.47
G1X20.93Y13.44
G1X20.95Y13.42
G1X20.98Y13.47
G1X21Y13.52
G1X20.97
G1X20.93
G1X20.91Y13.54
G1X20.92Y13.58
G1X20.95Y13.63
G1X20.99Y13.67
G1X21Y13.7
G1X21.04Y13.82
G1X21.07Y13.9
G1X21.12Y13.94
G1X21.17
G1X21.21Y13.92
M5
G0X19.19Y14.52
M3 S30
; Layer C00
G1X19.16Y14.5
G1X19.12Y14.49
G1X19.11Y14.46
G1X19.09Y14.38
G1X19.04Y14.26
G1X19Y14.19
G1X18.95Y14.14
G1X18.89Y14.11
G1X18.82
G1X18.75
G1X18.71Y14.09
G1X18.7Y14.06
G1Y14.03
G1X18.67Y13.93
G1X18.55Y13.82
G1X18.48Y13.78
G1X18.43Y13.75
G1X18.41
G1X18.43Y13.8
G1X18.42Y13.81
G1X18.36
G1X18.25Y13.76
G1X18.14Y13.74
G1X18.07Y13.78
G1X18.02Y13.84
G1X17.92Y13.9
G1Y13.91
G1X17.95Y13.94
G1X18.01Y13.96
G1X18.13Y14.05
G1X18.27Y14.3
G1X18.39Y14.44
G1X18.52Y14.55
G1X18.61Y14.58
G1X18.62Y14.62
G1X18.61Y14.84
G1Y14.89
G1X18.63Y14.9
G1X18.65
G1X18.7Y14.79
G1X18.74Y14.61
G1X18.77Y14.44
G1X18.8Y14.36
G1X18.83Y14.37
G1X18.93Y14.56
G1X18.98Y14.62
G1X19.03Y14.69
G1X19.07Y14.81
G1X19.12Y14.91
G1X19.18Y14.94
G1X19.23Y14.89
G1Y14.78
G1X19.22Y14.68
G1X19.18Y14.61
G1X19.16
G1X19.18Y14.68
G1X19.19Y14.73
G1Y14.75
G1X19.15Y14.72
G1X19.12Y14.69
G1Y14.66
G1Y14.62
G1X19.15Y14.58
G1X19.19Y14.52
M5
G0X16.81Y13.34
M3 S30
; Layer C00
G1X16.84Y13.3
G1Y13.21
G1Y13.15
G1X16.82Y13.11
G1X16.79Y13.09
G1X16.75Y13.08
G1X16.71
G1X16.7Y13.07
G1X16.72Y13.05
G1X16.77Y13.03
G1X16.88Y12.95
G1X16.98Y12.83
G1X17.04Y12.75
G1X17.07Y12.74
G1X17.1Y12.9
G1X17.12Y13.01
G1X17.13Y13.03
G1X17.15Y13.02
G1X17.17Y12.98
G1X17.2Y12.9
G1X17.17Y12.8
G1X17.14Y12.72
G1Y12.63
G1X17.11Y12.57
G1X17.06Y12.45
G1X17.04Y12.27
G1X17.02Y12.09
G1X16.98Y11.97
G1X16.94Y11.88
G1X16.92Y11.79
G1Y11.7
G1X16.96Y11.63
G1X17Y11.58
G1X16.97Y11.56
G1X16.92Y11.58
G1X16.87Y11.62
G1X16.84Y11.69
G1X16.82Y11.78
G1Y11.96
G1X16.88Y12.12
G1X16.93Y12.21
G1Y12.24
G1Y12.3
G1X17.02Y12.5
G1Y12.56
G1Y12.59
G1X16.95Y12.66
G1X16.88Y12.79
G1X16.81Y12.92
G1X16.76Y12.98
G1X16.73Y12.96
G1X16.68Y12.93
G1X16.6Y12.88
G1X16.52Y12.81
G1X16.42Y12.73
G1X16.36Y12.66
G1X16.34Y12.61
G1X16.37Y12.47
G1Y12.34
G1Y12.22
G1X16.33Y12.15
G1X16.3Y12.18
G1Y12.3
G1X16.28Y12.6
G1X16.25Y12.81
G1Y12.87
G1X16.31Y12.9
G1X16.39Y12.96
G1X16.5Y13.11
G1X16.55Y13.18
G1X16.59Y13.24
G1X16.62Y13.27
G1X16.65Y13.25
G1X16.69Y13.28
G1X16.76Y13.33
G1X16.81
M5
G0X14.23Y15.28
M3 S30
; Layer C00
G1X14.15Y15.26
G1X14.01
G1X13.83Y15.25
G1X13.64
G1X13.49
G1X13.39Y15.27
G1X13.36Y15.29
G1Y15.33
G1X13.32Y15.37
G1X13.29Y15.38
G1Y15.35
G1Y15.31
G1X13.26Y15.28
G1X13.19
G1X13.1
G1X13.07Y15.27
G1X13.06Y15.24
G1X13.03Y15.21
G1X12.97Y15.2
G1X12.91
G1X12.89Y15.24
G1X12.93Y15.27
G1X13.01Y15.31
G1X13.07Y15.33
G1X13.09Y15.35
G1X13.05Y15.37
G1X12.99Y15.41
G1X12.93Y15.48
G1X12.89Y15.58
G1X12.87Y15.69
G1X12.85Y15.74
G1X12.81Y15.79
G1X12.79Y15.81
G1X12.8Y15.77
G1Y15.72
G1X12.78Y15.68
G1X12.73Y15.7
G1X12.69Y15.81
G1X12.67Y15.88
G1X12.65Y15.92
G1X12.62Y15.95
G1X12.58
G1X12.54Y15.93
G1X12.51
G1Y15.95
G1Y15.99
G1X12.55Y16.04
G1X12.6Y16.11
G1X12.68Y16.21
G1X12.78Y16.32
G1X12.8Y16.35
G1X12.81Y16.37
G1X12.8Y16.38
G1X12.77
G1X12.73Y16.4
G1X12.78Y16.44
G1X12.84Y16.48
G1X12.87Y16.49
G1Y16.47
G1Y16.41
G1Y16.2
G1Y16.09
G1X12.86Y16
G1X12.84Y15.94
G1X12.82Y15.91
G1Y15.88
G1X12.89Y15.8
G1X12.97Y15.71
G1X13Y15.65
G1X13.06Y15.6
G1X13.19Y15.52
G1X13.29Y15.47
G1X13.36Y15.45
G1X13.41
G1X13.45Y15.49
G1X13.48Y15.53
G1X13.46
G1X13.41
G1X13.37Y15.6
G1Y15.68
G1X13.41Y15.7
G1X13.47Y15.68
G1X13.55Y15.6
G1X13.63Y15.54
G1X13.75Y15.53
G1X13.8
G1X13.85Y15.52
G1X13.88Y15.5
G1X13.9Y15.46
G1Y15.42
G1X13.92
G1Y15.44
G1X13.94Y15.56
G1Y15.59
G1X13.96Y15.58
G1X13.99Y15.53
G1X14.05Y15.48
G1X14.1Y15.47
G1X14.15
G1X14.21Y15.42
G1X14.24Y15.38
G1Y15.35
G1Y15.34
G1X14.2
G1X14.18Y15.32
G1X14.23Y15.29
G1Y15.28
M5
G0X15.31Y15.84
M3 S30
; Layer C00
G1X15.26Y15.95
G1X15.19Y16.04
G1X15.1Y16.12
G1X15Y16.16
G1X14.93
G1X14.88Y16.15
G1X14.84Y16.18
G1X14.79Y16.21
G1X14.7Y16.23
G1X14.63Y16.24
G1X14.62Y16.28
G1X14.61Y16.3
G1X14.45Y16.29
G1Y16.33
G1Y16.36
G1X14.4
G1X14.35Y16.34
G1X14.33
G1Y16.38
G1X14.34Y16.44
G1X14.36Y16.52
G1X14.34
G1X14.27Y16.47
G1X14.18
G1X14.07Y16.54
G1X13.93Y16.65
G1X13.79Y16.79
G1X13.7Y16.85
G1X13.67Y16.86
G1X13.66Y16.89
G1Y16.96
G1X13.69Y17
G1X13.75Y17.02
G1X13.81Y17.01
G1Y16.98
G1X13.8Y16.92
G1X13.83Y16.85
G1X13.89Y16.79
G1X13.95
G1X13.99Y16.8
G1X13.98Y16.78
G1X13.99Y16.73
G1X14.07Y16.65
G1X14.16Y16.58
G1X14.25Y16.54
G1X14.28Y16.58
G1X14.29Y16.66
G1X14.24Y16.81
G1X14.16Y16.96
G1X14.12Y17.03
G1X14.08Y17.07
G1X14.05Y17.09
G1Y17.07
G1X14.03Y17.03
G1X13.97Y17.1
G1X13.92Y17.12
G1X13.67Y17.29
G1X13.47Y17.49
G1X13.46Y17.53
G1X13.43Y17.57
G1X13.4Y17.62
G1X13.39Y17.69
G1Y17.72
G1X13.41
G1X13.43Y17.69
G1X13.45Y17.65
G1X13.49Y17.54
G1X13.5Y17.48
G1X13.51Y17.45
G1X13.6Y17.41
G1X13.69Y17.34
G1X13.77Y17.27
G1X13.82Y17.24
G1X13.98Y17.18
G1X14.14Y17.08
G1X14.2Y17.04
G1X14.24Y17
G1X14.26Y16.97
G1X14.23
G1Y16.93
G1X14.29Y16.86
G1X14.35Y16.77
G1Y16.7
G1X14.36Y16.62
G1X14.47Y16.52
G1X14.63Y16.42
G1X14.8Y16.36
G1X14.98Y16.32
G1X15.22Y16.23
G1X15.31Y16.22
G1X15.36
G1X15.28Y16.18
G1X15.27Y16.16
G1X15.28Y16.14
G1X15.32Y16.12
G1X15.35Y16.09
G1X15.33Y16.07
G1X15.29Y16.04
G1Y15.95
G1X15.31Y15.84
M5
G0X15.34Y16.36
M3 S30
; Layer C00
G1X15.12Y16.37
G1X14.9Y16.41
G1X14.68Y16.49
G1X14.56Y16.54
G1X14.48Y16.6
G1X14.44Y16.67
G1X14.41Y16.77
G1X14.35Y16.94
G1X14.25Y17.09
G1X14.11Y17.21
G1X13.91Y17.33
G1X13.69Y17.48
G1X13.52Y17.69
G1X13.43Y17.92
G1X13.41Y18.15
G1X13.44Y18.29
G1X13.47Y18.37
G1X13.49
G1X13.46Y18.24
G1X13.48Y18.23
G1X13.54Y18.27
G1X13.62Y18.36
G1X13.73Y18.5
G1X13.8Y18.3
G1X13.87Y18.1
G1X13.95Y17.93
G1X14.09Y17.73
G1X14.31Y17.51
G1X14.57Y17.28
G1X14.87Y17.08
G1X15.01Y16.99
G1X15.22Y16.87
G1X15.26Y16.85
G1X15.3Y16.77
G1X15.32Y16.6
G1X15.34Y16.36
M5
G0X14.29Y17.68
M3 S30
; Layer C00
G1X14.25
G1X14.21
G1X14.18Y17.72
G1X14.1Y17.87
G1X14.05Y17.93
G1X14Y17.98
G1Y18.02
G1X14.02Y18.04
G1X14.08Y18.03
G1X14.13Y18.01
G1X14.15
G1X14.14Y18.03
G1X14.1Y18.08
G1X14.03Y18.12
G1X13.95Y18.1
G1X13.91Y18.14
G1X13.89Y18.23
G1Y18.29
G1X13.9Y18.31
G1X13.98Y18.29
G1X13.97Y18.32
G1X13.92Y18.35
G1X13.87
G1X13.84
G1X13.85Y18.43
G1Y18.52
G1X13.8Y18.57
G1X13.72Y18.58
G1X13.65Y18.53
G1X13.62Y18.5
G1Y18.55
G1Y18.62
G1X13.57Y18.66
G1X13.52
G1X13.5Y18.63
G1X13.46Y18.56
G1X13.39Y18.5
G1X13.34Y18.46
G1X13.31Y18.41
G1X13.3Y18.34
G1Y18.25
G1Y18.11
G1X13.26Y18.03
G1X13.23
G1X13.24Y18.06
G1X13.25Y18.1
G1X13.23Y18.12
G1X13.18Y18.14
G1X13.14Y18.2
G1Y18.23
G1Y18.25
G1X13.15
G1X13.18
G1X13.21Y18.23
G1X13.17Y18.29
G1X13.11Y18.35
G1X13.06
G1X13.03Y18.3
G1Y18.21
G1X13.04Y18.15
G1X13.02Y18.16
G1X12.95Y18.26
G1X12.83Y18.39
G1X12.73Y18.51
G1X12.68Y18.6
G1Y18.62
G1Y18.63
G1X12.71
G1X12.8Y18.56
G1X12.82
G1X12.83Y18.58
G1Y18.63
G1Y18.68
G1X12.81Y18.71
G1X12.78Y18.72
G1X12.68Y18.7
G1Y18.72
G1X12.66Y18.78
G1X12.56Y18.86
G1X12.44Y18.93
G1X12.37Y18.95
G1X12.35
G1X12.37Y18.9
G1Y18.89
G1X12.35
G1X12.3Y18.9
G1X12.24Y18.93
G1X12.12Y19
G1X12.07Y19.04
G1X12.1
G1X12.17Y19.01
G1X12.26Y18.97
G1X12.31
G1X12.32Y18.98
G1X12.31Y19.03
G1X12.27Y19.09
G1X12.24Y19.11
G1X12.17
G1X12.12Y19.12
G1X12.09Y19.16
G1Y19.21
G1X12.11Y19.26
G1X12.15Y19.27
G1X12.18Y19.24
G1Y19.2
G1X12.2Y19.18
G1X12.25
G1X12.34
G1X12.44Y19.14
G1X12.5Y19.1
G1X12.54
G1X12.58Y19.11
G1X12.63Y19.16
G1X12.7Y19.27
G1X12.78Y19.42
G1X12.84Y19.54
G1X12.92Y19.63
G1X12.98Y19.68
G1X13.04
G1Y19.62
G1X12.93Y19.47
G1Y19.41
G1Y19.39
G1X12.8Y19.36
G1X12.82Y19.34
G1X12.85Y19.32
G1Y19.29
G1Y19.24
G1X12.8Y19.16
G1X12.73Y19.06
G1X12.67Y19.03
G1X12.62
G1X12.57Y18.99
G1X12.54Y18.95
G1Y18.93
G1Y18.91
G1X12.58Y18.89
G1X12.62Y18.88
G1X12.64
G1Y18.91
G1X12.62Y18.99
G1Y19.01
G1X12.64Y19
G1X12.67Y18.97
G1X12.71Y18.94
G1X12.75
G1X12.79Y18.95
G1X12.85Y18.99
G1X12.92Y19.07
G1X12.95Y19.15
G1Y19.2
G1X12.99Y19.22
G1X13.02Y19.25
G1X13.04Y19.34
G1X13.09Y19.45
G1X13.2Y19.57
G1X13.32Y19.64
G1X13.43Y19.65
G1X13.48
G1Y19.68
G1X13.47Y19.7
G1X13.48Y19.72
G1X13.52
G1X13.66Y19.7
G1X13.7
G1Y19.73
G1X13.62Y19.84
G1X13.68
G1X13.75Y19.88
G1X13.8Y19.92
G1X13.84Y19.93
G1X13.88
G1X13.92Y19.89
G1X13.96Y19.86
G1X13.98
G1X13.97Y19.89
G1X13.95Y19.96
G1X13.96Y20.01
G1X14.01Y20.04
G1X14.06Y20.01
G1X14.08Y19.98
G1Y19.95
G1X14.06Y19.9
G1X14.02Y19.85
G1X13.96Y19.8
G1X13.92Y19.78
G1X13.88
G1X13.83Y19.81
G1X13.79Y19.84
G1X13.77Y19.85
G1Y19.83
G1X13.81Y19.79
G1X13.89Y19.73
G1X13.98
G1X14.01Y19.74
G1X14.03
G1Y19.72
G1X14.02Y19.7
G1X13.96Y19.66
G1X13.87
G1X13.76
G1X13.65Y19.62
G1X13.54Y19.55
G1X13.42Y19.44
G1X13.32Y19.36
G1X13.23Y19.33
G1X13.16Y19.31
G1X13.12Y19.26
G1Y19.18
G1X13.07Y19
G1X13.06Y18.95
G1X13.04Y18.93
G1X12.99
G1X12.92
G1X12.84Y18.91
G1X12.81Y18.88
G1X12.8Y18.85
G1Y18.81
G1X12.84Y18.75
G1X12.92Y18.68
G1X12.99Y18.67
G1X13.03
G1X13.05Y18.65
G1Y18.57
G1Y18.51
G1X13.09Y18.47
G1X13.13Y18.45
G1X13.24Y18.48
G1X13.38Y18.6
G1X13.45Y18.69
G1X13.47Y18.75
G1Y18.8
G1X13.42Y18.88
G1X13.38Y18.94
G1X13.36Y18.98
G1X13.37
G1X13.41
G1X13.47Y18.94
G1X13.5Y18.89
G1X13.52Y18.87
G1X13.58
G1X13.65
G1X13.69Y18.83
G1X13.74Y18.79
G1X13.83
G1X13.88
G1X13.92Y18.78
G1X13.93Y18.73
G1Y18.55
G1X13.95Y18.51
G1X13.97
G1X13.99Y18.54
G1X14.02Y18.57
G1X14.03
G1Y18.55
G1X14.02Y18.5
G1X14.01Y18.45
G1Y18.41
G1X14.03Y18.39
G1X14.06
G1X14.11Y18.35
G1Y18.26
G1X14.12Y18.15
G1X14.18Y18.07
G1X14.22Y18.03
G1X14.23Y18
G1Y17.97
G1X14.19Y17.9
G1Y17.86
G1X14.21Y17.83
G1X14.26Y17.79
G1X14.32Y17.75
G1X14.34Y17.72
G1Y17.7
G1X14.29Y17.68
M5
G0X15.38Y18.61
M3 S30
; Layer C00
G1X15.34Y18.63
G1X15.29Y18.67
G1X15.16Y18.75
G1X15.08Y18.77
G1X15.04Y18.76
G1X15.05Y18.79
G1Y18.82
G1X15.01Y18.86
G1X14.94Y18.92
G1X14.86Y18.98
G1X14.69Y19.09
G1X14.55Y19.13
G1X14.51Y19.14
G1Y19.16
G1Y19.19
G1X14.49Y19.24
G1X14.48Y19.28
G1X14.5Y19.32
G1X14.56Y19.38
G1X14.66Y19.45
G1X14.75Y19.5
G1X14.83Y19.54
G1X14.88Y19.56
G1X14.91
G1X14.94Y19.52
G1X15Y19.41
G1X15.19Y19.05
G1X15.34Y18.77
G1X15.38Y18.68
G1X15.4Y18.63
G1Y18.61
G1X15.38
M5
G0X17.01Y19.38
M3 S30
; Layer C00
G1X16.91Y19.47
G1X16.77Y19.6
G1X16.65Y19.72
G1X16.54Y19.82
G1X16.47Y19.91
G1X16.42Y19.96
G1X16.4Y19.99
G1X16.42
G1X16.47Y19.95
G1X16.56Y19.88
G1X16.68Y19.78
G1X16.76Y19.74
G1Y19.79
G1X16.71Y19.89
G1X16.6Y20.02
G1X16.48Y20.15
G1X16.4Y20.24
G1X16.36Y20.32
G1Y20.36
G1X16.4
G1X16.45Y20.35
G1X16.51Y20.37
G1X16.55Y20.41
G1X16.52Y20.45
G1X16.48Y20.46
G1X16.46Y20.44
G1X16.44Y20.4
G1X16.38
G1X16.32Y20.42
G1X16.24Y20.51
G1X16.16
G1Y20.55
G1Y20.62
G1X16.11Y20.69
G1X16.05Y20.75
G1X16.03Y20.8
G1X16.04Y20.82
G1X16.1
G1X16.17Y20.75
G1X16.24Y20.65
G1X16.27Y20.57
G1X16.29
G1X16.27Y20.67
G1X16.21Y20.8
G1X16.17Y20.87
G1X16.13Y20.91
G1X16.08Y20.92
G1X15.98Y20.88
G1X15.93
G1X15.87Y20.91
G1X15.81Y20.95
G1X15.75Y21.01
G1X15.73Y21.06
G1Y21.12
G1X15.76Y21.19
G1X15.81Y21.28
G1X15.86Y21.31
G1X15.9
G1X15.91Y21.24
G1X15.96Y21.16
G1X16.08Y21.1
G1X16.18Y21.05
G1X16.21Y21
G1Y20.97
G1X16.24Y20.95
G1X16.28Y20.92
G1X16.32Y20.76
G1X16.37Y20.68
G1X16.56Y20.46
G1X16.71Y20.23
G1X16.76Y20.13
G1X16.78Y20.06
G1Y20.02
G1X16.73Y20.03
G1X16.7
G1X16.74Y20
G1X16.8Y19.92
G1X16.83Y19.82
G1X16.85Y19.7
G1X16.88Y19.59
G1X16.92Y19.51
G1X16.96Y19.48
G1X17.01Y19.45
G1X17.07Y19.36
G1Y19.35
G1X17.01Y19.38
M5
G0X18.57Y19.36
M3 S30
; Layer C00
G1X18.59Y19.37
G1X18.76Y19.4
G1X18.96Y19.5
G1X19.05Y19.56
G1X19.11Y19.62
G1X19.13Y19.68
G1X19.11Y19.71
G1X19.05
G1X19.01Y19.68
G1X18.93Y19.6
G1X18.81Y19.51
G1X18.66Y19.42
G1X18.48Y19.81
G1X18.28Y20.15
G1X18.08Y20.43
G1X17.87Y20.65
G1X17.99Y20.75
G1X18.1Y20.82
G1X18.16Y20.85
G1X18.19Y20.81
G1X18.25Y20.73
G1X18.32Y20.6
G1X18.4Y20.44
G1X18.57Y20.16
G1X18.76Y19.89
G1X18.85Y19.79
G1X18.92Y19.72
G1X18.97Y19.7
G1X18.99Y19.72
G1X18.96Y19.78
G1X18.89Y19.86
G1X18.74Y20.03
G1X18.59Y20.23
G1X18.53Y20.33
G1X18.5Y20.41
G1X18.48Y20.47
G1Y20.5
G1X18.54Y20.47
G1X18.6Y20.36
G1X18.7Y20.19
G1X18.83Y20.04
G1X18.94Y19.91
G1X18.99Y19.84
G1X19Y19.81
G1X19.03
G1X19.1Y19.79
G1X19.21Y19.71
G1X19.27Y19.65
G1X19.29Y19.62
G1Y19.61
G1X19.19Y19.63
G1X19.17
G1Y19.62
G1X19.18Y19.59
G1X19.2Y19.55
G1X19.17
G1X19.1
G1X19.02Y19.48
G1X18.93Y19.41
G1X18.84Y19.38
G1X18.79Y19.36
G1X18.75Y19.29
G1X18.69Y19.27
G1X18.63Y19.29
G1X18.58Y19.33
G1X18.57Y19.36
M5
G0X18.88Y19.11
M3 S30
; Layer C00
G1X18.9
G1X18.95Y19.07
G1X19.02Y19.04
G1X19.05Y19.06
G1X19.11Y19.1
G1X19.23Y19.09
G1X19.31Y19.07
G1X19.34Y19.05
G1X19.33Y19.02
G1X19.28Y18.98
G1X19.2Y18.94
G1X19.15
G1X19.09Y18.92
G1X19.02Y18.84
G1X18.96Y18.77
G1X18.93
G1X18.91Y18.78
G1X18.84Y18.74
G1X18.75Y18.67
G1X18.64Y18.61
G1X18.66
G1X18.7
G1X18.86Y18.63
G1X18.9
G1Y18.62
G1X18.88Y18.59
G1X18.84Y18.57
G1Y18.55
G1X18.85
G1X18.96Y18.53
G1X18.99
G1X18.97Y18.51
G1X18.92Y18.48
G1X18.82Y18.46
G1X18.72Y18.48
G1X18.63Y18.51
G1X18.58Y18.48
G1X18.53Y18.45
G1X18.46
G1X18.4
G1X18.36Y18.44
G1X18.38Y18.39
G1X18.48Y18.34
G1X18.62Y18.3
G1X18.47Y18.2
G1X18.41Y18.17
G1X18.37Y18.15
G1X18.35
G1X18.36Y18.21
G1X18.33Y18.22
G1X18.29Y18.21
G1X18.28Y18.17
G1X18.26Y18.13
G1X18.23Y18.12
G1X18.19Y18.16
G1Y18.25
G1X18.24Y18.37
G1X18.32Y18.47
G1X18.4Y18.55
G1X18.46Y18.59
G1X18.49
G1X18.47Y18.54
G1Y18.5
G1X18.49Y18.49
G1X18.54
G1Y18.53
G1Y18.58
G1X18.48Y18.63
G1X18.46Y18.66
G1X18.45Y18.68
G1Y18.69
G1X18.49
G1X18.53Y18.71
G1Y18.75
G1X18.55Y18.8
G1X18.64Y18.87
G1X18.7Y18.91
G1X18.73Y18.93
G1Y18.95
G1X18.72
G1X18.67Y18.96
G1Y18.98
G1X18.71Y19.01
G1X18.79Y19.03
G1X18.83Y19
G1X18.85Y18.93
G1X18.81Y18.85
G1X18.78Y18.82
G1Y18.8
G1X18.83Y18.84
G1X18.89Y18.92
G1Y19.03
G1X18.88Y19.08
G1Y19.11
M5
G0X19.42Y18.73
M3 S30
; Layer C00
G1X19.48Y18.75
G1X19.57Y18.77
G1X19.72Y18.82
G1X19.8Y18.88
G1X19.84Y18.93
G1X19.91Y18.95
G1X20
G1X20.11Y18.93
G1X20.17Y18.89
G1X20.2Y18.84
G1X20.17Y18.81
G1X20.11Y18.82
G1X20.02
G1X19.94Y18.79
G1X19.9Y18.74
G1X19.93Y18.69
G1X19.95Y18.67
G1Y18.65
G1X19.93Y18.63
G1X19.88Y18.6
G1X19.83Y18.57
G1X19.78
G1X19.74Y18.58
G1X19.7Y18.62
G1X19.67Y18.65
G1X19.64Y18.67
G1X19.6Y18.65
G1X19.56Y18.62
G1X19.5Y18.56
G1Y18.51
G1X19.55Y18.48
G1X19.74Y18.4
G1X19.78Y18.38
G1Y18.36
G1X19.68Y18.32
G1X19.65Y18.29
G1X19.67Y18.24
G1X19.71Y18.18
G1X19.76Y18.13
G1X19.73Y18.1
G1X19.63
G1X19.29Y18.13
G1X19.2
G1X19.14Y18.09
G1X19.1Y18.03
G1X19.07Y17.92
G1Y17.86
G1X19.05Y17.83
G1X18.93Y17.86
G1X18.79Y17.91
G1X18.69Y17.98
G1X18.63Y18.05
G1X18.61Y18.08
G1X18.65Y18.09
G1X18.75Y18.08
G1X18.82
G1X18.88
G1X18.93Y18.11
G1X19.02Y18.2
G1X19.08
G1X19.15Y18.25
G1X19.21Y18.29
G1X19.26Y18.31
G1X19.31
G1X19.48Y18.23
G1X19.51Y18.25
G1X19.49Y18.31
G1X19.4Y18.43
G1X19.33Y18.5
G1X19.3Y18.56
G1Y18.58
G1X19.34Y18.59
G1X19.39Y18.61
G1Y18.66
G1Y18.7
G1X19.42Y18.73
M5
G0X20.13Y20.66
M3 S30
; Layer C00
G1X19.37Y21.14
G1X19.23Y21.24
G1X19.12Y21.32
G1X19.03Y21.39
G1X18.91Y21.54
G1X18.8Y21.72
G1X18.66Y21.97
G1X18.53Y22.14
G1X18.41Y22.24
G1X18.27Y22.29
G1X18.14
G1X17.99Y22.25
G1X17.82Y22.18
G1X17.66Y22.09
G1X17.52Y21.99
G1X17.42Y21.89
G1X17.37Y21.8
G1X17.38Y21.73
G1X17.4Y21.68
G1Y21.62
G1X17.35Y21.54
G1X17.28Y21.42
G1X17.21Y21.33
G1X17.15Y21.25
G1X17.1Y21.2
G1X17.06Y21.17
G1X17.04Y21.14
G1Y21.07
G1X17.02Y21.06
G1X16.97Y21.07
G1X16.96Y21.11
G1X16.98Y21.16
G1X17.04Y21.19
G1X17.11Y21.26
G1X17.23Y21.48
G1X17.29Y21.53
G1X17.32Y21.54
G1Y21.58
G1Y21.62
G1X17.35Y21.65
G1X17.39Y21.67
G1X17.36Y21.7
G1X17.33
G1X17.27Y21.66
G1X17.2Y21.59
G1X17.13Y21.5
G1X17.06Y21.41
G1X17Y21.34
G1X16.94Y21.29
G1X16.91Y21.27
G1X16.87Y21.28
G1X16.79Y21.32
G1X16.69Y21.38
G1X16.58Y21.45
G1X16.34Y21.6
G1X16.18Y21.68
G1X16.14Y21.7
G1X16.18Y21.73
G1X16.3Y21.75
G1X16.49Y21.79
G1X16.85Y21.86
G1X17.16Y21.98
G1X17.43Y22.13
G1X17.65Y22.33
G1X17.83Y22.57
G1X17.96Y22.86
G1X18.06Y23.2
G1X18.12Y23.59
G1X18.15Y23.81
G1X18.18Y24.02
G1X18.2Y24.2
G1X18.23Y24.32
G1X18.29Y24.48
G1X18.4Y24.62
G1X18.54Y24.74
G1X18.71Y24.84
G1X18.89Y24.9
G1X19.08Y24.93
G1X19.28
G1X19.47Y24.88
G1X19.63Y24.79
G1X19.82Y24.64
G1X20.03Y24.43
G1X20.31Y24.1
G1X20.39Y24.02
G1X20.44Y23.98
G1X20.47Y23.97
G1X20.52
G1X20.56Y23.94
G1X20.57Y23.9
G1X20.49Y23.93
G1X20.48Y23.9
G1X20.5Y23.84
G1X20.55Y23.76
G1X20.59Y23.71
G1X20.62Y23.69
G1X20.64Y23.71
G1X20.66Y23.78
G1X20.68Y23.85
G1X20.69Y23.97
G1X20.7Y24.11
G1Y24.27
G1Y24.48
G1X20.66Y24.68
G1X20.61Y24.87
G1X20.52Y25.04
G1X20.3Y25.36
G1X20.01Y25.62
G1X19.65Y25.82
G1X19.24Y25.95
G1X18.78Y26
G1X18.3Y25.96
G1X17.94Y25.88
G1X17.64Y25.78
G1X17.54Y25.74
G1X17.45Y25.71
G1X17.39Y25.69
G1X17.37
G1X17.34Y25.75
G1X17.29Y25.87
G1X17.2Y26.02
G1X17.07Y26.14
G1X16.92Y26.22
G1X16.77Y26.25
G1X16.7
G1X16.66Y26.28
G1X16.63Y26.32
G1X16.62Y26.49
G1X16.6Y26.58
G1X16.61Y26.64
G1X16.67Y26.76
G1X16.77Y26.91
G1X16.9Y27.09
G1X17.23Y27.53
G1X17.8Y27.67
G1X18.31Y27.81
G1X18.77Y27.95
G1X19.04Y28.03
G1X19.24Y28.07
G1X19.41
G1X19.61Y28.05
G1X19.72Y28.03
G1X19.78Y28
G1X19.81Y27.95
G1Y27.87
G1X19.84Y27.67
G1X19.93Y27.43
G1X20.07Y27.16
G1X20.26Y26.85
G1X20.51Y26.54
G1X20.74Y26.3
G1X21.01Y26.11
G1X21.33Y25.94
G1X21.69Y25.77
G1X21.65Y25.52
G1Y25.37
G1Y25.22
G1X21.69Y25.03
G1X21.76Y24.79
G1X21.82Y24.6
G1X21.88Y24.42
G1X21.94Y24.27
G1X21.98Y24.18
G1X22.04Y24.06
G1X22.07Y23.99
G1X22.09Y23.92
G1X22.15Y23.81
G1X22.23Y23.67
G1X22.33Y23.52
G1X22.44Y23.37
G1X22.55Y23.23
G1X22.65Y23.11
G1X22.74Y23.04
G1X22.95Y22.87
G1X22.74Y22.77
G1X22.54Y22.65
G1X22.36Y22.51
G1X22.29Y22.45
G1X22.24Y22.38
G1X22.21Y22.33
G1Y22.3
G1X22.22Y22.27
G1X22.19Y22.28
G1X22.16
G1X22.11Y22.26
G1X22.06Y22.22
G1X22Y22.16
G1X21.84Y21.97
G1X21.6Y21.6
G1X21.53Y21.51
G1X21.47Y21.45
G1X21.43Y21.42
G1X21.35Y21.41
G1X21.24Y21.36
G1X21.09Y21.29
G1X20.93Y21.21
G1X20.6Y21.03
G1X20.36Y20.86
G1X20.13Y20.66
M5
G0X22.21Y21.48
M3 S30
; Layer C00
G1Y21.54
G1X22.3Y21.61
G1X22.46Y21.72
G1X22.58Y21.81
G1X22.66Y21.9
G1X22.68Y21.97
G1X22.62Y22
G1X22.6Y22.03
G1Y22.11
G1X22.64Y22.18
G1X22.7Y22.19
G1X22.77
G1X22.81Y22.21
G1X22.85Y22.23
G1X22.94
G1X23.07
G1X23.22
G1X23.42Y22.21
G1X23.54
G1X23.58Y22.24
G1Y22.28
G1X23.5Y22.35
G1X23.37Y22.4
G1X23.23Y22.44
G1X23.13Y22.5
G1X23.1Y22.54
G1Y22.56
G1X23.15Y22.58
G1X23.23Y22.59
G1X23.38Y22.6
G1X23.49
G1X23.57Y22.58
G1X23.66
G1X23.71Y22.57
G1X23.74Y22.54
G1X23.75Y22.47
G1Y22.37
G1Y22.27
G1X23.73Y22.21
G1X23.7Y22.17
G1X23.67Y22.16
G1X23.63
G1Y22.14
G1X23.65Y22.12
G1X23.75Y22.04
G1X23.76Y22.02
G1X23.73
G1X23.65Y22.03
G1X23.56Y22.04
G1X23.51Y22.03
G1X23.49Y21.98
G1Y21.89
G1X23.46Y21.87
G1X23.38
G1X23.33
G1X23.31Y21.89
G1X23.32Y21.93
G1X23.42Y22.08
G1Y22.09
G1X23.35
G1X23.26Y22.11
G1X23.13Y22.14
G1X22.95
G1X22.88Y22.11
G1X22.83Y22.1
G1X22.81Y22.08
G1X22.82Y22.07
G1X22.86Y22.04
G1Y21.99
G1Y21.94
G1X22.9Y21.89
G1X22.93Y21.87
G1Y21.85
G1X22.88
G1X22.81Y21.83
G1X22.78Y21.79
G1X22.76Y21.75
G1X22.71Y21.74
G1X22.63Y21.7
G1X22.54Y21.61
G1X22.47Y21.51
G1Y21.45
G1X22.51Y21.42
G1X22.59Y21.38
G1X22.64Y21.34
G1Y21.33
G1X22.61
G1X22.51Y21.34
G1X22.37Y21.38
G1X22.26Y21.43
G1X22.21Y21.48
M5
G0X24.47Y21.22
M3 S30
; Layer C00
G1X24.51Y21.24
G1X24.61Y21.26
G1X24.83Y21.27
G1X24.85Y21.28
G1X24.84Y21.3
G1X24.8Y21.33
G1X24.74Y21.41
G1X24.69Y21.49
G1X24.67Y21.55
G1X24.71
G1X24.74
G1X24.76Y21.58
G1Y21.62
G1X24.79Y21.63
G1X24.81Y21.6
G1X24.8Y21.53
G1Y21.45
G1X24.82Y21.42
G1X24.85Y21.45
G1X24.87Y21.51
G1X24.89Y21.57
G1X24.92Y21.55
G1X24.97Y21.47
G1X25Y21.35
G1X25.03Y21.2
G1X25.07Y21.06
G1X25.08Y20.98
G1X25.05Y20.97
G1X25.03Y20.95
G1X25.02Y20.9
G1Y20.8
G1Y20.66
G1X25.01Y20.39
G1X24.98Y20.17
G1X24.96Y20.09
G1X24.94Y20.03
G1X24.91Y20
G1X24.84Y19.99
G1Y19.95
G1Y19.87
G1X24.79Y19.76
G1X24.74Y19.7
G1X24.7Y19.67
G1X24.67
G1X24.64Y19.7
G1X24.61Y19.79
G1X24.59Y19.9
G1Y20.03
G1X24.55Y19.9
G1X24.52Y19.85
G1X24.5
G1X24.48Y19.92
G1X24.44Y20.07
G1X24.4Y20.32
G1Y20.5
G1X24.41Y20.62
G1X24.38Y20.74
G1X24.35Y20.81
G1X24.36Y20.85
G1X24.41Y20.8
G1X24.53Y20.57
G1X24.56Y20.54
G1X24.57Y20.6
G1X24.54Y20.74
G1X24.52Y20.86
G1Y20.96
G1X24.54Y21.03
G1X24.59
G1X24.62Y21.05
G1Y21.11
G1Y21.15
G1Y21.17
G1X24.59
G1X24.56Y21.16
G1X24.51Y21.14
G1X24.47Y21.18
G1Y21.22
M5
G0X24.83Y22.14
M3 S30
; Layer C00
G1X24.8Y22.16
G1X24.78Y22.18
G1X24.79Y22.19
G1X24.85Y22.24
G1X24.86Y22.25
G1X24.85Y22.26
G1X24.8
G1X24.71Y22.3
G1X24.63Y22.38
G1X24.58Y22.47
G1Y22.55
G1Y22.58
G1X24.57Y22.57
G1X24.52Y22.55
G1X24.45Y22.58
G1X24.43Y22.66
G1X24.49Y22.76
G1X24.6Y22.84
G1X24.71Y22.87
G1X24.78
G1X24.81Y22.89
G1X24.84Y22.93
G1X24.91Y22.96
G1X25.02Y22.99
G1Y22.95
G1Y22.85
G1X24.98Y22.66
G1X24.95Y22.41
G1X24.93Y22.27
G1X24.91Y22.18
G1X24.88Y22.14
G1X24.83
M5
G0X22.58Y25.87
M3 S30
; Layer C00
G1X22.52Y25.85
G1X22.48Y25.87
G1X22.47Y25.9
G1X22.45Y25.94
G1X22.32Y25.97
G1Y26.01
G1X22.36Y26.1
G1X22.38Y26.24
G1Y26.33
G1X22.36Y26.38
G1X22.32Y26.4
G1X22.25
G1X22.18Y26.41
G1X22.15Y26.42
G1X22.17Y26.45
G1X22.23Y26.51
G1X22.32Y26.59
G1X22.4Y26.64
G1X22.42Y26.66
G1X22.37
G1X22.23Y26.62
G1X22.14Y26.6
G1X22.09Y26.57
G1X22.05Y26.54
G1X22.02Y26.52
G1X22Y26.6
G1X21.95Y26.62
G1X21.92Y26.6
G1Y26.57
G1Y26.54
G1X21.81Y26.56
G1X21.8Y26.52
G1X21.76Y26.5
G1X21.69Y26.49
G1X21.61Y26.48
G1X21.49
G1X21.44
G1X21.45Y26.49
G1X21.52Y26.52
G1X21.63Y26.56
G1X21.71Y26.59
G1X21.88Y26.63
G1X21.99Y26.67
G1X22.05Y26.71
G1X22.07Y26.75
G1X22.09Y26.83
G1X22.15Y26.9
G1X22.2Y26.94
G1X22.25Y26.96
G1X22.29
G1X22.35Y26.93
G1X22.4Y26.9
G1X22.43
G1Y26.93
G1X22.41Y26.97
G1Y26.98
G1X22.46
G1X22.53Y26.95
G1X22.57Y26.93
G1X22.58Y26.91
G1Y26.87
G1X22.53Y26.77
G1Y26.74
G1X22.57Y26.73
G1X22.64
G1X22.74Y26.71
G1X22.81Y26.67
G1X22.82Y26.64
G1X22.81Y26.63
G1X22.77Y26.62
G1X22.7
G1X22.59Y26.55
G1X22.51Y26.44
G1X22.53Y26.42
G1X22.59Y26.39
G1X22.65
G1X22.64Y26.42
G1X22.63Y26.45
G1X22.66Y26.44
G1X22.71Y26.39
G1X22.73Y26.32
G1X22.71Y26.28
G1X22.68
G1X22.63
G1X22.58Y26.24
G1X22.57Y26.2
G1X22.59Y26.21
G1X22.66
G1X22.78Y26.17
G1X22.9Y26.11
G1X22.95Y26.06
G1X22.93
G1X22.89
G1X22.85Y26.07
G1X22.84Y26.05
G1X22.81Y26.02
G1X22.74
G1X22.69Y26.04
G1Y25.95
G1X22.66Y25.9
G1X22.58Y25.87
M5
G0X22Y26.85
M3 S30
; Layer C00
G1X21.93
G1X21.84
G1X21.76Y26.83
G1X21.73Y26.8
G1X21.71
G1Y26.83
G1X21.72Y26.88
G1Y26.93
G1Y26.96
G1X21.69Y26.98
G1X21.65
G1X21.6
G1X21.58Y27
G1Y27.01
G1X21.63Y27.04
G1X21.67Y27.08
G1Y27.1
G1X21.59Y27.11
G1X21.52Y27.13
G1X21.47Y27.17
G1X21.43Y27.21
G1Y27.25
G1Y27.29
G1X21.37Y27.32
G1X21.34Y27.33
G1X21.37
G1X21.51
G1X21.54
G1Y27.36
G1X21.48Y27.41
G1X21.4Y27.48
G1X21.31Y27.51
G1X21.27Y27.53
G1Y27.57
G1X21.35Y27.6
G1X21.48
G1X21.61Y27.57
G1X21.72
G1X21.76Y27.54
G1Y27.43
G1X21.8Y27.38
G1X21.84Y27.36
G1X21.83Y27.4
G1Y27.45
G1X21.9Y27.51
G1X22Y27.56
G1X22.11Y27.6
G1X22.16
G1Y27.59
G1X22.14Y27.55
G1X22.06Y27.48
G1X22.01Y27.45
G1X21.99Y27.43
G1X21.98
G1X22Y27.5
G1X21.96Y27.49
G1X21.93Y27.45
G1Y27.41
G1Y27.36
G1X21.9Y27.33
G1X21.86Y27.29
G1X21.85Y27.23
G1Y27.2
G1X21.89Y27.22
G1X22.09Y27.34
G1X22.27Y27.39
G1X22.24Y27.35
G1X22.13Y27.3
G1X22.01Y27.22
G1X21.94Y27.15
G1Y27.08
G1X22.02Y27.06
G1X22.1Y27.08
G1X22.16Y27.12
G1X22.17Y27.14
G1X22.14Y27.12
G1X22.07Y27.1
G1Y27.11
G1X22.12Y27.15
G1X22.2Y27.21
G1X22.28Y27.26
G1X22.31Y27.27
G1Y27.25
G1X22.27Y27.18
G1X22.17Y27.01
G1X22.08Y26.9
G1X22Y26.85
M5
G0X20.97Y27.99
M3 S30
; Layer C00
G1X20.94Y28
G1X20.86Y28.06
G1X20.77Y28.12
G1X20.71
G1X20.62Y28.14
G1X20.47Y28.2
G1X20.32Y28.29
G1X20.25Y28.36
G1X20.23Y28.38
G1X20.16Y28.37
G1X20.12Y28.35
G1X20.1
G1Y28.37
G1X20.11Y28.41
G1Y28.43
G1X20.07Y28.39
G1X20Y28.32
G1X19.93Y28.3
G1X19.9Y28.32
G1X19.95Y28.38
G1X20.03Y28.47
G1X20.09Y28.58
G1X20.12Y28.64
G1Y28.66
G1Y28.65
G1X20.07Y28.6
G1X19.99Y28.54
G1X19.91
G1X19.85Y28.59
G1X19.83Y28.69
G1Y28.77
G1X19.86Y28.81
G1X19.89Y28.82
G1X19.94Y28.79
G1Y28.74
G1X19.92Y28.68
G1X19.89Y28.65
G1Y28.63
G1X19.9Y28.62
G1X19.94
G1X20
G1X20.06Y28.65
G1X20.13Y28.68
G1X20.25Y28.69
G1X20.32
G1X20.36Y28.68
G1X20.37Y28.66
G1X20.35Y28.63
G1X20.3Y28.59
G1X20.21
G1X20.17Y28.55
G1X20.15Y28.52
G1X20.18
G1X20.24
G1X20.28Y28.47
G1X20.3Y28.42
G1X20.33Y28.41
G1X20.36Y28.43
G1X20.41Y28.48
G1X20.48Y28.55
G1X20.55Y28.59
G1X20.63Y28.62
G1X20.73
G1X20.77Y28.65
G1Y28.69
G1X20.79Y28.76
G1X20.88Y28.84
G1X20.98Y28.93
G1X21.02Y29
G1X21.05Y29.07
G1X21.1Y29.14
G1X21.15Y29.2
G1Y29.28
G1X21.2Y29.29
G1X21.26
G1X21.32Y29.26
G1Y29.21
G1X21.28Y29.14
G1X21.25Y29.1
G1Y29.09
G1X21.3Y29.12
G1X21.34Y29.17
G1X21.37Y29.23
G1Y29.31
G1Y29.41
G1Y29.57
G1X21.36Y29.67
G1Y29.7
G1X21.34Y29.73
G1X21.29Y29.77
G1X21.25Y29.8
G1X21.27Y29.82
G1X21.33Y29.8
G1X21.41Y29.77
G1X21.45Y29.73
G1X21.43Y29.69
G1X21.49Y29.59
G1Y29.54
G1Y29.53
G1X21.56
G1X21.62Y29.55
G1X21.66Y29.53
G1X21.7Y29.5
G1X21.73Y29.46
G1X21.76Y29.38
G1X21.74Y29.35
G1X21.7
G1X21.64Y29.42
G1X21.58Y29.46
G1X21.49Y29.45
G1X21.43Y29.42
G1X21.45Y29.4
G1X21.49Y29.37
G1X21.44Y29.15
G1Y28.96
G1X21.41Y28.93
G1X21.38Y28.91
G1Y28.84
G1X21.35Y28.82
G1X21.32Y28.81
G1Y28.78
G1Y28.72
G1X21.27Y28.66
G1X21.21Y28.6
G1X21.19Y28.54
G1X21.21Y28.48
G1X21.26Y28.44
G1X21.29Y28.43
G1Y28.41
G1Y28.38
G1X21.25Y28.34
G1X21.2Y28.31
G1Y28.33
G1Y28.37
G1X21.12Y28.39
G1X21.06
G1X21.04
G1Y28.37
G1X21.12Y28.32
G1X21.13Y28.3
G1Y28.28
G1X21.09Y28.25
G1X21.03Y28.19
G1X21Y28.11
G1X20.97Y27.99
M5
G0X17.38Y28.09
M3 S30
; Layer C00
G1X17.36Y27.98
G1X17.33Y27.87
G1X17.28Y27.8
G1X17.21Y27.77
G1Y27.75
G1X17.26Y27.69
G1X17.31Y27.65
G1X17.33Y27.63
G1X17.32
G1X17.27
G1X17.2
G1X17.16Y27.59
G1Y27.62
G1X17.14Y27.67
G1X17.12Y27.75
G1X17.09Y27.96
G1X17.02Y27.75
G1X16.96Y27.58
G1X16.9Y27.46
G1X16.87Y27.42
G1X16.85Y27.41
G1X16.82
G1X16.79Y27.46
G1X16.75Y27.5
G1X16.74Y27.48
G1X16.76Y27.42
G1X16.81Y27.36
G1X16.84Y27.32
G1Y27.31
G1X16.82
G1X16.78
G1X16.71Y27.33
G1X16.69Y27.31
G1Y27.21
G1X16.65Y27.15
G1X16.6
G1X16.55Y27.22
G1Y27.28
G1X16.58Y27.27
G1X16.61Y27.26
G1X16.62
G1Y27.29
G1X16.61Y27.33
G1Y27.42
G1X16.65Y27.51
G1X16.71Y27.61
G1X16.76Y27.74
G1X16.78Y27.8
G1X16.81Y27.84
G1X16.84Y27.86
G1X16.92
G1Y27.91
G1Y28.01
G1X16.98Y28.15
G1X17.04Y28.31
G1Y28.43
G1X16.96Y28.5
G1X16.84Y28.52
G1X16.82Y28.53
G1Y28.58
G1Y28.61
G1X16.86
G1X16.91Y28.6
G1X16.97Y28.56
G1X17.09Y28.45
G1X17.18Y28.32
G1X17.21Y28.2
G1X17.18Y28.15
G1X17.15Y28.12
G1Y28.08
G1X17.18Y28.05
G1X17.23Y28.04
G1X17.27Y28.07
G1X17.28Y28.15
G1Y28.25
G1X17.23Y28.35
G1X17.21Y28.4
G1Y28.42
G1X17.23Y28.44
G1X17.27
G1X17.33Y28.4
G1X17.37Y28.32
G1X17.38Y28.21
G1Y28.09
M5
G0X16.56Y28.69
M3 S30
; Layer C00
G1X16.47Y28.67
G1X16.41
G1X16.38Y28.69
G1Y28.73
G1X16.43Y28.86
G1Y28.89
G1Y28.91
G1X16.37Y28.89
G1X16.35Y28.92
G1X16.32Y28.95
G1X16.24
G1X16.17
G1X16.13Y28.97
G1X16.14Y29.01
G1X16.21Y29.06
G1X16.2
G1X16.16
G1X16.1
G1X16.01
G1X15.97Y29.05
G1X15.96Y29.03
G1X15.98Y28.99
G1X16.01Y28.92
G1X15.97Y28.86
G1X15.94Y28.83
G1X15.93
G1Y28.85
G1X15.95Y28.9
G1X15.96Y28.95
G1Y28.97
G1X15.92
G1X15.85
G1X15.7Y28.93
G1X15.6Y28.89
G1X15.5Y28.83
G1X15.39Y28.73
G1X15.31Y28.66
G1X15.24Y28.61
G1X15.18Y28.59
G1X15.14
G1X15.1Y28.65
G1Y28.74
G1Y28.84
G1X15.14Y28.9
G1X15.17Y28.88
G1Y28.8
G1Y28.7
G1X15.19Y28.67
G1X15.33Y28.74
G1X15.38Y28.84
G1Y28.87
G1X15.5Y28.94
G1X15.53Y28.99
G1X15.51Y29.01
G1X15.43Y28.99
G1X15.44Y29.02
G1X15.5Y29.07
G1X15.67Y29.11
G1X15.78Y29.16
G1X15.89Y29.2
G1X16.02Y29.18
G1X16.12Y29.16
G1X16.18Y29.18
G1X16.22Y29.2
G1X16.29Y29.21
G1X16.39Y29.2
G1X16.51Y29.16
G1X16.57Y29.14
G1X16.59Y29.12
G1Y29.1
G1X16.56Y29.08
G1X16.53Y29.06
G1Y29.04
G1X16.54
G1X16.58
G1X16.67Y29
G1X16.74Y28.92
G1X16.77Y28.86
G1Y28.83
G1X16.72
G1X16.65
G1X16.61Y28.77
G1X16.56Y28.69
M5
G0X17.03Y29.45
M3 S30
; Layer C00
G1X16.97Y29.47
G1X16.93Y29.5
G1X16.87Y29.54
G1X16.76Y29.56
G1X16.67Y29.57
G1X16.65Y29.61
G1Y29.65
G1X16.6Y29.66
G1X16.51Y29.65
G1X16.38Y29.61
G1X16.3Y29.58
G1X16.24Y29.57
G1X16.21
G1Y29.58
G1X16.28Y29.64
G1X16.43Y29.72
G1X16.53Y29.77
G1X16.61Y29.82
G1X16.66Y29.86
G1X16.68Y29.88
G1X16.71Y29.91
G1X16.79Y29.92
G1X16.87Y29.95
G1X16.9Y30
G1X16.92Y30.06
G1X16.96Y30.08
G1X16.99Y30.1
G1Y30.13
G1Y30.15
G1X17.03Y30.16
G1X17.1Y30.18
G1X17.18Y30.2
G1X17.39Y30.23
G1X17.61
G1X17.66Y30.24
G1X17.7Y30.26
G1X17.71Y30.28
G1X17.7Y30.37
G1X17.71Y30.42
G1X17.74Y30.43
G1X17.78Y30.41
G1X17.86Y30.37
G1X18.03Y30.35
G1X18.22Y30.34
G1X18.35Y30.32
G1X18.42Y30.29
G1Y30.26
G1X18.38Y30.24
G1X18.28Y30.22
G1X18.13Y30.2
G1X17.73
G1X17.57Y30.18
G1X17.45Y30.17
G1X17.38Y30.15
G1X17.33Y30.12
G1X17.29Y30.1
G1X17.15Y30.06
G1X17.07Y30.02
G1X17.02Y29.99
G1Y29.94
G1X16.99Y29.88
G1X16.93Y29.84
G1X16.87Y29.79
G1Y29.73
G1Y29.68
G1X16.85Y29.66
G1X16.81Y29.69
G1X16.79Y29.74
G1Y29.79
G1X16.75Y29.82
G1X16.71
G1X16.66Y29.78
G1Y29.76
G1X16.71Y29.72
G1X16.77Y29.66
G1X16.95Y29.54
G1X17.01Y29.5
G1X17.04Y29.46
G1X17.03
M5
G0X16.33Y27.62
M3 S30
; Layer C00
G1X16.34Y27.56
G1X16.33Y27.44
G1Y27.3
G1X16.35Y27.22
G1X16.38Y27.18
G1Y27.13
G1X16.37Y27.1
G1X16.42Y27.14
G1X16.47Y27.17
G1X16.5
G1X16.51Y27.15
G1Y27.1
G1X16.5Y27.02
G1X16.45Y26.99
G1X16.42Y26.97
G1X16.43Y26.95
G1X16.47Y26.92
G1X16.52Y26.9
G1X16.6Y26.89
G1Y26.85
G1X16.5Y26.69
G1X16.48Y26.63
G1X16.49Y26.57
G1X16.52Y26.51
G1X16.55Y26.4
G1Y26.27
G1Y26.18
G1X16.58Y26.14
G1X16.63
G1X16.59Y26.11
G1X16.55Y26.08
G1Y25.98
G1X16.51Y25.91
G1X16.48Y25.87
G1X16.45Y25.86
G1X16.41
G1X16.32Y25.92
G1X16.29Y25.89
G1Y25.84
G1X16.28Y25.76
G1X16.27Y25.49
G1X16.25Y25.13
G1X16.23Y24.79
G1X16.21Y24.65
G1X16.19Y24.54
G1X16.18Y24.46
G1X16.16Y24.43
G1X16.14
G1Y24.5
G1X16.12Y24.56
G1X16.09Y24.54
G1X16.07
G1Y24.58
G1X16.06Y24.65
G1Y24.91
G1X16.04Y25
G1X16.01Y25.04
G1X15.95
G1X15.89
G1X15.87Y25.06
G1X15.88Y25.08
G1X15.94Y25.13
G1X16Y25.18
G1X15.92
G1X15.88Y25.22
G1X15.84Y25.27
G1X15.8
G1X15.77Y25.28
G1X15.78Y25.33
G1X15.82Y25.39
G1X15.87Y25.41
G1X15.9Y25.44
G1Y25.49
G1Y25.56
G1X15.93Y25.6
G1X15.98Y25.66
G1Y25.78
G1X15.95Y25.89
G1X15.92Y25.93
G1X15.87Y25.91
G1X15.82Y25.82
G1X15.79Y25.76
G1X15.77Y25.74
G1X15.75Y25.75
G1X15.73Y25.81
G1X15.71Y25.87
G1X15.78Y25.88
G1X15.87Y25.96
G1X15.95Y26.05
G1X16.02Y26.09
G1X16.05
G1Y26.02
G1Y25.96
G1X16.08Y25.91
G1X16.12Y25.89
G1X16.1Y25.94
G1X16.08Y25.98
G1X16.1
G1X16.14Y25.95
G1X16.2Y25.92
G1X16.25
G1X16.31Y25.96
G1X16.35Y26.01
G1X16.43Y26.17
G1X16.46Y26.38
G1X16.45Y26.61
G1X16.4Y26.83
G1X16.34Y27.01
G1X16.28Y27.1
G1X16.25Y27.13
G1X16.32Y27.15
G1Y27.17
G1X16.3Y27.21
G1X16.19Y27.33
G1X16.16Y27.38
G1X16.17Y27.4
G1X16.21Y27.42
G1X16.27Y27.47
G1X16.3Y27.54
G1Y27.59
G1X16.33Y27.62
M5
G0X14.44Y25.67
M3 S30
; Layer C00
G1X14.45Y25.64
G1X14.42Y25.57
G1X14.39Y25.52
G1X14.38Y25.48
G1Y25.44
G1X14.41Y25.41
G1X14.45Y25.33
G1X14.39Y25.14
G1Y24.96
G1X14.32Y24.73
G1X14.29Y24.53
G1X14.26Y24.35
G1X14.21Y24.27
G1X14.19Y24.21
G1X14.24Y24.1
G1X14.27Y24.03
G1X14.29Y23.98
G1Y23.95
G1X14.28
G1X14.22Y23.99
G1X14.14Y24.1
G1X14.07Y24.23
G1X14.05Y24.31
G1X14.07Y24.34
G1X14.18Y24.32
G1X14.2Y24.36
G1Y24.46
G1X14.17Y24.63
G1X14.15Y24.72
G1X14.12Y24.79
G1X14.08Y24.83
G1X14.03Y24.85
G1X13.98Y24.87
G1X13.96Y24.89
G1Y24.94
G1X14.02Y25.01
G1X14.11Y25.12
G1X14.29Y25.22
G1X14.32Y25.28
G1X14.3Y25.34
G1X14.16Y25.39
G1X14.1Y25.46
G1X14.08Y25.54
G1X14.12Y25.59
G1X14.15
G1X14.17
G1Y25.56
G1Y25.51
G1Y25.44
G1X14.2Y25.41
G1X14.24
G1X14.26Y25.44
G1Y25.49
G1Y25.55
G1X14.33Y25.63
G1X14.44Y25.67
M5
G0X17.47Y24.87
M3 S30
; Layer C00
G1X17.49Y24.89
G1X17.56Y24.85
G1X17.62Y24.75
G1X17.65Y24.64
G1Y24.49
G1X17.7Y24.47
G1X17.75Y24.45
G1X17.76Y24.38
G1X17.81Y24.34
G1X17.86
G1Y24.39
G1X17.91
G1X17.96Y24.34
G1Y24.27
G1Y24.23
G1X17.98
G1X18.02Y24.28
G1X18.06Y24.34
G1X18.08Y24.38
G1X18.06Y24.42
G1X18.02Y24.45
G1X17.96Y24.5
G1X18.04Y24.54
G1Y24.6
G1X18.06Y24.67
G1X18.16Y24.75
G1X18.3Y24.81
G1X18.44Y24.84
G1X18.48
G1X18.49
G1Y24.86
G1X18.4Y24.91
G1X18.39Y24.93
G1Y24.94
G1X18.44
G1X18.51
G1X18.56
G1X18.59Y24.96
G1X18.61Y24.99
G1X18.64Y25.03
G1X18.8Y25.06
G1X18.85Y25.1
G1X18.9Y25.12
G1X18.98Y25.09
G1X19.02Y25.06
G1X19.04Y25.05
G1X19.02Y25.08
G1Y25.13
G1X19.04Y25.15
G1X19.09Y25.13
G1X19.12Y25.1
G1X19.13Y25.06
G1X19.11Y25.02
G1X19.02Y25
G1X18.86Y24.98
G1X18.75Y24.97
G1X18.66Y24.93
G1X18.56Y24.87
G1X18.45Y24.78
G1X18.37Y24.7
G1X18.3Y24.64
G1X18.24Y24.61
G1X18.17Y24.59
G1X18.1Y24.53
G1X18.07Y24.48
G1X18.06Y24.47
G1X18.08
G1X18.19Y24.56
G1X18.22Y24.57
G1Y24.55
G1X18.2Y24.49
G1X18.18Y24.42
G1X18.15Y24.28
G1X18.13Y24.12
G1X18.08Y23.71
G1X18.05Y23.55
G1X18.03Y23.43
G1X18.01Y23.37
G1X17.99
G1Y23.41
G1X17.98Y23.52
G1Y23.91
G1X17.97Y24.05
G1X17.94Y24.14
G1X17.9Y24.19
G1X17.82Y24.24
G1X17.77Y24.25
G1X17.74Y24.24
G1X17.76Y24.19
G1Y24.17
G1X17.7Y24.21
G1X17.63Y24.34
G1X17.6Y24.53
G1Y24.64
G1Y24.69
G1X17.58
G1X17.52Y24.55
G1X17.49Y24.52
G1X17.47Y24.6
G1X17.52Y24.71
G1X17.53Y24.76
G1X17.47Y24.87
M5
G0X17.71Y22.58
M3 S30
; Layer C00
G1Y22.56
G1X17.69Y22.53
G1X17.65Y22.47
G1X17.6Y22.41
G1X17.47Y22.29
G1X17.37Y22.25
G1X17.33
G1X17.31
G1Y22.23
G1X17.33Y22.16
G1X17.32
G1X17.26
G1X17.17Y22.09
G1X17.13Y22.04
G1X17.09Y22.02
G1X17.08
G1X17.07Y22.05
G1Y22.08
G1X17.05
G1X17.02Y22.07
G1X16.99Y22.02
G1X16.93Y21.97
G1X16.9
G1X16.88Y21.98
G1X16.82Y21.95
G1X16.74Y21.91
G1X16.62Y21.89
G1X16.46Y21.87
G1X16.28
G1X15.92
G1X15.65Y21.93
G1X15.56Y21.96
G1X15.52Y21.98
G1X15.54
G1X15.74Y21.95
G1X15.84
G1X15.96Y21.97
G1X16.13Y22.03
G1X16.34Y22.08
G1X16.5Y22.09
G1X16.59
G1X16.63Y22.12
G1X16.64Y22.14
G1X16.68
G1X16.72Y22.13
G1X16.76Y22.16
G1X16.8Y22.2
G1X16.85Y22.21
G1X16.88Y22.2
G1X16.87Y22.12
G1X16.9Y22.08
G1X16.94
G1X17.03Y22.14
G1X17.09
G1X17.16Y22.15
G1X17.29Y22.29
G1X17.36Y22.3
G1X17.45Y22.33
G1X17.56Y22.43
G1X17.65Y22.53
G1X17.71Y22.58
M5
G0X10.62Y19
M3 S30
; Layer C00
G1Y18.98
G1Y18.93
G1X10.59Y18.86
G1X10.54Y18.81
G1X10.48Y18.75
G1X10.42Y18.66
G1X10.38Y18.54
G1X10.34Y18.41
G1X10.32Y18.13
G1X10.35Y17.9
G1X10.44Y17.78
G1X10.6Y17.67
G1X10.77Y17.58
G1X10.92Y17.54
G1X11.02Y17.52
G1X11.08Y17.48
G1X11.11Y17.41
G1X11.08Y17.33
G1X11.04Y17.3
G1X11Y17.33
G1X10.98Y17.39
G1X11Y17.45
G1Y17.47
G1X10.94Y17.44
G1X10.89Y17.4
G1X10.87Y17.39
G1X10.9Y17.47
G1Y17.48
G1X10.87
G1X10.7Y17.43
G1X10.56
G1X10.52
G1X10.49Y17.46
G1Y17.48
G1Y17.52
G1X10.51Y17.56
G1Y17.58
G1X10.49
G1X10.46Y17.55
G1X10.39Y17.52
G1X10.32Y17.53
G1X10.35Y17.48
G1X10.39Y17.41
G1X10.37Y17.36
G1X10.31
G1X10.27Y17.41
G1X10.25Y17.44
G1X10.23Y17.46
G1X10.19
G1X10.14Y17.43
G1X10.07Y17.38
G1Y17.32
G1Y17.31
G1X10.04
G1X9.99Y17.33
G1X9.93Y17.36
G1X9.81Y17.45
G1X9.78Y17.52
G1Y17.58
G1X9.75Y17.65
G1X9.72Y17.68
G1Y17.69
G1Y17.67
G1Y17.63
G1X9.73Y17.57
G1X9.71Y17.54
G1X9.66Y17.57
G1X9.59Y17.63
G1X9.55Y17.69
G1X9.58Y17.68
G1X9.61Y17.67
G1X9.62
G1Y17.69
G1Y17.72
G1X9.61Y17.79
G1X9.64Y17.8
G1X9.7Y17.77
G1X9.84Y17.63
G1X9.88
G1X9.92
G1X9.95Y17.59
G1X9.97Y17.55
G1X9.93Y17.56
G1X9.88Y17.58
G1Y17.54
G1X9.94Y17.5
G1X10Y17.47
G1X10.02Y17.5
G1X10.03Y17.58
G1X10.06Y17.67
G1X10.08Y17.73
G1X10.06
G1X10.02Y17.76
G1X10Y17.84
G1Y17.91
G1Y17.93
G1X10.02Y17.92
G1X10.06Y17.87
G1X10.1Y17.83
G1X10.14Y17.81
G1X10.17
G1X10.21Y17.85
G1X10.24Y17.88
G1Y17.9
G1X10.19Y17.88
G1X10.14
G1X10.11Y17.9
G1Y17.98
G1Y18.12
G1Y18.25
G1X10.12Y18.33
G1X10.15Y18.36
G1X10.19
G1X10.23Y18.34
G1X10.25
G1Y18.36
G1X10.21Y18.39
G1X10.16Y18.45
G1X10.14Y18.5
G1X10.16Y18.52
G1X10.21Y18.51
G1X10.23Y18.49
G1X10.25Y18.5
G1Y18.52
G1X10.22Y18.61
G1Y18.63
G1X10.25
G1X10.34Y18.6
G1X10.36
G1Y18.62
G1X10.32Y18.65
G1X10.28Y18.71
G1X10.26Y18.75
G1Y18.79
G1X10.29
G1X10.37
G1X10.42
G1X10.46Y18.81
G1Y18.83
G1Y18.88
G1X10.51Y18.94
G1X10.58Y18.99
G1X10.62Y19
M5
G0X7.7Y16.38
M3 S30
; Layer C00
G1X7.77Y16.32
G1X7.82Y16.21
G1X7.87Y16.06
G1X7.89Y15.93
G1X7.88Y15.85
G1X7.84Y15.84
G1X7.77
G1X7.68Y15.81
G1X7.63Y15.78
G1X7.62Y15.76
G1X7.63
G1X7.69Y15.78
G1X7.73
G1X7.75
G1Y15.74
G1X7.71Y15.65
G1X7.7Y15.53
G1Y15.47
G1X7.72Y15.42
G1X7.75Y15.4
G1X7.79Y15.39
G1X7.86Y15.37
G1X7.89Y15.33
G1X7.87Y15.3
G1X7.84Y15.31
G1X7.8
G1X7.76Y15.2
G1X7.71Y15.18
G1X7.68Y15.17
G1X7.7Y15.15
G1X7.73Y15.07
G1Y14.92
G1X7.71Y14.77
G1X7.66Y14.71
G1Y14.67
G1X7.76Y14.47
G1Y14.41
G1X7.78Y14.37
G1X7.87Y14.31
G1X7.98Y14.26
G1X8.09Y14.24
G1X8.14Y14.22
G1X8.16Y14.17
G1X8.18Y14.14
G1X8.2
G1X8.26
G1X8.35Y14.1
G1X8.43Y14.03
G1X8.49Y13.92
G1X8.58Y13.9
G1Y13.87
G1X8.52Y13.84
G1X8.42Y13.89
G1X8.16Y14.07
G1X7.96Y14.18
G1X7.83Y14.24
G1X7.69
G1X7.46Y14.39
G1X7.38Y14.41
G1X7.35
G1X7.37Y14.44
G1X7.39Y14.47
G1X7.42
G1X7.46Y14.45
G1X7.57Y14.37
G1X7.61Y14.35
G1X7.64
G1X7.67Y14.39
G1X7.69Y14.46
G1X7.67Y14.49
G1X7.63Y14.52
G1X7.62Y14.58
G1X7.6Y14.63
G1X7.55Y14.66
G1X7.51
G1X7.53Y14.7
G1X7.55Y14.74
G1X7.57Y14.84
G1X7.58Y14.97
G1Y15.11
G1Y15.25
G1Y15.36
G1X7.57Y15.44
G1X7.55Y15.46
G1X7.52
G1X7.51Y15.49
G1X7.52Y15.53
G1X7.56Y15.57
G1X7.6Y15.61
G1X7.61Y15.67
G1Y15.69
G1X7.51Y15.6
G1X7.48
G1Y15.67
G1X7.57Y15.88
G1X7.59Y16
G1X7.58Y16.09
G1X7.54Y16.12
G1X7.45Y16.18
G1X7.4Y16.3
G1X7.43Y16.32
G1X7.51Y16.31
G1X7.58Y16.3
G1X7.62Y16.33
G1X7.64Y16.39
G1X7.7Y16.38
M5
G0X5.55Y16.26
M3 S30
; Layer C00
G1Y16.2
G1X5.5Y16.15
G1X5.44Y16.13
G1X5.39
G1X5.38Y16.18
G1X5.37Y16.23
G1X5.32Y16.27
G1X5.27
G1X5.23Y16.19
G1X5.17Y16.18
G1X5.09Y16.16
G1Y16.12
G1X5.17Y16.08
G1X5.29Y16.06
G1X5.5
G1X5.31Y16.03
G1X5.15
G1X5.01Y16.07
G1X4.92Y16.13
G1X4.91Y16.21
G1Y16.26
G1X4.85Y16.28
G1X4.79Y16.27
G1X4.74Y16.22
G1X4.72Y16.19
G1X4.71
G1X4.68
G1X4.65Y16.23
G1X4.61Y16.27
G1X4.57Y16.29
G1X4.52Y16.28
G1X4.48Y16.24
G1X4.41Y16.11
G1X4.37Y15.9
G1X4.35Y15.75
G1X4.32Y15.64
G1X4.28Y15.57
G1X4.22Y15.51
G1X4.16Y15.47
G1X4.13Y15.44
G1Y15.41
G1X4.19Y15.36
G1Y15.33
G1X4.15Y15.29
G1X4.08Y15.23
G1X3.99Y15.14
G1X3.96Y15.07
G1X4.02Y15.04
G1X4.12
G1X4.23Y15.06
G1X4.32Y15.1
G1X4.39Y15.16
G1X4.45Y15.19
G1X4.47Y15.2
G1X4.47Y15.17
G1X4.43Y15.13
G1X4.37Y15.07
G1X4.2Y14.91
G1X4.13Y14.85
G1X4.1Y14.81
G1X4.14
G1X4.21Y14.86
G1X4.31Y14.92
G1X4.54Y15.07
G1X4.6Y15.1
G1X4.62Y15.11
G1Y15.1
G1X4.58Y15.07
G1X4.51Y15.01
G1X4.29Y14.85
G1X4.22Y14.79
G1X4.16Y14.73
G1X4.13Y14.69
G1Y14.67
G1X4.17
G1X4.25Y14.71
G1X4.3Y14.75
G1X4.32Y14.76
G1X4.31Y14.74
G1X4.27Y14.69
G1X4.21Y14.61
G1X4.18Y14.53
G1X4.17Y14.47
G1X4.19Y14.45
G1X4.26Y14.47
G1X4.45Y14.55
G1X4.48Y14.56
G1X4.36Y14.46
G1X4.19Y14.32
G1X4.14Y14.31
G1X4.1Y14.32
G1X4.04Y14.37
G1X3.97Y14.44
G1X3.96Y14.49
G1Y14.54
G1X3.93Y14.6
G1X3.92Y14.68
G1X3.94Y14.77
G1X3.96Y14.82
G1Y14.84
G1X3.95Y14.86
G1X3.91
G1X3.84Y14.88
G1X3.8Y14.92
G1Y14.99
G1X3.85Y15.09
G1X3.88Y15.15
G1X3.89Y15.2
G1Y15.23
G1X3.86Y15.25
G1X3.85Y15.27
G1Y15.31
G1X3.89Y15.36
G1X3.95Y15.43
G1X4.07Y15.58
G1X4.13Y15.71
G1X4.15Y15.87
G1X4.18Y16
G1X4.21Y16.11
G1X4.23Y16.17
G1Y16.21
G1X4.21Y16.24
G1X4.19Y16.29
G1X4.28Y16.53
G1Y16.62
G1Y16.66
G1X4.33Y16.72
G1X4.39Y16.79
G1X4.48Y16.86
G1X4.56Y16.93
G1X4.63Y16.99
G1X4.67Y17.04
G1Y17.06
G1X4.68Y17.11
G1X4.74Y17.18
G1X4.78Y17.23
G1X4.8Y17.26
G1X4.79Y17.28
G1X4.74
G1X4.66Y17.25
G1X4.57Y17.19
G1X4.5Y17.14
G1X4.45
G1X4.48Y17.19
G1X4.6Y17.28
G1X4.75Y17.35
G1X4.87Y17.39
G1X4.99Y17.42
G1X5.17Y17.49
G1X5.34Y17.56
G1X5.45Y17.59
G1X5.54Y17.57
G1X5.62Y17.51
G1X5.66Y17.46
G1X5.64Y17.44
G1X5.6Y17.42
G1Y17.39
G1Y17.35
G1X5.53
G1X5.45Y17.36
G1X5.42Y17.4
G1X5.38Y17.42
G1X5.29
G1X5.21Y17.39
G1X5.18Y17.34
G1Y17.3
G1X5.14Y17.28
G1X5.1Y17.26
G1Y17.2
G1Y17.16
G1X5.05Y17.1
G1X4.96Y17.03
G1X4.82Y16.94
G1X4.68Y16.85
G1X4.6Y16.79
G1Y16.76
G1X4.65
G1X4.8
G1X4.89
G1X4.91Y16.73
G1X4.88Y16.69
G1X4.85Y16.63
G1X4.88Y16.57
G1X4.96Y16.53
G1X5.07
G1X5.16Y16.54
G1X5.19Y16.52
G1X5.16Y16.48
G1X5.06Y16.44
G1X4.98Y16.38
G1X4.96Y16.31
G1X5Y16.25
G1X5.09Y16.23
G1X5.17Y16.24
G1X5.2Y16.28
G1X5.17Y16.32
G1X5.08Y16.35
G1X5.11Y16.36
G1X5.17
G1X5.26
G1X5.36
G1X5.43Y16.35
G1X5.48Y16.34
G1X5.49Y16.32
G1Y16.29
G1X5.52
G1X5.55Y16.26
M5
G0X7Y14.46
M3 S30
; Layer C00
G1X7.09
G1X7.14Y14.45
G1Y14.41
G1X7.09Y14.36
G1X7.03Y14.3
G1Y14.25
G1X7.08
G1X7.15Y14.29
G1X7.19Y14.32
G1X7.22
G1Y14.3
G1Y14.25
G1X7.29Y14.19
G1X7.44Y14.11
G1X7.62Y14.04
G1X7.75Y14.01
G1X7.8
G1X7.81
G1X7.79Y13.99
G1X7.73Y13.97
G1X7.64Y13.92
G1X7.66Y13.88
G1X7.7Y13.85
G1Y13.81
G1Y13.79
G1X7.76
G1X7.8Y13.81
G1X7.82
G1Y13.79
G1X7.79Y13.73
G1Y13.72
G1X7.83
G1X7.88
G1X7.96Y13.73
G1Y13.71
G1X7.97Y13.67
G1X8.02Y13.66
G1X8.1Y13.64
G1Y13.6
G1X8.05Y13.54
G1X7.93Y13.47
G1X7.85Y13.44
G1X7.81Y13.43
G1X7.9Y13.51
G1X7.92Y13.53
G1X7.9Y13.55
G1X7.75Y13.6
G1X7.6Y13.64
G1X7.58
G1X7.64Y13.59
G1Y13.57
G1Y13.55
G1X7.6Y13.54
G1X7.56Y13.53
G1X7.54Y13.54
G1Y13.57
G1Y13.69
G1Y13.73
G1X7.51
G1X7.43Y13.72
G1X7.41
G1Y13.75
G1X7.44Y13.8
G1X7.41Y13.81
G1X7.35Y13.79
G1X7.23Y13.7
G1Y13.71
G1X7.26Y13.74
G1X7.38Y13.88
G1X7.41Y13.93
G1Y13.96
G1X7.3Y14
G1X7.12Y14.14
G1X7.06Y14.16
G1X7.02Y14.18
G1X6.97Y14.28
G1X6.94Y14.36
G1Y14.41
G1X6.96Y14.44
G1X7Y14.46
M5
G0X8.05Y13.45
M3 S30
; Layer C00
G1X8.07
G1X8.1
G1X8.21Y13.42
G1X8.34Y13.36
G1X8.49Y13.23
G1X8.61Y13.07
G1X8.67Y12.96
G1X8.69Y12.88
G1X8.67Y12.82
G1X8.63Y12.74
G1X8.58Y12.65
G1X8.6Y12.61
G1X8.68Y12.57
G1X8.77Y12.49
G1X8.85Y12.38
G1X8.88Y12.28
G1X8.9Y12.22
G1X8.93Y12.19
G1X8.97Y12.17
G1X8.99Y12.11
G1X8.97Y12.05
G1X8.93Y12.03
G1X8.88Y12.05
G1X8.81Y12.16
G1X8.77
G1X8.74Y12.18
G1Y12.26
G1Y12.31
G1X8.72Y12.34
G1X8.69Y12.36
G1X8.59Y12.37
G1X8.58Y12.4
G1Y12.44
G1X8.52Y12.47
G1X8.47Y12.51
G1Y12.56
G1X8.48Y12.6
G1X8.43
G1X8.37
G1X8.35Y12.63
G1X8.38Y12.67
G1X8.45
G1X8.5
G1X8.53
G1X8.54Y12.71
G1Y12.76
G1X8.53Y12.85
G1X8.46Y12.9
G1X8.36
G1X8.23Y12.85
G1X8.08Y12.76
G1X8.21Y12.86
G1X8.31Y12.95
G1X8.43Y13.01
G1Y13.03
G1X8.42Y13.06
G1X8.38Y13.09
G1X8.29Y13.18
G1X8.27Y13.3
G1X8.25Y13.33
G1X8.21
G1X8.16Y13.3
G1X8.14Y13.26
G1X8.1Y13.19
G1X7.98Y13.08
G1X7.81Y12.96
G1X7.93Y13.09
G1X8.01Y13.19
G1X8.02Y13.25
G1Y13.29
G1X8.08Y13.32
G1X8.12Y13.34
G1X8.14Y13.36
G1Y13.38
G1X8.06Y13.43
G1Y13.45
M5
G0X17.54Y7.82
M3 S30
; Layer C00
G1X17.58
G1X17.65
G1X17.74Y7.8
G1X17.76Y7.83
G1Y7.86
G1X17.79
G1X17.86Y7.85
G1X17.96Y7.81
G1X18.05Y7.79
G1X18.13
G1X18.2Y7.8
G1X18.27Y7.77
G1X18.34Y7.74
G1X18.45Y7.79
G1X18.58Y7.84
G1X18.7Y7.85
G1X18.79
G1X18.83Y7.89
G1Y7.92
G1X18.86Y7.94
G1X18.87Y7.9
G1Y7.79
G1X18.86Y7.68
G1X18.89Y7.57
G1X18.93Y7.5
G1X19.03Y7.49
G1X19.06Y7.44
G1X19.08Y7.39
G1X19.06Y7.34
G1X19Y7.31
G1X18.93Y7.32
G1X18.86Y7.39
G1X18.69Y7.62
G1X18.61Y7.67
G1X18.51Y7.65
G1X18.39Y7.56
G1X18.26Y7.44
G1X18.29Y7.56
G1Y7.62
G1Y7.65
G1X18.26Y7.67
G1X18.2Y7.68
G1X17.85Y7.7
G1X17.74
G1X17.68
G1X17.66Y7.67
G1X17.68Y7.64
G1X17.71Y7.58
G1Y7.53
G1X17.65
G1X17.59Y7.59
G1X17.53Y7.68
G1X17.51Y7.77
G1Y7.8
G1X17.54Y7.82
M5
G0X29.47Y16.75
M3 S30
; Layer C00
G1X29.46Y16.77
G1X29.43Y16.82
G1X29.37Y16.87
G1X29.31Y16.88
G1X29.23Y16.89
G1X29.13Y16.94
G1X29.07Y17
G1X29.06Y17.04
G1X29.1
G1X29.16Y17.01
G1X29.26Y16.95
G1X29.37Y16.93
G1X29.46Y16.94
G1X29.52Y16.99
G1X29.54Y17.03
G1X29.56Y17.04
G1X29.6
G1X29.69Y16.97
G1Y16.99
G1Y17.06
G1X29.76Y17.18
G1X29.83Y17.28
G1X29.86Y17.37
G1Y17.42
G1X29.81Y17.44
G1X29.78Y17.42
G1X29.76Y17.38
G1X29.74Y17.35
G1X29.61
G1X29.54Y17.31
G1X29.5Y17.29
G1X29.49
G1X29.53Y17.33
G1X29.56Y17.41
G1X29.54Y17.47
G1X29.48Y17.51
G1X29.4
G1X29.34
G1X29.32Y17.54
G1Y17.57
G1X29.3Y17.58
G1X29.28
G1X29.24Y17.54
G1X29.2Y17.52
G1X29.17
G1X29.15Y17.54
G1X29.13Y17.59
G1X29.07Y17.67
G1X28.97Y17.68
G1X28.88Y17.71
G1X28.84Y17.78
G1Y17.87
G1X28.91Y17.96
G1X28.97Y17.99
G1X28.99Y17.98
G1X29.02Y17.94
G1X29.1
G1X29.16
G1X29.18Y17.97
G1X29.2Y18.01
G1X29.31Y18.06
G1Y18.03
G1Y17.94
G1Y17.87
G1X29.34Y17.83
G1X29.42
G1X29.47Y17.77
G1X29.56Y17.71
G1X29.7Y17.68
G1X29.81Y17.66
G1X29.87Y17.63
G1X29.85Y17.61
G1X29.71Y17.59
G1X29.68Y17.57
G1X29.66Y17.53
G1Y17.48
G1Y17.41
G1Y17.39
G1X29.69Y17.4
G1X29.73Y17.46
G1X29.78Y17.51
G1X29.82Y17.53
G1X29.85
G1X29.9Y17.48
G1X29.97Y17.39
G1X30.01Y17.27
G1Y17.16
G1X29.98Y17.12
G1X29.94Y17.14
G1X29.91Y17.21
G1X29.86Y17.23
G1X29.84Y17.2
G1X29.89Y17.13
G1X29.94Y17.08
G1X29.95Y17.04
G1Y17.01
G1X29.91Y16.98
G1X29.85Y16.95
G1X29.79Y16.94
G1X29.75Y16.92
G1X29.73Y16.87
G1Y16.83
G1X29.69Y16.81
G1X29.6
G1X29.56Y16.82
G1X29.54Y16.87
G1X29.56Y16.89
G1X29.64Y16.85
G1X29.69Y16.82
G1X29.71Y16.81
G1X29.7Y16.82
G1X29.66Y16.87
G1X29.59Y16.93
G1X29.54
G1X29.5Y16.9
G1X29.48Y16.82
G1Y16.77
G1Y16.75
M5
G0X29.33Y16.75
M3 S30
; Layer C00
G1X29.4Y16.65
G1X29.45Y16.56
G1X29.53Y16.48
G1X29.57Y16.45
G1X29.59Y16.44
G1Y16.45
G1X29.57Y16.49
G1X29.55Y16.53
G1X29.59
G1X29.63Y16.48
G1Y16.45
G1Y16.41
G1X29.67Y16.35
G1X29.74Y16.28
G1X29.82Y16.19
G1X29.92Y16.12
G1X30.01Y16.05
G1X30.09Y16.01
G1X30.14
G1X30.19
G1X30.16Y15.98
G1X30.13Y15.95
G1Y15.89
G1X30.16Y15.81
G1X30.22Y15.69
G1X30.28Y15.6
G1X30.32Y15.53
G1X30.36Y15.49
G1X30.37
G1X30.38Y15.47
G1Y15.37
G1X30.39Y15.21
G1Y14.83
G1Y14.7
G1X30.4Y14.6
G1X30.41Y14.52
G1X30.45Y14.41
G1X30.52Y14.33
G1X30.6Y14.21
G1X30.64Y14.1
G1X30.67Y13.98
G1X30.73Y13.87
G1X30.82Y13.8
G1X30.9Y13.79
G1X30.94
G1Y13.77
G1X30.95Y13.72
G1X31.01Y13.69
G1X31.09Y13.63
G1X31.17Y13.54
G1X31.22Y13.42
G1X31.24Y13.31
G1X31.26Y13.26
G1X31.29
G1X31.32
G1Y13.19
G1X31.34Y13.08
G1X31.45Y12.98
G1X31.61Y12.9
G1X31.8Y12.87
G1X32.01Y12.85
G1X32.17Y12.8
G1X32.26Y12.71
G1X32.29Y12.59
G1Y12.43
G1X32.43Y12.56
G1X32.53Y12.7
G1X32.57Y12.87
G1X32.53Y13.03
G1X32.42Y13.19
G1X32.28Y13.33
G1X32.4Y13.37
G1X32.52
G1X32.66Y13.35
G1X32.78Y13.3
G1X32.84Y13.24
G1X32.86Y13.19
G1X32.92Y13.1
G1X32.96Y13.05
G1X32.99
G1Y13.12
G1X33Y13.25
G1Y13.38
G1X32.97Y13.49
G1X32.93Y13.58
G1X32.87Y13.65
G1X32.78Y13.7
G1X32.68Y13.74
G1X32.55Y13.76
G1X32.4
G1X32.16Y13.78
G1X31.99Y13.84
G1X31.88Y13.95
G1X31.85Y14.09
G1X31.82Y14.22
G1X31.77Y14.35
G1X31.7Y14.5
G1X31.65Y14.66
G1X31.59Y14.86
G1X31.49Y15.07
G1X31.44Y15.21
G1X31.38Y15.4
G1X31.32Y15.63
G1X31.17Y16.38
G1X31.04Y16.86
G1X30.96Y17.1
G1X30.88Y17.31
G1X30.79Y17.48
G1X30.7Y17.62
G1X30.6Y17.73
G1X30.5Y17.8
G1X30.38Y17.84
G1X30.17Y17.86
G1X30.07Y17.9
G1X29.98Y17.95
G1X29.88Y18.02
G1X29.77Y18.1
G1X29.6Y18.2
G1X29.4Y18.31
G1X29.2Y18.41
G1X28.99Y18.51
G1X28.84Y18.58
G1X28.72Y18.65
G1X28.63Y18.71
G1X28.51Y18.85
G1X28.3Y19.22
G1X28.24Y19.3
G1X28.18Y19.34
G1X28.13
G1X28.08
G1X28.06
G1X28.07
G1X28.11Y19.37
G1X28.15Y19.4
G1Y19.44
G1X28.13Y19.48
G1X28.07Y19.55
G1X27.99Y19.61
G1X27.91Y19.64
G1X27.81Y19.65
G1X27.67
G1X27.19Y19.64
G1X26.79
G1X26.57Y19.62
G1X26.36Y19.54
G1X26.16Y19.38
G1X25.95Y19.14
G1X25.61Y18.68
G1X25.51Y18.57
G1X25.39Y18.47
G1X25.24Y18.37
G1X25.07Y18.27
G1X24.95Y18.21
G1X24.85Y18.17
G1X24.78Y18.14
G1X24.72Y18.12
G1X24.62
G1X24.51Y18.16
G1X24.42Y18.21
G1X24.38Y18.24
G1X24.36Y18.28
G1X24.38Y18.31
G1X24.42Y18.37
G1Y18.41
G1X24.37Y18.42
G1X24.3Y18.4
G1X24.25Y18.37
G1X24.24Y18.33
G1Y18.29
G1X24.21Y18.25
G1X24.17
G1X24.12Y18.28
G1Y18.32
G1X24.2Y18.29
G1X24.19Y18.32
G1X24.14Y18.36
G1X24.1
G1X24.07Y18.31
G1Y18.25
G1Y18.2
G1X24.02Y18.19
G1X23.97Y18.18
G1X23.94Y18.14
G1Y18.11
G1X23.98Y18.09
G1X24.05Y18.06
G1X24.15Y18
G1X24.23Y17.94
G1X24.22Y17.91
G1X24.13Y17.87
G1X24.04Y17.78
G1X23.94Y17.69
G1X23.87Y17.68
G1X23.84
G1X23.87Y17.59
G1X23.85Y17.54
G1X23.81Y17.52
G1X23.75Y17.54
G1X23.72Y17.56
G1X23.69
G1Y17.55
G1X23.68Y17.51
G1Y17.47
G1X23.75Y17.45
G1X23.81Y17.38
G1X23.88Y17.31
G1X23.96Y17.28
G1X24.02Y17.29
G1X24.05Y17.34
G1Y17.37
G1X24.08
G1X24.11Y17.34
G1X24.17Y17.3
G1X24.23Y17.28
G1X24.25Y17.3
G1Y17.35
G1Y17.42
G1X24.29Y17.51
G1X24.33Y17.56
G1X24.36Y17.57
G1X24.38Y17.55
G1X24.4Y17.5
G1X24.42Y17.41
G1Y17.35
G1Y17.28
G1Y17.22
G1X24.44Y17.19
G1X24.47
G1X24.53
G1X24.6Y17.14
G1X24.66Y17.06
G1X24.68Y16.93
G1X24.74Y16.87
G1X24.83Y16.84
G1X24.92
G1X24.97Y16.85
G1Y16.84
G1X24.9Y16.8
G1X24.77Y16.78
G1X24.64Y16.75
G1X24.49Y16.69
G1X24.37Y16.62
G1X24.32Y16.57
G1X24.36
G1X24.5Y16.59
G1X24.51
G1X24.48Y16.56
G1X24.41Y16.52
G1X24.3Y16.47
G1X24.25Y16.45
G1X24.23Y16.47
G1Y16.54
G1X24.24Y16.61
G1X24.26Y16.63
G1X24.31Y16.64
G1X24.38Y16.7
G1X24.43Y16.76
G1Y16.8
G1X24.4Y16.85
G1X24.31Y16.91
G1X24.24Y16.95
G1X24.2Y16.98
G1X24.18
G1X24.19Y16.93
G1X24.17Y16.91
G1X24.11Y16.93
G1X24.05Y16.98
G1X24.02Y17.04
G1Y17.08
G1Y17.1
G1X23.94Y17.09
G1X23.87Y17.04
G1Y16.9
G1X23.8Y16.83
G1X23.71Y16.79
G1X23.62
G1X23.56Y16.8
G1X23.57Y16.76
G1X23.58Y16.74
G1Y16.73
G1X23.56
G1X23.52
G1X23.46Y16.75
G1Y16.71
G1Y16.67
G1X23.3
G1X23.25Y16.65
G1X23.2Y16.61
G1X23.13Y16.6
G1X23.08Y16.61
G1Y16.65
G1Y16.69
G1X23.03Y16.77
G1Y16.81
G1X23.07Y16.84
G1X23.15Y16.83
G1X23.23Y16.89
G1X23.32Y16.88
G1X23.33Y16.91
G1X23.31Y16.95
G1X23.25
G1X23.19Y16.94
G1X23.17Y16.97
G1X23.18Y17
G1X23.21Y17.02
G1X23.26Y17.04
G1X23.3Y17.11
G1X23.36Y17.23
G1X23.47Y17.41
G1X23.57Y17.58
G1X23.64Y17.7
G1X23.69Y17.78
G1X23.76Y17.87
G1X23.81Y17.95
G1X23.85Y18.05
G1X23.87Y18.19
G1X23.89Y18.37
G1X23.9Y18.45
G1X23.93Y18.49
G1X23.98Y18.53
G1X24.04Y18.63
G1X24.1Y18.77
G1X23.9Y18.53
G1Y18.74
G1X23.92Y18.89
G1X23.94Y18.96
G1X23.96Y18.99
G1Y19.08
G1X23.95Y19.16
G1X23.93Y19.19
G1Y19.24
G1X23.91Y19.35
G1X23.88Y19.49
G1X23.85Y19.61
G1X23.83Y19.68
G1X23.87
G1X23.9
G1Y19.76
G1X23.85Y19.86
G1X23.79Y19.94
G1X23.75Y20.02
G1Y20.1
G1X23.77Y20.13
G1Y20.15
G1X23.75
G1X23.69Y20.13
G1X23.67
G1Y20.14
G1Y20.17
G1Y20.26
G1X23.59Y20.36
G1X23.52Y20.44
G1Y20.48
G1X23.59Y20.44
G1X23.68Y20.33
G1X23.79Y20.22
G1X23.88Y20.2
G1X23.93
G1X23.97Y20.18
G1X24.01Y20.12
G1X24.08Y19.95
G1X24.11Y19.9
G1X24.14Y19.88
G1X24.17Y19.9
G1X24.21Y19.97
G1X24.17Y20.06
G1X24.12Y20.14
G1X24.1Y20.19
G1X24.11Y20.21
G1X24.2Y20.18
G1Y20.2
G1Y20.25
G1X24.15Y20.34
G1X24.08Y20.45
G1X24.21Y20.35
G1X24.29Y20.25
G1X24.3Y20.15
G1Y20.1
G1X24.32Y20.09
G1X24.36Y20.05
G1X24.4Y19.92
G1X24.42Y19.74
G1X24.44Y19.56
G1X24.42Y19.38
G1X24.38Y19.2
G1X24.33Y19.05
G1X24.26Y18.96
G1X24.23Y18.89
G1X24.19Y18.75
G1X24.18Y18.66
G1Y18.62
G1X24.21Y18.64
G1X24.24Y18.68
G1X24.26
G1Y18.66
G1X24.25Y18.6
G1Y18.51
G1X24.27Y18.46
G1X24.32
G1X24.39Y18.54
G1X24.45Y18.61
G1X24.5Y18.64
G1X24.52Y18.62
G1X24.48Y18.56
G1X24.45Y18.5
G1Y18.45
G1X24.47Y18.44
G1X24.5Y18.45
G1X24.54Y18.49
G1X24.59Y18.55
G1X24.65Y18.64
G1X24.72Y18.76
G1X24.8Y18.9
G1X24.9Y19.07
G1X25.08Y19.46
G1X25.23Y19.83
G1X25.33Y20.21
G1X25.39Y20.57
G1X25.4Y20.91
G1X25.38Y21.23
G1X25.31Y21.53
G1X25.19Y21.81
G1X25.13Y21.92
G1X25.11Y22.01
G1X25.13Y22.11
G1X25.18Y22.25
G1X25.29Y22.67
G1X25.39Y23.18
G1X25.45Y23.74
G1X25.47Y24.29
G1Y24.55
G1Y24.77
G1X25.46Y24.95
G1X25.44Y25.09
G1X25.43Y25.19
G1X25.41Y25.25
G1X25.38Y25.27
G1X25.35Y25.25
G1X25.34Y25.23
G1X25.33
G1Y25.26
G1X25.34Y25.32
G1Y25.46
G1X25.31Y25.61
G1X25.25Y25.72
G1X25.19Y25.75
G1X25.17
G1X25.18Y25.81
G1X25.16Y25.87
G1X25.1Y25.96
G1X24.99Y26.08
G1X24.87Y26.2
G1X24.73Y26.32
G1X24.61Y26.41
G1X24.51Y26.48
G1X24.44
G1X24.4
G1Y26.51
G1X24.38Y26.57
G1X24.27Y26.64
G1X24.19Y26.69
G1X24.14Y26.75
G1X24.11Y26.84
G1X24.09Y26.99
G1X24.06Y27.13
G1X24.01Y27.27
G1X23.93Y27.42
G1X23.81Y27.6
G1X23.61Y27.94
G1X23.47Y28.25
G1X23.35Y28.54
G1X23.23Y28.8
G1X23.09Y29.01
G1X22.94Y29.17
G1X22.75Y29.32
G1X22.59Y29.42
G1X22.47Y29.47
G1X22.39
G1X22.35
G1X22.36Y29.49
G1Y29.52
G1X22.32Y29.55
G1X22.25Y29.59
G1X22.16Y29.64
G1X21.92Y29.73
G1X21.65Y29.81
G1X21.53Y29.86
G1X21.42Y29.92
G1X21.31Y30.01
G1X21.19Y30.13
G1X20.95Y30.37
G1X20.7Y30.56
G1X20.47Y30.69
G1X20.27Y30.73
G1X20.2
G1X20.15Y30.74
G1Y30.76
G1Y30.78
G1Y30.79
G1X20.07
G1X19.92
G1X19.73
G1X19.27Y30.75
G1X18.8
G1X18.32
G1X17.62Y30.8
G1X17.45
G1X17.29Y30.76
G1X17.12Y30.7
G1X16.67Y30.5
G1X16.22Y30.24
G1X16.03Y30.12
G1X15.89Y30.01
G1X15.8Y29.92
G1X15.78Y29.86
G1X15.79Y29.83
G1X15.76Y29.84
G1X15.71
G1X15.65Y29.82
G1X15.59Y29.76
G1X15.51Y29.68
G1X15.34Y29.46
G1X15.17Y29.17
G1X15.05Y28.93
G1X14.99Y28.77
G1Y28.65
G1X15.03Y28.57
G1X15.06Y28.53
G1X15.02Y28.56
G1X14.96Y28.6
G1X14.9Y28.61
G1X14.85Y28.6
G1X14.78Y28.56
G1X14.7Y28.51
G1X14.61Y28.43
G1X14.4Y28.24
G1X14.16Y28
G1X13.93Y27.75
G1X13.71Y27.49
G1X13.54Y27.26
G1X13.42Y27.06
G1X13.35Y26.91
G1X13.31Y26.77
G1X13.28Y26.62
G1Y26.47
G1Y26.24
G1X13.33Y26.04
G1X13.38Y25.89
G1X13.47Y25.8
G1X13.49Y25.7
G1Y25.54
G1X13.47Y25.01
G1Y24.6
G1Y24.34
G1X13.5Y24.16
G1X13.54Y24.02
G1X13.62Y23.86
G1X13.77Y23.63
G1X13.92Y23.45
G1X14Y23.37
G1X14.06Y23.28
G1X14.1Y23.18
G1X14.12Y23.07
G1X14.18Y22.87
G1X14.3Y22.67
G1X14.45Y22.48
G1X14.65Y22.31
G1X14.88Y22.15
G1X15.14Y22.01
G1X15.42Y21.9
G1X15.71Y21.82
G1X15.83Y21.79
G1X15.91Y21.77
G1X15.94Y21.75
G1X15.92
G1X15.77Y21.71
G1X15.61Y21.63
G1X15.43Y21.53
G1X15.33Y21.64
G1X15.17Y21.76
G1X14.94Y21.88
G1X14.7Y21.97
G1X14.5Y22
G1X14.36Y21.98
G1X14.23Y21.92
G1X14.14Y21.85
G1X14.1Y21.76
G1X14.08Y21.7
G1X14.02Y21.65
G1X13.98Y21.61
G1X13.9Y21.54
G1X13.8Y21.43
G1X13.68Y21.3
G1X13.43Y21.01
G1X13.2Y20.73
G1X13.14Y20.65
G1X13.1Y20.57
G1X13.08Y20.51
G1Y20.47
G1X13.1Y20.43
G1X13.08Y20.44
G1X13.02
G1X12.94Y20.39
G1X12.87Y20.32
G1X12.84Y20.26
G1X12.86Y20.24
G1X12.93Y20.28
G1X12.98Y20.31
G1Y20.28
G1X12.92Y20.23
G1X12.85Y20.15
G1X12.8Y20.12
G1X12.79
G1X12.84Y20.22
G1X12.83
G1X12.8Y20.2
G1X12.75Y20.16
G1X12.62Y20.02
G1X12.48Y19.85
G1X12.36Y19.69
G1X12.3Y19.59
G1Y19.55
G1X12.35Y19.57
G1X12.39
G1X12.35Y19.52
G1X12.28Y19.46
G1X12.24
G1X12.19
G1X12.12Y19.4
G1X12.04Y19.36
G1X11.91
G1X11.81
G1X11.67Y19.4
G1X11.49Y19.44
G1X11.26Y19.49
G1X10.98Y19.55
G1X10.72Y19.58
G1X10.47
G1X10.23Y19.55
G1X10Y19.49
G1X9.78Y19.4
G1X9.56Y19.29
G1X9.34Y19.14
G1X9.02Y18.91
G1X8.31
G1X7.74Y18.88
G1X7.24Y18.82
G1X6.8Y18.7
G1X6.38Y18.54
G1X6.11Y18.39
G1X5.87Y18.23
G1X5.77Y18.15
G1X5.69Y18.08
G1X5.64Y18.01
G1X5.62Y17.96
G1X5.6Y17.89
G1X5.56Y17.82
G1X5.54Y17.76
G1Y17.71
G1Y17.69
G1X5.5Y17.68
G1X5.43Y17.66
G1X5.35
G1X5.24
G1X5.19
G1X5.17Y17.67
G1X5.2Y17.7
G1X5.28Y17.73
G1X5.37
G1X5.44
G1X5.49Y17.78
G1X5.5Y17.83
G1X5.46Y17.85
G1X5.41Y17.84
G1X5.34Y17.82
G1X5.1Y17.75
G1X4.97Y17.7
G1X4.87Y17.65
G1X4.8Y17.62
G1X4.79Y17.59
G1Y17.56
G1X4.74
G1X4.69
G1X4.59Y17.52
G1X4.46Y17.44
G1X4.31Y17.35
G1X4.02Y17.15
G1X3.8Y16.97
G1X3.74Y16.88
G1Y16.81
G1Y16.77
G1X3.71
G1X3.67Y16.75
G1X3.61Y16.69
G1X3.53Y16.61
G1X3.46Y16.5
G1X3.26Y16.1
G1X3.11Y15.65
G1X3.03Y15.13
G1X3Y14.55
G1X3.02Y14.16
G1X3.07Y13.84
G1X3.16Y13.59
G1X3.28Y13.41
G1X3.38Y13.26
G1X3.42Y13.04
G1X3.47Y12.75
G1X3.56Y12.43
G1X3.7Y12.07
G1X3.91Y11.64
G1X4.07Y11.35
G1X4.23Y11.09
G1X4.38Y10.86
G1X4.54Y10.65
G1X4.9Y10.28
G1X5.32Y9.94
G1X5.51Y9.81
G1X5.65Y9.73
G1X5.75Y9.7
G1X5.83
G1X5.93
G1X5.97Y9.68
G1X5.94Y9.65
G1X5.87
G1X5.81Y9.66
G1X5.83Y9.63
G1X5.89Y9.59
G1X6Y9.54
G1X6.15Y9.47
G1X6.32Y9.4
G1X6.56Y9.31
G1X6.76Y9.26
G1X6.95Y9.24
G1X7.19
G1X7.4
G1X7.56Y9.26
G1X7.69Y9.3
G1X7.8Y9.35
G1X7.94Y9.45
G1X8Y9.51
G1X7.95Y9.56
G1X7.82Y9.63
G1X7.58Y9.76
G1X7.27Y9.95
G1X7.15Y10
G1X7.05
G1X7.02
G1Y10.01
G1Y10.05
G1X6.98Y10.12
G1X6.91Y10.21
G1X6.64Y10.54
G1X6.52Y10.7
G1X6.48Y10.83
G1X6.46Y10.98
G1X6.47Y11.16
G1X6.54Y11.46
G1X6.53Y11.52
G1X6.46
G1X6.35Y11.48
G1X6.17Y11.41
G1X6.02
G1X5.88Y11.46
G1X5.74Y11.56
G1X5.63Y11.7
G1X5.59Y11.84
G1X5.61Y11.97
G1X5.7Y12.1
G1X5.81Y12.24
G1X5.57Y12.34
G1X5.41Y12.42
G1X5.32Y12.51
G1X5.27Y12.64
G1X5.25Y12.81
G1Y12.88
G1X5.29Y12.91
G1X5.35Y12.92
G1X5.48Y12.91
G1X5.67Y12.86
G1X5.83Y12.76
G1X5.96Y12.6
G1X6.09Y12.37
G1X6.15Y12.24
G1X6.2Y12.16
G1X6.25Y12.11
G1X6.3Y12.1
G1X6.35Y12.13
G1X6.36Y12.18
G1X6.37Y12.26
G1X6.41Y12.32
G1X6.47Y12.37
G1X6.52
G1X6.56
G1X6.57Y12.39
G1X6.61Y12.42
G1X6.71Y12.43
G1X6.81Y12.42
G1X6.85Y12.39
G1X6.83Y12.36
G1X6.78
G1X6.67Y12.35
G1X6.55Y12.32
G1X6.45Y12.28
G1X6.41Y12.23
G1X6.43Y12.2
G1X6.5Y12.22
G1X6.67Y12.26
G1X6.82Y12.27
G1X6.95Y12.24
G1X7.07Y12.17
G1X7.17Y12.06
G1X7.25Y11.91
G1X7.3Y11.73
G1X7.34Y11.52
G1X7.36Y11.32
G1X7.39Y11.21
G1X7.44Y11.16
G1X7.74Y11.08
G1X7.93Y11
G1X8.09Y10.9
G1X8.22Y10.77
G1X8.33Y10.62
G1X8.42Y10.45
G1X8.49Y10.25
G1X8.52Y10.04
G1X8.54Y9.9
G1X8.56Y9.78
G1X8.59Y9.7
G1X8.61Y9.67
G1X8.65Y9.69
G1X8.7Y9.75
G1X8.77Y9.83
G1X8.84Y9.95
G1X9.01Y10.23
G1X9.17Y10.56
G1X9.27Y10.8
G1X9.32Y10.99
G1X9.33Y11.11
G1X9.34Y11.24
G1Y11.42
G1Y11.84
G1Y12.01
G1X9.33Y12.15
G1X9.31Y12.28
G1X9.27Y12.52
G1X9.19Y12.79
G1X9.08Y13.09
G1X8.97Y13.36
G1X8.86Y13.59
G1X8.73Y13.79
G1X8.6Y13.96
G1X8.45Y14.1
G1X8.3Y14.21
G1X8.12Y14.3
G1X7.94Y14.4
G1X7.83Y14.5
G1X7.8Y14.67
G1X7.81Y14.92
G1X7.83Y15.04
G1X7.86Y15.14
G1X7.89Y15.22
G1X7.93Y15.25
G1X7.98Y15.29
G1Y15.33
G1X7.99Y15.39
G1X8.07Y15.47
G1X8.19Y15.57
G1X8.09Y15.46
G1X8.03Y15.38
G1X8.01Y15.34
G1X8.05
G1X8.18Y15.44
G1X8.35Y15.6
G1X8.46Y15.71
G1X8.53Y15.81
G1X8.57Y15.88
G1Y15.93
G1X8.56Y15.96
G1X8.58
G1X8.62
G1X8.68Y15.99
G1X8.77Y16.05
G1X8.86Y16.13
G1X9.01Y16.29
G1X9.09Y16.4
G1Y16.42
G1X9.04Y16.41
G1X8.94Y16.33
G1X8.93
G1X8.96Y16.37
G1X9.02Y16.44
G1X9.2Y16.65
G1Y16.58
G1X9.18Y16.52
G1X9.21Y16.5
G1X9.26Y16.52
G1X9.35Y16.6
G1X9.47Y16.69
G1X9.65Y16.75
G1X9.88Y16.79
G1X10.15Y16.81
G1X10.41Y16.84
G1X10.7Y16.92
G1X10.83Y16.98
G1X10.93Y17.03
G1X11Y17.08
G1X11.02Y17.13
G1X11Y17.16
G1X10.95
G1X10.88Y17.12
G1X10.79Y17.05
G1X10.68Y16.99
G1X10.57
G1X10.51Y17
G1X10.49
G1X10.53Y16.97
G1X10.56Y16.94
G1Y16.93
G1X10.51
G1X10.43
G1X10.31
G1X10.28Y16.91
G1X10.24Y16.88
G1X10.1
G1X9.94Y16.9
G1X9.81Y16.94
G1X9.77Y16.95
G1X9.78Y16.92
G1Y16.88
G1X9.75Y16.85
G1X9.66
G1X9.55Y16.83
G1X9.46
G1Y16.86
G1X9.54Y16.91
G1X9.68Y16.96
G1X9.79Y17.01
G1X9.84Y17.07
G1Y17.13
G1X9.76Y17.2
G1X9.72Y17.26
G1Y17.33
G1X9.78Y17.34
G1X9.84Y17.3
G1X9.9Y17.21
G1X9.92Y17.11
G1X9.94Y17.04
G1X9.98Y17.02
G1X10.01Y17.03
G1Y17.11
G1X10.03Y17.15
G1X10.07
G1X10.11Y17.09
G1X10.15
G1X10.21Y17.1
G1X10.26Y17.06
G1X10.3Y17.02
G1Y17.06
G1X10.32Y17.08
G1X10.37Y17.1
G1X10.46Y17.12
G1X10.68
G1X10.75Y17.13
G1X10.77Y17.15
G1X10.75Y17.17
G1X10.71Y17.2
G1Y17.21
G1X10.73Y17.22
G1X10.79
G1X10.87Y17.24
G1X10.88Y17.28
G1Y17.32
G1X10.9Y17.33
G1X10.95Y17.31
G1X10.99Y17.25
G1X11.01Y17.21
G1X11.03Y17.19
G1X11.06
G1X11.09Y17.21
G1X11.17Y17.25
G1X11.25
G1X11.33Y17.26
G1X11.38Y17.31
G1Y17.36
G1X11.36
G1X11.3
G1X11.22Y17.41
G1X11.16Y17.48
G1Y17.52
G1X11.2
G1X11.27Y17.46
G1X11.31Y17.42
G1X11.33Y17.4
G1X11.34
G1Y17.44
G1Y17.5
G1X11.38Y17.52
G1X11.43
G1Y17.5
G1Y17.46
G1X11.48Y17.41
G1X11.55Y17.36
G1X11.64Y17.32
G1X11.68Y17.31
G1X11.7
G1Y17.33
G1Y17.36
G1X11.67Y17.41
G1X11.63
G1X11.61Y17.44
G1X11.59Y17.53
G1Y17.67
G1X11.67Y17.51
G1X11.73Y17.37
G1X11.77Y17.25
G1X11.8Y17.1
G1X11.87Y16.89
G1X11.93Y16.69
G1Y16.57
G1Y16.51
G1X11.99Y16.43
G1X12.03Y16.32
G1X12.04Y16.26
G1Y16.21
G1X12.03Y16.19
G1X12
G1X11.95Y16.17
G1X11.92Y16.06
G1X11.87
G1X11.83Y16.09
G1Y16.21
G1X11.79Y16.26
G1X11.75Y16.27
G1X11.76Y16.23
G1Y16.16
G1X11.71Y16.07
G1X11.67Y16.02
G1X11.65Y15.99
G1Y15.97
G1X11.71
G1Y15.94
G1X11.69Y15.91
G1X11.65Y15.86
G1X11.6Y15.79
G1Y15.76
G1Y15.73
G1X11.57Y15.68
G1X11.51Y15.63
G1X11.46
G1X11.42
G1X11.41Y15.6
G1X11.42Y15.56
G1X11.46Y15.55
G1X11.49Y15.52
G1Y15.46
G1X11.46Y15.39
G1X11.39Y15.36
G1X11.33Y15.35
G1X11.3Y15.31
G1X11.33Y15.28
G1X11.4
G1X11.44
G1X11.46
G1Y15.26
G1X11.42Y15.23
G1X11.37Y15.16
G1X11.35Y15.12
G1X11.37Y15.09
G1X11.45Y15.12
G1Y15.09
G1X11.39Y15.05
G1X11.32
G1X11.29Y15.07
G1X11.27Y15.06
G1Y15.04
G1X11.29Y14.95
G1Y14.93
G1X11.26
G1X11.2Y14.97
G1X11.11Y15.02
G1X11.07Y15.06
G1X11.05Y15.24
G1Y15.33
G1X11.08Y15.37
G1X11.15
G1X11.23Y15.38
G1X11.26Y15.43
G1Y15.48
G1X11.29Y15.49
G1X11.34Y15.48
G1X11.43Y15.41
G1Y15.43
G1X11.33Y15.55
G1X11.29Y15.6
G1X11.31Y15.67
G1X11.39Y15.79
G1X11.45Y15.87
G1X11.47Y15.93
G1Y15.96
G1X11.45Y15.98
G1X11.42Y16.01
G1X11.47
G1X11.56Y16.04
G1X11.62Y16.09
G1X11.65Y16.15
G1X11.63Y16.2
G1X11.59
G1X11.58Y16.12
G1X11.53Y16.09
G1X11.49Y16.1
G1X11.5Y16.17
G1X11.55Y16.25
G1X11.62Y16.28
G1X11.73Y16.31
G1X11.82Y16.36
G1X11.88Y16.43
G1X11.86Y16.47
G1X11.82Y16.52
G1Y16.61
G1X11.73Y16.47
G1X11.67Y16.44
G1X11.62Y16.47
G1X11.58Y16.56
G1X11.56Y16.67
G1X11.6Y16.76
G1X11.64Y16.83
G1X11.63Y16.91
G1X11.61Y16.98
G1X11.63Y17.05
G1X11.66Y17.1
G1X11.63Y17.15
G1X11.59Y17.18
G1Y17.22
G1X11.58Y17.25
G1X11.51Y17.26
G1X11.45
G1X11.43
G1X11.44Y17.24
G1X11.54Y17.17
G1X11.56Y17.14
G1X11.54Y17.12
G1X11.5Y17.11
G1X11.44Y17.09
G1X11.42Y17.11
G1Y17.14
G1X11.39Y17.16
G1X11.33Y17.17
G1X11.28
G1X11.25Y17.14
G1Y17.1
G1X11.23Y17.04
G1X11.19Y17.02
G1X11.17Y17.05
G1Y17.13
G1X11.18Y17.19
G1Y17.22
G1X11.16
G1X11.13Y17.19
G1X11.1Y17.14
G1X11.08Y17.05
G1X11.06Y16.93
G1Y16.8
G1X11.03Y16.53
G1X10.98Y16.35
G1X10.93Y16.22
G1X10.89Y15.92
G1X10.81Y15.74
G1X10.85Y15.61
G1X10.88Y15.54
G1Y15.51
G1X10.8Y15.61
G1X10.77Y15.62
G1X10.75
G1X10.73Y15.57
G1X10.68Y15.52
G1X10.61Y15.49
G1X10.5Y15.45
G1X10.35Y15.34
G1X10.25Y15.27
G1X10.15Y15.22
G1X10.03Y15.19
G1X9.78Y15.16
G1X9.7Y15.14
G1X9.64Y15.12
G1X9.62Y15.09
G1X9.61Y15.04
G1X9.57Y14.99
G1X9.55Y14.97
G1X9.56Y15.01
G1X9.57Y15.06
G1X9.54Y15.07
G1X9.46Y15.02
G1X9.39Y14.87
G1X9.35Y14.7
G1Y14.55
G1X9.39Y14.42
G1X9.44Y14.37
G1X9.49Y14.38
G1X9.54Y14.47
G1X9.6Y14.58
G1X9.65Y14.59
G1X9.69Y14.52
G1X9.74Y14.24
G1X9.77Y14.15
G1X9.81Y14.07
G1X9.87Y14.01
G1X9.97Y13.95
G1X10.04Y13.93
G1X10.08Y13.96
G1Y14.04
G1X10.12Y14.19
G1X10.22Y14.35
G1X10.35Y14.49
G1X10.49Y14.58
G1X10.7Y14.63
G1X10.96Y14.65
G1X11.16Y14.66
G1X11.3Y14.7
G1X11.37Y14.76
G1Y14.83
G1Y14.86
G1X11.4Y14.84
G1X11.45
G1X11.49Y14.9
G1X11.53Y14.99
G1X11.58Y15.07
G1X11.64Y15.19
G1X11.74Y15.38
G1X11.86Y15.6
G1X11.95Y15.78
G1X11.94Y15.8
G1X11.88Y15.76
G1X11.79Y15.66
G1X11.71Y15.52
G1X11.67Y15.44
G1X11.65Y15.41
G1Y15.43
G1Y15.49
G1X11.68Y15.61
G1X11.74Y15.69
G1X11.8Y15.75
G1X11.83Y15.81
G1Y15.91
G1X11.86Y15.96
G1X11.91Y15.94
G1X11.98Y15.85
G1X12.15Y15.54
G1X12.25Y15.42
G1X12.35Y15.31
G1X12.46Y15.23
G1X12.58Y15.18
G1X12.7Y15.14
G1X12.84
G1X13.26Y15.17
G1X13.64Y15.19
G1X13.86
G1X14.02Y15.17
G1X14.14Y15.15
G1X14.23Y15.1
G1X14.38Y14.99
G1X14.44Y14.87
G1X14.43Y14.74
G1X14.34Y14.55
G1X14.27Y14.45
G1X14.21Y14.36
G1X14.16Y14.31
G1X14.12Y14.29
G1X14.03Y14.25
G1X13.91Y14.18
G1X13.81Y14.09
G1X13.77Y14.02
G1X13.79Y13.99
G1X13.84Y14.01
G1X13.86
G1X13.87
G1Y13.99
G1X13.83Y13.96
G1X13.77Y13.9
G1X13.74Y13.87
G1X13.72Y13.88
G1X13.75Y13.93
G1Y13.96
G1X13.73
G1X13.66Y13.86
G1X13.57Y13.68
G1X13.51Y13.38
G1X13.53Y13.07
G1X13.56Y12.94
G1X13.6Y12.84
G1X13.66Y12.79
G1X13.72
G1X13.75
G1Y12.76
G1X13.77Y12.71
G1X13.82
G1X13.86Y12.7
G1Y12.66
G1Y12.63
G1X13.88Y12.6
G1X13.94Y12.56
G1X14.02Y12.53
G1X14.22Y12.47
G1X14.43Y12.45
G1X14.55
G1X14.61Y12.47
G1X14.63Y12.5
G1X14.58Y12.68
G1X14.55Y12.87
G1X14.52Y13.1
G1X14.76Y12.9
G1X15.01Y12.73
G1X15.26Y12.6
G1X15.37Y12.54
G1X15.44Y12.49
G1X15.48Y12.45
G1Y12.41
G1Y12.37
G1X15.52Y12.35
G1X15.57Y12.36
G1X15.62Y12.41
G1Y12.47
G1X15.56Y12.53
G1X15.5Y12.59
G1X15.48Y12.62
G1X15.5Y12.64
G1X15.57Y12.63
G1X15.62Y12.61
G1X15.64
G1X15.62Y12.63
G1X15.58Y12.67
G1X15.49Y12.75
G1X15.46Y12.84
G1X15.48Y12.95
G1X15.54Y13.09
G1X15.63Y13.23
G1X15.73Y13.3
G1X15.85Y13.32
G1X15.99Y13.29
G1X16.09Y13.23
G1X16.17Y13.14
G1X16.22Y13.05
G1Y12.98
G1X16.17
G1X16.12Y13.04
G1X16.07Y13.11
G1Y13.17
G1Y13.21
G1X16.03Y13.24
G1X15.96
G1X15.83Y13.25
G1X15.71Y13.24
G1X15.65Y13.16
G1X15.64Y13.09
G1Y12.97
G1Y12.81
G1X15.66Y12.6
G1Y12.43
G1Y12.32
G1X15.64Y12.25
G1X15.6Y12.22
G1X15.55
G1Y12.24
G1Y12.28
G1X15.51Y12.31
G1X15.42
G1X15.31Y12.29
G1X15.17Y12.27
G1X15.02
G1X14.94Y12.28
G1X14.89Y12.27
G1X14.87Y12.23
G1Y12.15
G1X14.89Y12.02
G1X14.95Y11.89
G1X15.03Y11.81
G1X15.09Y11.8
G1X15.13
G1Y11.76
G1X15.15Y11.71
G1X15.24Y11.69
G1X15.31
G1X15.33Y11.65
G1Y11.63
G1X15.37Y11.62
G1X15.44
G1X15.53
G1X15.75Y11.65
G1X15.94Y11.71
G1X16.14Y11.83
G1X16.32Y11.98
G1X16.4Y12.08
G1X16.44Y12.17
G1X16.46Y12.27
G1X16.44Y12.54
G1X16.45Y12.63
G1X16.5Y12.7
G1X16.58Y12.77
G1X16.69Y12.84
G1X16.75Y12.85
G1X16.79Y12.81
G1X16.83Y12.69
G1X16.86Y12.51
G1X16.81Y12.27
G1X16.76Y12.06
G1X16.74Y11.89
G1Y11.74
G1X16.78Y11.62
G1X16.85Y11.52
G1X16.96Y11.43
G1X17.1Y11.35
G1X17.43Y11.21
G1X17.52Y11.16
G1X17.55Y11.1
G1X17.56Y11.01
G1X17.59Y10.84
G1X17.67Y10.68
G1X17.8Y10.53
G1X17.97Y10.41
G1X18.15Y10.33
G1X18.41Y10.31
G1X18.57
G1X18.77Y10.33
G1X19.01Y10.36
G1X19.29Y10.4
G1X19.7Y10.43
G1X20.11Y10.41
G1X20.3Y10.38
G1X20.47Y10.34
G1X20.61Y10.29
G1X20.72Y10.22
G1X20.8Y10.15
G1X20.86Y10.08
G1X20.9Y10
G1X20.92Y9.91
G1Y9.74
G1X20.88Y9.59
G1X20.83Y9.53
G1X20.75Y9.45
G1X20.65Y9.37
G1X20.4Y9.18
G1X20.3Y9.09
G1X20.24Y9.03
G1X20.22Y9
G1X20.27
G1X20.39Y9.07
G1X20.42Y9.06
G1X20.38Y9
G1X20.28Y8.94
G1X20.19Y8.91
G1X20.17Y8.94
G1X20.19Y8.98
G1X20.14
G1X20.04Y8.92
G1X19.78Y8.73
G1X19.64Y8.68
G1X19.54Y8.67
G1X19.41Y8.66
G1X19.23
G1X19
G1X18.74Y8.64
G1X18.5Y8.63
G1X18.28Y8.61
G1X18.1Y8.58
G1X17.96Y8.55
G1X17.87Y8.52
G1X17.83Y8.49
G1X17.85Y8.45
G1X17.87Y8.44
G1X17.86Y8.43
G1X17.82
G1X17.69Y8.46
G1X17.65
G1X17.63Y8.44
G1Y8.42
G1X17.65Y8.38
G1X17.59Y8.39
G1X17.53
G1X17.42Y8.37
G1X17.27Y8.32
G1X17.09Y8.27
G1X16.68Y8.11
G1X16.02Y7.83
G1X15.78Y7.77
G1X15.61Y7.76
G1X15.39Y7.75
G1X15.09Y7.73
G1X14.27Y7.71
G1X13.91Y7.69
G1X13.62Y7.68
G1X13.38Y7.66
G1X13.21Y7.64
G1X13.1Y7.62
G1X13.04Y7.6
G1X13.03Y7.57
G1X13.02Y7.55
G1X12.96
G1X12.89
G1X12.79Y7.54
G1X12.66Y7.51
G1X12.51Y7.47
G1X12.21Y7.36
G1X11.96Y7.24
G1X11.67Y7.05
G1X11.39Y6.82
G1X11.14Y6.56
G1X10.91Y6.28
G1X10.81Y6.11
G1X10.72Y5.97
G1X10.67Y5.86
G1Y5.8
G1Y5.76
G1X10.65
G1X10.6Y5.74
G1X10.54Y5.66
G1X10.49Y5.56
G1X10.47Y5.46
G1X10.54Y5.44
G1X10.69
G1X10.87Y5.47
G1X10.99Y5.52
G1X11.05Y5.55
G1X11.15Y5.58
G1X11.27Y5.62
G1X11.41Y5.65
G1X11.7Y5.71
G1X11.92Y5.73
G1X12.14Y5.71
G1X12.34Y5.64
G1X12.53Y5.51
G1X12.72Y5.33
G1X12.93Y5.11
G1X13.18Y5.21
G1X13.45Y5.3
G1X13.71Y5.32
G1X13.96Y5.28
G1X14.22Y5.17
G1X14.47Y5.01
G1X14.66Y4.87
G1X14.77Y4.78
G1X14.85Y4.75
G1X14.93Y4.77
G1X15.01Y4.85
G1X15.16Y4.97
G1X15.36Y5.11
G1X15.61Y5.22
G1X15.89Y5.27
G1X16.15Y5.24
G1X16.39Y5.15
G1X16.49Y5.09
G1X16.54Y5.03
G1X16.56Y4.97
G1X16.54Y4.88
G1X16.5Y4.75
G1X16.43Y4.68
G1X16.3Y4.65
G1X16.1Y4.67
G1X15.83Y4.7
G1X15.67Y4.19
G1X15.38Y4.16
G1X15.27
G1X15.19Y4.15
G1X15.13
G1X15.12Y4.16
G1X15.08Y4.21
G1X14.94Y4.28
G1X14.72Y4.43
G1X14.44Y4.65
G1X14.32Y4.75
G1X14.22Y4.83
G1X14.15Y4.87
G1X14.12
G1X14.04Y4.72
G1X13.95Y4.59
G1X13.85Y4.51
G1X13.75Y4.48
G1X13.68
G1X13.58Y4.5
G1X13.46Y4.54
G1X13.31Y4.58
G1X12.98Y4.7
G1X12.42Y4.94
G1X12.28Y4.99
G1X12.18Y5.02
G1X12.13
G1X12.11Y4.98
G1X12.1Y4.89
G1Y4.78
G1X12.11Y4.65
G1X12.17Y4.38
G1X12.25Y4.14
G1X12.4Y3.87
G1X12.57Y3.64
G1X12.76Y3.44
G1X12.99Y3.27
G1X13.24Y3.14
G1X13.54Y3.03
G1X13.87Y2.95
G1X14.24Y2.89
G1X14.72Y2.86
G1X15.27Y2.88
G1X15.83Y2.94
G1X16.37Y3.03
G1X16.56Y3.07
G1X16.83Y3.12
G1X17.15Y3.17
G1X17.79Y3.26
G1X18.09Y3.31
G1X18.32Y3.36
G1X18.47Y3.39
G1X18.59Y3.43
G1X18.68
G1X18.77
G1X18.88Y3.4
G1X19.15Y3.34
G1X19.5Y3.33
G1X19.89Y3.35
G1X20.24Y3.4
G1X20.54Y3.49
G1X20.81Y3.63
G1X21.07Y3.82
G1X21.36Y4.1
G1X21.46Y4.2
G1X21.54Y4.28
G1X21.6Y4.33
G1X21.66Y4.37
G1X21.79Y4.4
G1X21.97
G1X22.13Y4.41
G1X22.26Y4.44
G1X22.39Y4.48
G1X22.52Y4.54
G1X22.7Y4.66
G1X22.82Y4.75
G1X22.87Y4.83
G1Y4.9
G1X22.85Y4.94
G1X22.88Y4.93
G1X22.92
G1X22.96Y4.96
G1X23.01Y5.01
G1X23.07Y5.09
G1X23.21Y5.33
G1X23.33Y5.59
G1X23.44Y5.89
G1X23.53Y6.21
G1X23.66Y6.9
G1X23.72Y7.63
G1X23.73Y7.81
G1X23.75Y7.95
G1X23.76Y8.04
G1X23.78Y8.06
G1X23.81
G1X23.83Y8.08
G1X23.85Y8.1
G1X23.9Y8.11
G1X23.98Y8.12
G1X24.09Y8.13
G1X24.21
G1X24.27
G1Y8.11
G1X24.22Y8.09
G1X24.12Y8.04
G1X24.07Y7.97
G1X24.03Y7.92
G1X23.98
G1X23.96Y7.96
G1X23.99Y8.01
G1X24.01Y8.04
G1Y8.06
G1X24Y8.07
G1X23.96
G1X23.92
G1Y8.03
G1Y8
G1X23.82Y8.03
G1Y7.99
G1X23.89Y7.92
G1X23.99Y7.83
G1X24.15Y7.69
G1X24.28Y7.49
G1X24.37Y7.24
G1X24.43Y6.95
G1X24.46Y6.8
G1X24.49Y6.67
G1X24.54Y6.57
G1X24.59Y6.5
G1X24.69Y6.37
G1X24.76Y6.22
G1X24.8Y6.03
G1X24.82Y5.8
G1Y5.5
G1X25.01Y5.7
G1X25.1Y5.79
G1X25.15Y5.88
G1X25.18Y5.95
G1Y6
G1Y6.06
G1X25.2Y6.07
G1X25.24Y6.09
G1X25.26Y6.18
G1X25.28Y6.25
G1X25.3Y6.28
G1X25.34Y6.27
G1X25.41Y6.22
G1X25.52Y6.09
G1X25.61Y5.92
G1X25.68Y5.71
G1X25.75Y5.94
G1X25.78Y6.13
G1Y6.32
G1X25.71Y6.5
G1X25.61Y6.68
G1X25.49Y6.88
G1X25.37Y7.1
G1X25.24Y7.32
G1X24.98Y7.66
G1X24.93Y7.79
G1X24.95Y7.92
G1X25.08Y8.16
G1X25.12Y8.26
G1X25.14Y8.39
G1Y8.55
G1X25.17Y8.79
G1X25.26Y9.01
G1X25.34Y9.13
G1X25.45Y9.27
G1X25.58Y9.42
G1X25.76Y9.6
G1X25.86Y9.71
G1X25.95Y9.81
G1X26.01Y9.89
G1X26.03Y9.94
G1X26.05Y10.23
G1Y10.47
G1X26.04Y10.65
G1X26.01Y10.79
G1X25.96Y10.87
G1X25.9Y10.9
G1X25.83Y10.88
G1X25.74Y10.8
G1X25.67Y10.74
G1X25.64Y10.76
G1X25.66Y10.81
G1X25.7Y10.82
G1X25.73Y10.85
G1X25.71Y10.9
G1X25.68Y11.01
G1Y11.16
G1X25.71Y11.29
G1X25.75Y11.35
G1X25.77Y11.29
G1Y11.15
G1Y11.06
G1X25.79Y11
G1X25.81Y10.96
G1X25.84Y10.95
G1X25.88Y10.98
G1Y11.08
G1Y11.28
G1X25.97Y11.83
G1Y12.04
G1X25.91Y12.22
G1X25.81Y12.37
G1X25.71Y12.5
G1X25.63Y12.65
G1X25.61Y12.74
G1Y12.81
G1X25.63Y12.87
G1X25.68Y12.95
G1X25.76Y13.07
G1X25.81Y13.19
G1X25.83Y13.33
G1Y13.46
G1X25.8Y13.59
G1X25.74Y13.71
G1X25.66Y13.81
G1X25.56Y13.9
G1X25.47Y13.94
G1X25.35Y13.96
G1X25.19
G1X24.74Y13.94
G1X24.57
G1X24.44Y13.95
G1X24.37Y13.97
G1X24.36Y14
G1X24.4Y14.01
G1X24.49Y14.02
G1X24.65
G1X25.04Y14.05
G1X25.46Y14.11
G1X25.61Y14.14
G1X25.72Y14.16
G1X25.81Y14.18
G1X25.89
G1X26.01Y14.15
G1X26.16Y14.09
G1X26.37Y14.01
G1X26.52Y13.97
G1X26.6Y13.95
G1X26.62Y13.86
G1X26.61Y13.77
G1X26.58Y13.65
G1X26.54Y13.49
G1X26.49Y13.29
G1X26.4Y12.96
G1X26.37Y12.68
G1Y12.53
G1X26.38Y12.35
G1X26.41Y12.14
G1X26.44Y11.88
G1X26.46Y11.73
G1X26.45Y11.63
G1X26.41Y11.55
G1X26.33Y11.46
G1X26.21Y11.3
G1X26.15Y11.12
G1X26.16Y10.92
G1X26.24Y10.72
G1X26.31Y10.53
G1X26.32Y10.36
G1X26.3Y10.26
G1X26.26Y10.14
G1X26.2Y10
G1X26.12Y9.83
G1X26.02Y9.6
G1X25.97Y9.39
G1Y9.15
G1X25.98Y8.84
G1X26Y8.69
G1X26.03Y8.59
G1X26.09Y8.51
G1X26.17Y8.43
G1X26.3Y8.3
G1X26.37Y8.16
G1X26.41Y8.08
G1X26.48Y7.97
G1X26.59Y7.84
G1X26.71Y7.71
G1X26.81Y7.61
G1X26.88Y7.53
G1X26.94Y7.47
G1X26.97Y7.41
G1X27.01Y7.28
G1Y7.08
G1Y6.95
G1X26.99Y6.83
G1X26.97Y6.74
G1X26.95Y6.69
G1X26.9Y6.62
G1X26.93Y6.6
G1X27.02
G1X27.16Y6.67
G1X27.31Y6.77
G1X27.36Y6.86
G1X27.37Y6.91
G1X27.45Y6.92
G1X27.5Y6.99
G1X27.55Y7.09
G1X27.56Y7.2
G1X27.59Y7.28
G1X27.67Y7.31
G1X27.79Y7.27
G1X27.94Y7.18
G1X28.05Y7.09
G1X28.12Y7.06
G1X28.17Y7.08
G1X28.22Y7.15
G1X28.25Y7.28
G1X28.19Y7.43
G1X28.12Y7.52
G1X28.02Y7.63
G1X27.89Y7.76
G1X27.6Y8.04
G1X27.5Y8.13
G1X27.42Y8.21
G1X27.36Y8.28
G1X27.3Y8.39
G1X27.29Y8.5
G1X27.27Y8.64
G1X27.23Y8.77
G1X27.16Y8.9
G1X27Y9.09
G1X26.98Y9.14
G1Y9.2
G1X27.03Y9.29
G1X27.1Y9.45
G1X27.15Y9.65
G1X27.21Y9.82
G1X27.31Y9.94
G1X27.37Y10.01
G1X27.36Y10.04
G1X27.29Y10.01
G1X27.22Y9.96
G1X27.15Y9.92
G1X27.09
G1X27.07
G1X27.08Y9.87
G1X27.09Y9.8
G1X27.07Y9.78
G1X27.02Y9.8
G1Y9.85
G1X27.06Y9.93
G1X27.14Y10.02
G1X27.2Y10.07
G1X27.26Y10.1
G1X27.3
G1X27.35Y10.09
G1X27.42Y10.05
G1X27.48
G1X27.53Y10.09
G1X27.6Y10.18
G1X27.64Y10.26
G1X27.67Y10.35
G1X27.68Y10.47
G1Y10.61
G1Y10.76
G1Y10.84
G1X27.71
G1X27.75Y10.81
G1X27.82Y10.75
G1X27.89Y10.72
G1X27.92
G1Y10.74
G1Y10.77
G1X27.88Y10.81
G1X27.81Y10.91
G1X27.77Y11.03
G1X27.75Y11.14
G1X27.77Y11.21
G1X27.81Y11.28
G1X27.83Y11.41
G1X27.85Y11.45
G1X27.88Y11.43
G1X27.91Y11.38
G1X27.93Y11.3
G1Y11.22
G1X27.87Y11.17
G1X27.9Y11.12
G1X27.96Y11.09
G1X28.05Y11.07
G1X28.18
G1X28.35Y11.08
G1X28.38Y11.1
G1X28.37Y11.12
G1Y11.18
G1X28.43Y11.26
G1X28.49Y11.34
G1X28.51Y11.38
G1X28.49Y11.43
G1Y11.46
G1X28.52Y11.48
G1X28.56
G1X28.59
G1X28.58Y11.59
G1X28.59Y11.65
G1X28.63Y11.7
G1X28.69Y11.76
G1X28.79Y11.86
G1X28.83Y11.95
G1X28.85Y12.01
G1X28.92Y12.03
G1X28.97
G1X28.99
G1X28.97Y12.01
G1X28.94Y11.98
G1X28.89Y11.94
G1X28.92Y11.9
G1X28.88Y11.85
G1X28.84Y11.79
G1Y11.77
G1Y11.73
G1X28.79Y11.63
G1X28.72Y11.5
G1X28.71Y11.39
G1Y11.34
G1Y11.32
G1X28.68
G1X28.65
G1X28.62Y11.34
G1X28.61
G1Y11.33
G1X28.65Y11.29
G1X28.7Y11.23
G1X28.71Y11.18
G1X28.69Y11.16
G1X28.57Y11.19
G1Y11.1
G1X28.52Y11.03
G1X28.47Y10.98
G1Y10.93
G1X28.45Y10.9
G1X28.37
G1X28.27Y10.92
G1X28.21Y10.96
G1X28.18Y10.98
G1X28.17Y10.94
G1X28.14Y10.9
G1X28.07Y10.88
G1X28.02Y10.89
G1X28.04Y10.91
G1X28.1Y10.95
G1Y10.98
G1X28.06Y11
G1X27.97Y11.02
G1X27.88
G1X27.85Y11
G1Y10.95
G1X27.9Y10.86
G1X27.95Y10.76
G1X27.97Y10.67
G1X28.03Y10.58
G1X28.33Y10.33
G1X28.49Y10.16
G1X28.68Y9.94
G1X28.88Y9.77
G1X29.1Y9.63
G1X29.32Y9.55
G1X29.55Y9.47
G1X29.71Y9.4
G1X29.79Y9.33
G1X29.81Y9.25
G1X29.83Y9.17
G1X29.87Y9.15
G1X29.92Y9.18
G1X29.98Y9.26
G1X30.02Y9.41
G1X30Y9.57
G1X29.91Y9.74
G1X29.76Y9.9
G1X29.64Y10.01
G1X29.59Y10.07
G1X29.6Y10.1
G1X29.68
G1X29.76Y10.08
G1X29.89Y10.06
G1X29.97
G1X30
G1Y10.08
G1X29.94Y10.17
G1X29.93Y10.19
G1X29.94
G1X29.98
G1X30.04Y10.14
G1X30.08Y10.06
G1Y10.02
G1Y10
G1X30.05
G1X29.95Y10.01
G1X29.93Y10
G1X29.95Y9.95
G1X30Y9.87
G1X30.07Y9.79
G1X30.11
G1X30.14Y9.85
G1Y9.99
G1Y10.11
G1X30.11Y10.2
G1X30.05Y10.29
G1X29.96Y10.38
G1X29.85Y10.48
G1X29.75Y10.53
G1X29.64Y10.56
G1X29.47
G1X29.26Y10.58
G1X29.11Y10.63
G1X29.02Y10.71
G1X28.96Y10.94
G1X28.89Y11.1
G1X28.82Y11.28
G1Y11.45
G1X28.9Y11.61
G1X29.05Y11.8
G1X29.21Y12.03
G1X29.3Y12.29
G1Y12.56
G1X29.24Y12.82
G1X29.19Y12.94
G1X29.18Y13.08
G1Y13.18
G1X29.21Y13.31
G1X29.34Y13.98
G1X29.39Y14.27
G1X29.44Y14.52
G1X29.46Y14.71
G1X29.52Y15
G1X29.6Y15.21
G1X29.69Y15.46
G1Y15.72
G1X29.66Y15.85
G1X29.61Y15.95
G1X29.54Y16.02
G1X29.46Y16.05
G1X29.4
G1X29.38Y16.02
G1X29.4Y15.98
G1X29.46Y15.95
G1X29.51Y15.91
G1Y15.85
G1X29.5Y15.82
G1X29.58Y15.84
G1X29.6Y15.83
G1X29.63Y15.61
G1Y15.47
G1X29.61Y15.41
G1X29.56
G1X29.51
G1X29.49Y15.36
G1X29.5Y15.31
G1X29.55
G1X29.57
G1X29.46Y15.16
G1X29.43Y15.08
G1X29.4Y15.04
G1X29.25Y15.01
G1X29.24Y14.97
G1Y14.93
G1X29.21Y14.89
G1X29.15Y14.85
G1X29.09Y14.84
G1X29.05Y14.82
G1X29.01Y14.79
G1X29Y14.77
G1X29.03Y14.78
G1X29.08
G1X29.1Y14.74
G1X29.12Y14.68
G1X29.16Y14.66
G1X29.18Y14.63
G1X29.14Y14.58
G1X29.08Y14.54
G1X29.03
G1X29.01Y14.56
G1X29.02Y14.61
G1Y14.68
G1X28.96Y14.76
G1X28.91Y14.84
G1X28.93Y14.86
G1X28.97Y14.89
G1X29.01Y14.99
G1X29.05
G1X29.08
G1X29.1Y15.02
G1X29.11Y15.06
G1X29.14
G1X29.2
G1X29.29
G1X29.34Y15.07
G1X29.36Y15.08
G1Y15.1
G1X29.33Y15.12
G1X29.28Y15.18
G1Y15.26
G1X29.31Y15.33
G1X29.37Y15.35
G1X29.41
G1X29.4Y15.45
G1X29.43Y15.53
G1X29.47Y15.58
G1X29.48Y15.56
G1X29.5Y15.51
G1X29.54Y15.49
G1X29.57Y15.52
