; LightBurn 0.9.24
; GRBL device profile, absolute coords
; Bounds: X3 Y3 to X25.03 Y33
G00 G17 G40 G21 G54
G90
M4
; Cut @ 6000 mm/min, 20% power
M8
M5
G0X6.97Y3.72
M3 S30
; Layer C00
G1X6.84Y3.82S20F6000
G1X6.73Y3.96
G1X6.65Y4.12
G1X6.62Y4.31
G1X6.65Y4.48
G1X6.72Y4.62
G1X6.82Y4.72
G1X6.94Y4.78
G1X7.08Y4.79
G1X7.22Y4.76
G1X7.35Y4.67
G1X7.46Y4.53
G1X7.49Y4.46
G1Y4.4
G1Y4.36
G1X7.45Y4.35
G1X7.4
G1X7.33Y4.38
G1X7.26Y4.43
G1X7.17Y4.5
G1X7.1Y4.55
G1X7.04Y4.59
G1X6.98
G1X6.93
G1X6.85Y4.49
G1X6.83Y4.32
G1X6.86Y4.09
G1X6.94Y3.95
G1X7.07Y3.88
G1X7.24Y3.9
G1X7.35Y3.93
G1X7.41
G1X7.44Y3.9
G1X7.43Y3.84
G1X7.35Y3.71
G1X7.24Y3.66
G1X7.11
G1X6.97Y3.72
M5
G0X8.41Y3.9
M3 S30
; Layer C00
G1X8.48Y3.81
G1X8.57Y3.76
G1X8.65Y3.78
G1X8.67Y3.87
G1X8.63Y3.99
G1X8.55Y4.1
G1X8.47Y4.15
G1X8.41Y4.11
G1X8.38Y4.01
G1X8.41Y3.9
M5
G0X8.21Y4.08
M3 S30
; Layer C00
G1X8.3Y4.27
G1X8.37Y4.4
G1X8.44Y4.47
G1X8.51Y4.49
G1X8.57Y4.45
G1X8.65Y4.35
G1X8.72Y4.19
G1X8.82Y3.96
G1X8.88Y3.79
G1X8.92Y3.63
G1X8.95Y3.5
G1Y3.4
G1X8.93Y3.35
G1X8.9Y3.34
G1X8.85Y3.38
G1X8.78Y3.48
G1X8.66Y3.59
G1X8.49Y3.65
G1X8.41
G1X8.34
G1X8.29Y3.61
G1X8.28Y3.56
G1X8.23Y3.49
G1X8.11Y3.46
G1X8.01Y3.48
G1X7.98Y3.53
G1X8.21Y4.08
M5
G0X9.43Y4.23
M3 S30
; Layer C00
G1X9.41Y4.28
G1X9.45Y4.32
G1X9.54Y4.35
G1X9.67Y4.37
G1X9.82
G1X9.98Y4.35
G1X10.12Y4.33
G1X10.23Y4.29
G1X10.3Y4.24
G1Y4.2
G1Y4.17
G1X10.26Y4.16
G1X10.2Y4.15
G1X10.13Y4.13
G1X10.07Y4.08
G1X10.02Y4.01
G1X9.98Y3.91
G1X9.94Y3.69
G1X9.96Y3.46
G1X9.98Y3.37
G1X9.96Y3.31
G1X9.93Y3.27
G1X9.87Y3.26
G1X9.8Y3.28
G1X9.76Y3.36
G1X9.73Y3.5
G1X9.72Y3.91
G1X9.69Y4.05
G1X9.64Y4.13
G1X9.57Y4.15
G1X9.51
G1X9.46Y4.19
G1X9.43Y4.23
M5
G0X9.55Y4.86
M3 S30
; Layer C00
G1X8.94Y4.94
G1X8.67Y4.98
G1X8.49Y5.02
G1X8.38Y5.05
G1X8.34Y5.08
G1X8.35Y5.12
G1X8.41Y5.15
G1X8.5Y5.23
G1X8.55Y5.38
G1X8.57Y5.48
G1Y5.62
G1X8.58Y5.79
G1Y5.99
G1X8.59Y6.28
G1X8.61Y6.5
G1X8.62Y6.59
G1X8.63Y6.65
G1X8.65Y6.69
G1X8.66
G1X8.93Y6.57
G1X9.14Y6.47
G1X9.29Y6.39
G1X9.39Y6.31
G1X9.46Y6.23
G1X9.5Y6.15
G1Y6.05
G1X9.51Y5.93
G1Y5.58
G1X9.38Y5.92
G1X9.28Y6.16
G1X9.17Y6.32
G1X9.07Y6.41
G1X8.98Y6.43
G1X8.89Y6.37
G1X8.83Y6.25
G1X8.78Y6.05
G1X8.76Y5.79
G1Y5.57
G1X8.78Y5.4
G1X8.82Y5.28
G1X8.92Y5.18
G1X9.06Y5.11
G1X9.27Y5.06
G1X9.55Y5.02
G1X9.92Y4.98
G1X10.24Y4.96
G1X10.48
G1X10.67Y4.98
G1X10.79Y5.04
G1X10.88Y5.14
G1X10.92Y5.3
G1X10.94Y5.51
G1Y5.78
G1X10.92Y6.02
G1X10.9Y6.2
G1X10.86Y6.35
G1X10.78Y6.48
G1X10.66Y6.59
G1X10.49Y6.7
G1X10.26Y6.82
G1X9.96Y6.97
G1X9.73Y7.09
G1X9.56Y7.2
G1X9.45Y7.31
G1X9.41Y7.4
G1X9.38Y7.55
G1X9.29Y7.69
G1X9.24Y7.74
G1X9.23Y7.78
G1X9.26Y7.8
G1X9.33
G1X9.41Y7.79
G1X9.47Y7.73
G1X9.51Y7.65
G1X9.54Y7.54
G1X9.58Y7.4
G1X9.69Y7.27
G1X9.78Y7.2
G1X9.9Y7.13
G1X10.05Y7.05
G1X10.23Y6.96
G1X10.56Y6.75
G1X10.84Y6.5
G1X11.05Y6.23
G1X11.19Y5.94
G1X11.25Y5.65
G1Y5.37
G1X11.15Y5.11
G1X10.97Y4.89
G1X10.76Y4.71
G1X9.55Y4.86
M5
G0X9.93Y5.43
M3 S30
; Layer C00
G1X9.86Y5.46
G1X9.83Y5.53
G1X9.86Y5.6
G1X9.93Y5.63
G1X10Y5.6
G1X10.03Y5.53
G1X10Y5.46
G1X9.93Y5.43
M5
G0X10.29Y5.67
M3 S30
; Layer C00
G1X10.25Y5.72
G1X10.2Y5.86
G1Y5.98
G1Y6.02
G1X10.18Y6.06
G1X10.13Y6.11
G1X10.06Y6.17
G1X9.85Y6.31
G1X9.58Y6.47
G1X9.28Y6.63
G1X9.05Y6.78
G1X8.88Y6.92
G1X8.75Y7.06
G1X8.67Y7.22
G1X8.62Y7.41
G1X8.59Y7.63
G1Y7.9
G1Y8.54
G1X8.78Y8.25
G1X8.85Y8.12
G1X8.89Y8.01
G1X8.91Y7.92
G1X8.88Y7.86
G1X8.81Y7.7
G1X8.8Y7.48
G1X8.85Y7.24
G1X8.96Y7.03
G1X9.04Y6.94
G1X9.17Y6.84
G1X9.33Y6.73
G1X9.5Y6.63
G1X9.66Y6.54
G1X9.8Y6.48
G1X9.9Y6.46
G1X9.93Y6.48
G1X9.95
G1X9.99Y6.45
G1X10.06Y6.39
G1X10.14Y6.3
G1X10.22Y6.18
G1X10.28Y6.05
G1X10.33Y5.92
G1X10.34Y5.81
G1Y5.71
G1X10.32Y5.66
G1X10.29
M5
G0X11.89Y5.72
M3 S30
; Layer C00
G1Y5.92
G1X11.87Y7.01
G1Y7.33
G1Y7.63
G1Y7.89
G1X11.88Y8.11
G1X11.89Y8.27
G1X11.91Y8.38
G1X11.92Y8.42
G1X12.01Y8.43
G1X12.16Y8.44
G1X12.36
G1X12.57
G1X12.78
G1X12.96
G1X13.09Y8.43
G1X13.14Y8.41
G1X13.09Y8.35
G1X12.98Y8.23
G1X12.92Y8.16
G1X12.88Y8.07
G1Y7.97
G1Y7.88
G1X12.91Y7.64
G1X12.87Y7.33
G1X12.78Y6.96
G1X12.73Y7.61
G1X12.71Y7.78
G1X12.69Y7.93
G1X12.67Y8.04
G1X12.65Y8.13
G1X12.58Y8.24
G1X12.48Y8.28
G1X12.37Y8.29
G1X12.28Y8.26
G1X12.21Y8.19
G1X12.16Y8.04
G1X12.13Y7.82
G1X12.11Y7.5
G1X12.1Y7.3
G1X12.09Y6.81
G1X12.07Y4.9
G1X12.27Y4.84
G1X12.39Y4.8
G1X12.49
G1X12.57Y4.81
G1X12.63Y4.87
G1X12.68Y4.96
G1X12.71Y5.08
G1X12.72Y5.25
G1X12.73Y5.47
G1Y5.64
G1Y5.77
G1X12.75Y5.86
G1Y5.92
G1X12.77Y5.94
G1X12.79Y5.93
G1X12.81Y5.89
G1X12.84Y5.83
G1X12.9Y5.56
G1X12.88Y5.27
G1X12.87Y5.12
G1Y4.99
G1X12.92Y4.89
G1X12.99Y4.8
G1X13.07Y4.72
G1X13.11Y4.67
G1Y4.63
G1X13.07Y4.61
G1X12.98Y4.6
G1X12.83
G1X12.61
G1X12.1Y4.64
G1X11.93Y4.65
G1X11.8Y4.66
G1X11.72Y4.68
G1X11.67Y4.7
G1Y4.73
G1X11.68Y4.76
G1X11.73Y4.79
G1X11.78Y4.84
G1X11.82Y4.91
G1X11.85Y5.02
G1X11.87Y5.18
G1X11.88Y5.41
G1Y5.72
M5
G0X13.09Y6.18
M3 S30
; Layer C00
G1Y6.22
G1X13.18Y6.28
G1X13.33
G1X13.49Y6.26
G1X13.62Y6.19
G1Y6.17
G1X13.57Y6.14
G1X13.48Y6.13
G1X13.36
G1X13.23
G1X13.13Y6.15
G1X13.09Y6.18
M5
G0X13.76Y5.93
M3 S30
; Layer C00
G1X13.78Y5.95
G1X13.8Y5.96
G1X13.82Y5.94
G1X13.84Y5.9
G1Y5.83
G1X13.85Y5.73
G1Y5.61
G1X13.87Y5.26
G1Y5.09
G1X13.91Y4.96
G1X13.95Y4.87
G1X14Y4.82
G1X14.08Y4.79
G1X14.18
G1X14.3Y4.82
G1X14.48Y4.86
G1Y6.53
G1Y7.09
G1Y7.33
G1Y7.53
G1X14.46Y7.7
G1Y7.85
G1X14.44Y7.97
G1X14.42Y8.07
G1X14.37Y8.2
G1X14.29Y8.27
G1X14.2
G1X14.07Y8.25
G1X13.96Y8.19
G1X13.9Y8.09
G1X13.88Y8.01
G1X13.87Y7.9
G1Y7.76
G1Y7.59
G1X13.85Y7.35
G1X13.83Y7.18
G1X13.8Y7.08
G1X13.76Y7.06
G1X13.72Y7.13
G1X13.69Y7.28
G1X13.66Y7.48
G1X13.65Y7.95
G1X13.62Y8.13
G1X13.59Y8.26
G1X13.55Y8.3
G1X13.48Y8.32
G1Y8.37
G1X13.56Y8.41
G1X13.73Y8.43
G1X13.96Y8.44
G1X14.22
G1X14.47
G1X14.69
G1X14.84Y8.41
G1X14.9Y8.38
G1X14.87Y8.32
G1X14.79Y8.3
G1X14.76Y8.26
G1X14.73Y8.15
G1X14.71Y7.98
G1X14.69Y7.76
G1X14.67Y7.21
G1Y6.57
G1X14.7Y5.92
G1X14.74Y5.35
G1X14.77Y5.12
G1X14.8Y4.94
G1X14.83Y4.81
G1X14.87Y4.75
G1X14.93Y4.71
G1X14.97Y4.68
G1Y4.65
G1X14.95
G1X14.54Y4.62
G1X14.21Y4.61
G1X13.95Y4.6
G1X13.75
G1X13.61
G1X13.51Y4.61
G1X13.46Y4.63
G1X13.45Y4.66
G1X13.48Y4.72
G1X13.55Y4.74
G1X13.59Y4.78
G1X13.63Y4.89
G1X13.65Y5.06
G1X13.67Y5.47
G1X13.69Y5.67
G1X13.72Y5.83
G1X13.76Y5.93
M5
G0X13.32Y6.76
M3 S30
; Layer C00
G1X13.24Y6.75
G1X13.17Y6.76
G1X13.11Y6.81
G1X13.07Y6.86
G1X13.09Y6.89
G1X13.16Y6.91
G1X13.3
G1X13.45
G1X13.52Y6.89
G1X13.5Y6.86
G1X13.41Y6.8
G1X13.32Y6.76
M5
G0X11.05Y7
M3 S30
; Layer C00
G1X11.02Y6.91
G1X10.99Y6.84
G1X10.94Y6.82
G1X10.89Y6.84
G1X10.83Y6.89
G1X10.73Y7.05
G1X10.69Y7.09
G1X10.67Y7.1
G1X10.66Y7.08
G1X10.63Y7.07
G1X10.56
G1X10.46Y7.12
G1X10.34Y7.18
G1X10.23Y7.25
G1X10.15Y7.33
G1X10.09Y7.41
G1X10.07Y7.48
G1Y7.55
G1X10.1Y7.61
G1X10.17Y7.66
G1X10.26Y7.69
G1X10.34
G1X10.39Y7.66
G1X10.4Y7.59
G1Y7.48
G1Y7.31
G1X10.47Y7.2
G1X10.58Y7.15
G1X10.73Y7.2
G1X10.81Y7.3
G1X10.82Y7.44
G1X10.77Y7.56
G1X10.66Y7.61
G1X10.58
G1X10.55Y7.63
G1X10.58Y7.65
G1X10.66Y7.71
G1X10.77Y7.77
G1X10.86Y7.8
G1X10.93
G1X10.98Y7.77
G1X11.02Y7.71
G1X11.05Y7.61
G1X11.06Y7.48
G1Y7.31
G1Y7.14
G1X11.05Y7
M5
G0X9.54Y8.53
M3 S30
; Layer C00
G1X9.4Y8.48
G1X9.3Y8.44
G1X9.23
G1X9.21
G1X9.23Y8.47
G1X9.29Y8.5
G1X9.38Y8.56
G1X9.5Y8.62
G1X9.82Y8.79
G1X10.62Y9.18
G1X10.99Y9.37
G1X11.14Y9.45
G1X11.27Y9.52
G1X11.37Y9.58
G1X11.43Y9.62
G1X11.52Y9.69
G1X11.6Y9.73
G1X11.65Y9.76
G1X11.67Y9.77
G1Y9.76
G1Y9.73
G1X11.62Y9.67
G1X11.55Y9.6
G1X11.48Y9.54
G1X11.38Y9.47
G1X11.24Y9.38
G1X11.08Y9.29
G1X10.7Y9.08
G1X10.28Y8.87
G1X9.88Y8.68
G1X9.54Y8.53
M5
G0X9.62Y9.4
M3 S30
; Layer C00
G1X9.53
G1X9.54Y9.43
G1X9.64Y9.47
G1X9.83Y9.53
G1X10.04Y9.58
G1X10.2Y9.62
G1X10.31Y9.65
G1X10.38
G1X10.4
G1X10.38Y9.62
G1X10.31Y9.58
G1X10.19Y9.53
G1X9.89Y9.43
G1X9.62Y9.4
M5
G0X10.69Y9.52
M3 S30
; Layer C00
G1X10.7Y9.55
G1X10.78Y9.61
G1X10.92Y9.68
G1X11.09Y9.76
G1X11.48Y9.94
G1X11.54Y9.96
G1X11.58
G1Y9.93
G1X11.55Y9.89
G1X11.45Y9.83
G1X11.32Y9.75
G1X11.16Y9.68
G1X11Y9.6
G1X10.85Y9.55
G1X10.74Y9.52
G1X10.69
M5
G0X11.37Y9.12
M3 S30
; Layer C00
G1X11.32Y9.06
G1X11.31Y9.02
G1X11.36
G1X11.44Y9.05
G1X11.55Y9.11
G1X11.68Y9.18
G1X11.8Y9.26
G1X11.9Y9.33
G1X11.97Y9.4
G1X12Y9.44
G1X11.99Y9.47
G1X11.94
G1X11.89Y9.44
G1X11.82Y9.41
G1X11.6Y9.28
G1X11.47Y9.2
G1X11.37Y9.12
M5
G0X11.25Y8.98
M3 S30
; Layer C00
G1X11.2Y8.97
G1X11.1Y8.92
G1X10.96Y8.86
G1X10.48Y8.62
G1X10.22Y8.49
G1X10Y8.39
G1X9.84Y8.32
G1X9.75Y8.3
G1X9.77Y8.33
G1X9.82Y8.36
G1X9.88Y8.4
G1X10.06Y8.5
G1X10.3Y8.63
G1X10.93Y8.98
G1X11.54Y9.36
G1X11.77Y9.51
G1X11.94Y9.63
G1X12.06Y9.71
G1X12.15Y9.75
G1X12.19Y9.77
G1Y9.75
G1X12.16Y9.7
G1X12.1Y9.63
G1X12.05Y9.56
G1X12.03Y9.51
G1X12.05Y9.49
G1X12.11
G1X12.13Y9.47
G1X12.11Y9.44
G1X12.06Y9.39
G1X11.98Y9.32
G1X11.76Y9.14
G1X11.47Y8.94
G1X11.17Y8.73
G1X10.87Y8.54
G1X10.73Y8.46
G1X10.61Y8.39
G1X10.5Y8.34
G1X10.42Y8.31
G1X10.28Y8.26
G1X10.19Y8.24
G1X10.15
G1Y8.27
G1X10.21Y8.31
G1X10.31Y8.37
G1X10.46Y8.45
G1X10.65Y8.54
G1X10.85Y8.65
G1X11.03Y8.75
G1X11.16Y8.84
G1X11.23Y8.9
G1X11.26Y8.94
G1Y8.97
G1X11.25Y8.98
M5
G0X12.67Y9.63
M3 S30
; Layer C00
G1X12.87Y9.85
G1X12.99Y9.98
G1X13.07Y10.06
G1X13.12Y10.08
G1X13.14Y10.04
G1X13.12Y10.01
G1X13.07Y9.96
G1X13Y9.9
G1X12.91Y9.82
G1X12.67Y9.63
M5
G0X13.7Y10.11
M3 S30
; Layer C00
G1X13.68Y10.19
G1X13.72Y10.29
G1X13.76Y10.34
G1X13.79Y10.36
G1X13.81Y10.34
G1X13.84Y10.29
G1X13.85Y10.18
G1X13.82Y10.1
G1X13.75Y10.07
G1X13.7Y10.11
M5
G0X14.8Y10.62
M3 S30
; Layer C00
G1X14.75Y10.66
G1X14.69Y10.73
G1X14.56Y10.9
G1X14.42Y11.11
G1X14.29Y11.35
G1X14.18Y11.59
G1X14.1Y11.79
G1X14.07Y11.95
G1X14.11Y12.2
G1X14.22Y12.43
G1X14.29Y12.52
G1X14.35Y12.59
G1X14.41Y12.61
G1X14.46Y12.6
G1Y12.56
G1X14.45Y12.5
G1X14.4Y12.43
G1X14.33Y12.35
G1X14.25Y12.24
G1X14.2Y12.1
G1Y11.95
G1Y11.79
G1X14.26Y11.61
G1X14.34Y11.43
G1X14.45Y11.24
G1X14.59Y11.06
G1X14.72Y10.9
G1X14.81Y10.76
G1X14.87Y10.66
G1Y10.61
G1X14.84
G1X14.8Y10.62
M5
G0X15.33Y10.47
M3 S30
; Layer C00
G1X15.36Y10.46
G1X15.42Y10.41
G1X15.49Y10.35
G1X15.57Y10.27
G1X15.64Y10.2
G1X15.69Y10.13
G1X15.71Y10.09
G1Y10.08
G1X15.67Y10.09
G1X15.61Y10.13
G1X15.54Y10.2
G1X15.47Y10.27
G1X15.4Y10.35
G1X15.35Y10.41
G1X15.32Y10.46
G1X15.33Y10.47
M5
G0X15.72Y11.19
M3 S30
; Layer C00
G1X15.64Y11.23
G1X15.56Y11.29
G1X15.46Y11.39
G1X15.31Y11.61
G1X15.22Y11.83
G1X15.21Y11.94
G1Y12.04
G1X15.23Y12.12
G1X15.28Y12.19
G1X15.32Y12.21
G1X15.36
G1X15.4Y12.17
G1X15.43Y12.11
G1X15.47Y11.94
G1Y11.73
G1X15.45Y11.63
G1Y11.54
G1X15.48Y11.48
G1X15.52Y11.46
G1X15.59Y11.5
G1X15.64Y11.61
G1X15.67
G1X15.7Y11.56
G1X15.75Y11.48
G1X15.8Y11.37
G1X15.81Y11.28
G1Y11.22
G1X15.77Y11.19
G1X15.72
M5
G0X16.81Y10.79
M3 S30
; Layer C00
G1X17.24Y10.9
G1X17.42Y10.94
G1X17.45Y10.95
G1X17.48Y10.94
G1X17.52Y10.89
G1Y10.85
G1X17.45Y10.83
G1X17.34Y10.81
G1X17.19Y10.8
G1X16.81Y10.79
M5
G0X16.81Y10.61
M3 S30
; Layer C00
G1X17.03
G1X17.29Y10.62
G1X17.97Y10.7
G1X18.29Y10.72
G1X18.42
G1X18.52
G1X18.6
G1X18.64Y10.71
G1X18.68Y10.69
G1X18.7
G1Y10.71
G1X18.68Y10.75
G1X18.67Y10.8
G1X18.71Y10.84
G1X18.79Y10.86
G1X18.93
G1X19.41Y10.9
G1X19.95Y11.01
G1X20.5Y11.16
G1X21.02Y11.34
G1X21.26Y11.44
G1X21.48Y11.54
G1X21.67Y11.65
G1X21.83Y11.75
G1X21.96Y11.85
G1X22.04Y11.94
G1X22.08Y12.02
G1X22.06Y12.1
G1X22.05Y12.13
G1X22.06
G1X22.1Y12.11
G1X22.16Y12.07
G1X22.28Y12.03
G1X22.4Y12.05
G1X22.44Y12.08
G1X22.47Y12.11
G1Y12.15
G1X22.43Y12.19
G1X22.3Y12.26
G1X22.13Y12.3
G1X21.97
G1X21.88Y12.25
G1X21.85Y12.15
G1X21.88Y12.05
G1X21.89Y12.01
G1Y11.98
G1X21.85Y11.96
G1X21.79
G1X21.65Y11.91
G1X21.52Y11.81
G1X21.44Y11.75
G1X21.29Y11.68
G1X21.1Y11.61
G1X20.89Y11.56
G1X20.69Y11.5
G1X20.51Y11.45
G1X20.39Y11.4
G1X20.32Y11.36
G1X20.27Y11.32
G1X20.17Y11.28
G1X20Y11.25
G1X19.78Y11.22
G1X19.49Y11.19
G1X19.13Y11.17
G1X18.71Y11.14
G1X17.8Y11.11
G1X17.44Y11.08
G1X17.12Y11.06
G1X16.85Y11.03
G1X16.63Y11
G1X16.48Y10.97
G1X16.38Y10.93
G1X16.34Y10.9
G1X16.36Y10.8
G1X16.42Y10.72
G1X16.51Y10.66
G1X16.64Y10.63
G1X16.81Y10.61
M5
G0X17.2Y10.26
M3 S30
; Layer C00
G1X17.23
G1X17.35Y10.24
G1X17.53Y10.17
G1X17.61Y10.14
G1X17.65Y10.11
G1Y10.09
G1X17.59
G1X17.43Y10.11
G1X17.28Y10.17
G1X17.22Y10.21
G1X17.2Y10.24
G1Y10.26
M5
G0X17.38Y9.77
M3 S30
; Layer C00
G1X17.86Y9.82
G1X18.35Y9.86
G1X18.55
G1X18.7
G1X18.8
G1X18.82Y9.84
G1X18.79Y9.83
G1X18.73Y9.82
G1X18.63Y9.8
G1X18.51Y9.79
G1X18.21Y9.77
G1X17.84Y9.74
G1X17.66
G1X17.51
G1X17.39Y9.73
G1X17.31
G1X17.27
G1Y9.74
G1X17.3Y9.75
G1X17.38Y9.77
M5
G0X17.82Y8.72
M3 S30
; Layer C00
G1X18.75Y8.88
G1X18.8Y8.86
G1X18.83Y8.8
G1X18.8Y8.73
G1X18.72Y8.67
G1X18.69Y8.63
G1X18.72Y8.52
G1X18.78Y8.36
G1X18.89Y8.17
G1X18.99Y7.98
G1X19.06Y7.82
G1X19.1Y7.7
G1Y7.64
G1X19.06
G1X19Y7.7
G1X18.92Y7.8
G1X18.84Y7.91
G1X18.76Y8.04
G1X18.69Y8.17
G1X18.64Y8.28
G1X18.62Y8.37
G1X18.56Y8.47
G1X18.41Y8.54
G1X18.21Y8.57
G1X18Y8.54
G1X17.79Y8.48
G1Y6.51
G1Y6.01
G1X17.8Y5.81
G1X17.81Y5.64
G1X17.82Y5.49
G1X17.84Y5.37
G1X17.86Y5.28
G1X17.91Y5.15
G1X17.99Y5.09
G1X18.09
G1X18.23Y5.12
G1X18.32Y5.16
G1X18.38Y5.26
G1X18.39Y5.33
G1X18.41Y5.43
G1Y5.55
G1Y5.7
G1X18.42Y5.92
G1X18.44Y6.07
G1X18.47Y6.16
G1X18.52Y6.17
G1X18.56Y6.11
G1X18.59Y5.99
G1X18.61Y5.82
G1X18.63Y5.42
G1X18.65Y5.26
G1X18.69Y5.17
G1X18.74Y5.14
G1X18.85Y5.13
G1X18.87Y5.11
G1X18.83Y5.08
G1X18.73Y5.04
G1X18.42Y4.96
G1X18.01Y4.89
G1X17.81Y4.88
G1X17.66Y4.86
G1X17.55
G1X17.48
G1X17.44Y4.88
G1X17.42Y4.9
G1X17.44Y4.93
G1X17.47Y4.97
G1X17.5Y5.05
G1X17.53Y5.18
G1X17.55Y5.37
G1X17.57Y5.6
G1X17.6Y6.15
G1Y6.78
G1Y7.39
G1X17.57Y7.94
G1X17.56Y8.15
G1X17.53Y8.33
G1X17.5Y8.45
G1X17.47Y8.5
G1X17.41Y8.54
G1X17.38Y8.58
G1Y8.6
G1X17.43Y8.63
G1X17.51Y8.66
G1X17.64Y8.69
G1X17.82Y8.72
M5
G0X19.14Y8.87
M3 S30
; Layer C00
G1Y8.9
G1X19.18Y8.93
G1X19.25Y8.96
G1X19.37Y8.99
G1X19.54Y9.02
G1X20.02Y9.11
G1X20.22Y9.14
G1X20.36Y9.16
G1X20.47
G1X20.57
G1X20.59Y9.09
G1X20.56Y9.02
G1X20.48Y8.99
G1X20.46Y8.96
G1X20.44Y8.87
G1X20.42Y8.73
G1X20.41Y8.53
G1X20.39Y8.29
G1Y7.99
G1Y7.65
G1X20.38Y7.26
G1Y6.87
G1Y6.53
G1X20.39Y6.24
G1X20.41Y5.99
G1X20.42Y5.79
G1X20.44Y5.65
G1X20.46Y5.56
G1X20.48Y5.53
G1X20.58
G1X20.62Y5.5
G1X20.61Y5.47
G1X20.54Y5.42
G1X20.42Y5.37
G1X20.27Y5.32
G1X20.08Y5.27
G1X19.86Y5.22
G1X19.65Y5.18
G1X19.46Y5.15
G1X19.3
G1X19.18
G1X19.1
G1X19.09Y5.18
G1X19.14Y5.21
G1X19.25Y5.26
G1X19.28Y5.31
G1X19.27Y5.42
G1X19.2Y5.6
G1X19.08Y5.83
G1X19.02Y5.96
G1X18.96Y6.07
G1X18.93Y6.15
G1X18.91Y6.21
G1Y6.25
G1Y6.26
G1X18.94
G1X18.98Y6.23
G1X19.15Y6.03
G1X19.33Y5.74
G1X19.45Y5.56
G1X19.59Y5.45
G1X19.75Y5.39
G1X19.9
G1X20.04Y5.43
G1X20.15Y5.53
G1X20.21Y5.67
G1X20.22Y5.86
G1Y5.93
G1X20.21Y6.22
G1X20.19Y6.92
G1Y7.49
G1X20.17Y8.9
G1X19.6Y8.84
G1X19.59Y8.32
G1X19.58Y8.12
G1X19.56Y7.96
G1X19.54Y7.83
G1X19.51Y7.75
G1X19.49Y7.72
G1X19.47Y7.74
G1X19.45Y7.82
G1X19.44Y7.96
G1X19.42Y8.16
G1Y8.33
G1X19.39Y8.46
G1X19.37Y8.57
G1X19.32Y8.72
G1X19.23Y8.8
G1X19.17Y8.84
G1X19.14Y8.87
M5
G0X21.1Y9.48
M3 S30
; Layer C00
G1X21.33
G1X21.44
G1X21.49Y9.46
G1Y9.42
G1X21.43Y9.36
G1X21.4Y9.31
G1X21.38Y9.22
G1X21.36Y9.08
G1X21.34Y8.89
G1X21.33Y8.66
G1X21.32Y8.37
G1Y8.03
G1X21.31Y7.3
G1Y6.98
G1X21.29Y6.7
G1Y6.46
G1X21.27Y6.27
G1X21.25Y6.12
G1X21.23Y6.02
G1X21.21Y5.98
G1X21.18Y5.99
G1X21.16Y6.07
G1X21.14Y6.2
G1X21.13Y6.39
G1X21.12Y6.63
G1Y6.93
G1X21.11Y7.29
G1Y7.7
G1Y9.48
M5
G0X22.27Y9.36
M3 S30
; Layer C00
G1X22.29Y9.57
G1X22.32Y9.74
G1X22.35Y9.84
G1X22.38Y9.88
G1Y9.84
G1Y9.57
G1X22.39Y9.1
G1Y8.11
G1Y7.75
G1Y7.42
G1Y7.13
G1X22.38Y6.87
G1X22.37Y6.67
G1X22.35Y6.51
G1Y6.42
G1X22.33Y6.4
G1X22.3Y6.47
G1X22.27Y6.6
G1X22.25Y6.78
G1X22.24Y7.01
G1X22.22Y7.57
G1Y8.2
G1X22.24Y8.82
G1X22.27Y9.36
M5
G0X22.98Y9.19
M3 S30
; Layer C00
G1X23.02Y9.27
G1X23.1Y9.37
G1X23.17Y9.46
G1X23.23Y9.57
G1X23.26Y9.7
G1X23.28Y9.82
G1Y9.92
G1X23.31Y10
G1X23.34Y10.03
G1X23.38
G1X23.42Y9.98
G1X23.45Y9.89
G1Y9.79
G1Y9.67
G1X23.43Y9.56
G1X23.44Y9.48
G1X23.47Y9.42
G1X23.53Y9.39
G1X23.61
G1X23.73Y9.41
G1X23.88Y9.46
G1X24.07Y9.53
G1X24.44Y9.68
G1X24.37Y10.3
G1X24.33Y10.55
G1X24.28Y10.77
G1X24.23Y10.94
G1X24.19Y11.04
G1X24.13Y11.12
G1Y11.16
G1X24.21Y11.15
G1X24.35Y11.1
G1X24.43Y11.05
G1X24.48Y10.93
G1X24.51Y10.75
G1Y10.48
G1X24.53Y10.25
G1X24.55Y10.05
G1X24.59Y9.9
G1X24.63Y9.81
G1X24.69Y9.74
G1X24.71Y9.69
G1X24.69Y9.63
G1X24.62Y9.57
G1X24.51Y9.51
G1X24.35Y9.45
G1X24.13Y9.37
G1X23.85Y9.29
G1X23.57Y9.21
G1X23.35Y9.15
G1X23.18Y9.13
G1X23.06
G1X23Y9.14
G1X22.98Y9.19
M5
G0X23.36Y8.64
M3 S30
; Layer C00
G1X23.7Y8.75
G1X24.36Y8.97
G1X24.56Y9.03
G1X24.69Y9.06
G1X24.77
G1X24.81Y9.05
G1X24.83Y9.01
G1Y8.95
G1X24.8Y8.83
G1X24.72Y8.74
G1X24.7Y8.7
G1X24.68Y8.61
G1X24.66Y8.46
G1X24.65Y8.28
G1X24.64Y8.05
G1X24.63Y7.78
G1Y7.49
G1Y7.16
G1Y5.63
G1X24.34Y5.58
G1X24.12Y5.53
G1X23.87Y5.46
G1X23.71Y5.41
G1X23.52Y5.34
G1X23.02Y5.16
G1X22.76Y5.08
G1X22.53Y5.03
G1X22.32Y5.01
G1X22.12
G1X21.94Y5.05
G1X21.78Y5.11
G1X21.63Y5.2
G1X21.5Y5.32
G1X21.39Y5.44
G1X21.31Y5.54
G1X21.26Y5.63
G1X21.22Y5.7
G1Y5.76
G1Y5.8
G1X21.27Y5.82
G1X21.33
G1X21.39
G1Y5.77
G1X21.37Y5.73
G1X21.39Y5.68
G1X21.43Y5.61
G1X21.5Y5.54
G1X21.68Y5.38
G1X21.9Y5.25
G1X21.98Y5.22
G1X22.1
G1X22.24
G1X22.41Y5.24
G1X22.79Y5.31
G1X23.21Y5.42
G1X23.62Y5.54
G1X23.99Y5.68
G1X24.14Y5.75
G1X24.27Y5.82
G1X24.37Y5.88
G1X24.42Y5.94
G1X24.44Y5.99
G1X24.46Y6.1
G1X24.47Y6.24
G1X24.49Y6.42
G1X24.51Y6.87
G1Y7.38
G1Y8.05
G1Y8.22
G1Y8.35
G1X24.49Y8.46
G1X24.47Y8.54
G1X24.44Y8.61
G1X24.35Y8.67
G1X24.21Y8.68
G1X24.01Y8.64
G1X23.74Y8.57
G1X23.58Y8.53
G1X23.45Y8.48
G1X23.36Y8.44
G1X23.31Y8.38
G1X23.3Y8.32
G1X23.31Y8.23
G1X23.36Y8.13
G1X23.43Y8
G1X23.52Y7.75
G1X23.57Y7.42
G1Y7.07
G1X23.52Y6.75
G1X23.48Y6.66
G1X23.41Y6.58
G1X23.31Y6.5
G1X23.19Y6.43
G1X22.93Y6.35
G1X22.69
G1X22.64Y6.37
G1X22.66Y6.41
G1X22.76Y6.45
G1X22.94Y6.51
G1X23.38Y6.63
G1Y7.22
G1Y7.47
G1X23.35Y7.68
G1X23.32Y7.85
G1X23.27Y7.98
G1X23.21Y8.08
G1X23.13Y8.15
G1X23.02Y8.19
G1X22.9
G1X22.75Y8.21
G1X22.67Y8.24
G1Y8.29
G1X22.74Y8.36
G1X22.88Y8.44
G1X23.09Y8.53
G1X23.36Y8.64
M5
G0X22.77Y10.19
M3 S30
; Layer C00
G1X22.69
G1X22.66Y10.23
G1Y10.32
G1X22.67Y10.38
G1X22.72Y10.43
G1X22.78Y10.46
G1X22.86Y10.47
G1X23.01Y10.45
G1X23.07Y10.38
G1X23.02Y10.3
G1X22.91Y10.23
G1X22.77Y10.19
M5
G0X21.8Y10.48
M3 S30
; Layer C00
G1X21.78
G1X21.66Y10.5
G1X21.52Y10.57
G1X21.47Y10.61
G1X21.44Y10.64
G1Y10.66
G1X21.47
G1X21.58Y10.64
G1X21.72Y10.57
G1X21.78Y10.53
G1X21.8Y10.5
G1Y10.48
M5
G0X21.99Y10.99
M3 S30
; Layer C00
G1X21.93Y11.03
G1X21.89Y11.09
G1X21.91Y11.15
G1X21.96Y11.23
G1X22.06Y11.3
G1X22.19Y11.38
G1X22.36Y11.46
G1X22.55Y11.54
G1X22.78Y11.61
G1X22.98Y11.67
G1X23.16Y11.71
G1X23.32Y11.73
G1X23.45Y11.74
G1X23.55
G1X23.63Y11.72
G1X23.67Y11.68
G1X23.69Y11.63
G1Y11.58
G1X23.71Y11.56
G1X23.74Y11.58
G1X23.78Y11.64
G1X23.84Y11.69
G1X23.91
G1X24.02Y11.64
G1X24.17Y11.52
G1X24.27Y11.42
G1X24.34Y11.34
G1X24.37Y11.29
G1X24.35Y11.26
G1X24.23Y11.31
G1X24.11Y11.41
G1X24.02Y11.47
G1X23.89Y11.51
G1X23.7Y11.52
G1X23.45
G1X23.17Y11.49
G1X22.94Y11.46
G1X22.75Y11.43
G1X22.6Y11.39
G1X22.38Y11.29
G1X22.22Y11.14
G1X22.13Y11.04
G1X22.06Y10.99
G1X21.99
M5
G0X21.48Y12.08
M3 S30
; Layer C00
G1X21.42
G1X21.31Y12.1
G1X21.16Y12.13
G1X20.95Y12.17
G1X20.69Y12.21
G1X20.43Y12.25
G1X19.81Y12.34
G1X20.59Y12.29
G1X20.9Y12.26
G1X21.16Y12.22
G1X21.36Y12.18
G1X21.47Y12.14
G1X21.49Y12.1
G1X21.48Y12.08
M5
G0X21.15Y12.43
M3 S30
; Layer C00
G1X21.09
G1X21
G1X20.9Y12.46
G1X20.79Y12.51
G1X20.71Y12.56
G1X20.67Y12.59
G1Y12.62
G1X20.69Y12.63
G1X20.74
G1X20.82
G1X20.93Y12.6
G1X21.04Y12.56
G1X21.11Y12.52
G1X21.16Y12.49
G1X21.17Y12.46
G1X21.15Y12.43
M5
G0X20.38Y12.58
M3 S30
; Layer C00
G1X20.34Y12.57
G1X20.22Y12.56
G1X20.05
G1X19.84
G1X19.62
G1X19.49Y12.58
G1X19.44Y12.6
G1X19.48Y12.63
G1X19.7Y12.66
G1X20
G1X20.14
G1X20.26Y12.63
G1X20.35Y12.61
G1X20.38Y12.58
M5
G0X19.54Y12.38
M3 S30
; Layer C00
G1Y12.36
G1X19.5Y12.34
G1X19.29Y12.26
G1X19.49
G1X19.56Y12.25
G1X19.62Y12.24
G1X19.65Y12.22
G1Y12.2
G1X19.6Y12.18
G1X19.53
G1X19.44
G1X19.33
G1X19.05Y12.22
G1X18.73Y12.29
G1X18.38Y12.37
G1X18.02Y12.48
G1X17.7Y12.59
G1X17.41Y12.71
G1X17.1Y12.83
G1X16.78Y12.92
G1X16.47Y12.96
G1X16.19Y12.97
G1X15.96Y12.95
G1X15.8Y12.88
G1X15.76Y12.84
G1X15.73Y12.79
G1Y12.72
G1X15.77Y12.65
G1X15.75Y12.62
G1X15.66Y12.6
G1X15.52Y12.58
G1X15.33
G1X14.84Y12.56
G1X15.23Y12.64
G1X15.56Y12.73
G1X15.8Y12.86
G1X15.99Y12.99
G1X16.19Y13.09
G1X16.4Y13.17
G1X16.19Y13.21
G1X16.07
G1X15.88Y13.19
G1X15.66Y13.15
G1X15.24Y13.06
G1X15.09Y13.04
G1X15.01
G1X14.98
G1X15Y13.07
G1X15.08Y13.11
G1X15.22Y13.16
G1X15.41Y13.22
G1X15.79Y13.28
G1X16.22Y13.32
G1X16.41
G1X16.54
G1X16.6Y13.3
G1X16.56Y13.26
G1X16.52Y13.23
G1X16.54Y13.19
G1X16.62Y13.15
G1X16.77Y13.1
G1X16.93Y13.05
G1X17.05Y13.04
G1X17.14
G1X17.2Y13.09
G1X17.23Y13.12
G1X17.25
G1X17.27Y13.09
G1Y13.04
G1X17.31Y12.95
G1X17.42Y12.86
G1X17.58Y12.77
G1X17.79Y12.68
G1X18.04Y12.61
G1X18.32Y12.55
G1X18.62Y12.5
G1X18.93Y12.47
G1X19.11Y12.45
G1X19.26
G1X19.38Y12.43
G1X19.46Y12.41
G1X19.52Y12.39
G1X19.54Y12.38
M5
G0X19.18Y12.68
M3 S30
; Layer C00
G1X19.1
G1X18.99Y12.69
G1X18.85Y12.72
G1X18.71Y12.78
G1X18.36Y12.92
G1X18.65Y12.9
G1X18.76
G1X18.85Y12.87
G1X18.91Y12.85
G1X18.93Y12.82
G1X18.98Y12.76
G1X19.11Y12.74
G1X19.17Y12.73
G1X19.21Y12.72
G1Y12.7
G1X19.18Y12.68
M5
G0X18.3Y13.04
M3 S30
; Layer C00
G1X18.26Y13.01
G1X18.19Y13
G1X18.11Y13.02
G1X18Y13.06
G1X17.88Y13.13
G1X17.74Y13.23
G1X17.59Y13.35
G1X17.47Y13.45
G1X17.4Y13.52
G1X17.37Y13.56
G1Y13.57
G1X17.42Y13.55
G1X17.51Y13.51
G1X17.63Y13.44
G1X17.79Y13.33
G1X17.9Y13.27
G1X18.01Y13.23
G1X18.11Y13.21
G1X18.18
G1X18.23
G1X18.27Y13.2
G1X18.3Y13.16
G1X18.31Y13.11
G1X18.3Y13.04
M5
G0X19.08Y13.39
M3 S30
; Layer C00
G1X18.85Y13.57
G1X18.54Y13.86
G1X18.31Y14.15
G1X18.16Y14.43
G1X18.07Y14.7
G1X18.06Y14.96
G1X18.1Y15.2
G1X18.21Y15.42
G1X18.37Y15.62
G1X18.58Y15.79
G1X18.85Y15.92
G1X19.15Y16.02
G1X19.5Y16.09
G1X19.88Y16.11
G1X20.29Y16.08
G1X20.74Y16
G1X21.2Y15.87
G1X21.62Y15.75
G1X22.01Y15.67
G1X22.38Y15.63
G1X22.73
G1X23.06Y15.65
G1X23.35Y15.71
G1X23.61Y15.8
G1X23.83Y15.92
G1X24Y16.06
G1X24.13Y16.22
G1X24.21Y16.41
G1X24.24Y16.6
G1X24.21Y16.82
G1X24.12Y17.04
G1X23.97Y17.28
G1X23.75Y17.52
G1X23.51Y17.72
G1X23.25Y17.89
G1X22.97Y18.03
G1X22.66Y18.14
G1X22.32Y18.21
G1X21.96Y18.26
G1X21.55Y18.28
G1X21.12Y18.26
G1X20.64Y18.21
G1X20.13Y18.13
G1X19.58Y18.02
G1X18.98Y17.88
G1X18.34Y17.7
G1X17.65Y17.49
G1X16.91Y17.25
G1X15.36Y16.72
G1X14.66Y16.5
G1X14.03Y16.31
G1X13.45Y16.17
G1X12.93Y16.06
G1X12.48Y15.98
G1X12.08Y15.95
G1X11.74
G1X11.46Y15.99
G1X11.24Y16.07
G1X11.07Y16.18
G1X10.97Y16.33
G1X10.92Y16.52
G1Y16.75
G1X10.99Y17.01
G1X11.12Y17.32
G1X11.17Y17.42
G1X11.26Y17.54
G1X11.37Y17.68
G1X11.5Y17.82
G1X11.79Y18.13
G1X12.11Y18.42
G1X12.42Y18.68
G1X12.68Y18.87
G1X12.78Y18.94
G1X12.86Y18.97
G1X12.91
G1X12.93Y18.93
G1X12.92Y18.92
G1X12.88Y18.88
G1X12.75Y18.77
G1X12.55Y18.61
G1X12.3Y18.43
G1X11.93Y18.12
G1X11.63Y17.83
G1X11.4Y17.54
G1X11.25Y17.27
G1X11.17Y17.01
G1Y16.77
G1X11.23Y16.55
G1X11.38Y16.35
G1X11.59Y16.17
G1X11.85Y16.06
G1X12Y16.03
G1X12.17
G1X12.37
G1X12.6Y16.07
G1X12.87Y16.12
G1X13.17Y16.2
G1X13.52Y16.3
G1X13.92Y16.42
G1X14.37Y16.57
G1X14.88Y16.74
G1X15.45Y16.94
G1X16.65Y17.37
G1X17.16Y17.54
G1X17.61Y17.7
G1X18.02Y17.84
G1X18.39Y17.96
G1X18.73Y18.06
G1X19.03Y18.14
G1X19.31Y18.22
G1X19.82Y18.32
G1X20.3Y18.39
G1X20.78Y18.42
G1X21.31
G1X22.5
G1X23.21Y18.09
G1X23.6Y17.87
G1X23.91Y17.62
G1X24.14Y17.35
G1X24.29Y17.06
G1X24.35Y16.76
G1X24.32Y16.45
G1X24.2Y16.15
G1X23.99Y15.86
G1X23.77Y15.65
G1X23.54Y15.5
G1X23.28Y15.4
G1X22.99Y15.36
G1X22.64
G1X22.22Y15.43
G1X21.98Y15.48
G1X21.72Y15.55
G1X21.44Y15.63
G1X21.13Y15.72
G1X20.66Y15.84
G1X20.24Y15.93
G1X19.85Y15.97
G1X19.5Y15.98
G1X19.2Y15.96
G1X18.93Y15.9
G1X18.71Y15.8
G1X18.54Y15.68
G1X18.41Y15.52
G1X18.33Y15.33
G1X18.3Y15.11
G1X18.31Y14.87
G1X18.38Y14.6
G1X18.5Y14.3
G1X18.67Y13.98
G1X18.9Y13.63
G1X19.08Y13.39
M5
G0X18.57Y15.16
M3 S30
; Layer C00
G1X18.78Y15.4
G1X18.98Y15.59
G1X19.21Y15.71
G1X19.49Y15.77
G1X19.86Y15.79
G1X20.33Y15.78
G1X19.73Y15.71
G1X19.45Y15.66
G1X19.21Y15.59
G1X19.01Y15.51
G1X18.85Y15.4
G1X18.57Y15.16
M5
G0X16.58Y15.16
M3 S30
; Layer C00
G1X16.63Y14.89
G1Y14.65
G1X16.55Y14.45
G1X16.43Y14.27
G1X16.49Y14.46
G1X16.54Y14.66
G1X16.57Y14.9
G1X16.58Y15.16
M5
G0X16.41Y15.14
M3 S30
; Layer C00
G1X16.44Y15
G1X16.42Y14.84
G1X16.4Y14.8
G1X16.38
G1Y14.86
G1X16.37Y14.97
G1Y15.07
G1Y15.14
G1X16.39Y15.16
G1X16.41Y15.14
M5
G0X16Y15.14
M3 S30
; Layer C00
G1X15.98Y15.01
G1X15.93Y14.87
G1X15.88Y14.73
G1X15.83Y14.63
G1X15.79Y14.57
G1X15.76Y14.56
G1X15.74Y14.61
G1X15.76Y14.7
G1X15.78Y14.82
G1X15.83Y14.97
G1X15.88Y15.1
G1X15.93Y15.21
G1X15.97Y15.27
G1X16
G1X16.01Y15.23
G1Y15.14
M5
G0X15.68Y15.41
M3 S30
; Layer C00
G1X15.5Y15.35
G1X15.34Y15.28
G1X15.2Y15.21
G1X15.1Y15.14
G1X15.02Y15.07
G1X14.97Y15
G1X14.95Y14.93
G1Y14.86
G1X14.97Y14.79
G1X15.03Y14.73
G1X15.11Y14.67
G1X15.21Y14.61
G1X15.34Y14.57
G1X15.5Y14.53
G1X15.68Y14.5
G1X15.88Y14.48
G1X15.99Y14.44
G1X16.11Y14.36
G1X16.28Y14.28
G1X16.5Y14.27
G1X16.6
G1X16.68Y14.26
G1X16.74Y14.24
G1X16.76Y14.2
G1X16.77Y14.14
G1X16.81
G1X16.86Y14.17
G1X16.92Y14.24
G1X17.05Y14.44
G1X17.13Y14.68
G1X17.15Y14.93
G1X17.1Y15.13
G1X16.99Y15.3
G1X16.83Y15.42
G1X16.61Y15.49
G1X16.35Y15.51
G1X16.04Y15.49
G1X15.68Y15.41
M5
G0X15.54Y16.4
M3 S30
; Layer C00
G1X15.51
G1X15.53Y16.42
G1X15.59Y16.45
G1X15.69Y16.5
G1X15.82Y16.55
G1X17.02Y17.01
G1X18.3Y17.43
G1X18.89Y17.61
G1X19.4Y17.74
G1X19.62Y17.8
G1X19.81Y17.83
G1X19.96Y17.86
G1X20.07
G1X20.1
G1Y17.85
G1X20.06Y17.83
G1X19.99Y17.8
G1X19.77Y17.72
G1X19.45Y17.63
G1X19.24Y17.58
G1X18.99Y17.51
G1X18.71Y17.42
G1X18.4Y17.32
G1X17.76Y17.11
G1X17.13Y16.9
G1X16.66Y16.74
G1X16.25Y16.6
G1X15.92Y16.5
G1X15.68Y16.43
G1X15.6Y16.41
G1X15.54Y16.4
M5
G0X16.05Y18.17
M3 S30
; Layer C00
G1X16.1Y18.21
G1X16.13Y18.31
G1X16.12Y18.44
G1X16.08Y18.62
G1X16Y18.43
G1X15.96Y18.29
G1X15.98Y18.2
G1X16.05Y18.17
M5
G0X16.14Y18.13
M3 S30
; Layer C00
G1X15.92Y18.06
G1X15.78Y18.03
G1X15.62Y17.99
G1X15.38Y17.9
G1X15.26Y17.86
G1X15.15Y17.83
G1X15.06Y17.82
G1X15Y17.83
G1X14.96Y17.93
G1X14.97Y18.08
G1X15.03Y18.21
G1X15.12Y18.28
G1X15.16Y18.29
G1X15.17Y18.33
G1Y18.39
G1X15.16Y18.46
G1Y18.56
G1X15.18Y18.68
G1X15.26Y18.81
G1X15.37Y18.96
G1X15.58Y19.15
G1X15.8Y19.25
G1X15.89Y19.27
G1X15.97Y19.26
G1X16.02Y19.22
G1X16.03Y19.15
G1X15.98Y19.01
G1X15.86Y18.85
G1X15.71Y18.72
G1X15.58Y18.67
G1X15.56Y18.68
G1Y18.71
G1X15.6Y18.75
G1X15.67Y18.8
G1X15.74Y18.86
G1X15.79Y18.93
G1X15.82Y19
G1Y19.05
G1X15.78Y19.11
G1X15.72
G1X15.64Y19.08
G1X15.56Y19.03
G1X15.43Y18.85
G1X15.36Y18.64
G1X15.31Y18.41
G1X15.21Y18.23
G1X15.15Y18.15
G1X15.12Y18.09
G1Y18.05
G1X15.15Y18.02
G1X15.2Y18.01
G1X15.28
G1X15.38Y18.04
G1X15.5Y18.09
G1X15.64Y18.17
G1X15.77Y18.28
G1X15.9Y18.42
G1X16Y18.57
G1X16.18Y18.92
G1X16.22Y18.65
G1X16.24Y18.54
G1X16.27Y18.46
G1X16.31Y18.41
G1X16.35Y18.38
G1X16.4Y18.39
G1X16.45Y18.43
G1X16.5Y18.5
G1X16.54Y18.6
G1X16.57Y18.7
G1Y18.78
G1X16.56Y18.85
G1X16.51Y18.89
G1X16.47Y18.93
G1Y18.98
G1X16.5Y19.02
G1X16.58Y19.07
G1X16.71Y19.19
G1X16.76Y19.32
G1X16.79Y19.42
G1X16.85Y19.46
G1X16.88Y19.45
G1X16.9Y19.4
G1Y19.34
G1X16.87Y19.17
G1X16.89Y19.11
G1X16.94Y19.1
G1X17.03Y19.12
G1X17.1Y19.13
G1X17.12
G1X17.09Y19.1
G1X17Y19.06
G1X16.9Y18.99
G1X16.8Y18.89
G1X16.72Y18.77
G1X16.66Y18.64
G1X16.61Y18.51
G1X16.58Y18.42
G1X16.56Y18.35
G1Y18.31
G1X16.57Y18.29
G1X16.6Y18.3
G1X16.65Y18.33
G1X16.71Y18.37
G1X16.82Y18.5
G1X16.86Y18.62
G1X16.91Y18.75
G1X17.03Y18.88
G1X17.21Y19.02
G1X17.09Y18.8
G1X17Y18.62
G1X16.97Y18.48
G1Y18.44
G1X16.99Y18.41
G1X17.02
G1X17.06Y18.42
G1X17.12Y18.49
G1X17.19Y18.64
G1X17.27Y18.85
G1X17.41Y19.32
G1X17.48Y19.49
G1X17.53Y19.58
G1X17.56
G1Y19.5
G1X17.54Y19.36
G1X17.5Y19.18
G1X17.44Y18.97
G1X17.39Y18.8
G1X17.36Y18.66
G1X17.34Y18.57
G1Y18.5
G1X17.37Y18.48
G1X17.4Y18.49
G1X17.46Y18.55
G1X17.6Y18.72
G1X17.65Y18.74
G1X17.68Y18.72
G1X17.72Y18.64
G1X17.71Y18.59
G1X17.65Y18.53
G1X17.54Y18.46
G1X17.39Y18.4
G1X17Y18.3
G1X16.55Y18.23
G1X16.37Y18.19
G1X16.14Y18.13
M5
G0X18.23Y18.58
M3 S30
; Layer C00
G1X18.22Y18.61
G1Y18.68
G1X18.23Y18.77
G1X18.29Y19.03
G1X18.38Y19.35
G1X18.4Y19.47
G1Y19.53
G1X18.37
G1X18.3Y19.51
G1X18.26Y19.5
G1X18.27Y19.53
G1X18.32Y19.6
G1X18.41Y19.69
G1X18.5Y19.79
G1X18.59Y19.88
G1X18.65Y19.93
G1X18.68Y19.95
G1X18.67Y19.9
G1X18.63Y19.76
G1X18.58Y19.55
G1X18.51Y19.3
G1X18.43Y19.04
G1X18.35Y18.82
G1X18.29Y18.66
G1X18.25Y18.58
G1X18.23
M5
G0X18.92Y19.28
M3 S30
; Layer C00
G1X18.97Y19.26
G1X19.09Y19.33
G1X19.19Y19.48
G1X19.24Y19.68
G1X19.22Y19.86
G1X19.2Y19.91
G1X19.16
G1X19.12Y19.9
G1X19.07Y19.84
G1X18.94Y19.64
G1X18.88Y19.46
G1Y19.38
G1Y19.32
G1X18.92Y19.28
M5
G0X18.76Y19.25
M3 S30
; Layer C00
G1X18.77Y19.46
G1X18.86Y19.72
G1X19Y19.92
G1X19.14Y20.03
G1X19.21Y20.05
G1X19.28
G1X19.34Y20.02
G1X19.39Y19.97
G1X19.42Y19.83
G1X19.4Y19.65
G1X19.33Y19.44
G1X19.22Y19.22
G1X19.09Y19.01
G1X18.95Y18.83
G1X18.81Y18.71
G1X18.68Y18.67
G1X18.61Y18.7
G1X18.63Y18.77
G1X18.71Y18.84
G1X18.83Y18.9
G1X18.91Y18.93
G1X18.97Y18.97
G1X19.02Y19.01
G1X19.03Y19.06
G1Y19.1
G1X19Y19.12
G1X18.97
G1X18.93
G1X18.86Y19.09
G1X18.81Y19.11
G1X18.78Y19.17
G1X18.76Y19.25
M5
G0X19.55Y19.19
M3 S30
; Layer C00
G1X19.57Y19.13
G1X19.6Y19.08
G1X19.65Y19.07
G1X19.76Y19.13
G1X19.87Y19.28
G1X19.94Y19.46
G1Y19.63
G1X19.91Y19.79
G1X19.73Y19.62
G1X19.62Y19.46
G1X19.56Y19.27
G1Y19.19
M5
G0X19.45Y19.14
M3 S30
; Layer C00
G1X19.48Y19.38
G1X19.54Y19.62
G1X19.64Y19.83
G1X19.76Y20.01
G1X19.89Y20.14
G1X20.02Y20.22
G1X20.14
G1X20.24Y20.14
G1X20.26Y20.09
G1Y20.06
G1X20.21
G1X20.15Y20.08
G1X20.08Y20.09
G1X20
G1X19.93Y20.06
G1X19.87Y20.03
G1X19.79Y19.92
G1X19.76Y19.84
G1X19.81Y19.8
G1X19.91Y19.82
G1X19.99
G1X20.04Y19.77
G1X20.07Y19.68
G1Y19.57
G1X20.01Y19.3
G1X19.86Y19.07
G1X19.76Y18.98
G1X19.68Y18.92
G1X19.61Y18.89
G1X19.55Y18.88
G1X19.5Y18.9
G1X19.47Y18.95
G1X19.46Y19.03
G1Y19.14
M5
G0X20.39Y19.21
M3 S30
; Layer C00
G1X20.42Y19.16
G1X20.47Y19.21
G1X20.52Y19.31
G1X20.54Y19.37
G1Y19.42
G1X20.51Y19.45
G1X20.48Y19.46
G1X20.41Y19.42
G1X20.38Y19.31
G1X20.39Y19.21
M5
G0X20.49Y19.51
M3 S30
; Layer C00
G1X20.64Y19.7
G1X20.74Y19.88
G1X20.79Y20.06
G1Y20.13
G1X20.78Y20.2
G1X20.75Y20.24
G1X20.7Y20.25
G1X20.62Y20.21
G1X20.55Y20.09
G1X20.5Y19.92
G1X20.49Y19.72
G1Y19.51
M5
G0X20.71Y19.51
M3 S30
; Layer C00
G1X20.59Y19.26
G1X20.47Y19.13
G1X20.32Y19.07
G1X20.26
G1X20.22Y19.1
G1X20.2Y19.15
G1X20.22Y19.23
G1X20.28Y19.45
G1X20.33Y19.74
G1X20.36Y19.93
G1X20.43Y20.09
G1X20.52Y20.23
G1X20.61Y20.34
G1X20.72Y20.41
G1X20.82Y20.42
G1X20.9Y20.39
G1X20.97Y20.29
G1X20.98Y20.17
G1X20.94Y19.99
G1X20.89Y19.86
G1X20.81Y19.7
G1X20.71Y19.51
M5
G0X19.95Y21.79
M3 S30
; Layer C00
G1X19.84Y21.8
G1X19.75Y21.84
G1X19.68Y21.9
G1X19.62Y21.97
G1X19.56Y22
G1X19.51
G1X19.47Y21.97
G1X19.35Y21.84
G1X19.2Y21.73
G1X19.04Y21.64
G1X18.87Y21.58
G1X18.7Y21.55
G1X18.56
G1X18.45Y21.6
G1X18.38Y21.68
G1X18.37Y21.82
G1X18.41Y22.04
G1X18.49Y22.31
G1X18.6Y22.6
G1X18.73Y22.87
G1X18.86Y23.11
G1X18.99Y23.29
G1X19.1Y23.38
G1X19.21Y23.41
G1X19.29Y23.4
G1X19.35Y23.37
G1X19.4Y23.31
G1X19.41Y23.23
G1Y23.13
G1X19.37Y23.01
G1X19.3Y22.89
G1X19.12Y22.59
G1X18.96Y22.31
G1X18.89Y22.2
G1X18.82Y22.12
G1X18.74Y22.09
G1X18.67
G1X18.57Y22.12
G1X18.53Y22.1
G1Y22.03
G1X18.58Y21.89
G1X18.62Y21.81
G1X18.68Y21.79
G1X18.77Y21.81
G1X18.93Y21.88
G1X19.12Y21.99
G1X19.29Y22.12
G1X19.46Y22.28
G1X19.61Y22.46
G1X19.76Y22.67
G1X19.89Y22.91
G1X20Y23.16
G1X20.11Y23.44
G1X20.15Y23.52
G1X20.22Y23.56
G1X20.31Y23.59
G1X20.4
G1X20.49Y23.57
G1X20.57Y23.53
G1X20.63Y23.48
G1X20.67Y23.4
G1X20.66Y23.29
G1X20.6Y23.15
G1X20.52Y22.99
G1X20.41Y22.83
G1X20.29Y22.68
G1X20.17Y22.56
G1X20.07Y22.49
G1X19.99Y22.47
G1X19.92
G1X19.85Y22.44
G1X19.79Y22.39
G1X19.74Y22.31
G1X19.71Y22.23
G1Y22.14
G1X19.72Y22.07
G1X19.77Y22.02
G1X19.92Y21.95
G1X20.06Y21.97
G1X20.15Y22.03
G1X20.25Y22.11
G1X20.39Y22.24
G1X20.57Y22.4
G1X20.77Y22.62
G1X20.97Y22.88
G1X21.16Y23.17
G1X21.34Y23.49
G1X21.49Y23.82
G1X21.62Y24.16
G1X21.72Y24.49
G1X21.78Y24.8
G1X21.82Y25.04
G1X21.86Y25.23
G1X21.9Y25.36
G1X21.96Y25.45
G1X22.03Y25.49
G1X22.12
G1X22.24Y25.48
G1X22.39Y25.43
G1X22.46Y25.39
G1X22.51Y25.34
G1X22.54Y25.27
G1Y25.18
G1X22.52Y25.06
G1X22.47Y24.92
G1X22.4Y24.75
G1X22.31Y24.55
G1X22.25Y24.42
G1X22.19Y24.32
G1X22.15Y24.25
G1X22.11Y24.2
G1X22.05Y24.17
G1X22Y24.24
G1X21.98Y24.3
G1Y24.35
G1X22Y24.36
G1X22.07Y24.34
G1X22.09
G1Y24.38
G1Y24.43
G1X22.07Y24.49
G1X22.09Y24.56
G1X22.13Y24.63
G1X22.18Y24.69
G1X22.29Y24.83
G1X22.34Y24.99
G1Y25.07
G1X22.33Y25.13
G1X22.3Y25.17
G1X22.25Y25.19
G1X22.21Y25.18
G1X22.17Y25.14
G1X22.12Y25.08
G1X22.08Y24.99
G1X22.04Y24.86
G1X21.99Y24.71
G1X21.94Y24.53
G1X21.89Y24.32
G1X21.82Y24.12
G1X21.74Y23.97
G1X21.66Y23.86
G1X21.62Y23.76
G1X21.55Y23.54
G1X21.42Y23.26
G1X21.27Y22.97
G1X21.11Y22.72
G1X21.02Y22.57
G1X20.97Y22.43
G1Y22.3
G1X21.02Y22.21
G1X21.09Y22.15
G1X21.19Y22.13
G1X21.31Y22.17
G1X21.44Y22.27
G1X21.57Y22.34
G1X21.71
G1X21.83
G1X21.96Y22.41
G1X22.1Y22.53
G1X22.24Y22.69
G1X22.36Y22.87
G1X22.46Y23.08
G1X22.53Y23.28
G1X22.56Y23.48
G1Y23.58
G1X22.58Y23.64
G1X22.6Y23.66
G1X22.62Y23.63
G1X22.69Y23.54
G1X22.77Y23.51
G1X22.83Y23.55
G1X22.86Y23.64
G1X22.84Y23.71
G1X22.77Y23.75
G1X22.66Y23.77
G1X22.54Y23.76
G1X22.25Y23.68
G1X21.99Y23.52
G1X21.89Y23.43
G1X21.8Y23.38
G1X21.75Y23.37
G1X21.72Y23.4
G1X21.76Y23.48
G1X21.84Y23.51
G1X21.91Y23.53
G1Y23.57
G1X21.86Y23.66
G1X21.91Y23.76
G1X22.02Y23.85
G1X22.17Y23.94
G1X22.35Y24
G1X22.54Y24.04
G1X22.72
G1X22.87Y24
G1X22.95Y23.94
G1X23.01Y23.85
G1X23.04Y23.73
G1Y23.6
G1X22.99Y23.3
G1X22.86Y22.98
G1X22.68Y22.67
G1X22.45Y22.4
G1X22.33Y22.29
G1X22.2Y22.2
G1X22.07Y22.14
G1X21.94Y22.11
G1X21.69Y22.08
G1X21.53Y22.06
G1X21.4Y22.02
G1X21.27Y21.98
G1X21.17Y21.95
G1X21.09
G1X21.01Y22
G1X20.93Y22.08
G1X20.8Y22.26
G1X20.61Y22.1
G1X20.34Y21.91
G1X20.07Y21.81
G1X19.95Y21.79
M5
G0X21.63Y22.6
M3 S30
; Layer C00
G1Y22.65
G1X21.65Y22.78
G1X21.72Y22.87
G1X21.77Y22.95
G1Y23.05
G1X21.76Y23.1
G1X21.78Y23.14
G1X21.82Y23.17
G1X21.87Y23.18
G1X21.99Y23.15
G1X22.03Y23.09
G1X22.02Y23.03
G1X21.97Y22.95
G1X21.91Y22.85
G1X21.83Y22.75
G1X21.73Y22.64
G1X21.67Y22.59
G1X21.63
M5
G0X21.14Y24.04
M3 S30
; Layer C00
G1X20.94Y24.02
G1X20.67Y24.01
G1X20.32
G1X19.99
G1X19.73
G1X19.54Y24.04
G1X19.42Y24.06
G1X19.36Y24.09
G1X19.37Y24.14
G1X19.44Y24.19
G1X19.58Y24.25
G1X19.81Y24.35
G1X19.87Y26.62
G1X19.4Y26.96
G1X19.86Y27.28
G1Y29.64
G1X19.6Y29.75
G1X19.5Y29.8
G1X19.42Y29.86
G1X19.37Y29.91
G1X19.34Y29.95
G1X19.38Y29.97
G1X19.47Y29.99
G1X19.61Y30
G1X19.8Y30.01
G1X20.28Y30.03
G1X20.84
G1X21.43Y30.02
G1X21.97Y30
G1X22.21Y29.98
G1X22.41Y29.97
G1X22.57Y29.95
G1X22.69Y29.92
G1X23.03Y29.8
G1X23.33Y29.62
G1X23.6Y29.38
G1X23.82Y29.1
G1X24Y28.79
G1X24.12Y28.44
G1X24.18Y28.08
G1Y27.7
G1X24.17Y27.44
G1Y27.26
G1X24.21Y27.15
G1X24.28Y27.1
G1X24.35Y27.06
G1X24.39Y27.02
G1X24.41Y26.98
G1X24.39Y26.93
G1X24.35Y26.88
G1X24.28Y26.83
G1X24.18Y26.77
G1X24.06Y26.72
G1X23.91Y26.65
G1X23.78Y26.57
G1X23.67Y26.48
G1X23.6Y26.4
G1X23.55Y26.34
G1X23.51Y26.3
G1X23.46Y26.29
G1X23.42Y26.3
G1X23.41Y26.35
G1X23.43Y26.41
G1X23.49Y26.49
G1X23.56Y26.57
G1X23.73Y26.71
G1X23.89Y26.77
G1X23.93
G1X23.96Y26.8
G1X23.99Y26.85
G1X24Y26.93
G1X24.01Y27.05
G1Y27.22
G1Y27.44
G1Y27.73
G1X24Y28.02
G1X23.96Y28.29
G1X23.92Y28.53
G1X23.85Y28.75
G1X23.76Y28.94
G1X23.64Y29.12
G1X23.51Y29.27
G1X23.35Y29.4
G1X23.17Y29.51
G1X22.96Y29.61
G1X22.72Y29.68
G1X22.46Y29.74
G1X22.17Y29.78
G1X21.84Y29.81
G1X21.49
G1X21.1
G1X20.02Y29.78
G1X19.99Y28.55
G1X19.96Y27
G1X19.99Y25.41
G1X20.01Y24.2
G1X20.51
G1X20.75Y24.21
G1X20.9Y24.24
G1X20.98Y24.29
G1X21Y24.37
G1Y24.53
G1X21.2Y24.35
G1X21.3Y24.26
G1X21.35Y24.18
G1Y24.12
G1X21.28Y24.07
G1X21.14Y24.04
M5
G0X21.01Y24.6
M3 S30
; Layer C00
G1X20.96Y24.65
G1X20.94Y24.78
G1Y24.96
G1X20.97Y25.18
G1X21.01Y25.4
G1X21.06Y25.61
G1X21.13Y25.77
G1X21.19Y25.86
G1X21.29Y25.91
G1X21.43Y25.94
G1X21.6Y25.95
G1X21.78
G1X21.96Y25.94
G1X22.13Y25.91
G1X22.26Y25.87
G1X22.35Y25.82
G1Y25.78
G1X22.24Y25.76
G1X22.05
G1X21.78
G1X21.1Y25.81
G1Y25.2
G1Y24.97
G1X21.08Y24.78
G1X21.04Y24.65
G1X21.01Y24.6
M5
G0X22.69Y24.31
M3 S30
; Layer C00
G1X22.73Y24.86
G1Y25.1
G1X22.72Y25.31
G1X22.68Y25.47
G1X22.63Y25.57
G1X22.57Y25.65
G1X22.55Y25.68
G1X22.59Y25.67
G1X22.68Y25.6
G1X22.76Y25.51
G1X22.82Y25.38
G1X22.85Y25.21
G1X22.86Y24.98
G1X22.87Y24.79
G1X22.91Y24.62
G1X22.96Y24.48
G1X23.04Y24.35
G1X23.13Y24.26
G1X23.24Y24.2
G1X23.37Y24.16
G1X23.51
G1X23.76Y24.18
G1X24.05Y24.2
G1X24.16Y24.21
G1X24.23Y24.23
G1X24.26Y24.25
G1X24.23Y24.27
G1X24.19Y24.3
G1X24.16Y24.33
G1Y24.37
G1Y24.41
G1X24.18Y24.47
G1X24.16Y24.53
G1X24.13Y24.61
G1X23.97Y24.81
G1X23.85Y25
G1X23.72Y25.23
G1X23.59Y25.47
G1X23.48Y25.7
G1X23.4Y25.89
G1X23.37Y25.97
G1X23.35Y26.03
G1Y26.07
G1X23.38
G1X23.43Y26.01
G1X23.48Y25.93
G1X23.55Y25.83
G1X23.72Y25.55
G1X23.91Y25.22
G1X24.11Y24.86
G1X24.31Y24.57
G1X24.4Y24.45
G1X24.48Y24.36
G1X24.55Y24.29
G1X24.6Y24.25
G1X24.73Y24.19
G1X24.8Y24.14
G1X24.81Y24.1
G1X24.77Y24.06
G1X24.67Y24.04
G1X24.51Y24.02
G1X24.28Y24.01
G1X24
G1X23.67
G1X23.41Y24.03
G1X23.31Y24.05
G1X23.24Y24.06
G1X23.19Y24.08
G1X23.17Y24.1
G1X23.15Y24.14
G1X23.1Y24.19
G1X23.03Y24.23
G1X22.93Y24.26
G1X22.69Y24.31
M5
G0X19.34Y25.03
M3 S30
; Layer C00
G1X18.85
G1X18.56Y25.06
G1X18.36Y25.11
G1X18.25Y25.19
G1X18.21Y25.31
G1X18.24Y25.34
G1X18.34Y25.37
G1X18.48Y25.38
G1X18.66
G1X18.86Y25.4
G1X19.02Y25.43
G1X19.16Y25.47
G1X19.24Y25.54
G1X19.31Y25.6
G1X19.37Y25.64
G1X19.42
G1X19.45Y25.62
G1X19.48Y25.57
G1Y25.5
G1Y25.41
G1X19.44Y25.31
G1X19.34Y25.03
M5
G0X18.78Y24.67
M3 S30
; Layer C00
G1X18.74Y24.69
G1X18.72Y24.67
G1X18.69Y24.59
G1X18.49Y23.93
G1X18.43Y23.72
G1X18.39Y23.57
G1X18.37Y23.47
G1Y23.43
G1X18.41Y23.46
G1X18.46Y23.54
G1X18.54Y23.68
G1X18.64Y23.88
G1X18.89Y24.4
G1Y24.48
G1X18.83Y24.6
G1X18.78Y24.67
M5
G0X18.92Y24.85
M3 S30
; Layer C00
G1X19.02Y24.8
G1X19.08Y24.74
G1X19.12Y24.67
G1Y24.61
G1X19.09Y24.52
G1X19.05Y24.38
G1X18.98Y24.22
G1X18.82Y23.83
G1X18.61Y23.39
G1X18.4Y22.92
G1X18.22Y22.48
G1X18.14Y22.28
G1X18.08Y22.11
G1X18.04Y21.96
G1X18.02Y21.85
G1X18Y21.7
G1X17.98Y21.58
G1X17.95Y21.48
G1X17.91Y21.42
G1X17.86Y21.38
G1X17.8Y21.37
G1X17.73
G1X17.65Y21.4
G1X17.57Y21.45
G1X17.51Y21.53
G1X17.49Y21.64
G1X17.51Y21.79
G1X17.55Y21.98
G1X17.63Y22.22
G1X17.74Y22.51
G1X17.88Y22.85
G1X18.06Y23.25
G1X18.2Y23.59
G1X18.31Y23.88
G1X18.4Y24.11
G1X18.45Y24.29
G1X18.48Y24.43
G1Y24.53
G1X18.47Y24.6
G1X18.43Y24.72
G1X18.49Y24.81
G1X18.62Y24.87
G1X18.81
G1X18.92Y24.85
M5
G0X17.23Y24.62
M3 S30
; Layer C00
G1X17.26Y24.52
G1X17.29Y24.3
G1X16.77
G1X16.56
G1X16.41Y24.31
G1X16.32Y24.33
G1X16.27Y24.35
G1Y24.39
G1X16.33Y24.44
G1X16.43Y24.51
G1X16.58Y24.6
G1X16.72Y24.68
G1X16.85Y24.73
G1X16.96Y24.76
G1X17.06
G1X17.13Y24.74
G1X17.19Y24.69
G1X17.23Y24.62
M5
G0X16.24Y25.22
M3 S30
; Layer C00
G1X16.19Y25.19
G1X16.14
G1X16.1Y25.24
G1X16.07Y25.32
G1X16.05Y25.44
G1X16.04Y25.6
G1Y25.78
G1Y25.94
G1X16.03Y26.07
G1X16.02Y26.17
G1X16Y26.25
G1X15.95Y26.35
G1X15.88Y26.38
G1X15.82
G1X15.77Y26.42
G1X15.74Y26.47
G1X15.72Y26.52
G1X15.74Y26.58
G1X15.77Y26.63
G1X15.82Y26.66
G1X15.92Y26.68
G1X15.96Y26.71
G1X15.98Y26.77
G1X16Y26.85
G1X16.02Y26.98
G1Y27.14
G1X16.03Y27.35
G1Y27.61
G1Y27.87
G1Y28.07
G1X16.02Y28.24
G1X16Y28.36
G1X15.99Y28.45
G1X15.96Y28.51
G1X15.93Y28.54
G1X15.76Y28.58
G1X15.67Y28.65
G1X15.68Y28.67
G1X15.75Y28.69
G1X15.87Y28.71
G1X16.04Y28.72
G1X16.26Y28.73
G1X16.53Y28.74
G1X16.85
G1X17.22
G1X18.83
G1X18.92Y28.52
G1X19Y28.29
G1X19.05Y28.05
G1X19.11Y27.84
G1X19.22Y27.68
G1X19.28Y27.6
G1X19.31Y27.54
G1Y27.48
G1X19.28Y27.45
G1X19.24Y27.43
G1X19.17
G1X19.1Y27.47
G1X19.01Y27.53
G1X18.87Y27.62
G1X18.67Y27.68
G1X18.54Y27.7
G1X18.38Y27.72
G1X18.2Y27.73
G1X17.99Y27.74
G1X17.17Y27.78
G1Y27.47
G1X17.18Y27.32
G1X17.22Y27.22
G1X17.29Y27.18
G1X17.41Y27.17
G1X17.64Y27.12
G1X17.85Y27.03
G1X17.95Y26.97
G1X18.04Y26.94
G1X18.11Y26.95
G1X18.25Y27.03
G1X18.31Y27.04
G1X18.37Y27.02
G1X18.41Y26.98
G1X18.46Y26.84
G1X18.44Y26.64
G1X18.38Y26.49
G1X18.28Y26.37
G1X18.16Y26.28
G1X18.01Y26.21
G1X17.85Y26.18
G1X17.69
G1X17.53Y26.21
G1X17.38Y26.29
G1X17.32Y26.33
G1Y26.36
G1X17.41
G1X17.56
G1X17.72Y26.34
G1X17.86Y26.36
G1X17.97Y26.41
G1X18.07Y26.49
G1X18.13Y26.56
G1X18.18Y26.62
G1X18.19Y26.66
G1X18.17Y26.7
G1X18.12Y26.74
G1X18.01Y26.79
G1X17.85Y26.85
G1X17.12Y27.13
G1Y27.81
G1X18.91Y27.87
G1X18.82Y28.18
G1X18.72Y28.33
G1X18.54Y28.46
G1X18.29Y28.57
G1X17.97Y28.64
G1X17.62Y28.68
G1X17.22
G1X16.81Y28.65
G1X16.4Y28.58
G1X16.19Y28.54
G1X16.18Y27.63
G1Y27.27
G1X16.16Y26.81
G1Y26.62
G1X16.15Y26.57
G1X16.14Y26.23
G1X16.2Y25.95
G1X16.31Y25.73
G1X16.45Y25.59
G1X16.53Y25.55
G1X16.62Y25.54
G1X16.7
G1X16.78Y25.58
G1X16.86Y25.64
G1X16.93Y25.73
G1X17Y25.85
G1X17.06Y26
G1X17.15Y26.33
G1X17.17Y25.59
G1X16.76Y25.49
G1X16.6Y25.44
G1X16.46Y25.39
G1X16.35Y25.33
G1X16.29Y25.29
G1X16.24Y25.22
M5
G0X14.14Y25.38
M3 S30
; Layer C00
G1X14.06Y25.05
G1X14.03Y24.77
G1Y24.66
G1X14.04Y24.57
G1X14.07Y24.52
G1X14.11Y24.5
G1X14.24Y24.47
G1X14.33Y24.4
G1Y24.38
G1X14.3Y24.36
G1X14.25Y24.34
G1X14.17Y24.33
G1X13.94Y24.31
G1X13.61
G1X12.83
G1X12.84Y24.87
G1X12.86Y25.14
G1Y25.21
G1Y25.25
G1X12.87
G1X12.88Y25.22
G1X12.89Y25.15
G1X12.9Y25.04
G1X12.95Y24.87
G1X13.06Y24.7
G1X13.2Y24.56
G1X13.35Y24.44
G1X13.5Y24.37
G1X13.63Y24.35
G1X13.72Y24.39
G1X13.76Y24.51
G1Y24.6
G1X13.79Y24.72
G1X13.81Y24.81
G1X13.85Y24.93
G1X13.96Y25.31
G1X14.09Y25.71
G1X14.21Y26.03
G1X14.31Y26.29
G1X14.41Y26.48
G1X14.51Y26.6
G1X14.59Y26.66
G1X14.67
G1X14.74Y26.58
G1Y26.53
G1X14.72Y26.48
G1X14.68Y26.43
G1X14.61Y26.39
G1X14.55Y26.34
G1X14.48Y26.26
G1X14.42Y26.15
G1X14.35Y26.02
G1X14.24Y25.72
G1X14.14Y25.38
M5
G0X12.2Y25.28
M3 S30
; Layer C00
G1X12.18Y25.21
G1X12.14Y25.14
G1X12.08Y25.09
G1X12Y25.05
G1X11.89
G1X11.77Y25.03
G1X11.68Y24.99
G1X11.63Y24.9
G1X11.61Y24.77
G1X11.57Y24.64
G1X11.47Y24.5
G1X11.33Y24.36
G1X11.13Y24.22
G1X10.76Y23.97
G1X10.4Y23.69
G1X10.08Y23.43
G1X9.84Y23.19
G1X9.7Y23.07
G1X9.59Y23.02
G1X9.56Y23.04
G1X9.6Y23.11
G1X9.65Y23.17
G1X9.71Y23.25
G1X9.8Y23.34
G1X9.91Y23.46
G1X10Y23.59
G1X10.03Y23.71
G1X10.04Y23.75
G1X10.06Y23.77
G1X10.09
G1X10.13
G1X10.19
G1X10.28Y23.83
G1X10.39Y23.94
G1X10.51Y24.08
G1X10.78Y24.4
G1X11.04Y24.66
G1X11.15Y24.76
G1X11.24Y24.83
G1X11.31Y24.86
G1X11.35
G1Y24.81
G1X11.28Y24.73
G1X11.17Y24.62
G1X10.87Y24.35
G1X10.75Y24.24
G1X10.69Y24.15
G1X10.67Y24.1
G1X10.69Y24.09
G1X10.77Y24.11
G1X10.89Y24.17
G1X11.05Y24.28
G1X11.26Y24.43
G1X11.38Y24.57
G1X11.43Y24.71
G1Y24.92
G1Y25.07
G1X11.45Y25.17
G1X11.48Y25.21
G1X11.52Y25.19
G1X11.57Y25.16
G1X11.63Y25.15
G1X11.69Y25.16
G1X11.76Y25.2
G1X11.85Y25.31
G1X11.89Y25.4
G1Y25.44
G1X11.88Y25.46
G1X11.84
G1X11.79Y25.44
G1X11.72Y25.42
G1X11.69Y25.46
G1X11.7Y25.54
G1X11.76Y25.62
G1X11.84Y25.67
G1X11.92
G1X12Y25.63
G1X12.1Y25.54
G1X12.16Y25.45
G1X12.19Y25.37
G1Y25.28
M5
G0X12.11Y24.79
M3 S30
; Layer C00
G1X12.16Y24.77
G1X12.18Y24.75
G1X12.15Y24.72
G1X12.08Y24.6
G1X12.06Y24.42
G1X12.08Y24.2
G1X11.89Y24.36
G1X11.82Y24.43
G1X11.77Y24.51
G1X11.76Y24.58
G1Y24.65
G1X11.8Y24.71
G1X11.86Y24.75
G1X11.94Y24.78
G1X12.04Y24.79
G1X12.11
M5
G0X11.86Y24.19
M3 S30
; Layer C00
G1X11.89
G1Y24.15
G1X11.87Y24.12
G1X11.8Y24.08
G1X11.7Y24.03
G1X11.58Y23.99
G1X11.45Y23.93
G1X11.36Y23.87
G1X11.3Y23.8
G1X11.28Y23.72
G1X11.29Y23.52
G1X11.26Y23.4
G1X11.19Y23.33
G1X11.07Y23.31
G1X10.83Y23.27
G1X10.57Y23.16
G1X10.29Y23
G1X10.55Y23.18
G1X10.74Y23.33
G1X10.89Y23.44
G1X10.99Y23.52
G1X11.04Y23.58
G1Y23.6
G1X10.99Y23.59
G1X10.89Y23.54
G1X10.54Y23.37
G1X10.39Y23.3
G1X10.28Y23.26
G1X10.24
G1X10.29Y23.31
G1X10.41Y23.4
G1X10.59Y23.52
G1X10.8Y23.66
G1X11.03Y23.8
G1X11.25Y23.92
G1X11.45Y24.03
G1X11.59Y24.09
G1X11.69Y24.13
G1X11.83Y24.18
G1X11.86Y24.19
M5
G0X12Y23.79
M3 S30
; Layer C00
G1X12.05
G1Y23.77
G1X12.03Y23.74
G1X11.95Y23.71
G1X11.76Y23.65
G1X11.59Y23.62
G1X11.53
G1Y23.65
G1X11.56Y23.67
G1X11.64Y23.71
G1X11.83Y23.77
G1X12Y23.79
M5
G0X12Y23.4
M3 S30
; Layer C00
G1X12.08
G1X12.07Y23.37
G1X11.97Y23.33
G1X11.79Y23.28
G1X11.39Y23.16
G1X10.95Y23.04
G1X10.88Y23.03
G1X10.86
G1X10.88Y23.06
G1X10.95Y23.1
G1X11.05Y23.14
G1X11.18Y23.2
G1X11.34Y23.26
G1X11.7Y23.36
G1X12Y23.4
M5
G0X12.38Y22.48
M3 S30
; Layer C00
G1X12.41Y22.45
G1X12.44Y22.39
G1X12.45Y22.32
G1X12.4Y22.27
G1X12.29Y22.23
G1X12.11Y22.21
G1X11.95
G1X11.84
G1X11.77Y22.22
G1X11.76Y22.25
G1X11.72Y22.28
G1X11.58Y22.31
G1X11.37Y22.33
G1X11.1Y22.34
G1X10.4Y22.36
G1X11.17Y22.42
G1X11.48Y22.43
G1X11.74
G1X11.84
G1X11.93Y22.42
G1X11.98Y22.41
G1X12.01Y22.39
G1X12.08Y22.33
G1X12.16Y22.31
G1X12.23Y22.34
G1X12.31Y22.42
G1X12.35Y22.47
G1X12.38
M5
G0X11.95Y21.97
M3 S30
; Layer C00
G1X12.32Y21.88
G1X12.62Y21.77
G1X12.88Y21.63
G1X12.61Y21.69
G1X12.48Y21.71
G1X12.39Y21.7
G1X12.32Y21.66
G1X12.23Y21.53
G1X12.15Y21.5
G1X12.01Y21.51
G1X11.8Y21.56
G1X11.64Y21.6
G1X11.51Y21.64
G1X11.43Y21.68
G1X11.42Y21.7
G1X11.46Y21.71
G1X11.56
G1X11.68Y21.69
G1X12.01Y21.61
G1X12.13
G1X12.2Y21.63
G1X12.25Y21.69
G1Y21.75
G1X12.17Y21.8
G1X12.03Y21.85
G1X11.81Y21.88
G1X11.61Y21.91
G1X11.41Y21.95
G1X11.24Y21.99
G1X11.12Y22.04
G1X11.05Y22.07
G1X11.02Y22.09
G1Y22.1
G1X11.07
G1X11.18Y22.09
G1X11.36Y22.06
G1X11.95Y21.97
M5
G0X11.64Y21.24
M3 S30
; Layer C00
G1X11.76Y21.21
G1X11.9Y21.14
G1X11.95Y21.1
G1X11.98Y21.07
G1Y21.05
G1X11.95
G1X11.83Y21.07
G1X11.69Y21.14
G1X11.64Y21.18
G1X11.61Y21.21
G1Y21.23
G1X11.64
M5
G0X14.17Y21.07
M3 S30
; Layer C00
G1X14.19Y20.88
G1X14.22Y20.7
G1X14.27Y20.55
G1X14.35Y20.41
G1X14.44Y20.3
G1X14.55Y20.2
G1X14.68Y20.14
G1X14.82Y20.1
G1X14.97Y20.08
G1X15.09
G1X15.17Y20.09
G1X15.22Y20.12
G1Y20.16
G1X15.2Y20.21
G1X15.13Y20.26
G1X15.02Y20.32
G1X14.93Y20.38
G1X14.84Y20.47
G1X14.76Y20.59
G1X14.69Y20.73
G1X14.57Y21.06
G1X14.5Y21.43
G1X14.47Y21.8
G1X14.49Y22.16
G1X14.52Y22.31
G1X14.56Y22.45
G1X14.62Y22.57
G1X14.69Y22.66
G1X14.76Y22.78
G1X14.79Y22.94
G1X14.82Y23.06
G1X14.88Y23.12
G1X14.96Y23.18
G1X15.03Y23.32
G1X15.08Y23.48
G1X15.07Y23.58
G1X15.04Y23.55
G1X14.97Y23.44
G1X14.87Y23.29
G1X14.77Y23.09
G1X14.5Y22.53
G1X14.31Y22
G1X14.21Y21.51
G1X14.17Y21.07
M5
G0X13.93Y21.08
M3 S30
; Layer C00
G1X13.96Y21.39
G1X14.02Y21.74
G1X14.13Y22.13
G1X14.27Y22.54
G1X14.45Y22.93
G1X14.65Y23.3
G1X14.88Y23.65
G1X15.13Y23.98
G1X15.39Y24.29
G1X15.66Y24.56
G1X15.94Y24.8
G1X16.23Y25
G1X16.51Y25.16
G1X16.79Y25.28
G1X17.06Y25.36
G1X17.31Y25.38
G1X17.55Y25.36
G1X17.77Y25.27
G1X17.97Y25.13
G1X18.08Y24.97
G1X18.13Y24.76
G1Y24.52
G1X18.09Y24.25
G1X18.01Y23.95
G1X17.89Y23.65
G1X17.74Y23.34
G1X17.57Y23.04
G1X17.37Y22.75
G1X17.16Y22.49
G1X16.95Y22.25
G1X16.72Y22.06
G1X16.5Y21.91
G1X16.29Y21.82
G1X16.09Y21.8
G1X15.91Y21.84
G1X15.82Y21.91
G1X15.77Y22.01
G1X15.74Y22.12
G1Y22.26
G1X15.78Y22.58
G1X15.9Y22.93
G1X16.08Y23.26
G1X16.3Y23.54
G1X16.41Y23.65
G1X16.53Y23.73
G1X16.66Y23.79
G1X16.78Y23.81
G1X16.86
G1X16.91Y23.79
G1X16.95Y23.77
G1Y23.72
G1X16.93Y23.67
G1X16.88Y23.58
G1X16.81Y23.48
G1X16.7Y23.35
G1X16.47Y23.01
G1X16.28Y22.67
G1X16.22Y22.54
G1X16.15Y22.44
G1X16.08Y22.38
G1X16.03
G1X15.99
G1X15.96Y22.36
G1X15.94Y22.31
G1Y22.23
G1Y22.15
G1X15.96Y22.09
G1X16Y22.05
G1X16.04Y22.03
G1X16.08
G1X16.1Y22.06
G1Y22.1
G1X16.08Y22.14
G1X16.05Y22.19
G1Y22.21
G1X16.08
G1X16.13Y22.18
G1X16.2Y22.16
G1X16.28
G1X16.37Y22.2
G1X16.46Y22.27
G1X16.66Y22.46
G1X16.87Y22.73
G1X17.06Y23.06
G1X17.23Y23.43
G1X17.38Y23.83
G1X17.48Y24.22
G1X17.57Y24.75
G1X17.55Y23.82
G1Y23.63
G1Y23.51
G1X17.57Y23.46
G1X17.6
G1X17.65Y23.53
G1X17.71Y23.65
G1X17.8Y23.83
G1X17.89Y24.06
G1X17.96Y24.28
G1X18Y24.48
G1Y24.66
G1X17.98Y24.81
G1X17.92Y24.94
G1X17.84Y25.03
G1X17.73Y25.1
G1X17.61Y25.13
G1X17.52Y25.15
G1X17.46
G1X17.41
G1X17.39Y25.11
G1X17.4Y25.06
G1X17.43Y25
G1X17.49Y24.92
G1X17.56Y24.84
G1X17.58Y24.8
G1X17.55Y24.81
G1X17.48Y24.87
G1X17.33Y24.96
G1X17.16Y25
G1X16.97
G1X16.77Y24.94
G1X16.56Y24.83
G1X16.35Y24.69
G1X16.14Y24.51
G1X15.93Y24.3
G1X15.72Y24.06
G1X15.52Y23.8
G1X15.34Y23.51
G1X15.17Y23.2
G1X15.01Y22.88
G1X14.88Y22.54
G1X14.77Y22.2
G1X14.69Y21.85
G1X14.65Y21.58
G1X14.64Y21.33
G1X14.65Y21.12
G1X14.69Y20.93
G1X14.76Y20.76
G1X14.85Y20.63
G1X14.98Y20.52
G1X15.13Y20.44
G1X15.31Y20.39
G1X15.52Y20.36
G1X15.76
G1X16.03Y20.39
G1X16.32Y20.44
G1X16.65Y20.52
G1X17.01Y20.63
G1X17.4Y20.76
G1X18.01Y20.97
G1X18.59Y21.16
G1X18.85Y21.24
G1X19.09Y21.32
G1X19.31Y21.38
G1X19.5Y21.43
G1X19.65Y21.47
G1X19.78Y21.5
G1X19.86Y21.51
G1X19.91
G1Y21.5
G1X19.86Y21.46
G1X19.76Y21.41
G1X19.6Y21.34
G1X19.19Y21.17
G1X20.25Y21.15
G1X20.66
G1X21Y21.16
G1X21.13Y21.18
G1X21.23
G1X21.29Y21.2
G1X21.31Y21.22
G1X21.3Y21.29
G1X21.25Y21.36
G1X21.18Y21.41
G1X21.09Y21.46
G1X20.84Y21.53
G1X20.51Y21.56
G1X20.02
G1X20.47Y21.67
G1X20.7Y21.71
G1X20.9Y21.72
G1X21.07Y21.71
G1X21.21Y21.67
G1X21.33Y21.6
G1X21.41Y21.51
G1X21.47Y21.39
G1X21.5Y21.25
G1X21.53Y20.92
G1X20.97Y20.98
G1X20.67Y21.01
G1X20.35
G1X19.99Y20.97
G1X19.6Y20.92
G1X19.16Y20.83
G1X18.67Y20.71
G1X18.13Y20.57
G1X17.53Y20.39
G1X16.98Y20.22
G1X16.48Y20.1
G1X16.02Y20.01
G1X15.61Y19.95
G1X15.25Y19.93
G1X14.93Y19.95
G1X14.66Y20
G1X14.43Y20.08
G1X14.24Y20.21
G1X14.1Y20.37
G1X14Y20.57
G1X13.95Y20.81
G1X13.93Y21.08
M5
G0X9.59Y22.25
M3 S30
; Layer C00
G1X9.52Y22.23
G1X9.48Y22.25
G1X9.45Y22.31
G1X9.43Y22.39
G1Y22.5
G1Y22.57
G1X9.45Y22.62
G1X9.48
G1X9.51Y22.6
G1X9.57Y22.49
G1X9.61Y22.3
G1X9.59Y22.25
M5
G0X9.15Y22.43
M3 S30
; Layer C00
G1X9.07Y22.4
G1X8.99Y22.39
G1X8.91Y22.4
G1X8.86Y22.42
G1X8.83Y22.44
G1Y22.46
G1X8.85Y22.48
G1X8.9Y22.5
G1X8.99Y22.53
G1X9.12Y22.57
G1X9.3Y22.61
G1X9.29Y22.58
G1X9.21Y22.48
G1X9.15Y22.43
M5
G0X8.84Y22.29
M3 S30
; Layer C00
G1Y22.23
G1X8.79Y22.13
G1X8.69Y22
G1X8.59Y21.94
G1X8.51
G1X8.48Y22.04
G1X8.49Y22.07
G1X8.51Y22.09
G1X8.55
G1X8.63Y22.06
G1X8.66
G1X8.68Y22.08
G1Y22.11
G1X8.64Y22.2
G1X8.51Y22.26
G1X8.45Y22.28
G1Y22.29
G1X8.51Y22.31
G1X8.62
G1X8.77
G1X8.84Y22.29
M5
G0X8.43Y22.46
M3 S30
; Layer C00
G1X8.34Y22.37
G1X8.26Y22.29
G1X8.22Y22.28
G1X8.17Y22.3
G1X8.12Y22.36
G1X8.06Y22.44
G1X8.01Y22.55
G1X7.99Y22.6
G1X8.01
G1X8.07Y22.56
G1X8.21Y22.49
G1X8.37
G1X8.43Y22.51
G1X8.46
G1Y22.49
G1X8.43Y22.46
M5
G0X7.73Y22.31
M3 S30
; Layer C00
G1Y22.28
G1X7.71Y22.23
G1X7.62Y22.16
G1X7.49Y22.13
G1X7.43Y22.12
G1X7.36Y22.08
G1X7.31Y22.03
G1X7.28Y21.97
G1X7.24Y21.92
G1X7.19Y21.88
G1X7.13Y21.87
G1X7.06
G1X7Y21.89
G1X6.96
G1Y21.84
G1X6.99Y21.72
G1Y21.68
G1X6.97
G1X6.93
G1X6.88Y21.7
G1X6.84Y21.68
G1X6.79Y21.64
G1X6.76Y21.58
G1X6.73Y21.51
G1X6.69Y21.48
G1X6.66Y21.49
G1X6.62Y21.54
G1X6.59Y21.56
G1X6.55
G1X6.51Y21.53
G1X6.46Y21.48
G1X6.34Y21.32
G1X6.21Y21.11
G1X5.96Y20.6
G1X5.78Y20.07
G1X5.72Y19.85
G1X5.67Y19.69
G1X5.62Y19.57
G1X5.59Y19.52
G1X5.56
G1Y19.59
G1X5.57Y19.73
G1X5.61Y19.93
G1X5.73Y20.51
G1X5.79Y20.66
G1X5.93Y20.87
G1X6Y20.98
G1X6.05Y21.08
G1X6.09Y21.16
G1X6.1Y21.22
G1X6.13Y21.28
G1X6.2Y21.37
G1X6.3Y21.48
G1X6.44Y21.6
G1X6.77Y21.84
G1X7.14Y22.07
G1X7.31Y22.16
G1X7.45Y22.23
G1X7.56Y22.28
G1X7.65Y22.31
G1X7.7
G1X7.73
M5
G0X7.86Y22.03
M3 S30
; Layer C00
G1X7.95Y22
G1X8.02Y21.93
G1X8.09Y21.87
G1X8.18Y21.89
G1X8.22
G1X8.25Y21.88
G1X8.27Y21.84
G1Y21.79
G1Y21.73
G1X8.24Y21.68
G1X8.19Y21.65
G1X8.14Y21.63
G1X8.02Y21.67
G1X7.89Y21.75
G1X7.8Y21.85
G1X7.76Y21.95
G1X7.79Y22.01
G1X7.86Y22.03
M5
G0X7.63Y21.83
M3 S30
; Layer C00
G1X7.64Y21.81
G1Y21.79
G1X7.6Y21.76
G1X6.88Y21.19
G1X7.18Y21.51
G1X7.31Y21.64
G1X7.43Y21.74
G1X7.53Y21.81
G1X7.59Y21.83
G1X7.63
M5
G0X6.95Y22.24
M3 S30
; Layer C00
G1X6.83Y22.18
G1X6.7Y22.12
G1X6.61Y22.08
G1X6.55Y22.07
G1X6.52
G1X6.54Y22.1
G1X6.59Y22.14
G1X6.68Y22.2
G1X6.8Y22.27
G1X6.99Y22.37
G1X7.05Y22.39
G1X7.09Y22.41
G1X7.13
G1Y22.38
G1X7.11Y22.35
G1X7.05Y22.3
G1X6.95Y22.24
M5
G0X7.25Y23.07
M3 S30
; Layer C00
G1X7.19Y23.08
G1X7.14Y23.11
G1X7.11Y23.16
G1X7.1Y23.22
G1X7.11Y23.29
G1X7.14Y23.35
G1X7.17Y23.38
G1X7.2
G1X7.24Y23.29
G1X7.27Y23.26
G1X7.31
G1X7.35
G1X7.38Y23.28
G1X7.4Y23.26
G1Y23.23
G1X7.39Y23.18
G1X7.35Y23.12
G1X7.3Y23.09
G1X7.25Y23.07
M5
G0X7.27Y23.55
M3 S30
; Layer C00
G1Y23.64
G1X7.34Y23.8
G1X7.43Y23.94
G1X7.5Y24
G1Y23.99
G1Y23.93
G1X7.47Y23.85
G1X7.43Y23.76
G1X7.38Y23.66
G1X7.33Y23.6
G1X7.29Y23.56
G1X7.27
M5
G0X6.66Y23.67
M3 S30
; Layer C00
G1X6.63Y23.56
G1X6.59Y23.46
G1X6.56Y23.4
G1X6.54Y23.39
G1X6.53Y23.43
G1Y23.58
G1X6.58Y23.74
G1X6.63Y23.86
G1X6.68Y23.88
G1Y23.84
G1Y23.77
G1X6.66Y23.67
M5
G0X5.77Y24.08
M3 S30
; Layer C00
G1X5.7Y24.06
G1X5.6Y24.05
G1X5.45Y24.03
G1X5.27Y24.02
G1X5.06
G1X4.81Y24.01
G1X4.53
G1X4.12
G1X3.81
G1X3.58Y24.02
G1X3.45Y24.04
G1X3.4Y24.07
G1X3.42Y24.12
G1X3.5Y24.17
G1X3.64Y24.24
G1X3.88Y24.36
G1X3.94Y26.62
G1X3.47Y26.96
G1X3.93Y27.28
G1Y29.64
G1X3.67Y29.75
G1X3.57Y29.8
G1X3.49Y29.86
G1X3.43Y29.91
G1X3.41Y29.95
G1X3.45Y29.97
G1X3.54Y29.99
G1X3.68Y30
G1X3.87Y30.01
G1X4.35Y30.03
G1X4.91
G1X5.49Y30.02
G1X6.04Y30
G1X6.27Y29.98
G1X6.48Y29.97
G1X6.64Y29.95
G1X6.75Y29.93
G1X6.94Y29.86
G1X7.13Y29.75
G1X7.32Y29.62
G1X7.49Y29.46
G1X7.82Y29.09
G1X8.09Y28.67
G1X8.2Y28.45
G1X8.28Y28.24
G1X8.34Y28.04
G1X8.38Y27.85
G1Y27.68
G1X8.35Y27.53
G1X8.29Y27.41
G1X8.18Y27.32
G1X8.15Y27.34
G1X8.12Y27.45
G1X8.1Y27.62
G1X8.09Y27.84
G1X8.08Y28.1
G1X8.04Y28.35
G1X7.97Y28.58
G1X7.88Y28.79
G1X7.77Y28.99
G1X7.63Y29.18
G1X7.47Y29.35
G1X7.28Y29.51
G1X6.9Y29.78
G1X5.02
G1X4.69
G1X4.43
G1X4.25Y29.76
G1X4.13Y29.74
G1X4.06Y29.71
G1X4.03Y29.68
G1Y29.64
G1X4.06Y29.55
G1X4.07Y29.44
G1X4.09Y29.29
G1Y29.13
G1X4.11Y28.76
G1Y28.35
G1X4.09Y27.96
G1X4.07Y27.61
G1X4.05Y27.46
G1X4.03Y27.34
G1X4.01Y27.26
G1X3.99Y27.2
G1X3.92Y27.1
G1X3.9Y27
G1X3.93Y26.89
G1X4Y26.73
G1X4.08Y26.54
G1X4.12Y26.27
G1Y26.09
G1X4.13Y25.88
G1Y25.62
G1X4.11Y25.11
G1X4.1Y24.76
G1Y24.62
G1Y24.42
G1X4.15Y24.28
G1X4.21Y24.2
G1X4.32Y24.17
G1X4.48
G1X5.12Y24.22
G1X5.09Y25.54
G1X5.16Y24.99
G1X5.19Y24.78
G1X5.22Y24.6
G1X5.26Y24.46
G1X5.3Y24.36
G1X5.36Y24.28
G1X5.42Y24.24
G1X5.5Y24.21
G1X5.67Y24.19
G1X5.73Y24.17
G1X5.78Y24.14
G1X5.79Y24.1
G1X5.77Y24.08
M5
G0X6.8Y24.45
M3 S30
; Layer C00
G1X6.77Y24.51
G1X6.73Y24.68
G1X6.67Y24.85
G1X6.59Y25.05
G1X6.5Y25.26
G1X6.26Y25.78
G1X5.74
G1X5.61
G1X5.51Y25.79
G1X5.43
G1X5.37Y25.81
G1X5.33Y25.84
G1X5.38Y25.89
G1X5.49Y25.94
G1X5.63Y25.96
G1X5.78
G1X5.94Y25.93
G1X6.1Y25.88
G1X6.25Y25.81
G1X6.38Y25.72
G1X6.49Y25.62
G1X6.67Y25.34
G1X6.78Y25.07
G1X6.85Y24.86
G1X6.94Y24.74
G1X7.02Y24.65
G1X7.03Y24.54
G1X6.99Y24.44
G1X6.9Y24.4
G1X6.85Y24.41
G1X6.8Y24.45
M5
G0X7.98Y24.59
M3 S30
; Layer C00
G1X7.97Y24.65
G1X7.95Y24.76
G1X7.89Y24.93
G1X7.81Y25.15
G1X7.71Y25.39
G1X7.61Y25.62
G1X7.52Y25.82
G1X7.47Y25.96
G1X7.45Y26.03
G1Y26.07
G1X7.48Y26.08
G1X7.52Y26.05
G1X7.57Y25.99
G1X7.64Y25.88
G1X7.73Y25.72
G1X7.84Y25.53
G1X7.97Y25.29
G1X8.38Y24.5
G1X8.17
G1X8.09Y24.51
G1X8.03Y24.54
G1X7.98Y24.59
M5
G0X8.72Y24.17
M3 S30
; Layer C00
G1X8.79Y24.2
G1X8.87Y24.17
G1X8.9Y24.1
G1X8.87Y24.03
G1X8.79Y24
G1X8.72Y24.03
G1X8.69Y24.1
G1X8.72Y24.17
M5
G0X9.04Y24.34
M3 S30
; Layer C00
G1X9Y24.38
G1X9.06Y24.46
G1X9.21Y24.53
G1X9.41Y24.58
G1Y25.48
G1Y25.73
G1Y25.93
G1X9.4Y26.08
G1X9.38Y26.2
G1X9.36Y26.28
G1X9.34Y26.34
G1X9.3Y26.37
G1X9.2Y26.39
G1X9.15Y26.42
G1X9.12Y26.47
G1X9.1Y26.52
G1X9.12Y26.58
G1X9.15Y26.63
G1X9.2Y26.66
G1X9.3Y26.68
G1X9.34Y26.71
G1X9.36Y26.77
G1X9.38Y26.85
G1X9.4Y26.98
G1Y27.14
G1X9.41Y27.35
G1Y27.61
G1Y28.55
G1X9.21
G1X9.13
G1X9.06Y28.58
G1X9.02Y28.61
G1X9Y28.65
G1X9.02Y28.67
G1X9.07Y28.69
G1X9.16Y28.71
G1X9.27
G1X9.58Y28.74
G1X9.98
G1X10.36
G1X10.68Y28.72
G1X10.8Y28.71
G1X10.89Y28.69
G1X10.95Y28.68
G1X10.97Y28.66
G1X10.9Y28.58
G1X10.76Y28.52
G1X10.65Y28.47
G1X10.59Y28.36
G1X10.57Y28.28
G1X10.56Y28.16
G1Y28.01
G1Y27.81
G1X10.54Y27.53
G1X10.52Y27.33
G1X10.49Y27.23
G1X10.44Y27.22
G1X10.4Y27.29
G1X10.37Y27.44
G1Y27.65
G1X10.38Y28.19
G1Y28.39
G1X10.35Y28.52
G1X10.3Y28.56
G1X10.14Y28.57
G1X9.89Y28.59
G1X9.6
G1X9.55Y27.21
G1Y26.67
G1X9.54Y26.48
G1Y26.29
G1Y26.09
G1X9.59Y24.91
G1X9.61Y24.72
G1X9.62Y24.6
G1X9.65Y24.53
G1X9.68Y24.51
G1X9.72
G1X9.78Y24.54
G1X9.85Y24.55
G1X9.89
G1X9.91Y24.52
G1Y24.47
G1X9.85Y24.42
G1X9.74Y24.38
G1X9.6Y24.35
G1X9.43Y24.32
G1X9.27
G1X9.13
G1X9.04Y24.34
M5
G0X10.46Y24.45
M3 S30
; Layer C00
G1X10.47Y24.52
G1X10.55Y24.64
G1X10.64Y24.75
G1X10.72Y24.8
G1Y24.78
G1Y24.74
G1X10.68Y24.68
G1X10.63Y24.6
G1X10.58Y24.53
G1X10.53Y24.48
G1X10.49Y24.45
G1X10.46
M5
G0X10.42Y25.21
M3 S30
; Layer C00
G1X10.37
G1X10.35Y25.28
G1X10.34Y25.41
G1Y25.58
G1X10.4Y26.01
G1X10.5Y26.44
G1X10.52Y26.53
G1Y26.61
G1X10.5Y26.67
G1X10.43Y26.75
G1X10.41Y26.81
G1Y26.88
G1X10.43Y26.95
G1X10.46Y27.03
G1X10.49Y27.05
G1X10.51Y27
G1X10.53Y26.89
G1X10.56Y26.81
G1X10.6Y26.74
G1X10.65Y26.69
G1X10.71Y26.67
G1X10.82Y26.63
G1X10.86Y26.53
G1X10.82Y26.42
G1X10.71Y26.34
G1X10.64Y26.29
G1X10.59Y26.18
G1X10.56Y26.02
G1Y25.8
G1X10.54Y25.6
G1X10.51Y25.42
G1X10.47Y25.29
G1X10.42Y25.21
M5
G0X12.04Y26.41
M3 S30
; Layer C00
G1X11.97Y26.51
G1X12Y26.62
G1X12.05Y26.71
G1X12.07Y26.83
G1X12.04Y27
G1X11.97Y27.24
G1X11.83Y27.69
G1X11.7Y28.13
G1X11.64Y28.3
G1X11.57Y28.43
G1X11.5Y28.52
G1X11.43Y28.55
G1X11.31Y28.58
G1X11.22Y28.65
G1Y28.67
G1X11.26Y28.69
G1X11.33Y28.71
G1X11.44Y28.72
G1X11.57Y28.73
G1X11.74Y28.74
G1X11.93
G1X12.16
G1X12.38
G1X12.58
G1X12.74
G1X12.87Y28.72
G1X12.98Y28.71
G1X13.05Y28.69
G1X13.08Y28.67
G1Y28.65
G1X13Y28.58
G1X12.87Y28.55
G1X12.8Y28.54
G1X12.76Y28.5
G1Y28.43
G1X12.78Y28.33
G1X12.95Y27.78
G1X13.08Y27.28
G1X13.12Y27.09
G1X13.13Y26.95
G1Y26.88
G1X13.1
G1X13.03Y27.01
G1X12.95Y27.22
G1X12.86Y27.49
G1X12.78Y27.79
G1X12.58Y28.53
G1X12.27Y28.58
G1X12.09Y28.6
G1X11.96
G1X11.87Y28.59
G1X11.81Y28.55
G1X11.78Y28.49
G1Y28.4
G1X11.82Y28.28
G1X11.87Y28.12
G1X12.02Y27.65
G1X12.16Y27.09
G1X12.21Y26.83
G1X12.25Y26.61
G1X12.27Y26.46
G1X12.26Y26.39
G1X12.15Y26.36
G1X12.04Y26.41
M5
G0X13.48Y26.74
M3 S30
; Layer C00
G1Y26.8
G1X13.5Y26.94
G1X13.64Y27.54
G1X13.83Y28.2
G1X13.86Y28.29
G1X13.88Y28.35
G1X13.9Y28.38
G1X13.92Y28.39
G1X13.94Y28.36
G1Y28.25
G1X13.93Y28.1
G1X13.9Y27.9
G1X13.86Y27.68
G1X13.8Y27.46
G1X13.74Y27.24
G1X13.67Y27.06
G1X13.61Y26.91
G1X13.55Y26.8
G1X13.51Y26.74
G1X13.48
M5
G0X14.5Y26.83
M3 S30
; Layer C00
G1X14.49Y26.92
G1Y27.03
G1X14.53Y27.19
G1X14.57Y27.37
G1X14.62Y27.56
G1X14.72Y27.86
G1X14.78Y28.09
G1X14.83Y28.27
G1X14.85Y28.39
G1Y28.48
G1X14.82Y28.53
G1X14.77Y28.57
G1X14.7Y28.59
G1X14.49Y28.61
G1X14.02Y28.51
G1X13.8
G1X13.7Y28.54
G1X13.62Y28.57
G1X13.57Y28.61
G1X13.55Y28.66
G1X13.57Y28.68
G1X13.63Y28.69
G1X13.72Y28.71
G1X13.84Y28.72
G1X14.15Y28.74
G1X14.53
G1X14.92
G1X15.23
G1X15.35Y28.72
G1X15.44
G1X15.5Y28.71
G1X15.52Y28.69
G1X15.45Y28.63
G1X15.28Y28.56
G1X15.16Y28.48
G1X15.06Y28.34
G1X15.01Y28.24
G1X14.96Y28.1
G1X14.91Y27.94
G1X14.78Y27.46
G1X14.71Y27.23
G1X14.65Y27.04
G1X14.59Y26.9
G1X14.55Y26.82
G1X14.52Y26.8
G1X14.5Y26.83
M5
G0X15.06Y29.48
M3 S30
; Layer C00
G1X15.17Y29.51
G1X15.3Y29.62
G1X15.45Y29.82
G1X15.57Y30.04
G1X15.62Y30.22
G1X15.61Y30.28
G1X15.57Y30.32
G1X15.52
G1X15.45
G1X15.28Y30.23
G1X15.11Y30.07
G1X15.01Y29.93
G1X14.95Y29.81
G1X14.91Y29.7
G1Y29.6
G1X14.93Y29.53
G1X14.98Y29.49
G1X15.06
M5
G0X16.49Y29.58
M3 S30
; Layer C00
G1X16.6Y29.5
G1X16.67
G1X16.76Y29.54
G1X16.85Y29.62
G1X16.95Y29.72
G1X17.11Y29.95
G1X17.17Y30.17
G1Y30.25
G1X17.13Y30.3
G1X17.07Y30.32
G1X17.01
G1X16.84Y30.24
G1X16.66Y30.07
G1X16.52Y29.86
G1X16.46Y29.7
G1X16.49Y29.58
M5
G0X18.04Y29.69
M3 S30
; Layer C00
G1X18.05Y29.61
G1X18.08Y29.55
G1X18.13Y29.51
G1X18.21Y29.49
G1X18.28
G1X18.34Y29.51
G1X18.39Y29.55
G1X18.42Y29.62
G1X18.45Y29.71
G1X18.47Y29.82
G1Y29.96
G1Y30.09
G1Y30.19
G1X18.45Y30.26
G1X18.42Y30.3
G1X18.39Y30.32
G1X18.34Y30.31
G1X18.29Y30.27
G1X18.23Y30.2
G1X18.11Y30.01
G1X18.05Y29.79
G1X18.04Y29.69
M5
G0X21.22Y28.73
M3 S30
; Layer C00
G1X21.26Y28.75
G1X21.53Y28.82
G1X21.85Y28.83
G1X22.18Y28.8
G1X22.5Y28.71
G1X22.7Y28.6
G1X22.87Y28.45
G1X22.98Y28.28
G1X23.06Y28.1
G1X23.08Y27.9
G1X23.05Y27.69
G1X22.96Y27.49
G1X22.83Y27.3
G1X22.69Y27.2
G1X22.48Y27.11
G1X22.23Y27.03
G1X21.97Y26.98
G1X21.72Y26.95
G1X21.51
G1X21.36Y26.98
G1X21.31Y27.06
G1X21.35Y27.1
G1X21.47Y27.14
G1X21.67Y27.16
G1X21.92
G1X22.18Y27.18
G1X22.41Y27.22
G1X22.59Y27.29
G1X22.74Y27.39
G1X22.85Y27.51
G1X22.92Y27.65
G1X22.94Y27.82
G1X22.92Y28
G1X22.88Y28.17
G1X22.81Y28.31
G1X22.71Y28.42
G1X22.59Y28.51
G1X22.43Y28.57
G1X22.24Y28.62
G1X22.01Y28.64
G1X21.74Y28.65
G1X21.57
G1X21.44Y28.66
G1X21.34Y28.67
G1X21.26Y28.68
G1X21.22Y28.69
G1X21.21Y28.71
G1Y28.73
M5
G0X21.06Y28.31
M3 S30
; Layer C00
G1Y28.29
G1X21.08Y28.23
G1X21.09Y27.86
G1X21.08Y27.49
G1X21.07Y27.43
G1X21.06Y27.4
G1X21.05Y27.44
G1Y27.51
G1X21.04Y27.6
G1Y27.86
G1Y28.12
G1Y28.21
G1Y28.27
G1X21.05Y28.31
M5
G0X13Y29.58
M3 S30
; Layer C00
G1X13.02Y29.65
G1X13Y29.75
G1X12.99Y29.95
G1X13.04Y30.15
G1X13.08Y30.22
G1X13.09Y30.28
G1X13.08Y30.31
G1X13.05Y30.32
G1X13
G1X12.94Y30.28
G1X12.87Y30.22
G1X12.79Y30.15
G1X12.71Y30.04
G1X12.66Y29.94
G1X12.63Y29.84
G1X12.62Y29.74
G1X12.64Y29.66
G1X12.68Y29.59
G1X12.75Y29.55
G1X12.84Y29.54
G1X12.94
G1X13Y29.58
M5
G0X12.02Y30.16
M3 S30
; Layer C00
G1X12.12Y30.26
G1X12.24Y30.38
G1X12.35Y30.51
G1X12.45Y30.65
G1X12.54Y30.77
G1X12.6Y30.87
G1X12.62Y30.94
G1Y31
G1X12.58Y31.02
G1X12.53
G1X12.47Y30.99
G1X12.39Y30.93
G1X12.31Y30.85
G1X12.21Y30.74
G1X12.1Y30.61
G1X11.99Y30.45
G1X11.9Y30.32
G1X11.84Y30.22
G1X11.81Y30.14
G1Y30.09
G1X11.82Y30.06
G1X11.87
G1X11.95Y30.1
G1X12.02Y30.16
M5
G0X10.91Y30.1
M3 S30
; Layer C00
G1Y30.2
G1X10.89Y30.27
G1X10.86Y30.31
G1X10.81
G1X10.76Y30.28
G1X10.69Y30.21
G1X10.61Y30.11
G1X10.53Y29.99
G1X10.48Y29.88
G1X10.45Y29.78
G1Y29.69
G1X10.47Y29.63
G1X10.51Y29.58
G1X10.58Y29.55
G1X10.67
G1X10.78Y29.59
G1X10.85Y29.66
G1X10.89Y29.77
G1X10.91Y29.96
G1Y30.1
M5
G0X9.21Y29.29
M3 S30
; Layer C00
G1X9.07Y29.39
G1X8.93Y29.44
G1X8.88
G1X8.84Y29.47
G1Y29.5
G1Y29.54
G1X8.87Y29.61
G1X8.86Y29.64
G1X8.81Y29.61
G1X8.75Y29.56
G1X8.74Y29.45
G1X8.81Y29.33
G1X8.94Y29.23
G1X9.11Y29.17
G1X9.22
G1X9.27
G1Y29.21
G1X9.21Y29.29
M5
G0X9.38Y29.45
M3 S30
; Layer C00
G1X9.57Y29.46
G1X9.78Y29.52
G1X9.99Y29.62
G1X10.16Y29.76
G1X10.3Y29.95
G1X10.44Y30.15
G1X10.61Y30.31
G1X10.78Y30.41
G1X10.94Y30.46
G1X11.09
G1X11.2Y30.39
G1X11.26Y30.26
G1X11.25Y30.07
G1X11.24Y29.97
G1X11.26Y29.89
G1X11.31Y29.84
G1X11.39Y29.8
G1X11.46
G1X11.51
G1X11.53Y29.83
G1X11.52Y29.89
G1Y30.05
G1X11.6Y30.26
G1X11.76Y30.48
G1X11.95Y30.71
G1X12.16Y30.91
G1X12.37Y31.06
G1X12.47Y31.1
G1X12.55Y31.13
G1X12.63
G1X12.68Y31.11
G1X12.75Y31.04
G1Y30.94
G1X12.71Y30.8
G1X12.59Y30.6
G1X12.48Y30.43
G1X12.33Y30.26
G1X12.18Y30.1
G1X12.03Y29.99
G1X11.9Y29.91
G1X11.81Y29.85
G1X11.75Y29.79
G1X11.71Y29.74
G1X11.73Y29.65
G1X11.84Y29.54
G1X11.92Y29.49
G1X11.99
G1X12.08Y29.53
G1X12.17Y29.62
G1X12.39Y29.85
G1X12.52Y30.01
G1X12.6Y30.13
G1X12.62Y30.21
G1X12.64Y30.25
G1X12.7Y30.3
G1X12.79Y30.36
G1X12.89Y30.41
G1X13.02Y30.46
G1X13.13Y30.47
G1X13.23Y30.46
G1X13.31Y30.42
G1X13.37Y30.36
G1X13.41Y30.28
G1Y30.18
G1Y30.06
G1X13.39Y29.97
G1Y29.9
G1X13.4Y29.85
G1X13.44Y29.83
G1X13.52Y29.88
G1X13.59Y30
G1X13.64Y30.19
G1X13.66Y30.54
G1X13.68Y30.62
G1X13.71Y30.68
G1X13.75Y30.71
G1X13.81
G1X13.87Y30.7
G1X13.94Y30.65
G1X14.02Y30.58
G1X14.16Y30.47
G1X14.3Y30.4
G1X14.35Y30.37
G1X14.37Y30.29
G1X14.36Y30.17
G1X14.3Y29.98
G1X14.26Y29.81
G1X14.24Y29.68
G1Y29.58
G1X14.27Y29.52
G1X14.32Y29.49
G1X14.38Y29.51
G1X14.46Y29.57
G1X14.55Y29.68
G1X14.73Y29.92
G1X14.87Y30.1
G1X15Y30.24
G1X15.11Y30.34
G1X15.23Y30.41
G1X15.35Y30.45
G1X15.49Y30.47
G1X15.67Y30.49
G1X16.16Y30.52
G1X16.01Y30.3
G1X15.84Y30.02
G1X15.74Y29.79
G1X15.71Y29.62
G1X15.73Y29.52
G1X15.81Y29.5
G1X15.94Y29.55
G1X16.02Y29.61
G1X16.1Y29.7
G1X16.2Y29.8
G1X16.44Y30.1
G1X16.56Y30.24
G1X16.68Y30.34
G1X16.79Y30.41
G1X16.89Y30.45
G1X16.99Y30.47
G1X17.1Y30.46
G1X17.2Y30.42
G1X17.28Y30.4
G1X17.36Y30.43
G1X17.44Y30.54
G1X17.62Y30.87
G1X17.7Y31.01
G1X17.79Y31.11
G1X17.86Y31.16
G1X17.92Y31.18
G1X17.97
G1X17.98Y31.16
G1Y31.1
G1X17.94Y31
G1X17.87Y30.85
G1X17.76Y30.64
G1X17.63Y30.37
G1X17.47Y30.04
G1X17.37Y29.78
G1X17.33Y29.59
G1Y29.48
G1X17.36Y29.45
G1X17.4
G1X17.45Y29.47
G1X17.51Y29.51
G1X17.58Y29.58
G1X17.66Y29.67
G1X17.75Y29.79
G1X17.85Y29.94
G1X18.01Y30.15
G1X18.18Y30.32
G1X18.35Y30.43
G1X18.5Y30.49
G1X18.63
G1X18.73Y30.43
G1X18.8Y30.31
G1X18.83Y30.13
G1Y30.02
G1X18.87Y29.92
G1X18.91Y29.84
G1X18.96Y29.8
G1X18.99Y29.77
G1Y29.74
G1X18.94Y29.71
G1X18.85Y29.68
G1X18.69Y29.61
G1X18.62Y29.53
G1X18.6Y29.48
G1X18.55Y29.42
G1X18.47Y29.36
G1X18.38Y29.29
G1X18.17Y29.21
G1X17.98
G1X17.91Y29.23
G1X17.85Y29.27
G1X17.81Y29.33
G1X17.79Y29.4
G1X17.78Y29.46
G1X17.73
G1X17.63Y29.42
G1X17.33Y29.22
G1X17.21Y29.18
G1X17.11
G1X17.02Y29.24
G1X16.94Y29.29
G1X16.87Y29.31
G1X16.8Y29.3
G1X16.72Y29.25
G1X16.57Y29.19
G1X16.42Y29.2
G1X16.29Y29.28
G1X16.24Y29.4
G1X16.23Y29.46
G1X16.17
G1X16.08Y29.42
G1X15.78Y29.22
G1X15.66Y29.18
G1X15.57
G1X15.48Y29.23
G1X15.39Y29.28
G1X15.31Y29.3
G1X15.22Y29.29
G1X15.11Y29.24
G1X14.94Y29.18
G1X14.81Y29.19
G1X14.72Y29.26
G1X14.69Y29.39
G1X14.68Y29.5
G1X14.63Y29.53
G1X14.59Y29.51
G1X14.53Y29.47
G1X14.46Y29.42
G1X14.38Y29.34
G1X14.21Y29.21
G1X14.07Y29.14
G1X13.95
G1X13.86Y29.19
G1X13.81Y29.28
G1Y29.42
G1X13.85Y29.59
G1X13.95Y29.79
G1X14.04Y29.93
G1X14.1Y30.05
G1X14.14Y30.14
G1X14.16Y30.21
G1Y30.27
G1X14.13Y30.3
G1X14.08Y30.32
G1X14.02
G1X13.94Y30.31
G1X13.87Y30.26
G1X13.8Y30.18
G1X13.61Y29.88
G1X13.45Y29.69
G1X13.25Y29.52
G1X13.04Y29.38
G1X12.84Y29.29
G1X12.66Y29.25
G1X12.51
G1X12.41Y29.34
G1X12.3Y29.54
G1X12Y29.33
G1X11.87Y29.25
G1X11.76Y29.2
G1X11.65Y29.17
G1X11.56Y29.18
G1X11.48Y29.22
G1X11.43Y29.28
G1X11.39Y29.37
G1X11.38Y29.48
G1Y29.59
G1X11.35Y29.66
G1X11.32Y29.71
G1X11.28Y29.72
G1X11.23
G1X11.16Y29.67
G1X11.08Y29.6
G1X10.99Y29.5
G1X10.89Y29.38
G1X10.78Y29.29
G1X10.67Y29.23
G1X10.56Y29.19
G1X10.47
G1X10.38Y29.21
G1X10.3Y29.26
G1X10.24Y29.34
G1X10.12Y29.56
G1X9.9Y29.36
G1X9.62Y29.15
G1X9.35Y29.03
G1X9.1Y28.98
G1X8.88Y29.01
G1X8.71Y29.1
G1X8.6Y29.27
G1X8.56Y29.37
G1Y29.49
G1Y29.62
G1X8.6Y29.77
G1X8.75Y30.11
G1X8.98Y30.42
G1X9.27Y30.68
G1X9.57Y30.87
G1X9.72Y30.94
G1X9.86Y30.99
G1X9.99Y31.01
G1X10.11
G1X10.21Y30.97
G1X10.28Y30.91
G1X10.33Y30.81
G1X10.34Y30.68
G1X10.31Y30.51
G1X10.21Y30.36
G1X10.08Y30.23
G1X9.92Y30.13
G1X9.76Y30.08
G1X9.61
G1X9.5Y30.14
G1X9.43Y30.26
G1Y30.35
G1X9.44Y30.39
G1X9.5Y30.41
G1X9.59Y30.38
G1X9.7
G1X9.8Y30.4
G1X9.9Y30.45
G1X9.99Y30.52
G1X10.06Y30.6
G1X10.1Y30.69
G1Y30.77
G1X10.06Y30.84
G1X9.93Y30.89
G1X9.77Y30.84
G1X9.6Y30.73
G1X9.42Y30.57
G1X9.26Y30.37
G1X9.12Y30.15
G1X9.04Y29.93
G1X9.02Y29.73
G1X9.08Y29.58
G1X9.21Y29.49
G1X9.38Y29.45
M5
G0X6.91Y28.49
M3 S30
; Layer C00
G1X7.02Y28.34
G1X7.09Y28.18
G1X7.11Y28.02
G1Y27.86
G1X7.06Y27.7
G1X6.99Y27.54
G1X6.89Y27.4
G1X6.77Y27.27
G1X6.63Y27.15
G1X6.47Y27.06
G1X6.3Y26.98
G1X6.12Y26.93
G1X5.93Y26.92
G1X5.75
G1X5.56Y26.98
G1X5.38Y27.07
G1X5.35Y27.09
G1Y27.11
G1X5.37Y27.13
G1X5.42Y27.14
G1X5.5Y27.15
G1X5.61
G1X5.75Y27.16
G1X5.91
G1X6.61
G1X6.82Y27.43
G1X6.97Y27.66
G1X7.04Y27.89
G1X7.02Y28.1
G1X6.93Y28.28
G1X6.76Y28.43
G1X6.52Y28.55
G1X6.22Y28.62
G1X5.85Y28.65
G1X5.18
G1X5.11Y27.12
G1X5.07Y28.65
G1X5.3Y28.75
G1X5.48Y28.8
G1X5.69Y28.82
G1X5.93
G1X6.16Y28.79
G1X6.39Y28.74
G1X6.6Y28.68
G1X6.78Y28.59
G1X6.91Y28.49
M5
G0X8.1Y27.1
M3 S30
; Layer C00
G1X8.14Y27.11
G1X8.2
G1X8.28Y27.1
G1X8.42Y27.03
G1X8.48Y26.95
G1X8.45Y26.9
G1X8.38Y26.84
G1X8.26Y26.78
G1X7.98Y26.65
G1X7.86Y26.59
G1X7.79Y26.53
G1X7.71Y26.4
G1X7.6Y26.34
G1X7.54Y26.33
G1Y26.36
G1X7.58Y26.44
G1X7.67Y26.56
G1X7.77Y26.67
G1X7.87Y26.75
G1X7.94Y26.8
G1X7.99
G1X8.04
G1X8.07Y26.86
G1X8.09Y26.96
G1Y27.08
G1Y27.1
M5
G0X9.14Y21.93
M3 S30
; Layer C00
G1Y21.91
G1X9.08Y21.85
G1X8.95Y21.76
G1X8.78Y21.65
G1X8.35Y21.34
G1X7.97Y20.98
G1X7.62Y20.6
G1X7.83Y20.92
G1X7.94Y21.06
G1X8.09Y21.22
G1X8.28Y21.38
G1X8.48Y21.55
G1X8.69Y21.7
G1X8.87Y21.82
G1X9.03Y21.9
G1X9.14Y21.93
M5
G0X7.26Y21.06
M3 S30
; Layer C00
G1X7.31Y20.99
G1Y20.87
G1X7.24Y20.75
G1X7.15Y20.68
G1X7.06
G1X7Y20.79
G1Y20.95
G1X7.03Y21.02
G1X7.07Y21.08
G1X7.12Y21.11
G1X7.17
G1X7.26Y21.06
M5
G0X6.81Y20.89
M3 S30
; Layer C00
G1Y20.86
G1X6.79Y20.79
G1X6.75Y20.7
G1X6.68Y20.6
G1X6.57Y20.46
G1X6.46Y20.37
G1X6.33Y20.33
G1X6.18
G1X6.15Y20.3
G1X6.17Y20.2
G1X6.18Y20.14
G1Y20.1
G1X6.15Y20.07
G1X6.11Y20.05
G1X6.07Y20.04
G1X6.03Y19.99
G1X6.01Y19.92
G1Y19.84
G1X6Y19.76
G1X5.98Y19.71
G1X5.96Y19.68
G1X5.94
G1X5.9Y19.75
G1Y19.85
G1X5.92Y19.96
G1X5.96Y20.09
G1X6.02Y20.21
G1X6.09Y20.31
G1X6.18Y20.4
G1X6.26Y20.45
G1X6.48Y20.57
G1X6.64Y20.74
G1X6.69Y20.81
G1X6.74Y20.86
G1X6.78Y20.89
G1X6.81
M5
G0X6.57Y20.15
M3 S30
; Layer C00
G1X6.63Y20.14
G1X6.68Y20.09
G1X6.71Y20.03
G1X6.72Y19.94
G1Y19.84
G1X6.7Y19.8
G1X6.65
G1X6.57Y19.86
G1X6.46Y19.97
G1X6.41Y20.07
G1X6.46Y20.13
G1X6.57Y20.15
M5
G0X7.18Y19.9
M3 S30
; Layer C00
G1X7.29Y19.92
G1X7.34
G1X7.38Y19.9
G1X7.39Y19.87
G1Y19.84
G1X7.32Y19.78
G1X7.24Y19.76
G1X7.17Y19.78
G1X7.14Y19.84
G1X7.18Y19.9
M5
G0X8.02Y19.86
M3 S30
; Layer C00
G1X8.31Y19.74
G1X8.45Y19.68
G1X8.51Y19.63
G1Y19.58
G1X8.43Y19.53
G1X8.29Y19.49
G1X8.2Y19.5
G1Y19.54
G1X8.33Y19.57
G1Y19.6
G1X8.3Y19.64
G1X8.22Y19.71
G1X8.02Y19.86
M5
G0X8.61Y20.02
M3 S30
; Layer C00
G1X8.63Y20.04
G1X8.68Y20.05
G1X8.74Y20.06
G1X8.75Y20.09
G1X8.72Y20.14
G1X8.63Y20.21
G1X8.43Y20.36
G1X8.67Y20.25
G1X8.75Y20.2
G1X8.82Y20.15
G1X8.85Y20.09
G1Y20.05
G1X8.83Y20.01
G1Y19.98
G1X8.86Y19.96
G1X8.91
G1X8.98Y19.94
G1Y19.9
G1X8.87Y19.89
G1X8.72Y19.94
G1X8.65Y19.99
G1X8.61Y20.02
M5
G0X8.88Y20.32
M3 S30
; Layer C00
G1X8.74Y20.39
G1X8.63Y20.46
G1X8.54Y20.54
G1X8.49Y20.61
G1X8.46Y20.69
G1Y20.77
G1X8.49Y20.85
G1X8.56Y20.99
G1X8.58Y21.08
G1X8.56Y21.13
G1X8.49Y21.14
G1X8.38Y21.08
G1X8.28Y20.94
G1X8.23Y20.84
G1X8.22Y20.75
G1Y20.66
G1X8.27Y20.56
G1X8.31Y20.48
G1Y20.42
G1X8.29Y20.39
G1X8.23
G1X8.18
G1X8.15Y20.42
G1X8.13Y20.46
G1X8.15Y20.57
G1Y20.61
G1X8.12Y20.64
G1X8.08
G1X8.01Y20.62
G1X7.97Y20.56
G1X7.95Y20.45
G1Y20.33
G1X7.93Y20.27
G1X7.86Y20.25
G1X7.82Y20.23
G1X7.79Y20.18
G1X7.77Y20.1
G1X7.76Y20.01
G1X7.73Y19.82
G1X7.66Y19.71
G1X7.57Y19.63
G1X7.56Y19.56
G1X7.6Y19.51
G1X7.71Y19.52
G1X7.78Y19.54
G1X7.81
G1X7.82Y19.5
G1X7.8Y19.43
G1Y19.37
G1Y19.32
G1X7.84Y19.28
G1X7.91Y19.24
G1X8Y19.22
G1X8.13Y19.2
G1X8.28Y19.18
G1X8.45
G1X8.63Y19.21
G1X8.82Y19.29
G1X9.01Y19.4
G1X9.18Y19.53
G1X9.32Y19.67
G1X9.4Y19.79
G1X9.42Y19.9
G1X9.35Y19.97
G1X9.16Y20.04
G1X9.34
G1X9.45Y20.07
G1X9.52Y20.12
G1X9.54Y20.2
G1X9.52Y20.3
G1X9.45Y20.41
G1X9.35Y20.52
G1X9.22Y20.62
G1X9.05Y20.72
G1X8.59Y20.93
G1X8.62Y20.72
G1X8.65Y20.64
G1X8.7Y20.57
G1X8.77Y20.51
G1X9.02Y20.42
G1X9.2Y20.3
G1X9.36Y20.14
G1X9.05Y20.25
G1X8.88Y20.32
M5
G0X7.07Y19.11
M3 S30
; Layer C00
G1X7.12Y19.06
G1X7.15Y18.98
G1X7.17Y18.86
G1X7.16Y18.71
G1X7.14Y18.58
G1X7.12Y18.48
G1X7.11Y18.43
G1X7.09Y18.41
G1X7.07Y18.44
G1X7.05Y18.52
G1X7.03Y18.63
G1X7Y18.79
G1X6.98Y18.95
G1Y19.06
G1X7.02Y19.11
G1X7.07
M5
G0X6.3Y19
M3 S30
; Layer C00
G1X6.35Y18.89
G1X6.42Y18.52
G1X6.46Y18.05
G1Y17.84
G1Y17.68
G1Y17.62
G1X6.45Y17.59
G1X6.43Y17.58
G1X6.41Y17.6
G1X6.36Y17.72
G1X6.29Y17.9
G1X6.23Y18.12
G1X6.17Y18.36
G1X6.12Y18.59
G1X6.08Y18.79
G1X6.07Y18.94
G1Y19.01
G1X6.16Y19.06
G1X6.24
G1X6.3Y19
M5
G0X6.26Y19.17
M3 S30
; Layer C00
G1X6.23
G1X6.17Y19.23
G1X6.13Y19.36
G1Y19.44
G1X6.15Y19.49
G1X6.18Y19.51
G1X6.21
G1X6.28Y19.42
G1X6.31Y19.31
G1Y19.24
G1X6.28Y19.19
G1X6.26Y19.17
M5
G0X5.88Y19.25
M3 S30
; Layer C00
G1X5.87Y19.04
G1X5.85Y18.99
G1X5.83Y19
G1Y19.08
G1X5.82Y19.21
G1Y19.35
G1X5.83Y19.44
G1X5.85Y19.47
G1X5.86Y19.44
G1X5.88Y19.25
M5
G0X5.56Y19.22
M3 S30
; Layer C00
G1Y19.12
G1X5.53Y19.03
G1X5.45Y18.94
G1X5.34Y18.84
G1X5.24Y18.76
G1X5.17Y18.68
G1X5.13Y18.6
G1Y18.55
G1X5.2Y18.38
G1X5.23Y18.15
G1Y18.05
G1X5.22Y17.96
G1X5.2Y17.9
G1X5.17Y17.88
G1X5.14Y17.91
G1X5.1Y17.97
G1X5.07Y18.08
G1X5.04Y18.2
G1X5Y18.47
G1X4.95Y18.67
G1X4.93Y18.72
G1Y18.75
G1X4.94Y18.74
G1X4.98Y18.72
G1X5.05Y18.74
G1X5.14Y18.8
G1X5.24Y18.88
G1X5.41Y19.08
G1X5.49Y19.26
G1X5.5Y19.31
G1X5.52Y19.33
G1X5.53Y19.3
G1X5.56Y19.22
M5
G0X5.14Y19.24
M3 S30
; Layer C00
G1Y19.22
G1X5.09Y19.2
G1X5.05Y19.17
G1X5.02Y19.14
G1Y19.1
G1Y19.06
G1X5.04Y19.02
G1Y18.99
G1X5.01Y18.97
G1X4.97
G1X4.89Y19.01
G1X4.86Y19.12
G1X4.88Y19.17
G1X4.92Y19.22
G1X4.97Y19.25
G1X5.04
G1X5.11
G1X5.14Y19.24
M5
G0X5.17Y19.76
M3 S30
; Layer C00
G1X5.1Y19.78
G1X5.07Y19.86
G1Y19.9
G1X5.1Y19.92
G1X5.13
G1X5.17Y19.91
G1X5.25Y19.9
G1X5.33Y19.95
G1X5.39Y20.02
G1X5.45Y20.05
G1X5.46
G1Y20.01
G1X5.42Y19.96
G1X5.38Y19.91
G1X5.27Y19.8
G1X5.17Y19.76
M5
G0X5.19Y20.07
M3 S30
; Layer C00
G1X5.18
G1Y20.15
G1X5.24Y20.3
G1X5.3Y20.4
G1X5.35Y20.41
G1Y20.33
G1X5.29Y20.18
G1X5.25Y20.12
G1X5.21Y20.08
G1X5.19Y20.07
M5
G0X5.5Y18.72
M3 S30
; Layer C00
G1X5.59Y18.52
G1X5.65Y18.32
G1X5.68Y18.13
G1Y17.93
G1X5.59Y18.13
G1X5.52Y18.32
G1X5.5Y18.52
G1Y18.72
M5
G0X4.97Y17.68
M3 S30
; Layer C00
G1X5.07Y17.62
G1X5.17Y17.49
G1X5.21Y17.4
G1X5.22Y17.33
G1X5.21Y17.27
G1X5.16Y17.23
G1X5.06
G1X4.97Y17.29
G1X4.89Y17.41
G1X4.86Y17.56
G1X4.89Y17.66
G1X4.97Y17.68
M5
G0X6.11Y17.58
M3 S30
; Layer C00
G1X6.15Y17.56
G1X6.21Y17.47
G1X6.3Y17.29
G1X6.43Y17.04
G1X6.26Y17.23
G1X6.15Y17.4
G1X6.1Y17.52
G1X6.11Y17.58
M5
G0X6.47Y17.42
M3 S30
; Layer C00
G1X6.76Y17.24
G1X6.88Y17.15
G1X7.01Y17.02
G1X7.12Y16.89
G1X7.21Y16.75
G1X7.37Y16.45
G1X7.07Y16.74
G1X6.82Y17.01
G1X6.62Y17.23
G1X6.47Y17.42
M5
G0X6.4Y17.04
M3 S30
; Layer C00
G1X6.6Y16.82
G1X6.68Y16.74
G1X6.76Y16.68
G1X6.82Y16.65
G1X6.86
G1X6.91Y16.66
G1X6.97Y16.61
G1X6.98Y16.58
G1Y16.55
G1X6.93Y16.54
G1X6.88
G1X6.72Y16.62
G1X6.56Y16.8
G1X6.4Y17.04
M5
G0X6.15Y16.89
M3 S30
; Layer C00
G1X6.19Y16.83
G1X6.24Y16.7
G1Y16.62
G1Y16.57
G1X6.22Y16.53
G1X6.19
G1X6.13Y16.5
G1X6.09Y16.42
G1X6.05Y16.3
G1X6.04Y16.16
G1Y16
G1Y15.85
G1X6.08Y15.72
G1X6.13Y15.62
G1X6.19Y15.54
G1X6.21Y15.51
G1X6.18Y15.52
G1X6.1Y15.58
G1X5.93Y15.76
G1X5.76Y16.01
G1X5.69Y16.12
G1X5.65Y16.21
G1Y16.26
G1X5.68
G1X5.74Y16.24
G1X5.79Y16.26
G1X5.83Y16.31
G1X5.86Y16.39
G1X5.93Y16.54
G1X6.01Y16.6
G1X6.08Y16.64
G1X6.1Y16.74
G1X6.12Y16.86
G1X6.15Y16.89
M5
G0X6.36Y16.53
M3 S30
; Layer C00
G1X6.71Y16.29
G1X7.06Y16.06
G1X7.43Y15.83
G1X7.57Y15.75
G1X7.67Y15.68
G1X7.72Y15.64
G1X7.73Y15.62
G1X7.7
G1X7.62Y15.64
G1X7.5Y15.69
G1X7.33Y15.75
G1X6.99Y15.95
G1X6.67Y16.22
G1X6.36Y16.53
M5
G0X5.45Y16.67
M3 S30
; Layer C00
G1X5.43Y16.64
G1X5.41Y16.66
G1X5.4Y16.71
G1Y16.79
G1Y16.88
G1X5.41Y16.93
G1X5.43Y16.95
G1X5.45Y16.92
G1X5.47Y16.79
G1X5.45Y16.67
M5
G0X7.37Y16.37
M3 S30
; Layer C00
G1X7.43Y16.39
G1X7.53Y16.36
G1X7.65Y16.26
G1X7.7Y16.19
G1Y16.15
G1X7.67Y16.14
G1X7.59
G1X7.45Y16.2
G1X7.37Y16.28
G1Y16.37
M5
G0X7.94Y16.03
M3 S30
; Layer C00
G1X7.98Y16.04
G1X8.03
G1X8.13Y15.99
G1X8.17Y15.95
G1X8.13Y15.92
G1X8.03Y15.88
G1X7.98Y15.87
G1X7.94
G1X7.91Y15.91
G1X7.9Y15.95
G1Y16
G1X7.94Y16.03
M5
G0X8.52Y16.67
M3 S30
; Layer C00
G1X8.42Y16.73
G1Y16.75
G1X8.43Y16.77
G1X8.48Y16.79
G1X8.56
G1X8.74Y16.76
G1X8.85Y16.69
G1Y16.66
G1X8.83Y16.63
G1X8.78
G1X8.7
G1X8.52Y16.67
M5
G0X7.03Y15.46
M3 S30
; Layer C00
G1X6.98Y15.18
G1Y14.97
G1X7.03Y14.79
G1X7.14Y14.67
G1X7.3Y14.62
G1X7.35Y14.64
G1X7.41Y14.7
G1X7.45Y14.79
G1X7.47Y14.89
G1X7.5Y15.02
G1X7.52Y15.08
G1X7.55Y15.07
G1X7.59Y14.99
G1X7.64Y14.81
G1X7.61Y14.66
G1X7.5Y14.56
G1X7.34Y14.52
G1X7.26
G1X7.2Y14.49
G1X7.18Y14.46
G1X7.21Y14.38
G1X7.18Y14.37
G1X7.12Y14.38
G1X7.02Y14.43
G1X6.78Y14.55
G1X6.92Y14.39
G1X6.97Y14.33
G1X6.99Y14.27
G1Y14.24
G1X6.97Y14.22
G1X6.95
G1Y14.19
G1X6.98Y14.16
G1X7.03Y14.13
G1X7.11Y14.09
G1X7.19
G1X7.26Y14.13
G1X7.33Y14.2
G1X7.39Y14.27
G1X7.42Y14.29
G1X7.44
G1X7.43Y14.23
G1X7.35Y14.06
G1X7.24Y13.97
G1X7.12Y13.94
G1X7Y13.98
G1X6.89Y14.08
G1X6.8Y14.23
G1X6.75Y14.41
G1Y14.64
G1Y14.78
G1Y14.88
G1Y14.95
G1X6.74Y14.96
G1X6.65
G1X6.54Y15.04
G1X6.46Y15.17
G1X6.42Y15.3
G1X6.43Y15.35
G1X6.45
G1X6.49Y15.3
G1X6.53Y15.21
G1X6.63Y14.97
G1X6.83Y15.21
G1X7.03Y15.46
M5
G0X6.08Y15.07
M3 S30
; Layer C00
G1X6.15Y14.97
G1X6.19Y14.85
G1X6.21Y14.75
G1X6.2Y14.63
G1X6.17Y14.57
G1X6.11
G1X5.99Y14.62
G1X5.83Y14.73
G1X5.73Y14.87
G1X5.7Y15.02
G1X5.73Y15.18
G1X5.8Y15.34
G1X6Y15.16
G1X6.08Y15.07
M5
G0X5.91Y14.33
M3 S30
; Layer C00
G1X6.42Y13.78
G1X6.87Y13.29
G1X6.48Y13.63
G1X6.32Y13.78
G1X6.17Y13.93
G1X6.05Y14.07
G1X5.98Y14.18
G1X5.94Y14.25
G1X5.91Y14.3
G1Y14.33
M5
G0X5.57Y13.88
M3 S30
; Layer C00
G1X5.78Y13.63
G1X5.87Y13.53
G1X5.93Y13.44
G1X5.98Y13.36
G1X6Y13.31
G1Y13.26
G1X5.98Y13.24
G1X5.96
G1X5.93Y13.26
G1X5.84Y13.37
G1X5.74Y13.56
G1X5.57Y13.88
M5
G0X6.26Y13.53
M3 S30
; Layer C00
G1X6.3Y13.5
G1X6.38Y13.41
G1X6.5Y13.28
G1X6.64Y13.12
G1X6.73Y13
G1X6.8Y12.92
G1X6.84Y12.85
G1X6.87Y12.82
G1Y12.8
G1X6.84
G1X6.8Y12.82
G1X6.74Y12.86
G1X6.56Y13.02
G1X6.38Y13.25
G1X6.31Y13.36
G1X6.26Y13.45
G1X6.24Y13.51
G1X6.26Y13.53
M5
G0X6.06Y13.14
M3 S30
; Layer C00
G1X6.17Y13.08
G1X6.29Y12.94
G1X6.33Y12.86
G1X6.37Y12.8
G1X6.38Y12.76
G1Y12.74
G1X6.35Y12.76
G1X6.3Y12.8
G1X6.23Y12.86
G1X6.16Y12.94
G1X6.09Y13.02
G1X6.05Y13.08
G1Y13.12
G1X6.06Y13.14
M5
G0X6.42Y12.64
M3 S30
; Layer C00
G1X6.48Y12.61
G1X6.58Y12.53
G1X6.72Y12.4
G1X6.88Y12.25
G1X7.03Y12.1
G1X7.15Y11.97
G1X7.22Y11.89
G1X7.23Y11.85
G1X7.18Y11.89
G1X7.08Y11.97
G1X6.94Y12.1
G1X6.78Y12.25
G1X6.62Y12.4
G1X6.51Y12.53
G1X6.44Y12.61
G1X6.42Y12.64
M5
G0X7.76Y13.16
M3 S30
; Layer C00
G1X7.71Y13.27
G1Y13.36
G1Y13.49
G1X7.72Y13.66
G1X7.75Y13.87
G1X7.77Y13.91
G1X7.81Y13.9
G1X7.86Y13.85
G1X7.91Y13.77
G1X8.02Y13.56
G1X8.07Y13.36
G1X8.06Y13.26
G1X8.02Y13.19
G1X7.96Y13.15
G1X7.87Y13.14
G1X7.76Y13.16
M5
G0X7.6Y13.35
M3 S30
; Layer C00
G1X7.53
G1X7.45Y13.44
G1X7.38Y13.56
G1X7.35Y13.68
G1X7.36Y13.71
G1X7.4Y13.7
G1X7.44Y13.66
G1X7.5Y13.59
G1X7.56Y13.51
G1X7.59Y13.44
G1X7.61Y13.38
G1X7.6Y13.35
M5
G0X8.49Y13.91
M3 S30
; Layer C00
G1X8.39Y13.99
G1X8.31Y14.09
G1X8.28Y14.2
G1X8.3Y14.32
G1X8.4Y14.57
G1X8.49Y14.35
G1X8.54Y14.26
G1X8.6Y14.19
G1X8.67Y14.14
G1X8.73Y14.13
G1X8.81Y14.14
G1X8.91Y14.19
G1X9.01Y14.26
G1X9.11Y14.35
G1X9.2Y14.43
G1X9.26Y14.47
G1X9.28Y14.48
G1Y14.46
G1X9.26Y14.39
G1X9.29Y14.29
G1X9.35Y14.19
G1X9.43Y14.08
G1X9.53Y13.99
G1X9.63Y13.91
G1X9.74Y13.85
G1X9.84Y13.83
G1X9.91
G1X9.98Y13.86
G1X10.02Y13.89
G1X10.03Y13.93
G1X10.04Y13.97
G1X10.06Y13.99
G1X10.09
G1X10.13
G1X10.24
G1X10.38Y14.08
G1X10.46Y14.14
G1X10.52Y14.16
G1X10.57
G1X10.61Y14.12
G1X10.63Y14
G1X10.56Y13.9
G1X10.41Y13.82
G1X10.22Y13.77
G1X10Y13.75
G1X9.79Y13.76
G1X9.59Y13.82
G1X9.45Y13.92
G1X9.3Y14.06
G1X9.18Y14.12
G1X9.06Y14.08
G1X8.95Y13.96
G1X8.85Y13.88
G1X8.73Y13.85
G1X8.61Y13.86
G1X8.49Y13.91
M5
G0X9.01Y13.62
M3 S30
; Layer C00
G1X9.1Y13.63
G1X9.19Y13.62
G1X9.26Y13.58
G1X9.3Y13.52
G1X9.31Y13.43
G1X9.3Y13.34
G1X9.27Y13.28
G1X9.21Y13.25
G1X9.13
G1X9.04Y13.29
G1X8.97Y13.34
G1X8.93Y13.4
G1X8.91Y13.46
G1Y13.53
G1X8.95Y13.58
G1X9.01Y13.62
M5
G0X9.59Y13.11
M3 S30
; Layer C00
G1X9.8Y13.13
G1X10.04Y13.11
G1X10.23Y13.05
G1X10.31Y12.99
G1X10.34Y12.92
G1Y12.85
G1X10.3Y12.79
G1X10.23Y12.73
G1X10.14Y12.69
G1X10.02Y12.66
G1X9.88Y12.64
G1X9.74Y12.65
G1X9.63Y12.67
G1X9.57Y12.7
G1Y12.73
G1X9.66Y12.78
G1X9.97Y12.77
G1X10.07Y12.82
G1Y12.86
G1X10.03Y12.89
G1X9.96Y12.91
G1X9.85
G1X9.71
G1X9.6Y12.92
G1X9.53
G1X9.47Y12.94
G1X9.44Y12.98
G1X9.47Y13.04
G1X9.59Y13.11
M5
G0X10.86Y13
M3 S30
; Layer C00
G1X10.9Y13.09
G1X10.99Y13.13
G1X11.13
G1X11.32Y13.08
G1X11.44Y12.99
G1X11.48Y12.88
G1X11.45Y12.79
G1X11.34Y12.74
G1X11.15Y12.76
G1X11Y12.82
G1X10.9Y12.9
G1X10.86Y13
M5
G0X10.81Y12.58
M3 S30
; Layer C00
G1X10.92Y12.52
G1X10.97Y12.45
G1X10.92Y12.37
G1X10.81Y12.31
G1X10.69
G1X10.6Y12.35
G1X10.57Y12.46
G1X10.61Y12.54
G1X10.7Y12.59
G1X10.81Y12.58
M5
G0X11.59Y12.05
M3 S30
; Layer C00
G1X11.78Y12.13
G1X11.98Y12.14
G1X12.14Y12.11
G1X12.24Y12.01
G1X12.26Y11.89
G1X12.22Y11.81
G1X12.11Y11.77
G1X11.92Y11.76
G1X11.83
G1X11.77Y11.78
G1X11.74Y11.82
G1Y11.85
G1X11.75Y11.89
G1X11.73Y11.92
G1X11.69Y11.95
G1X11.62
G1X11.53
G1X11.49Y11.97
G1X11.51Y12
G1X11.59Y12.05
M5
G0X11.45Y11.57
M3 S30
; Layer C00
G1X11.75Y11.51
G1X11.97Y11.46
G1X12.11Y11.42
G1X12.16Y11.4
G1X12.12Y11.39
G1X12
G1X11.79Y11.42
G1X11.19Y11.51
G1X10.56Y11.64
G1X10.27Y11.71
G1X10.04Y11.77
G1X9.87Y11.83
G1X9.78Y11.88
G1X9.74Y11.92
G1Y11.94
G1X9.79
G1X9.94Y11.89
G1X10.04Y11.87
G1X10.31Y11.8
G1X10.67Y11.73
G1X11.07Y11.65
G1X11.45Y11.57
M5
G0X11.32Y10.95
M3 S30
; Layer C00
G1X11.84Y10.84
G1X11.87Y10.83
G1X11.85Y10.82
G1X11.8Y10.81
G1X11.65
G1X11.42
G1X11.17
G1X10.98Y10.83
G1X10.86Y10.86
G1X10.83Y10.89
G1Y10.92
G1X10.79Y10.95
G1X10.72Y10.99
G1X10.63Y11.01
G1X10.18Y11.11
G1X9.82Y11.19
G1X9.53Y11.26
G1X9.34Y11.32
G1X9.23Y11.34
G1X9.16
G1X9.11Y11.3
G1X9.09Y11.22
G1X9.06
G1X9.03Y11.27
G1X8.93Y11.47
G1X8.89Y11.53
G1X8.84Y11.52
G1X8.79Y11.46
G1X8.74Y11.39
G1X8.71Y11.36
G1X8.7Y11.39
G1Y11.47
G1X8.66Y11.54
G1X8.57Y11.64
G1X8.44Y11.74
G1X8.28Y11.84
G1X8.04Y11.98
G1X7.88Y12.1
G1X7.83Y12.15
G1Y12.17
G1X7.86
G1X7.94Y12.13
G1X8.8Y11.73
G1X9.05Y11.61
G1X9.34Y11.5
G1X9.66Y11.39
G1X10.02Y11.28
G1X10.41Y11.17
G1X10.84Y11.06
G1X11.32Y10.95
M5
G0X12.46Y11.51
M3 S30
; Layer C00
G1X12.48Y11.53
G1X12.53
G1X12.62Y11.54
G1X12.71
G1X12.77Y11.53
G1Y11.51
G1X12.75Y11.49
G1X12.62Y11.47
G1X12.49Y11.49
G1X12.46Y11.51
M5
G0X12.77Y11.8
M3 S30
; Layer C00
G1X12.76Y11.81
G1X12.74Y11.87
G1Y11.95
G1Y12.04
G1X12.76Y12.09
G1X12.77Y12.11
G1X12.79Y12.08
G1X12.81Y11.95
G1X12.79Y11.83
G1X12.77Y11.8
M5
G0X12.98Y11.72
M3 S30
; Layer C00
G1X12.94Y11.97
G1Y12.08
G1X12.96Y12.1
G1X12.99Y12.05
G1X13.03Y11.9
G1X13.12Y11.63
G1X13.23Y11.38
G1X13.28Y11.28
G1X13.31Y11.2
G1X13.32Y11.14
G1Y11.1
G1X13.28
G1X13.22Y11.17
G1X13.16Y11.28
G1X13.09Y11.41
G1X12.98Y11.72
M5
G0X13.04Y12.48
M3 S30
; Layer C00
G1X12.88Y12.54
G1X12.71Y12.65
G1X12.63Y12.73
G1X12.58Y12.78
G1X12.56Y12.8
G1X12.59
G1X12.87Y12.73
G1X13.14Y12.77
G1X13.24Y12.81
G1X13.29Y12.86
G1Y12.92
G1X13.22Y12.99
G1X13.19Y13
G1X12.67Y13.22
G1X12.9Y13.23
G1X13.01Y13.22
G1X13.12Y13.17
G1X13.22Y13.09
G1X13.3Y12.99
G1X13.39Y12.83
G1X13.41Y12.69
G1X13.37Y12.58
G1X13.29Y12.51
G1X13.18Y12.47
G1X13.04Y12.48
M5
G0X12.56Y13.33
M3 S30
; Layer C00
G1X12.36Y13.29
G1X12.2Y13.26
G1X12.05Y13.25
G1X11.94
G1X11.86Y13.26
G1X11.81Y13.29
G1X11.79Y13.33
G1X11.82Y13.37
G1X11.88Y13.39
G1X11.97
G1X12.09
G1X12.34
G1X12.53Y13.44
G1X12.72Y13.5
G1X12.98Y13.53
G1X13.06
G1X13.12Y13.52
G1X13.14Y13.51
G1Y13.49
G1X13.09Y13.48
G1X13.02Y13.45
G1X12.92Y13.42
G1X12.78Y13.38
G1X12.56Y13.33
M5
G0X12.72Y13.63
M3 S30
; Layer C00
G1X12.65Y13.66
G1X12.62Y13.73
G1X12.65Y13.8
G1X12.72Y13.83
G1X12.8Y13.8
G1X12.83Y13.73
G1X12.8Y13.66
G1X12.72Y13.63
M5
G0X11.54Y13.39
M3 S30
; Layer C00
G1Y13.35
G1X11.51Y13.34
G1X11.42Y13.37
G1X11.38Y13.45
G1X11.37Y13.48
G1X11.33Y13.51
G1X11.28
G1X11.16Y13.48
G1X11.11Y13.49
G1X11.08Y13.53
G1X11.07Y13.58
G1X11.05Y13.73
G1X11.01Y13.9
G1X10.98Y13.98
G1Y14.01
G1X11.02Y13.98
G1X11.08Y13.88
G1X11.23Y13.69
G1X11.42Y13.51
G1X11.5Y13.45
G1X11.54Y13.39
M5
G0X12.44Y14.55
M3 S30
; Layer C00
G1X12.4Y14.57
G1X12.42Y14.58
G1X12.49Y14.59
G1X12.62
G1X12.75
G1X12.82
G1X12.84Y14.57
G1X12.8Y14.55
G1X12.62Y14.53
G1X12.44Y14.55
M5
G0X13.16Y14.47
M3 S30
; Layer C00
G1X13.19Y14.48
G1X13.29Y14.49
G1X13.45
G1X13.61
G1X13.71
G1X13.73Y14.47
G1X13.68Y14.45
G1X13.45Y14.43
G1X13.22Y14.45
G1X13.16Y14.47
M5
G0X14.83Y13.49
M3 S30
; Layer C00
G1X14.98Y13.57
G1X15.14Y13.59
G1X15.2Y13.63
G1X15.28Y13.7
G1X15.36Y13.79
G1X15.43Y13.88
G1X15.49Y13.95
G1X15.54Y13.99
G1X15.57Y14.01
G1X15.61Y13.99
G1X15.62Y13.88
G1X15.59Y13.8
G1X15.49Y13.7
G1X15.36Y13.59
G1X15.2Y13.48
G1X15.04Y13.39
G1X14.89Y13.32
G1X14.78Y13.28
G1X14.71
G1X14.7Y13.32
G1X14.72Y13.37
G1X14.77Y13.43
G1X14.83Y13.49
M5
G0X16.38Y12.52
M3 S30
; Layer C00
G1X16.34Y12.45
G1X16.38Y12.38
G1X16.45Y12.35
G1X16.52Y12.38
G1X16.55Y12.45
G1X16.52Y12.52
G1X16.45Y12.55
G1X16.38Y12.52
M5
G0X16.23Y12.52
M3 S30
; Layer C00
G1X16.21Y12.59
G1X16.17Y12.63
G1X16.13Y12.64
G1X16.09Y12.63
G1X16.06Y12.58
G1X16.05Y12.51
G1Y12.43
G1X16.09Y12.34
G1X16.18Y12.25
G1X16.29Y12.19
G1X16.42Y12.13
G1X16.55Y12.1
G1X16.65
G1X16.73Y12.13
G1X16.76Y12.2
G1X16.77Y12.24
G1X16.81Y12.28
G1X16.86Y12.31
G1X16.92
G1X16.99
G1X17.02Y12.28
G1X16.98Y12.23
G1X16.89Y12.14
G1X16.76Y12.05
G1X16.61Y12.01
G1X16.45
G1X16.3Y12.04
G1X16.16Y12.1
G1X16.04Y12.19
G1X15.96Y12.31
G1X15.93Y12.44
G1Y12.73
G1X16.47
G1X16.71Y12.72
G1X16.93Y12.69
G1X17.13Y12.64
G1X17.28Y12.58
G1X17.4Y12.51
G1X17.45Y12.47
G1X17.42
G1X17.31Y12.5
G1X17.12Y12.54
G1X16.97Y12.58
G1X16.85Y12.59
G1X16.77
G1X16.68Y12.55
G1X16.66Y12.44
G1X16.64Y12.36
G1X16.6Y12.3
G1X16.54Y12.26
G1X16.45Y12.25
G1X16.36Y12.26
G1X16.29Y12.3
G1X16.25Y12.36
G1Y12.45
G1X16.23Y12.52
M5
G0X20.44Y15.68
M3 S30
; Layer C00
G1Y15.7
G1X20.52Y15.69
G1X20.68Y15.66
G1X20.87Y15.61
G1X21.09Y15.55
G1X21.3Y15.49
G1X21.47Y15.43
G1X21.57Y15.39
G1X21.6Y15.36
G1X21.54
G1X21.39Y15.39
G1X21.19Y15.44
G1X20.94Y15.5
G1X20.71Y15.58
G1X20.54Y15.64
G1X20.44Y15.68
M5
G0X8.94Y14.53
M3 S30
; Layer C00
G1Y14.5
G1X8.92Y14.48
G1X8.87
G1X8.79Y14.49
G1X8.65Y14.54
G1X8.59Y14.58
G1X8.62Y14.61
G1X8.74Y14.62
G1X8.86Y14.59
G1X8.94Y14.53
M5
G0X4.65Y14.62
M3 S30
; Layer C00
G1Y14.59
G1X4.61Y14.54
G1X4.55Y14.47
G1X4.47Y14.39
G1X4.36Y14.29
G1X4.21Y14.16
G1X4.12Y14.1
G1X4.08Y14.12
G1X4.07Y14.2
G1X4.12Y14.36
G1X4.25Y14.57
G1X4.33Y14.66
G1X4.41Y14.74
G1X4.48Y14.8
G1X4.54Y14.82
G1Y14.78
G1X4.47Y14.7
G1X4.37Y14.58
G1X4.35Y14.49
G1X4.36Y14.47
G1X4.39
G1X4.44Y14.48
G1X4.5Y14.52
G1X4.58Y14.58
G1X4.63Y14.61
G1X4.65
M5
G0X4.16Y14.72
M3 S30
; Layer C00
G1X3.88Y14.55
G1X3.76Y14.49
G1X3.68Y14.46
G1X3.64Y14.45
G1Y14.46
G1X3.69Y14.51
G1X3.78Y14.58
G1X3.91Y14.68
G1X4.25Y14.92
G1X4.38Y15.01
G1X4.47Y15.07
G1X4.52Y15.09
G1X4.54
G1X4.52Y15.06
G1X4.47Y15
G1X4.39Y14.91
G1X4.16Y14.72
M5
G0X3.95Y14.94
M3 S30
; Layer C00
G1X3.89Y14.92
G1Y14.94
G1X3.94Y15
G1X4.05Y15.1
G1X4.2Y15.21
G1X4.37Y15.33
G1X4.51Y15.42
G1X4.6Y15.48
G1X4.64Y15.49
G1Y15.48
G1X4.59Y15.42
G1X4.49Y15.34
G1X4.34Y15.21
G1X4.2Y15.1
G1X4.06Y15.01
G1X3.95Y14.94
M5
G0X3.72Y14.97
M3 S30
; Layer C00
G1X3.59Y14.69
G1X3.49Y14.43
G1X3.45Y14.22
G1Y14.14
G1Y14.09
G1X3.49Y14.06
G1X3.53
G1X3.63Y14.03
G1X3.7Y13.94
G1X3.71Y13.89
G1Y13.86
G1X3.68
G1X3.59Y13.89
G1X3.55
G1X3.53Y13.87
G1X3.52Y13.84
G1X3.54Y13.74
G1X3.62Y13.7
G1X3.73
G1X3.88Y13.73
G1X4.04Y13.81
G1X4.21Y13.91
G1X4.38Y14.04
G1X4.54Y14.2
G1X4.69Y14.37
G1X4.79Y14.51
G1X4.87Y14.63
G1X4.91Y14.75
G1Y14.88
G1X4.9Y15.01
G1X4.85Y15.16
G1X4.77Y15.34
G1X4.69Y15.6
G1X4.66Y15.81
G1X4.65Y15.9
G1X4.63Y15.96
G1X4.6Y15.99
G1X4.56
G1X4.5Y15.97
G1X4.42Y15.92
G1X4.33Y15.84
G1X4.22Y15.73
G1X4.04Y15.52
G1X3.87Y15.26
G1X3.72Y14.97
M5
G0X3.59Y12.23
M3 S30
; Layer C00
G1X3.65Y12.21
G1X3.69Y12.2
G1X3.89Y12.13
G1X4.76Y11.86
G1X5.19Y11.73
G1X5.62Y11.61
G1X6.01Y11.5
G1X6.31Y11.43
G1X6.88Y11.29
G1X6.91Y10.34
G1Y10.07
G1Y9.85
G1Y9.68
G1Y9.56
G1X6.89Y9.47
G1X6.86Y9.42
G1X6.82Y9.39
G1X6.78
G1X6.72
G1X6.67Y9.43
G1X6.63Y9.48
G1Y9.53
G1X6.6Y9.63
G1X6.55Y9.72
G1X6.47Y9.82
G1X6.37Y9.91
G1X6.09Y10.07
G1X5.74Y10.18
G1X5.56Y10.24
G1X5.41Y10.29
G1X5.31Y10.34
G1X5.28Y10.38
G1X5.3Y10.42
G1X5.38Y10.43
G1X5.49
G1X5.64Y10.4
G1X5.96Y10.3
G1X6.27Y10.16
G1X6.4Y10.09
G1X6.51Y10.05
G1X6.59Y10.04
G1X6.65Y10.07
G1X6.69Y10.15
G1X6.71Y10.27
G1X6.72Y10.44
G1Y10.66
G1Y11.22
G1X6.43Y11.24
G1X6.35Y11.25
G1X6.24Y11.27
G1X6.09Y11.31
G1X5.92Y11.35
G1X5.52Y11.46
G1X5.09Y11.59
G1X4.03Y11.91
G1Y9.13
G1Y8.56
G1Y8.03
G1Y7.53
G1X4.02Y7.08
G1X4.01Y6.69
G1X4Y6.39
G1X3.98Y6.17
G1Y6.1
G1Y6.05
G1X3.91Y5.75
G1X4.61Y5.53
G1X4.77Y5.49
G1X4.88
G1X4.94Y5.54
G1X4.98Y5.65
G1X4.99Y5.84
G1Y6.1
G1X4.97Y6.47
G1X4.95Y6.85
G1Y7.19
G1Y7.33
G1X4.96Y7.45
G1X4.97Y7.53
G1X4.98Y7.59
G1X5Y7.6
G1X5.01Y7.57
G1X5.02Y7.51
G1X5.04Y7.41
G1X5.05Y7.13
G1X5.06Y6.76
G1Y6.46
G1X5.07Y6.23
G1X5.09Y6.04
G1X5.11Y5.89
G1X5.17Y5.66
G1X5.29Y5.49
G1X5.39Y5.36
G1X5.44Y5.27
G1Y5.21
G1X5.38Y5.18
G1X5.27
G1X5.08Y5.23
G1X4.82Y5.3
G1X4.49Y5.4
G1X4.2Y5.5
G1X3.95Y5.6
G1X3.76Y5.69
G1X3.61Y5.76
G1X3.53Y5.83
G1X3.5Y5.88
G1X3.55Y5.92
G1X3.66
G1X3.69Y5.94
G1X3.71Y5.99
G1X3.73Y6.07
G1X3.75Y6.18
G1X3.79Y6.46
G1X3.81Y6.84
G1X3.84Y7.28
G1X3.85Y7.77
G1X3.86Y8.3
G1Y8.85
G1Y9.4
G1Y9.94
G1X3.84Y10.44
G1X3.82Y10.9
G1X3.79Y11.29
G1X3.76Y11.6
G1X3.74Y11.72
G1X3.71Y11.82
G1X3.69Y11.88
G1X3.67Y11.91
G1X3.56Y12.03
G1X3.52Y12.14
G1Y12.19
G1X3.55Y12.22
G1X3.59
M5
G0X4.91Y10.06
M3 S30
; Layer C00
G1X4.98Y10.08
G1X5.01Y10.04
G1X5.04Y9.94
G1X5.07Y9.79
G1X5.09Y9.61
G1X5.11Y9.44
G1X5.16Y9.3
G1X5.23Y9.18
G1X5.31Y9.11
G1X5.41Y9.07
G1X5.51
G1X5.61Y9.1
G1X5.72Y9.18
G1X5.8Y9.24
G1X5.87Y9.27
G1X5.91Y9.24
G1X5.95Y9.16
G1X5.97Y9.02
G1X5.99Y8.81
G1Y8.52
G1X6Y8.15
G1Y7.74
G1Y7.58
G1X5.99Y7.44
G1X5.97Y7.23
G1X5.94Y7.1
G1X5.89Y7.05
G1X5.83Y7.08
G1X5.75Y7.18
G1X5.64Y7.34
G1X5.54Y7.49
G1X5.47Y7.61
G1X5.42Y7.7
G1X5.4Y7.76
G1Y7.79
G1X5.41
G1X5.45Y7.76
G1X5.52Y7.72
G1X5.6Y7.67
G1X5.67
G1X5.72Y7.7
G1X5.77Y7.78
G1X5.8Y7.9
G1X5.82Y8.05
G1Y8.24
G1Y8.47
G1X5.78Y8.95
G1X5.5Y8.97
G1X5.35Y9.03
G1X5.19Y9.16
G1X5.05Y9.33
G1X4.94Y9.53
G1X4.86Y9.73
G1X4.83Y9.91
G1X4.84Y9.98
G1X4.87Y10.03
G1X4.91Y10.06
M5
G0X6.65Y9.18
M3 S30
; Layer C00
G1X6.72
G1X7.19Y9.09
G1X7.6Y9.02
G1X7.77Y9
G1X7.89Y8.97
G1X7.99Y8.94
G1X8.04Y8.9
G1X8.06Y8.87
G1X8.05Y8.83
G1X7.99Y8.79
G1X7.9Y8.75
G1X7.82Y8.7
G1X7.78Y8.61
G1X7.77Y8.45
G1X7.81Y8.01
G1Y7.85
G1X7.8Y7.74
G1X7.77Y7.71
G1X7.74Y7.75
G1X7.71Y7.86
G1X7.68Y8.02
G1X7.66Y8.4
G1X7.64Y8.54
G1X7.61Y8.66
G1X7.56Y8.75
G1X7.5Y8.81
G1X7.43Y8.86
G1X7.33Y8.88
G1X7.22
G1X7.16Y8.85
G1X7.11Y8.74
G1X7.07Y8.58
G1X7.04Y8.36
G1X6.99Y7.81
G1X6.98Y7.18
G1X7Y6.55
G1X7.05Y5.99
G1X7.08Y5.76
G1X7.13Y5.58
G1X7.18Y5.46
G1X7.24Y5.4
G1X7.35Y5.39
G1X7.44
G1X7.51Y5.44
G1X7.56Y5.53
G1X7.6Y5.67
G1X7.62Y5.87
G1X7.64Y6.13
G1X7.66Y6.86
G1X7.68Y7.19
G1X7.7Y7.32
G1Y7.42
G1X7.72Y7.49
G1X7.74Y7.53
G1X7.75Y7.52
G1X7.77Y7.47
G1Y7.38
G1X7.78Y7.26
G1X7.79Y6.93
G1Y6.52
G1Y6.24
G1Y6
G1Y5.8
G1X7.81Y5.65
G1X7.83Y5.53
G1X7.85Y5.44
G1X7.88Y5.37
G1X7.92Y5.33
G1X8.01Y5.25
G1X8.05Y5.19
G1Y5.16
G1X8.01Y5.13
G1X7.92
G1X7.78Y5.14
G1X7.59Y5.17
G1X7.34Y5.22
G1X7.13Y5.27
G1X6.94Y5.32
G1X6.79Y5.37
G1X6.67Y5.42
G1X6.6Y5.47
G1X6.58Y5.5
G1X6.62Y5.52
G1X6.72Y5.53
G1X6.75Y5.57
G1X6.78Y5.68
G1X6.8Y5.85
G1X6.81Y6.06
G1X6.83Y6.61
G1Y7.24
G1Y7.89
G1X6.79Y8.46
G1X6.77Y8.69
G1X6.75Y8.88
G1X6.73Y9.01
G1X6.7Y9.08
G1X6.64Y9.14
G1Y9.18
M5
G0X8.32Y11.1
M3 S30
; Layer C00
G1X8.25Y11.13
G1X8.17Y11.16
G1X8.03Y11.25
G1X7.97Y11.32
G1X7.98
G1X8.03
G1X8.09Y11.3
G1X8.17Y11.26
G1X8.32Y11.17
G1X8.38Y11.11
G1X8.36Y11.1
G1X8.32
M5
G0X8.22Y11.02
M3 S30
; Layer C00
G1X8.41Y10.94
G1X8.48Y10.92
G1X8.53
G1X8.55Y10.93
G1X8.52Y11
G1X8.54Y11.02
G1X8.57
G1X8.63Y11
G1X8.73Y10.94
G1X8.74Y10.87
G1X8.75Y10.84
G1X8.82Y10.8
G1X8.93Y10.74
G1X9.1Y10.66
G1X9.31Y10.58
G1X9.59Y10.47
G1X9.91Y10.36
G1X10.5Y10.15
G1X10.22Y10.06
G1X10.11Y10.01
G1X10.01Y9.97
G1X9.95Y9.92
G1X9.91Y9.84
G1X9.84Y9.79
G1X9.74Y9.74
G1X9.5Y9.65
G1X9.4Y9.59
G1X9.33Y9.54
G1X9.31Y9.49
G1X9.27Y9.42
G1X9.06Y9.35
G1X8.98Y9.26
G1X8.92Y9.13
G1X8.9Y8.97
G1Y8.79
G1X8.94Y8.62
G1X9Y8.47
G1X9.1Y8.35
G1X9.19Y8.29
G1X9.29Y8.24
G1X9.38Y8.22
G1X9.46Y8.23
G1X9.52Y8.25
G1X9.57
G1X9.61Y8.22
G1X9.62Y8.18
G1X9.64Y8.15
G1X9.68Y8.12
G1X9.75
G1X9.83
G1X9.91Y8.14
G1X9.96
G1X9.98Y8.12
G1X9.97Y8.08
G1Y8.03
G1X10.04Y8.01
G1X10.16
G1X10.32Y8.05
G1X10.69Y8.17
G1X11.01Y8.33
G1X11.12Y8.4
G1X11.2Y8.44
G1X11.24
G1Y8.41
G1X11.2Y8.35
G1Y8.33
G1X11.26Y8.34
G1X11.36Y8.39
G1X11.53Y8.5
G1X11.65Y8.61
G1X11.67Y8.65
G1Y8.67
G1X11.64
G1X11.53Y8.62
G1X11.5
G1Y8.63
G1X11.52Y8.67
G1X11.56Y8.71
G1X11.61Y8.74
G1X11.67
G1X11.73
G1X11.78
G1X11.85Y8.77
G1X11.95Y8.82
G1X12.06Y8.9
G1X12.32Y9.1
G1X12.61Y9.34
G1X12.88Y9.59
G1X13.11Y9.82
G1X13.2Y9.92
G1X13.27Y10.01
G1X13.3Y10.07
G1Y10.12
G1X13.24Y10.18
G1X13.14Y10.2
G1X13.09
G1X13.06Y10.22
G1Y10.26
G1X13.07Y10.32
G1X13.09Y10.39
G1Y10.43
G1Y10.46
G1X13.05
G1X13Y10.44
G1X12.93Y10.4
G1X12.84Y10.34
G1X12.66Y10.19
G1X12.56Y10.11
G1X12.55
G1X12.56Y10.13
G1X12.65Y10.23
G1X12.78Y10.4
G1X12.82Y10.54
G1X12.78Y10.64
G1X12.65Y10.71
G1X12.59Y10.73
G1X12.54Y10.74
G1X12.53
G1X12.54Y10.71
G1X12.55Y10.69
G1Y10.65
G1X12.51Y10.6
G1X12.45Y10.54
G1X12.36Y10.46
G1X12.23Y10.36
G1X12.07Y10.23
G1X11.87Y10.09
G1X11.79Y10.03
G1X11.73Y10
G1X11.7
G1Y10.02
G1X11.72Y10.06
G1X11.76Y10.11
G1X11.83Y10.19
G1X12Y10.35
G1X12.05Y10.4
G1X12.06Y10.44
G1X12.03Y10.45
G1X11.94
G1X11.8Y10.43
G1X11.6Y10.38
G1X11.08Y10.27
G1X10.89Y10.22
G1X10.74Y10.2
G1X10.64Y10.19
G1X10.58
G1X10.57Y10.2
G1X10.59Y10.23
G1X10.73Y10.32
G1X10.74Y10.35
G1X10.7Y10.37
G1X10.6
G1X10.45Y10.39
G1X10.22Y10.44
G1X9.95Y10.5
G1X9.65Y10.58
G1X9.37Y10.67
G1X9.14Y10.74
G1X9.05Y10.78
G1X8.98Y10.8
G1X8.94Y10.82
G1Y10.84
G1X9.01
G1X9.18Y10.81
G1X9.41Y10.75
G1X9.69Y10.68
G1X10.19Y10.57
G1X10.71Y10.51
G1X11.21Y10.49
G1X11.67Y10.51
G1X11.88Y10.54
G1X12.06Y10.58
G1X12.21Y10.62
G1X12.34Y10.68
G1X12.43Y10.74
G1X12.48Y10.81
G1X12.49Y10.89
G1X12.46Y10.97
G1Y11.05
G1X12.52Y11.11
G1X12.56Y11.13
G1X12.59Y11.12
G1X12.61Y11.09
G1X12.62Y11.05
G1X12.65Y10.98
G1X12.73Y10.88
G1X12.85Y10.78
G1X12.99Y10.68
G1X13.15Y10.57
G1X13.27Y10.46
G1X13.38Y10.36
G1X13.45Y10.26
G1X13.49Y10.17
G1X13.51Y10.08
G1X13.5Y10
G1X13.41Y9.87
G1X13.43Y9.82
G1X13.51Y9.79
G1X13.66Y9.76
G1X13.81Y9.74
G1X13.9Y9.75
G1X13.93Y9.79
G1X13.91Y9.86
G1X13.89Y9.94
G1Y9.96
G1X13.94Y9.94
G1X14.04Y9.86
G1X14.13Y9.8
G1X14.25Y9.75
G1X14.37Y9.72
G1X14.49Y9.7
G1X14.76
G1X14.22Y10.21
G1X14.01Y10.43
G1X13.82Y10.68
G1X13.64Y10.94
G1X13.5Y11.21
G1X13.38Y11.47
G1X13.3Y11.71
G1X13.27Y11.93
G1X13.28Y12.1
G1X13.35Y12.24
G1X13.47Y12.41
G1X13.62Y12.6
G1X13.8Y12.79
G1X13.99Y12.96
G1X14.17Y13.1
G1X14.33Y13.2
G1X14.44Y13.24
G1X14.52Y13.23
G1Y13.19
G1X14.46Y13.13
G1X14.31Y13.03
G1X14.17Y12.94
G1X14.05Y12.83
G1X13.96Y12.73
G1X13.91Y12.64
G1X13.84Y12.5
G1X13.68Y12.4
G1X13.62Y12.19
G1X13.48Y12.11
G1X13.45Y12
G1Y11.94
G1X13.48Y11.9
G1X13.5Y11.89
G1X13.54
G1X13.62
G1X13.69Y11.8
G1X13.74Y11.66
G1X13.75Y11.48
G1Y11.42
G1X13.72
G1X13.68Y11.46
G1X13.64Y11.56
G1X13.59Y11.64
G1X13.55Y11.7
G1X13.51Y11.71
G1X13.48Y11.69
G1Y11.54
G1X13.55Y11.37
G1X13.6Y11.29
G1X13.65Y11.23
G1X13.7Y11.2
G1X13.78
G1X13.83Y11.18
G1X13.89Y11.13
G1X13.95Y11.06
G1X14Y10.96
G1X14.02Y10.9
G1X13.98Y10.87
G1X13.82Y10.86
G1X13.79Y10.84
G1X13.8Y10.79
G1X13.86Y10.72
G1X14Y10.61
G1X14.15Y10.57
G1X14.21
G1X14.24Y10.55
G1X14.25Y10.53
G1X14.24Y10.5
G1X14.22Y10.43
G1X14.25Y10.35
G1X14.34Y10.25
G1X14.45Y10.14
G1X14.59Y10.05
G1X14.74Y9.98
G1X14.87Y9.94
G1X14.99
G1X15.11Y9.95
G1X15.17
G1X15.14Y9.94
G1X15.06Y9.9
G1X14.85Y9.81
G1X15.14Y9.63
G1X15.28Y9.57
G1X15.46Y9.51
G1X15.68Y9.47
G1X15.9Y9.44
G1X16.11Y9.42
G1X16.28
G1X16.4Y9.45
G1X16.45Y9.5
G1X16.41Y9.56
G1X16.32Y9.58
G1X16.22Y9.6
G1X16.09Y9.65
G1X15.93Y9.72
G1X15.75Y9.81
G1X15.58Y9.9
G1X15.42Y10.01
G1X15.29Y10.1
G1X15.19Y10.19
G1X15.1Y10.26
G1X14.98Y10.32
G1X14.83Y10.37
G1X14.68Y10.38
G1X14.33Y10.4
G1X14.64Y10.46
G1X14.81Y10.48
G1X14.97Y10.45
G1X15.06Y10.41
G1X15.16Y10.35
G1X15.27Y10.26
G1X15.4Y10.16
G1X15.56Y10.03
G1X15.71Y9.93
G1X15.84Y9.85
G1X15.95Y9.79
G1X16.02Y9.76
G1X16.05
G1X16.03Y9.81
G1X15.95Y9.9
G1X15.86Y10.05
G1X15.83Y10.23
G1X15.76Y10.44
G1X15.63Y10.68
G1X15.55Y10.77
G1X15.48Y10.84
G1X15.44Y10.86
G1X15.42Y10.82
G1X15.4Y10.8
G1X15.35Y10.84
G1X15.29Y10.93
G1X15.2Y11.04
G1X15.11Y11.17
G1X15.02Y11.26
G1X14.94Y11.3
G1X14.88
G1X14.84Y11.29
G1X14.82Y11.3
G1Y11.35
G1X14.84Y11.43
G1X14.85Y11.65
G1X14.8Y11.89
G1X14.77Y11.99
G1X14.75Y12.08
G1Y12.15
G1X14.78Y12.19
G1X14.82
G1X14.86Y12.12
G1X14.9Y12
G1X14.94Y11.86
G1X14.99Y11.65
G1X15.09Y11.45
G1X15.25Y11.23
G1X15.47Y11
G1X15.65Y10.81
G1X15.8Y10.64
G1X15.9Y10.5
G1X15.95Y10.43
G1X15.96Y10.3
G1X15.97Y10.13
G1X16Y10.01
G1X16.08Y9.9
G1X16.22Y9.82
G1X16.42Y9.75
G1X16.67Y9.69
G1X17Y9.65
G1X17.4Y9.62
G1X17.88Y9.61
G1X18.18Y9.6
G1X18.44
G1X18.66
G1X18.83
G1X18.96Y9.62
G1X19.04Y9.63
G1X19.09Y9.65
G1Y9.68
G1X19.07Y9.72
G1Y9.75
G1X19.09Y9.77
G1X19.13Y9.78
G1X19.21Y9.75
G1X19.24Y9.68
G1X19.28Y9.64
G1X19.38Y9.61
G1X19.54Y9.6
G1X19.73
G1X20.14Y9.62
G1X20.48Y9.69
G1X20.74Y9.78
G1X20.46Y9.74
G1X20.35
G1X20.27
G1X20.24Y9.77
G1Y9.81
G1X20.31Y9.84
G1X20.46Y9.86
G1X20.67
G1X20.94Y9.84
G1X21.09Y9.83
G1X21.22Y9.82
G1X21.32
G1X21.39
G1X21.43
G1X21.45Y9.84
G1Y9.86
G1X21.36Y9.93
G1X21.37Y9.95
G1X21.46
G1X21.79Y9.9
G1X21.88
G1Y9.93
G1X21.83Y9.98
G1X21.76Y10.04
G1X21.74Y10.06
G1X21.78
G1X21.89Y10.05
G1X21.99
G1X22.08Y10.06
G1X22.16Y10.11
G1X22.23Y10.19
G1X22.27Y10.26
G1X22.29Y10.32
G1X22.28Y10.36
G1X22.24Y10.37
G1X22.18Y10.41
G1X22.16Y10.49
G1Y10.52
G1X22.11Y10.56
G1X22.03Y10.61
G1X21.93Y10.65
G1X21.68Y10.76
G1X21.38Y10.86
G1X21.08Y10.94
G1X20.81Y11
G1X20.69Y11.02
G1X20.6
G1X20.54
G1X20.5Y10.99
G1X20.4Y10.92
G1X20.27Y10.89
G1X20.09
G1X19.87
G1X19.62Y10.87
G1X19.8Y10.67
G1X19.87Y10.59
G1X19.92Y10.5
G1X19.94Y10.42
G1Y10.35
G1X19.91Y10.31
G1X19.89Y10.3
G1X19.88Y10.33
G1Y10.39
G1X19.85Y10.49
G1X19.8Y10.58
G1X19.74Y10.64
G1X19.66Y10.68
G1X19.58Y10.69
G1X19.51Y10.67
G1X19.45Y10.63
G1X19.42Y10.55
G1X19.37Y10.32
G1X19.36Y10.54
G1X19.34Y10.65
G1X19.3Y10.71
G1X19.23Y10.74
G1X19.11Y10.73
G1X19.02Y10.71
G1X18.95Y10.67
G1X18.91Y10.63
G1X18.9Y10.55
G1X18.85Y10.53
G1X18.75Y10.55
G1X18.61Y10.59
G1X18.41Y10.63
G1X18.26
G1X18.22Y10.62
G1X18.19Y10.59
G1Y10.56
G1X18.23Y10.52
G1X18.3Y10.47
G1X18.4Y10.42
G1X18.53Y10.38
G1X18.68Y10.35
G1X19.02Y10.29
G1X19.4Y10.25
G1X19.77Y10.23
G1X20.1
G1X20.24Y10.25
G1X20.35Y10.28
G1X20.43Y10.31
G1X20.47Y10.35
G1X20.58Y10.52
G1Y10.34
G1X20.59Y10.25
G1X20.61Y10.21
G1X20.66
G1X20.73Y10.26
G1X20.84Y10.32
G1X20.93
G1X21Y10.29
G1X21.11Y10.33
G1X21.2Y10.36
G1X21.32Y10.38
G1X21.47Y10.4
G1X21.63
G1X21.78
G1X21.91
G1X22Y10.38
G1X22.03Y10.35
G1X22Y10.3
G1X21.91Y10.25
G1X21.76Y10.21
G1X21.57Y10.18
G1X21.34Y10.16
G1X21.07Y10.14
G1X20.79Y10.13
G1X20.48
G1X19.85
G1X19.23Y10.18
G1X18.95Y10.21
G1X18.7Y10.24
G1X18.48Y10.29
G1X18.3Y10.34
G1X18.06Y10.42
G1X17.84Y10.46
G1X17.68Y10.48
G1X17.58Y10.47
G1X17.45Y10.43
G1X17.32
G1X17.21Y10.44
G1X17.13Y10.39
G1X17.05Y10.34
G1X16.9
G1X16.72Y10.39
G1X16.53Y10.47
G1X16.35Y10.57
G1X16.19Y10.69
G1X16.08Y10.8
G1X16.03Y10.91
G1X16.06Y10.97
G1X16.13Y11.03
G1X16.26Y11.07
G1X16.47Y11.11
G1X16.76Y11.15
G1X17.15Y11.18
G1X17.64Y11.21
G1X18.26Y11.25
G1X18.83Y11.29
G1X19.37Y11.35
G1X19.86Y11.44
G1X20.31Y11.53
G1X20.7Y11.64
G1X21.05Y11.76
G1X21.33Y11.88
G1X21.55Y12.01
G1X21.7Y12.14
G1X21.78Y12.26
G1Y12.38
G1X21.71Y12.49
G1X21.55Y12.59
G1X21.3Y12.67
G1X21.14Y12.71
G1X20.96Y12.74
G1X20.75Y12.77
G1X20.52Y12.79
G1X19.87Y12.87
G1X19.26Y13
G1X18.98Y13.09
G1X18.74Y13.18
G1X18.53Y13.28
G1X18.36Y13.38
G1X18.1Y13.55
G1X17.85Y13.68
G1X17.56Y13.78
G1X17.22Y13.87
G1X17.08Y13.9
G1X17.01
G1Y13.88
G1X17.07Y13.83
G1X17.13Y13.78
G1X17.15Y13.76
G1X17.1
G1X17Y13.8
G1X16.86Y13.86
G1X16.4Y14.06
G1X16.14Y14.17
G1X15.89Y14.27
G1X15.67Y14.34
G1X15.52Y14.38
G1X13.43Y14.69
G1X12.55Y14.82
G1X11.83Y14.91
G1X11.4Y14.97
G1X11.03Y15.03
G1X10.72Y15.09
G1X10.48Y15.14
G1X10.29Y15.19
G1X10.17Y15.24
G1X10.11Y15.28
G1X10.07Y15.32
G1X10.01Y15.37
G1X9.92Y15.43
G1X9.81Y15.51
G1X9.53Y15.68
G1X8.88Y16.05
G1X8.62Y16.21
G1X8.52Y16.28
G1X8.44Y16.33
G1X8.4Y16.38
G1X8.38Y16.4
G1X8.41Y16.42
G1X8.49Y16.4
G1X8.6Y16.35
G1X8.74Y16.29
G1X8.87Y16.21
G1X9Y16.13
G1X9.1Y16.06
G1X9.16Y15.99
G1X9.28Y15.92
G1X9.47Y15.91
G1X9.67Y15.95
G1X9.82Y16.04
G1X9.89Y16.18
G1Y16.32
G1X9.8Y16.45
G1X9.66Y16.58
G1X9.46Y16.7
G1X9.21Y16.8
G1X8.91Y16.87
G1X8.59Y16.92
G1X8.43Y16.93
G1X8.29
G1X8.19Y16.94
G1X8.12
G1X8.07
G1X8.05Y16.92
G1X8.06Y16.9
G1X8.16Y16.83
G1X8.21Y16.78
G1X8.23Y16.73
G1X8.21Y16.68
G1X8.17Y16.66
G1X8.08Y16.69
G1X7.97Y16.76
G1X7.85Y16.86
G1X7.6Y17.11
G1X7.4Y17.39
G1X7.27Y17.68
G1X7.19Y17.98
G1X7.17Y18.1
G1Y18.19
G1X7.19Y18.24
G1X7.23
G1X7.28
G1X7.32Y18.33
G1X7.35Y18.5
G1Y18.76
G1X7.37Y19.13
G1Y19.25
G1X7.38Y19.35
G1X7.42Y19.52
G1X7.49Y19.71
G1X7.61Y20.03
G1X7.75Y20.32
G1X7.9Y20.59
G1X8.06Y20.83
G1X8.23Y21.04
G1X8.42Y21.23
G1X8.61Y21.39
G1X8.82Y21.52
G1X9.05Y21.67
G1X9.24Y21.8
G1X9.37Y21.92
G1X9.41Y21.99
G1X9.44Y22.09
G1X9.52Y22.13
G1X9.59Y22.11
G1X9.61Y22.05
G1Y21.92
G1X9.66Y21.84
G1X9.79Y21.79
G1X10Y21.76
G1X10.15Y21.75
G1X10.28Y21.72
G1X10.38Y21.69
G1X10.44Y21.65
G1X10.63Y21.5
G1X10.93Y21.35
G1X11.07Y21.3
G1X11.17Y21.28
G1X11.23
G1X11.22Y21.41
G1X11.27Y21.48
G1X11.34Y21.49
G1X11.38Y21.44
G1X11.4Y21.35
G1Y21.21
G1Y21.16
G1X11.43Y21.1
G1X11.5Y21.05
G1X11.58Y21.01
G1X11.8Y20.92
G1X12.07Y20.86
G1X12.35Y20.81
G1X12.61
G1X12.83Y20.83
G1X12.98Y20.9
G1X13.09Y21.07
G1X13.15Y21.29
G1X13.17Y21.54
G1X13.15Y21.81
G1X13.09Y22.07
G1X12.99Y22.31
G1X12.86Y22.51
G1X12.7Y22.63
G1X12.57Y22.74
G1X12.52Y22.87
G1X12.5Y22.93
G1X12.44Y22.97
G1X12.36Y23
G1X12.25Y23.01
G1X11.99
G1X11.73Y22.95
G1X11.55Y22.88
G1X11.95Y22.72
G1X11.74Y22.74
G1X11.54Y22.73
G1X11.36Y22.68
G1X11.19Y22.64
G1X11.05Y22.65
G1X11.01Y22.67
G1Y22.69
G1X11.06Y22.71
G1X11.14
G1X11.32Y22.75
G1X11.44Y22.83
G1Y22.88
G1X11.41Y22.9
G1X11.31
G1X11.03Y22.85
G1X10.93Y22.84
G1X10.88
G1Y22.86
G1X10.9Y22.88
G1X10.96Y22.9
G1X11.04Y22.92
G1X11.15Y22.94
G1X11.42Y23
G1X11.73Y23.06
G1X12.52Y23.19
G1X12.58Y22.95
G1X12.61Y22.86
G1X12.65Y22.79
G1X12.7Y22.74
G1X12.74Y22.72
G1X12.77Y22.73
G1X12.78Y22.77
G1Y22.82
G1X12.64Y23.11
G1X12.62Y23.32
G1X12.61Y23.36
G1X12.58Y23.38
G1X12.53Y23.39
G1X12.47Y23.38
G1X12.39Y23.36
G1X12.35Y23.39
G1X12.32Y23.45
G1Y23.56
G1Y23.76
G1X12.34Y23.88
G1X12.38Y23.93
G1X12.45
G1X12.48Y23.94
G1X12.5Y24
G1X12.51Y24.09
G1X12.52Y24.21
G1Y24.53
G1X12.5Y24.9
G1X12.47Y25.28
G1X12.42Y25.61
G1X12.4Y25.75
G1X12.37Y25.87
G1X12.34Y25.94
G1X12.31Y25.99
G1X12.19Y26.05
G1X12.09Y26.07
G1X12.03Y26.05
G1X11.95Y26.03
G1X11.86Y25.98
G1X11.74Y25.92
G1X11.44Y25.73
G1X11.12Y25.48
G1X10.98Y25.35
G1X10.86Y25.23
G1X10.79Y25.13
G1X10.76Y25.06
G1X10.78Y25.03
G1X10.83Y25.05
G1X10.9Y25.08
G1X10.99Y25.15
G1X11.22Y25.34
G1X11.03Y25.12
G1X10.95Y25.04
G1X10.87Y24.98
G1X10.8Y24.94
G1X10.75
G1X10.73
G1X10.68Y24.9
G1X10.62Y24.84
G1X10.54Y24.75
G1X10.36Y24.52
G1X10.14Y24.23
G1X9.92Y23.91
G1X9.7Y23.6
G1X9.44Y23.24
G1X9.16Y22.87
G1X8.43Y22.85
G1X7.97Y22.8
G1X7.47Y22.68
G1X6.97Y22.5
G1X6.48Y22.28
G1X6.04Y22.04
G1X5.7Y21.79
G1X5.56Y21.66
G1X5.46Y21.54
G1X5.4Y21.43
G1X5.38Y21.32
G1X5.33Y21.21
G1X5.2Y21.04
G1X5.07Y20.88
G1X5.01Y20.77
G1X4.97Y20.64
G1X4.88Y20.43
G1X4.78Y20.13
G1X4.7Y19.75
G1X4.64Y19.32
G1X4.6Y18.83
G1X4.59Y18.31
G1X4.6Y17.77
G1X4.64Y17.21
G1X4.7Y16.65
G1X4.79Y15.9
G1X4.83Y15.72
G1X4.92Y15.46
G1X5.03Y15.17
G1X5.16Y14.88
G1X5.27Y14.64
G1X5.36Y14.44
G1X5.42Y14.3
G1X5.46Y14.19
G1X5.48Y14.13
G1X5.46Y14.12
G1X5.43Y14.15
G1X5.37Y14.23
G1X5.32Y14.29
G1X5.29
G1X5.3Y14.22
G1X5.34Y14.11
G1X5.47Y13.79
G1X5.66Y13.41
G1X5.86Y13.1
G1X6.09Y12.79
G1X6.34Y12.48
G1X6.63Y12.19
G1X6.94Y11.9
G1X7.26Y11.63
G1X7.61Y11.38
G1X7.96Y11.16
G1X8.22Y11.02
M5
G0X8.09Y10.95
M3 S30
; Layer C00
G1X7.59Y11.24
G1X7.12Y11.54
G1X6.7Y11.86
G1X6.34Y12.17
G1X6.06Y12.48
G1X5.91Y12.68
G1X5.75Y12.93
G1X5.58Y13.21
G1X5.43Y13.49
G1X5.29Y13.77
G1X5.17Y14.01
G1X5.1Y14.21
G1X5.07Y14.33
G1Y14.42
G1X5.05Y14.48
G1X5.02Y14.5
G1X4.98
G1X4.93Y14.47
G1X4.86Y14.41
G1X4.79Y14.32
G1X4.71Y14.2
G1X4.47Y13.92
G1X4.17Y13.68
G1X4.02Y13.59
G1X3.89Y13.52
G1X3.77Y13.49
G1X3.68
G1X3.57Y13.55
G1X3.48Y13.64
G1X3.41Y13.74
G1X3.37Y13.87
G1X3.33Y14.17
G1X3.37Y14.52
G1X3.48Y14.89
G1X3.66Y15.27
G1X3.89Y15.63
G1X4.19Y15.94
G1X4.53Y16.25
G1X4.45Y16.79
G1X4.36Y17.58
G1X4.34Y18.33
G1X4.38Y19.04
