; LightBurn 0.9.24
; GRBL device profile, user origin
; Bounds: X-0.82 Y5.42 to X35.98 Y25.38
G00 G17 G40 G21 G54
G90
G0 X0 Y0
G91
M4
; Image @ 6000 mm/min, 20% power
M8
M5
G0X0.45Z0.02
M3 S30
; Layer C00
G1X2.5F6000S0
G1X0.1S20
G1X28.9S0
G1X0.1S20
G1X2.5S0
G1X0.2Z0S0
G1Z0S20
G1X-2.5Z0S0
G1X-0.2Z0S20
G1X-0.1Z0S0
G1X-0.2Z0S20
G1X-28.4Z0S0
G1X-0.4Z0S20
G1X-0.1Z0S0
G1X-0.1Z0S20
G1X-2.5Z0S0
G1Z0S20
G1X-0.1Z0S0
G1Z0S20
G1X2.5Z0S0
G1X0.1Z0S20
G1X0.6Z0S0
G1X0.1Z0S20
G1X28.1Z0S0
G1X0.2Z0S20
G1X0.4Z0S0
G1X0.2Z0S20
G1X2.5Z0S0
G1Z0S20
G1X0.1Z0.01S0
G1Z-0S20
G1X-2.5Z-0S0
G1X-0.1Z-0S20
G1X-0.3Z-0S0
G1X-0.3Z-0S20
G1X-0.2Z-0S0
G1X-0.1Z-0S20
G1X-27.9Z-0S0
G1X-0.1Z-0S20
G1X-0.1Z-0S0
G1X-0.1Z-0S20
G1X-0.1Z-0S0
G1X-0.1Z-0S20
G1X-0.1Z-0S0
G1X-0.1Z-0S20
G1X-0.2Z-0S0
G1X-0.1Z-0S20
G1X-2.5Z-0S0
G1Z-0S20
G1X-0.1Z-0S0
G1Z-0S20
G1X2.5Z-0S0
G1X0.1Z-0S20
G1X0.4Z-0S0
G1X0.3Z-0S20
G1X0.4Z-0S0
G1X0.1Z-0S20
G1X27.5Z-0S0
G1X0.1Z-0S20
G1X0.4Z-0S0
G1X0.1Z-0S20
G1X0.1Z-0S0
G1X0.1Z-0S20
G1X0.4Z-0S0
G1X0.1Z-0S20
G1X2.5Z-0S0
G1Z-0S20
G1X0.1Z-0S0
G1Z-0S20
G1X-2.5Z-0S0
G1X-0.2Z-0S20
G1X-0.2Z-0S0
G1X-0.4Z-0S20
G1X-0.2Z-0S0
G1X-0.1Z-0S20
G1X-0.1Z-0S0
G1X-0.1Z-0S20
G1X-27.5Z-0S0
G1X-0.1Z-0S20
G1X-0.1Z-0S0
G1X-0.1Z-0S20
G1X-0.1Z-0S0
G1X-0.1Z-0S20
G1X-0.2Z-0S0
G1X-0.3Z-0S20
G1X-0.3Z-0S0
G1X-0.1Z-0S20
G1X-2.5Z-0S0
G1Z-0S20
G1X-0.1Z0S0
G1Z0S20
G1X2.5Z0S0
G1X0.1Z0S20
G1X0.3Z0S0
G1X0.4Z0S20
G1X0.3Z0S0
G1X0.1Z0S20
G1X0.1Z0S0
G1X0.1Z0S20
G1X27.4Z0S0
G1X0.1Z0S20
G1X0.2Z0S0
G1X0.1Z0S20
G1X0.3Z0S0
G1X0.3Z0S20
G1X0.1Z0S0
G1X0.1Z0S20
G1X0.3Z0S0
G1X0.1Z0S20
G1X2.5Z0S0
G1Z0S20
G1Z0S0
G1Z0S20
G1X-2.5Z0S0
G1X-0.1Z0S20
G1X-0.3Z0S0
G1X-0.1Z0S20
G1X-0.1Z0S0
G1X-0.2Z0S20
G1X-0.4Z0S0
G1X-0.2Z0S20
G1X-0.1Z0S0
G1X-0.1Z0S20
G1X-27.5Z0S0
G1X-0.2Z0S20
G1X-0.4Z0S0
G1X-0.2Z0S20
G1X-0.1Z0S0
G1X-0.1Z0S20
G1X-0.2Z0S0
G1X-0.1Z0S20
G1X-2.5Z0S0
G1Z0S20
G1X-0.1Z0.01S0
G1Z-0S20
G1X2.5Z-0S0
G1X0.1Z-0S20
G1X0.3Z-0S0
G1X0.1Z-0S20
G1X0.1Z-0S0
G1X0.1Z-0S20
G1X0.3Z-0S0
G1X0.1Z-0S20
G1X0.3Z-0S0
G1X0.1Z-0S20
G1X27.4Z-0S0
G1X0.1Z-0S20
G1X0.4Z-0S0
G1X0.1Z-0S20
G1X0.3Z-0S0
G1X0.2Z-0S20
G1X0.4Z-0S0
G1X0.1Z-0S20
G1X2.5Z-0S0
G1Z-0S20
G1X0.1Z-0S0
G1Z-0S20
G1X-2.5Z-0S0
G1X-0.1Z-0S20
G1X-0.3Z-0S0
G1X-0.2Z-0S20
G1X-0.1Z-0S0
G1X-0.1Z-0S20
G1X-0.2Z-0S0
G1X-0.1Z-0S20
G1X-0.1Z-0S0
G1X-0.1Z-0S20
G1X-0.1Z-0S0
G1X-0.1Z-0S20
G1X-27.5Z-0S0
G1X-0.1Z-0S20
G1X-0.2Z-0S0
G1X-0.1Z-0S20
G1X-0.5Z-0S0
G1X-0.3Z-0S20
G1X-0.4Z-0S0
G1X-0.1Z-0S20
G1X-2.5Z-0S0
G1Z-0S20
G1Z-0S0
G1Z-0S20
G1X2.5Z-0S0
G1X0.1Z-0S20
G1X0.3Z-0S0
G1X0.1Z-0S20
G1X0.1Z-0S0
G1X0.1Z-0S20
G1X0.3Z-0S0
G1X0.2Z-0S20
G1X0.1Z-0S0
G1X0.1Z-0S20
G1X0.2Z-0S0
G1X0.1Z-0S20
G1X27.4Z-0S0
G1X0.1Z-0S20
G1X0.1Z-0S0
G1X0.1Z-0S20
G1X0.1Z-0S0
G1X0.1Z-0S20
G1X0.4Z-0S0
G1X0.2Z-0S20
G1X0.4Z-0S0
G1X0.2Z-0S20
G1X2.5Z-0S0
G1Z-0S20
G1X-0.4Z0S0
G1Z0S20
G1X-2.5Z0S0
G1X-0.3Z0S20
G1X-0.2Z0S0
G1X-0.1Z0S20
G1X-0.1Z0S0
G1X-0.1Z0S20
G1X-0.1Z0S0
G1X-0.1Z0S20
G1X-0.2Z0S0
G1X-0.1Z0S20
G1X-27.4Z0S0
G1X-0.1Z0S20
G1X-0.2Z0S0
G1X-0.2Z0S20
G1X-0.2Z0S0
G1X-0.1Z0S20
G1X-0.2Z0S0
G1X-0.1Z0S20
G1X-0.1Z0S0
G1X-0.1Z0S20
G1X-0.4Z0S0
G1X-0.1Z0S20
G1X-2.5Z0S0
G1Z0S20
G1Z0S0
G1Z0S20
G1X2.5Z0S0
G1X0.1Z0S20
G1X0.3Z0S0
G1X0.1Z0S20
G1X0.1Z0S0
G1X0.1Z0S20
G1X0.3Z0S0
G1X0.2Z0S20
G1X0.1Z0S0
G1X0.1Z0S20
G1X0.2Z0S0
G1X0.3Z0S20
G1X27.1Z0S0
G1X0.3Z0S20
G1X0.3Z0S0
G1X0.1Z0S20
G1X0.1Z0S0
G1X0.1Z0S20
G1X0.4Z0S0
G1X0.1Z0S20
G1X0.4Z0S0
G1X0.2Z0S20
G1X2.5Z0S0
G1Z0S20
G1X0.1Z0S0
G1Z0S20
G1X-2.5Z0S0
G1X-0.1Z0S20
G1X-0.4Z0S0
G1X-0.3Z0S20
G1X-0.3Z0S0
G1X-0.1Z0S20
G1X-0.1Z0S0
G1X-0.1Z0S20
G1X-0.3Z0S0
G1X-0.1Z0S20
G1X-0.1Z0S0
G1X-0.3Z0S20
G1X-26.8Z0S0
G1X-0.3Z0S20
G1X-0.1Z0S0
G1X-0.1Z0S20
G1X-0.3Z0S0
G1X-0.2Z0S20
G1X-0.4Z0S0
G1X-0.3Z0S20
G1X-0.4Z0S0
G1X-0.1Z0S20
G1X-2.5Z0S0
G1Z0S20
G1Z0.01S0
G1Z-0S20
G1X2.5Z-0S0
G1X0.1Z-0S20
G1X0.3Z-0S0
G1X0.1Z-0S20
G1X0.1Z-0S0
G1X0.1Z-0S20
G1X0.3Z-0S0
G1X0.1Z-0S20
G1X0.1Z-0S0
G1X0.1Z-0S20
G1X0.3Z-0S0
G1X0.3Z-0S20
G1X0.1Z-0S0
G1X0.4Z-0S20
G1X6.3Z-0S0
G1X0.2Z-0S20
G1X13.3Z-0S0
G1X0.3Z-0S20
G1X6.3Z-0S0
G1X0.3Z-0S20
G1X0.1Z-0S0
G1X0.3Z-0S20
G1X0.3Z-0S0
G1X0.1Z-0S20
G1X0.1Z-0S0
G1X0.1Z-0S20
G1X0.3Z-0S0
G1X0.1Z-0S20
G1X0.1Z-0S0
G1X0.1Z-0S20
G1X0.4Z-0S0
G1X0.1Z-0S20
G1X2.5Z-0S0
G1Z-0S20
G1X0.1Z-0S0
G1Z-0S20
G1X-2.5Z-0S0
G1X-0.1Z-0S20
G1X-0.4Z-0S0
G1X-0.1Z-0S20
G1X-0.1Z-0S0
G1X-0.1Z-0S20
G1X-0.2Z-0S0
G1X-0.1Z-0S20
G1X-0.2Z-0S0
G1X-0.1Z-0S20
G1X-0.3Z-0S0
G1X-0.2Z-0S20
G1X-0.1Z-0S0
G1X-0.1Z-0S20
G1X-0.1Z-0S0
G1X-0.4Z-0S20
G1X-6.1Z-0S0
G1X-0.2Z-0S20
G1X-0.2Z-0S0
G1X-0.1Z-0S20
G1X-13Z-0S0
G1X-0.1Z-0S20
G1X-0.1Z-0S0
G1X-0.1Z-0S20
G1X-0.1Z-0S0
G1X-0.2Z-0S20
G1X-6Z-0S0
G1X-0.3Z-0S20
G1X-0.1Z-0S0
G1X-0.2Z-0S20
G1X-0.1Z-0S0
G1X-0.2Z-0S20
G1X-0.4Z-0S0
G1X-0.2Z-0S20
G1X-0.4Z-0S0
G1X-0.2Z-0S20
G1X-0.4Z-0S0
G1X-0.1Z-0S20
G1X-2.5Z-0S0
G1Z-0S20
G1X-0.1Z0S0
G1Z0S20
G1X2.5Z0S0
G1X0.1Z0S20
G1X0.4Z0S0
G1X0.1Z0S20
G1X0.1Z0S0
G1X0.1Z0S20
G1X0.3Z0S0
G1X0.1Z0S20
G1X0.5Z0S0
G1X0.4Z0S20
G1X0.1Z0S0
G1X0.3Z0S20
G1X0.1Z0S0
G1X0.2Z0S20
G1X5.8Z0S0
G1X0.6Z0S20
G1X0.1Z0S0
G1X0.1Z0S20
G1X12.8Z0S0
G1X0.1Z0S20
G1X0.1Z0S0
G1X0.5Z0S20
G1X5.8Z0S0
G1X0.4Z0S20
G1X0.1Z0S0
G1X0.7Z0S20
G1X0.3Z0S0
G1X0.2Z0S20
G1X0.4Z0S0
G1X0.1Z0S20
G1X0.1Z0S0
G1X0.1Z0S20
G1X0.3Z0S0
G1X0.1Z0S20
G1X2.5Z0S0
G1Z0S20
G1X0.1Z0S0
G1Z0S20
G1X-2.5Z0S0
G1X-0.1Z0S20
G1X-0.5Z0S0
G1X-0.2Z0S20
G1X-0.3Z0S0
G1X-0.1Z0S20
G1X-0.5Z0S0
G1X-0.2Z0S20
G1X-0.1Z0S0
G1X-0.1Z0S20
G1X-0.1Z0S0
G1X-0.4Z0S20
G1X-0.2Z0S0
G1X-0.2Z0S20
G1X-5.6Z0S0
G1X-0.3Z0S20
G1X-0.1Z0S0
G1X-0.1Z0S20
G1X-0.3Z0S0
G1X-0.1Z0S20
G1X-13.1Z0S0
G1X-0.1Z0S20
G1X-0.1Z0S0
G1X-0.3Z0S20
G1X-5.5Z0S0
G1X-0.2Z0S20
G1X-0.2Z0S0
G1X-0.7Z0S20
G1X-0.1Z0S0
G1X-0.2Z0S20
G1X-0.3Z0S0
G1X-0.1Z0S20
G1X-0.1Z0S0
G1X-0.1Z0S20
G1X-0.3Z0S0
G1X-0.1Z0S20
G1X-0.1Z0S0
G1X-0.1Z0S20
G1X-2.5Z0S0
G1Z0S20
G1X-0.5Z0S0
G1Z0S20
G1X2.5Z0S0
G1X0.2Z0S20
G1X0.4Z0S0
G1X0.1Z0S20
G1X0.4Z0S0
G1X0.1Z0S20
G1X0.4Z0S0
G1X0.2Z0S20
G1X0.1Z0S0
G1X0.2Z0S20
G1X0.1Z0S0
G1X0.4Z0S20
G1X0.1Z0S0
G1X0.2Z0S20
G1X0.1Z0S0
G1X0.3Z0S20
G1X5.2Z0S0
G1X0.2Z0S20
G1X0.1Z0S0
G1X0.2Z0S20
G1X0.3Z0S0
G1X0.3Z0S20
G1X12.7Z0S0
G1X0.2Z0S20
G1X0.2Z0S0
G1X0.1Z0S20
G1X0.1Z0S0
G1X0.3Z0S20
G1X5.3Z0S0
G1X0.2Z0S20
G1X0.2Z0S0
G1X0.9Z0S20
G1X0.1Z0S0
G1X0.2Z0S20
G1X0.3Z0S0
G1X0.1Z0S20
G1X0.5Z0S0
G1X0.2Z0S20
G1X2.5Z0S0
G1Z0S20
G1X0.5Z0.01S0
G1Z-0S20
G1X-2.5Z-0S0
G1X-0.1Z-0S20
G1X-0.2Z-0S0
G1X-0.1Z-0S20
G1X-0.1Z-0S0
G1X-0.1Z-0S20
G1X-0.5Z-0S0
G1X-0.1Z-0S20
G1X-0.3Z-0S0
G1X-0.2Z-0S20
G1X-0.1Z-0S0
G1X-0.1Z-0S20
G1X-0.1Z-0S0
G1X-0.2Z-0S20
G1X-0.1Z-0S0
G1X-0.2Z-0S20
G1X-0.1Z-0S0
G1X-0.5Z-0S20
G1X-0.1Z-0S0
G1X-0.2Z-0S20
G1X-5Z-0S0
G1X-0.6Z-0S20
G1X-0.4Z-0S0
G1X-0.1Z-0S20
G1X-12.6Z-0S0
G1X-0.1Z-0S20
G1X-0.2Z-0S0
G1X-0.1Z-0S20
G1X-0.1Z-0S0
G1X-0.2Z-0S20
G1X-0.1Z-0S0
G1X-0.3Z-0S20
G1X-5.1Z-0S0
G1X-0.1Z-0S20
G1X-0.2Z-0S0
G1X-0.1Z-0S20
G1X-0.1Z-0S0
G1X-0.5Z-0S20
G1X-0.1Z-0S0
G1X-0.2Z-0S20
G1X-0.1Z-0S0
G1X-0.2Z-0S20
G1X-0.1Z-0S0
G1X-0.1Z-0S20
G1X-0.3Z-0S0
G1X-0.2Z-0S20
G1X-0.4Z-0S0
G1X-0.3Z-0S20
G1X-2.5Z-0S0
G1Z-0S20
G1X-0.4Z-0S0
G1Z-0S20
G1X2.5Z-0S0
G1X0.1Z-0S20
G1X0.2Z-0S0
G1X0.1Z-0S20
G1X0.8Z-0S0
G1X0.1Z-0S20
G1X0.2Z-0S0
G1X0.3Z-0S20
G1X0.2Z-0S0
G1X0.2Z-0S20
G1X0.1Z-0S0
G1X0.6Z-0S20
G1X0.1Z-0S0
G1X0.3Z-0S20
G1X0.1Z-0S0
G1X0.2Z-0S20
G1X4.7Z-0S0
G1X0.3Z-0S20
G1X0.1Z-0S0
G1X0.2Z-0S20
G1X0.3Z-0S0
G1X0.1Z-0S20
G1X13.2Z-0S0
G1X0.1Z-0S20
G1X0.2Z-0S0
G1X0.1Z-0S20
G1X0.2Z-0S0
G1X0.3Z-0S20
G1X4.8Z-0S0
G1X0.1Z-0S20
G1X0.2Z-0S0
G1X0.3Z-0S20
G1X0.1Z-0S0
G1X0.6Z-0S20
G1X0.1Z-0S0
G1X0.3Z-0S20
G1X0.1Z-0S0
G1X0.1Z-0S20
G1X0.4Z-0S0
G1X0.1Z-0S20
G1X0.5Z-0S0
G1X0.1Z-0S20
G1X0.1Z-0S0
G1X0.1Z-0S20
G1X0.3Z-0S0
G1X0.1Z-0S20
G1X2.5Z-0S0
G1Z-0S20
G1X-2.5S0
G1X-0.1S20
G1X-0.2S0
G1X-0.1S20
G1X-0.1S0
G1X-0.1S20
G1X-0.4S0
G1X-0.1S20
G1X-0.1S0
G1X-0.1S20
G1X-0.2S0
G1X-0.3S20
G1X-0.3S0
G1X-0.1S20
G1X-0.1S0
G1X-0.4S20
G1X-0.1S0
G1X-0.4S20
G1X-0.1S0
G1X-0.2S20
G1X-0.1S0
G1X-0.2S20
G1X-4.5S0
G1X-0.3S20
G1X-0.1S0
G1X-0.3S20
G1X-0.1S0
G1X-0.2S20
G1X-0.2S0
G1X-0.1S20
G1X-12.7S0
G1X-0.1S20
G1X-0.2S0
G1X-0.1S20
G1X-0.2S0
G1X-0.1S20
G1X-0.1S0
G1X-0.4S20
G1X-4.6S0
G1X-0.1S20
G1X-0.2S0
G1X-0.1S20
G1X-0.1S0
G1X-0.4S20
G1X-0.1S0
G1X-0.5S20
G1X-0.1S0
G1X-0.2S20
G1X-0.1S0
G1X-0.1S20
G1X-0.1S0
G1X-0.1S20
G1X-0.4S0
G1X-0.1S20
G1X-0.1S0
G1X-0.1S20
G1X-0.2S0
G1X-0.2S20
G1X-0.2S0
G1X-0.1S20
G1X-2.5S0
G1Z0S0
G1Z0S20
G1X2.5Z0S0
G1X0.1Z0S20
G1X0.1Z0S0
G1X0.2Z0S20
G1X0.5Z0S0
G1X0.2Z0S20
G1X0.2Z0S0
G1X0.1Z0S20
G1X0.1Z0S0
G1X0.1Z0S20
G1X0.3Z0S0
G1X0.1Z0S20
G1X0.1Z0S0
G1X0.1Z0S20
G1X0.1Z0S0
G1X0.4Z0S20
G1X0.1Z0S0
G1X1Z0S20
G1X4.3Z0S0
G1X0.3Z0S20
G1X0.1Z0S0
G1X0.2Z0S20
G1X0.2Z0S0
G1X0.1Z0S20
G1X13.2Z0S0
G1X0.1Z0S20
G1X0.2Z0S0
G1X0.1Z0S20
G1X0.3Z0S0
G1X0.6Z0S20
G1X4.2Z0S0
G1X0.1Z0S20
G1X0.1Z0S0
G1X0.1Z0S20
G1X0.1Z0S0
G1X0.7Z0S20
G1X0.1Z0S0
G1X0.4Z0S20
G1X0.1Z0S0
G1X0.1Z0S20
G1X0.1Z0S0
G1X0.1Z0S20
G1X0.2Z0S0
G1X0.1Z0S20
G1X0.1Z0S0
G1X0.1Z0S20
G1X0.3Z0S0
G1X0.1Z0S20
G1X0.2Z0S0
G1X0.1Z0S20
G1X0.2Z0S0
G1X0.1Z0S20
G1X0.1Z0S0
G1X0.2Z0S20
G1X2.5Z0S0
G1Z0S20
G1X0.2Z0S0
G1Z0S20
G1X-2.5Z0S0
G1X-0.1Z0S20
G1X-0.3Z0S0
G1X-0.1Z0S20
G1X-0.5Z0S0
G1X-0.2Z0S20
G1X-0.2Z0S0
G1X-0.1Z0S20
G1X-0.1Z0S0
G1X-0.1Z0S20
G1X-0.2Z0S0
G1X-0.1Z0S20
G1X-0.1Z0S0
G1X-0.1Z0S20
G1X-0.1Z0S0
G1X-0.1Z0S20
G1X-0.1Z0S0
G1X-0.1Z0S20
G1X-0.1Z0S0
G1X-0.2Z0S20
G1X-0.1Z0S0
G1X-0.3Z0S20
G1X-0.1Z0S0
G1X-0.5Z0S20
G1X-0.2Z0S0
G1X-0.1Z0S20
G1X-3.9Z0S0
G1X-0.4Z0S20
G1X-0.2Z0S0
G1X-0.1Z0S20
G1X-0.2Z0S0
G1X-0.1Z0S20
G1X-0.2Z0S0
G1X-0.1Z0S20
G1X-5.5Z0S0
G1X-0.1Z0S20
G1X-0.1Z0S0
G1X-0.1Z0S20
G1X-1.5Z0S0
G1X-0.1Z0S20
G1X-5.6Z0S0
G1X-0.1Z0S20
G1X-0.2Z0S0
G1X-0.1Z0S20
G1X-0.2Z0S0
G1X-0.1Z0S20
G1X-0.1Z0S0
G1X-0.5Z0S20
G1X-4Z0S0
G1X-0.2Z0S20
G1X-0.2Z0S0
G1X-0.1Z0S20
G1X-0.1Z0S0
G1X-0.7Z0S20
G1X-0.1Z0S0
G1X-0.1Z0S20
G1X-0.1Z0S0
G1X-0.2Z0S20
G1X-0.1Z0S0
G1X-0.1Z0S20
G1X-0.1Z0S0
G1X-0.1Z0S20
G1X-0.3Z0S0
G1X-0.2Z0S20
G1X-0.4Z0S0
G1X-0.1Z0S20
G1X-0.1Z0S0
G1X-0.1Z0S20
G1X-0.2Z0S0
G1X-0.1Z0S20
G1X-0.1Z0S0
G1X-0.1Z0S20
G1X-0.1Z0S0
G1X-0.1Z0S20
G1X-2.5Z0S0
G1Z0S20
G1X0.1Z0.01S0
G1Z-0S20
G1X2.5Z-0S0
G1X0.1Z-0S20
G1X0.5Z-0S0
G1X0.1Z-0S20
G1X0.1Z-0S0
G1X0.2Z-0S20
G1X0.2Z-0S0
G1X0.2Z-0S20
G1X0.1Z-0S0
G1X0.1Z-0S20
G1X0.1Z-0S0
G1X0.1Z-0S20
G1X0.1Z-0S0
G1X0.1Z-0S20
G1X0.5Z-0S0
G1X1Z-0S20
G1X0.1Z-0S0
G1X0.1Z-0S20
G1X0.3Z-0S0
G1X0.2Z-0S20
G1X3.7Z-0S0
G1X0.3Z-0S20
G1X0.2Z-0S0
G1X0.1Z-0S20
G1X0.1Z-0S0
G1X0.1Z-0S20
G1X0.1Z-0S0
G1X0.1Z-0S20
G1X0.2Z-0S0
G1X0.1Z-0S20
G1X5.2Z-0S0
G1X0.5Z-0S20
G1X0.1Z-0S0
G1X1.5Z-0S20
G1X0.3Z-0S0
G1X0.4Z-0S20
G1X5.4Z-0S0
G1X0.1Z-0S20
G1X0.2Z-0S0
G1X0.3Z-0S20
G1X0.1Z-0S0
G1X0.3Z-0S20
G1X3.8Z-0S0
G1X0.1Z-0S20
G1X0.1Z-0S0
G1X0.1Z-0S20
G1X0.1Z-0S0
G1X0.1Z-0S20
G1X0.1Z-0S0
G1X0.9Z-0S20
G1X0.1Z-0S0
G1X0.1Z-0S20
G1X0.1Z-0S0
G1X0.1Z-0S20
G1X0.4Z-0S0
G1X0.1Z-0S20
G1X0.1Z-0S0
G1X0.1Z-0S20
G1X0.1Z-0S0
G1X0.3Z-0S20
G1X0.3Z-0S0
G1X0.2Z-0S20
G1X0.1Z-0S0
G1X0.1Z-0S20
G1X0.3Z-0S0
G1X0.1Z-0S20
G1X2.5Z-0S0
G1Z-0S20
G1X-0.1Z-0S0
G1Z-0S20
G1X-2.5Z-0S0
G1X-0.1Z-0S20
G1X-0.4Z-0S0
G1X-0.1Z-0S20
G1X-0.1Z-0S0
G1X-0.1Z-0S20
G1X-0.5Z-0S0
G1X-0.3Z-0S20
G1X-0.1Z-0S0
G1X-0.1Z-0S20
G1X-0.6Z-0S0
G1X-0.1Z-0S20
G1X-0.1Z-0S0
G1X-0.1Z-0S20
G1X-0.1Z-0S0
G1X-0.5Z-0S20
G1X-0.1Z-0S0
G1X-0.4Z-0S20
G1X-0.1Z-0S0
G1X-0.3Z-0S20
G1X-3.5Z-0S0
G1X-0.3Z-0S20
G1X-0.1Z-0S0
G1X-0.1Z-0S20
G1X-0.4Z-0S0
G1X-0.1Z-0S20
G1X-0.2Z-0S0
G1X-0.1Z-0S20
G1X-5.1Z-0S0
G1X-0.1Z-0S20
G1X-0.1Z-0S0
G1X-0.1Z-0S20
G1X-0.1Z-0S0
G1X-0.4Z-0S20
G1X-0.2Z-0S0
G1X-0.1Z-0S20
G1X-0.3Z-0S0
G1X-0.4Z-0S20
G1X-0.1Z-0S0
G1X-0.2Z-0S20
G1X-0.8Z-0S0
G1X-0.2Z-0S20
G1X-5.3Z-0S0
G1X-0.1Z-0S20
G1X-0.3Z-0S0
G1X-0.2Z-0S20
G1X-0.1Z-0S0
G1X-0.3Z-0S20
G1X-3.5Z-0S0
G1X-0.2Z-0S20
G1X-0.1Z-0S0
G1X-0.1Z-0S20
G1X-0.1Z-0S0
G1X-0.7Z-0S20
G1X-0.1Z-0S0
G1X-0.2Z-0S20
G1X-0.1Z-0S0
G1X-0.1Z-0S20
G1X-0.2Z-0S0
G1X-0.1Z-0S20
G1X-0.6Z-0S0
G1X-0.4Z-0S20
G1X-0.2Z-0S0
G1X-0.1Z-0S20
G1X-0.3Z-0S0
G1X-0.1Z-0S20
G1X-0.1Z-0S0
G1X-0.1Z-0S20
G1X-0.2Z-0S0
G1X-0.1Z-0S20
G1X-2.5Z-0S0
G1Z-0S20
G1X0.1Z-0S0
G1Z-0S20
G1X2.5Z-0S0
G1X0.1Z-0S20
G1X1.1Z-0S0
G1X0.2Z-0S20
G1X0.1Z-0S0
G1X0.2Z-0S20
G1X0.5Z-0S0
G1X0.1Z-0S20
G1X0.1Z-0S0
G1X0.1Z-0S20
G1X0.1Z-0S0
G1X0.1Z-0S20
G1X0.1Z-0S0
G1X0.3Z-0S20
G1X0.1Z-0S0
G1X0.6Z-0S20
G1X0.1Z-0S0
G1X0.1Z-0S20
G1X0.1Z-0S0
G1X0.2Z-0S20
G1X3.2Z-0S0
G1X0.3Z-0S20
G1X0.1Z-0S0
G1X0.1Z-0S20
G1X0.1Z-0S0
G1X0.1Z-0S20
G1X0.2Z-0S0
G1X0.1Z-0S20
G1X0.2Z-0S0
G1X0.1Z-0S20
G1X4.9Z-0S0
G1X0.3Z-0S20
G1X0.2Z-0S0
G1X0.1Z-0S20
G1X0.8Z-0S0
G1X0.1Z-0S20
G1X0.2Z-0S0
G1X0.3Z-0S20
G1X0.1Z-0S0
G1X0.1Z-0S20
G1X0.2Z-0S0
G1X0.1Z-0S20
G1X0.1Z-0S0
G1X0.1Z-0S20
G1X0.1Z-0S0
G1X0.4Z-0S20
G1X0.1Z-0S0
G1X0.2Z-0S20
G1X5.2Z-0S0
G1X0.1Z-0S20
G1X0.2Z-0S0
G1X0.2Z-0S20
G1X0.1Z-0S0
G1X0.1Z-0S20
G1X0.1Z-0S0
G1X0.2Z-0S20
G1X3.3Z-0S0
G1X0.2Z-0S20
G1X0.1Z-0S0
G1X0.1Z-0S20
G1X0.1Z-0S0
G1X0.3Z-0S20
G1X0.1Z-0S0
G1X0.5Z-0S20
G1X0.1Z-0S0
G1X0.1Z-0S20
G1X0.1Z-0S0
G1X0.1Z-0S20
G1X0.1Z-0S0
G1X0.1Z-0S20
G1X0.5Z-0S0
G1X0.1Z-0S20
G1X0.1Z-0S0
G1X0.3Z-0S20
G1X0.9Z-0S0
G1X0.1Z-0S20
G1X0.1Z-0S0
G1X0.1Z-0S20
G1X2.5Z-0S0
G1Z-0S20
G1X-0.5Z0S0
G1Z0S20
G1X-2.5Z0S0
G1X-0.1Z0S20
G1X-0.8Z0S0
G1X-0.3Z0S20
G1X-0.1Z0S0
G1X-0.2Z0S20
G1X-0.1Z0S0
G1X-0.1Z0S20
G1X-0.3Z0S0
G1X-0.1Z0S20
G1X-0.1Z0S0
G1X-0.1Z0S20
G1X-0.1Z0S0
G1X-0.1Z0S20
G1X-0.1Z0S0
G1X-0.4Z0S20
G1X-0.1Z0S0
G1X-0.5Z0S20
G1X-0.1Z0S0
G1X-0.3Z0S20
G1X-2.9Z0S0
G1X-0.3Z0S20
G1X-0.1Z0S0
G1X-0.1Z0S20
G1X-0.1Z0S0
G1X-0.1Z0S20
G1X-0.2Z0S0
G1X-0.1Z0S20
G1X-0.2Z0S0
G1X-0.1Z0S20
G1X-4.9Z0S0
G1X-0.1Z0S20
G1X-0.1Z0S0
G1X-0.3Z0S20
G1X-0.5Z0S0
G1X-0.1Z0S20
G1X-0.1Z0S0
G1X-0.2Z0S20
G1X-0.1Z0S0
G1X-0.2Z0S20
G1X-0.2Z0S0
G1X-0.1Z0S20
G1X-1.1Z0S0
G1X-0.1Z0S20
G1X-0.2Z0S0
G1X-0.1Z0S20
G1X-0.1Z0S0
G1X-0.2Z0S20
G1X-4.7Z0S0
G1X-0.1Z0S20
G1X-0.3Z0S0
G1X-0.1Z0S20
G1X-0.2Z0S0
G1X-0.2Z0S20
G1X-0.1Z0S0
G1X-0.3Z0S20
G1X-3Z0S0
G1X-0.2Z0S20
G1X-0.1Z0S0
G1X-0.1Z0S20
G1X-0.1Z0S0
G1X-0.2Z0S20
G1X-0.1Z0S0
G1X-0.9Z0S20
G1X-0.1Z0S0
G1X-0.1Z0S20
G1X-0.2Z0S0
G1X-0.1Z0S20
G1X-0.3Z0S0
G1X-0.1Z0S20
G1X-0.1Z0S0
G1X-0.1Z0S20
G1X-0.1Z0S0
G1X-0.2Z0S20
G1X-0.8Z0S0
G1X-0.1Z0S20
G1X-0.2Z0S0
G1X-0.1Z0S20
G1X-2.5Z0S0
G1Z0S20
G1X1.4Z0S0
G1Z0S20
G1X2.5Z0S0
G1X0.2Z0S20
G1X0.1Z0S0
G1X0.1Z0S20
G1X0.1Z0S0
G1X0.1Z0S20
G1X0.3Z0S0
G1X0.1Z0S20
G1X0.1Z0S0
G1X0.1Z0S20
G1X0.2Z0S0
G1X0.1Z0S20
G1X0.1Z0S0
G1X0.1Z0S20
G1X0.1Z0S0
G1X0.1Z0S20
G1X0.1Z0S0
G1X0.6Z0S20
G1X0.1Z0S0
G1X0.1Z0S20
G1X0.1Z0S0
G1X0.2Z0S20
G1X2Z0S0
G1X0.6Z0S20
G1X0.1Z0S0
G1X0.3Z0S20
G1X0.1Z0S0
G1X0.1Z0S20
G1X0.1Z0S0
G1X0.1Z0S20
G1X0.2Z0S0
G1X0.1Z0S20
G1X0.2Z0S0
G1X0.1Z0S20
G1X4.7Z0S0
G1X0.1Z0S20
G1X0.2Z0S0
G1X0.1Z0S20
G1X0.3Z0S0
G1X0.1Z0S20
G1X1.2Z0S0
G1X0.1Z0S20
G1X0.5Z0S0
G1X0.1Z0S20
G1X0.8Z0S0
G1X0.3Z0S20
G1X0.1Z0S0
G1X0.2Z0S20
G1X4.8Z0S0
G1X0.1Z0S20
G1X0.2Z0S0
G1X0.1Z0S20
G1X0.2Z0S0
G1X0.1Z0S20
G1X0.1Z0S0
G1X0.1Z0S20
G1X0.1Z0S0
G1X0.3Z0S20
G1X0.1Z0S0
G1X0.5Z0S20
G1X2Z0S0
G1X0.2Z0S20
G1X0.1Z0S0
G1X0.1Z0S20
G1X0.1Z0S0
G1X0.1Z0S20
G1X0.1Z0S0
G1X0.6Z0S20
G1X0.1Z0S0
G1X0.2Z0S20
G1X0.1Z0S0
G1X0.2Z0S20
G1X0.1Z0S0
G1X0.1Z0S20
G1X0.2Z0S0
G1X0.1Z0S20
G1X0.4Z0S0
G1X0.1Z0S20
G1X0.1Z0S0
G1X0.1Z0S20
G1X2.5Z0S0
G1Z0S20
G1X-0.1Z0.01S0
G1Z-0S20
G1X-2.5Z-0S0
G1X-0.2Z-0S20
G1X-0.1Z-0S0
G1X-0.1Z-0S20
G1X-0.1Z-0S0
G1X-0.1Z-0S20
G1X-0.2Z-0S0
G1X-0.1Z-0S20
G1X-0.1Z-0S0
G1X-0.1Z-0S20
G1X-0.3Z-0S0
G1X-0.1Z-0S20
G1X-0.1Z-0S0
G1X-0.3Z-0S20
G1X-0.1Z-0S0
G1X-0.5Z-0S20
G1X-0.1Z-0S0
G1X-0.2Z-0S20
G1X-0.2Z-0S0
G1X-0.3Z-0S20
G1X-1.5Z-0S0
G1X-0.3Z-0S20
G1X-0.1Z-0S0
G1X-0.8Z-0S20
G1X-0.1Z-0S0
G1X-0.2Z-0S20
G1X-0.2Z-0S0
G1X-0.1Z-0S20
G1X-5Z-0S0
G1X-0.1Z-0S20
G1X-0.2Z-0S0
G1X-0.2Z-0S20
G1X-1.5Z-0S0
G1X-0.1Z-0S20
G1X-1.1Z-0S0
G1X-0.1Z-0S20
G1X-0.6Z-0S0
G1X-0.1Z-0S20
G1X-0.2Z-0S0
G1X-0.1Z-0S20
G1X-4.7Z-0S0
G1X-0.1Z-0S20
G1X-0.2Z-0S0
G1X-0.1Z-0S20
G1X-0.2Z-0S0
G1X-0.1Z-0S20
G1X-0.1Z-0S0
G1X-0.1Z-0S20
G1X-0.1Z-0S0
G1X-0.7Z-0S20
G1X-0.1Z-0S0
G1X-0.2Z-0S20
G1X-1.6Z-0S0
G1X-0.3Z-0S20
G1X-0.1Z-0S0
G1X-0.1Z-0S20
G1X-0.1Z-0S0
G1X-0.9Z-0S20
G1X-0.1Z-0S0
G1X-0.1Z-0S20
G1X-0.1Z-0S0
G1X-0.1Z-0S20
G1X-0.1Z-0S0
G1X-0.1Z-0S20
G1X-0.1Z-0S0
G1X-0.1Z-0S20
G1X-0.1Z-0S0
G1X-0.1Z-0S20
G1X-0.1Z-0S0
G1X-0.1Z-0S20
G1X-0.2Z-0S0
G1X-0.1Z-0S20
G1X-0.1Z-0S0
G1X-0.2Z-0S20
G1X-2.5Z-0S0
G1Z-0S20
G1X0.2Z-0S0
G1Z-0S20
G1X2.5Z-0S0
G1X0.3Z-0S20
G1X0.1Z-0S0
G1X0.1Z-0S20
G1X0.1Z-0S0
G1X0.1Z-0S20
G1X0.5Z-0S0
G1X0.1Z-0S20
G1X0.1Z-0S0
G1X1Z-0S20
G1X0.1Z-0S0
G1X0.1Z-0S20
G1X0.1Z-0S0
G1X0.1Z-0S20
G1X0.2Z-0S0
G1X0.4Z-0S20
G1X1.2Z-0S0
G1X0.2Z-0S20
G1X0.1Z-0S0
G1X0.1Z-0S20
G1X0.1Z-0S0
G1X0.6Z-0S20
G1X0.1Z-0S0
G1X0.1Z-0S20
G1X0.1Z-0S0
G1X0.1Z-0S20
G1X0.2Z-0S0
G1X0.1Z-0S20
G1X0.2Z-0S0
G1X0.1Z-0S20
G1X4.5Z-0S0
G1X0.2Z-0S20
G1X0.3Z-0S0
G1X0.1Z-0S20
G1X0.5Z-0S0
G1X0.1Z-0S20
G1X1.3Z-0S0
G1X0.1Z-0S20
G1X1.3Z-0S0
G1X0.1Z-0S20
G1X0.1Z-0S0
G1X0.3Z-0S20
G1X0.1Z-0S0
G1X0.1Z-0S20
G1X4.7Z-0S0
G1X0.1Z-0S20
G1X0.2Z-0S0
G1X0.1Z-0S20
G1X0.2Z-0S0
G1X0.1Z-0S20
G1X0.1Z-0S0
G1X0.1Z-0S20
G1X0.1Z-0S0
G1X0.6Z-0S20
G1X0.1Z-0S0
G1X0.1Z-0S20
G1X0.1Z-0S0
G1X0.2Z-0S20
G1X1.1Z-0S0
G1X0.4Z-0S20
G1X0.2Z-0S0
G1X0.1Z-0S20
G1X0.2Z-0S0
G1X0.9Z-0S20
G1X0.1Z-0S0
G1X0.2Z-0S20
G1X0.1Z-0S0
G1X0.1Z-0S20
G1X0.1Z-0S0
G1X0.1Z-0S20
G1X0.2Z-0S0
G1X0.1Z-0S20
G1X0.1Z-0S0
G1X0.1Z-0S20
G1X0.2Z-0S0
G1X0.2Z-0S20
G1X2.5Z-0S0
G1Z-0S20
G1X-0.2Z-0S0
G1Z-0S20
G1X-2.5Z-0S0
G1X-0.2Z-0S20
G1X-0.2Z-0S0
G1X-0.1Z-0S20
G1X-0.4Z-0S0
G1X-0.1Z-0S20
G1X-0.1Z-0S0
G1X-0.1Z-0S20
G1X-0.2Z-0S0
G1X-0.2Z-0S20
G1X-0.1Z-0S0
G1X-0.2Z-0S20
G1X-0.1Z-0S0
G1X-0.1Z-0S20
G1X-0.1Z-0S0
G1X-0.6Z-0S20
G1X-0.1Z-0S0
G1X-0.1Z-0S20
G1X-0.2Z-0S0
G1X-0.3Z-0S20
G1X-0.7Z-0S0
G1X-0.3Z-0S20
G1X-0.1Z-0S0
G1X-0.1Z-0S20
G1X-0.1Z-0S0
G1X-0.6Z-0S20
G1X-0.1Z-0S0
G1X-0.1Z-0S20
G1X-0.1Z-0S0
G1X-0.1Z-0S20
G1X-0.2Z-0S0
G1X-0.1Z-0S20
G1X-0.1Z-0S0
G1X-0.1Z-0S20
G1X-4.7Z-0S0
G1X-0.1Z-0S20
G1X-0.1Z-0S0
G1X-0.5Z-0S20
G1X-3.5Z-0S0
G1X-0.2Z-0S20
G1X-0.2Z-0S0
G1X-0.1Z-0S20
G1X-4.6Z-0S0
G1X-0.1Z-0S20
G1X-0.2Z-0S0
G1X-0.1Z-0S20
G1X-0.2Z-0S0
G1X-0.1Z-0S20
G1X-0.1Z-0S0
G1X-0.1Z-0S20
G1X-0.1Z-0S0
G1X-0.6Z-0S20
G1X-0.3Z-0S0
G1X-0.3Z-0S20
G1X-0.6Z-0S0
G1X-0.4Z-0S20
G1X-0.1Z-0S0
G1X-0.1Z-0S20
G1X-0.1Z-0S0
G1X-0.4Z-0S20
G1X-0.1Z-0S0
G1X-0.3Z-0S20
G1X-0.1Z-0S0
G1X-0.4Z-0S20
G1X-0.1Z-0S0
G1X-0.1Z-0S20
G1X-0.1Z-0S0
G1X-0.1Z-0S20
G1X-0.1Z-0S0
G1X-0.1Z-0S20
G1X-0.1Z-0S0
G1X-0.1Z-0S20
G1X-0.2Z-0S0
G1X-0.1Z-0S20
G1X-0.2Z-0S0
G1X-0.1Z-0S20
G1X-0.1Z-0S0
G1X-0.1Z-0S20
G1X-2.5Z-0S0
G1Z-0S20
G1X0.1Z0S0
G1Z0S20
G1X2.5Z0S0
G1X0.1Z0S20
G1X0.1Z0S0
G1X0.1Z0S20
G1X0.1Z0S0
G1X0.1Z0S20
G1X0.1Z0S0
G1X0.1Z0S20
G1X0.2Z0S0
G1X0.1Z0S20
G1X0.1Z0S0
G1X0.1Z0S20
G1X0.2Z0S0
G1X0.1Z0S20
G1X0.1Z0S0
G1X0.1Z0S20
G1X0.2Z0S0
G1X0.1Z0S20
G1X0.1Z0S0
G1X0.8Z0S20
G1X0.1Z0S0
G1X0.2Z0S20
G1X0.1Z0S0
G1X0.7Z0S20
G1X0.1Z0S0
G1X0.1Z0S20
G1X0.1Z0S0
G1X0.1Z0S20
G1X0.1Z0S0
G1X0.7Z0S20
G1X0.1Z0S0
G1X0.1Z0S20
G1X0.1Z0S0
G1X0.2Z0S20
G1X0.2Z0S0
G1X0.1Z0S20
G1X4.8Z0S0
G1X0.1Z0S20
G1X0.3Z0S0
G1X0.2Z0S20
G1X1.9Z0S0
G1X0.1Z0S20
G1X1.4Z0S0
G1X0.1Z0S20
G1X0.1Z0S0
G1X0.1Z0S20
G1X0.2Z0S0
G1X0.2Z0S20
G1X0.1Z0S0
G1X0.2Z0S20
G1X4.5Z0S0
G1X0.1Z0S20
G1X0.2Z0S0
G1X0.1Z0S20
G1X0.2Z0S0
G1X0.1Z0S20
G1X0.1Z0S0
G1X0.1Z0S20
G1X0.1Z0S0
G1X0.6Z0S20
G1X0.4Z0S0
G1X0.9Z0S20
G1X0.1Z0S0
G1X0.4Z0S20
G1X0.1Z0S0
G1X0.3Z0S20
G1X0.1Z0S0
G1X0.4Z0S20
G1X0.1Z0S0
G1X0.3Z0S20
G1X0.2Z0S0
G1X0.1Z0S20
G1X0.1Z0S0
G1X0.1Z0S20
G1X0.2Z0S0
G1X0.1Z0S20
G1X0.2Z0S0
G1X0.1Z0S20
G1X0.1Z0S0
G1X0.2Z0S20
G1X2.5Z0S0
G1Z0S20
G1X0.1Z0S0
G1Z0S20
G1X-2.5Z0S0
G1X-0.1Z0S20
G1X-0.1Z0S0
G1X-0.1Z0S20
G1X-0.1Z0S0
G1X-0.1Z0S20
G1X-0.1Z0S0
G1X-0.1Z0S20
G1X-0.2Z0S0
G1X-0.1Z0S20
G1X-0.1Z0S0
G1X-0.1Z0S20
G1X-0.1Z0S0
G1X-0.1Z0S20
G1X-0.1Z0S0
G1X-0.1Z0S20
G1X-0.3Z0S0
G1X-0.2Z0S20
G1X-0.1Z0S0
G1X-0.7Z0S20
G1X-0.1Z0S0
G1X-0.2Z0S20
G1X-0.1Z0S0
G1X-0.1Z0S20
G1X-0.5Z0S0
G1X-0.2Z0S20
G1X-0.1Z0S0
G1X-1Z0S20
G1X-0.1Z0S0
G1X-0.1Z0S20
G1X-0.1Z0S0
G1X-0.1Z0S20
G1X-0.1Z0S0
G1X-0.1Z0S20
G1X-4.9Z0S0
G1X-0.1Z0S20
G1X-0.1Z0S0
G1X-0.1Z0S20
G1X-0.5Z0S0
G1X-0.1Z0S20
G1X-2.8Z0S0
G1X-0.1Z0S20
G1X-0.7Z0S0
G1X-0.3Z0S20
G1X-0.2Z0S0
G1X-0.1Z0S20
G1X-4.5Z0S0
G1X-0.1Z0S20
G1X-0.2Z0S0
G1X-0.1Z0S20
G1X-0.2Z0S0
G1X-0.1Z0S20
G1X-0.1Z0S0
G1X-0.1Z0S20
G1X-0.1Z0S0
G1X-0.8Z0S20
G1X-0.1Z0S0
G1X-0.4Z0S20
G1X-0.6Z0S0
G1X-0.5Z0S20
G1X-0.1Z0S0
G1X-0.3Z0S20
G1X-0.1Z0S0
G1X-0.4Z0S20
G1X-0.1Z0S0
G1X-0.1Z0S20
G1X-0.1Z0S0
G1X-0.1Z0S20
G1X-0.2Z0S0
G1X-0.1Z0S20
G1X-0.1Z0S0
G1X-0.1Z0S20
G1X-0.1Z0S0
G1X-0.1Z0S20
G1X-0.2Z0S0
G1X-0.1Z0S20
G1X-0.1Z0S0
G1X-0.2Z0S20
G1X-2.5Z0S0
G1Z0S20
G1X0.2Z0S0
G1Z0S20
G1X2.5Z0S0
G1X0.2Z0S20
G1X0.1Z0S0
G1X0.1Z0S20
G1X0.2Z0S0
G1X0.1Z0S20
G1X0.3Z0S0
G1X0.1Z0S20
G1X0.1Z0S0
G1X0.1Z0S20
G1X0.1Z0S0
G1X0.2Z0S20
G1X0.1Z0S0
G1X0.1Z0S20
G1X0.1Z0S0
G1X0.2Z0S20
G1X0.1Z0S0
G1X0.4Z0S20
G1X0.1Z0S0
G1X0.5Z0S20
G1X0.1Z0S0
G1X0.3Z0S20
G1X0.1Z0S0
G1X0.1Z0S20
G1X0.1Z0S0
G1X0.8Z0S20
G1X0.1Z0S0
G1X0.1Z0S20
G1X0.1Z0S0
G1X0.1Z0S20
G1X0.3Z0S0
G1X0.1Z0S20
G1X0.1Z0S0
G1X0.1Z0S20
G1X4.5Z0S0
G1X0.1Z0S20
G1X0.2Z0S0
G1X0.1Z0S20
G1X0.1Z0S0
G1X0.1Z0S20
G1X0.6Z0S0
G1X0.1Z0S20
G1X0.1Z0S0
G1X0.1Z0S20
G1X2.2Z0S0
G1X0.7Z0S20
G1X0.3Z0S0
G1X0.1Z0S20
G1X0.1Z0S0
G1X0.2Z0S20
G1X0.1Z0S0
G1X0.2Z0S20
G1X4.4Z0S0
G1X0.1Z0S20
G1X0.2Z0S0
G1X0.1Z0S20
G1X0.2Z0S0
G1X0.1Z0S20
G1X0.1Z0S0
G1X0.1Z0S20
G1X0.1Z0S0
G1X0.8Z0S20
G1X0.1Z0S0
G1X0.1Z0S20
G1X0.1Z0S0
G1X0.2Z0S20
G1X0.1Z0S0
G1X1Z0S20
G1X0.1Z0S0
G1X0.1Z0S20
G1X0.1Z0S0
G1X0.3Z0S20
G1X0.1Z0S0
G1X0.4Z0S20
G1X0.5Z0S0
G1X0.1Z0S20
G1X0.1Z0S0
G1X0.1Z0S20
G1X0.2Z0S0
G1X0.3Z0S20
G1X2.5Z0S0
G1Z0S20
G1X-0.3Z0.01S0
G1Z-0S20
G1X-2.5Z-0S0
G1X-0.1Z-0S20
G1X-0.1Z-0S0
G1X-0.1Z-0S20
G1X-0.1Z-0S0
G1X-0.1Z-0S20
G1X-0.1Z-0S0
G1X-0.1Z-0S20
G1X-0.6Z-0S0
G1X-0.1Z-0S20
G1X-0.1Z-0S0
G1X-0.2Z-0S20
G1X-0.1Z-0S0
G1X-0.4Z-0S20
G1X-0.1Z-0S0
G1X-0.1Z-0S20
G1X-0.1Z-0S0
G1X-0.4Z-0S20
G1X-0.1Z-0S0
G1X-0.4Z-0S20
G1X-0.1Z-0S0
G1X-0.1Z-0S20
G1X-0.1Z-0S0
G1X-0.7Z-0S20
G1X-0.1Z-0S0
G1X-0.1Z-0S20
G1X-0.1Z-0S0
G1X-0.1Z-0S20
G1X-0.2Z-0S0
G1X-0.1Z-0S20
G1X-0.2Z-0S0
G1X-0.1Z-0S20
G1X-4.4Z-0S0
G1X-0.1Z-0S20
G1X-0.2Z-0S0
G1X-0.1Z-0S20
G1X-0.1Z-0S0
G1X-0.1Z-0S20
G1X-0.1Z-0S0
G1X-0.1Z-0S20
G1X-0.1Z-0S0
G1X-0.1Z-0S20
G1X-0.1Z-0S0
G1X-0.1Z-0S20
G1X-0.1Z-0S0
G1X-0.1Z-0S20
G1X-0.1Z-0S0
G1X-0.1Z-0S20
G1X-0.2Z-0S0
G1X-0.1Z-0S20
G1X-0.3Z-0S0
G1X-0.1Z-0S20
G1X-0.5Z-0S0
G1X-0.1Z-0S20
G1X-1Z-0S0
G1X-0.1Z-0S20
G1X-0.2Z-0S0
G1X-0.1Z-0S20
G1X-0.7Z-0S0
G1X-0.1Z-0S20
G1X-0.1Z-0S0
G1X-0.1Z-0S20
G1X-0.2Z-0S0
G1X-0.1Z-0S20
G1X-4.7Z-0S0
G1X-0.1Z-0S20
G1X-0.2Z-0S0
G1X-0.1Z-0S20
G1X-0.1Z-0S0
G1X-0.1Z-0S20
G1X-0.1Z-0S0
G1X-0.7Z-0S20
G1X-0.1Z-0S0
G1X-0.1Z-0S20
G1X-0.2Z-0S0
G1X-0.8Z-0S20
G1X-0.1Z-0S0
G1X-0.3Z-0S20
G1X-0.1Z-0S0
G1X-0.2Z-0S20
G1X-0.1Z-0S0
G1X-0.3Z-0S20
G1X-0.1Z-0S0
G1X-0.1Z-0S20
G1X-0.1Z-0S0
G1X-0.1Z-0S20
G1X-0.4Z-0S0
G1X-0.1Z-0S20
G1X-0.1Z-0S0
G1X-0.1Z-0S20
G1X-0.1Z-0S0
G1X-0.1Z-0S20
G1X-0.1Z-0S0
G1X-0.2Z-0S20
G1X-2.5Z-0S0
G1Z-0S20
G1X0.2Z-0S0
G1Z-0S20
G1X2.5Z-0S0
G1X0.1Z-0S20
G1X0.1Z-0S0
G1X0.1Z-0S20
G1X0.1Z-0S0
G1X0.1Z-0S20
G1X0.6Z-0S0
G1X0.1Z-0S20
G1X0.1Z-0S0
G1X0.1Z-0S20
G1X0.1Z-0S0
G1X0.4Z-0S20
G1X0.1Z-0S0
G1X0.2Z-0S20
G1X0.1Z-0S0
G1X0.9Z-0S20
G1X0.1Z-0S0
G1X1Z-0S20
G1X0.1Z-0S0
G1X0.1Z-0S20
G1X0.1Z-0S0
G1X0.1Z-0S20
G1X0.2Z-0S0
G1X0.1Z-0S20
G1X0.2Z-0S0
G1X0.1Z-0S20
G1X4.4Z-0S0
G1X0.1Z-0S20
G1X0.3Z-0S0
G1X0.2Z-0S20
G1X0.7Z-0S0
G1X0.1Z-0S20
G1X0.1Z-0S0
G1X0.1Z-0S20
G1X0.1Z-0S0
G1X0.2Z-0S20
G1X0.1Z-0S0
G1X0.1Z-0S20
G1X0.2Z-0S0
G1X0.1Z-0S20
G1X0.1Z-0S0
G1X0.1Z-0S20
G1X0.2Z-0S0
G1X0.1Z-0S20
G1X0.5Z-0S0
G1X0.3Z-0S20
G1X0.2Z-0S0
G1X0.2Z-0S20
G1X0.1Z-0S0
G1X0.1Z-0S20
G1X0.1Z-0S0
G1X0.1Z-0S20
G1X0.2Z-0S0
G1X0.1Z-0S20
G1X0.1Z-0S0
G1X0.1Z-0S20
G1X0.1Z-0S0
G1X0.1Z-0S20
G1X0.1Z-0S0
G1X0.1Z-0S20
G1X0.2Z-0S0
G1X0.1Z-0S20
G1X4.7Z-0S0
G1X0.1Z-0S20
G1X0.2Z-0S0
G1X0.1Z-0S20
G1X0.1Z-0S0
G1X0.1Z-0S20
G1X0.1Z-0S0
G1X0.6Z-0S20
G1X0.1Z-0S0
G1X0.2Z-0S20
G1X0.1Z-0S0
G1X0.1Z-0S20
G1X0.1Z-0S0
G1X0.5Z-0S20
G1X0.1Z-0S0
G1X0.6Z-0S20
G1X0.1Z-0S0
G1X0.3Z-0S20
G1X0.2Z-0S0
G1X0.2Z-0S20
G1X0.1Z-0S0
G1X0.1Z-0S20
G1X0.4Z-0S0
G1X0.1Z-0S20
G1X0.1Z-0S0
G1X0.1Z-0S20
G1X0.1Z-0S0
G1X0.1Z-0S20
G1X0.1Z-0S0
G1X0.1Z-0S20
G1X2.5Z-0S0
G1Z-0S20
G1X-0.3Z0S0
G1Z0S20
G1X-2.5Z0S0
G1X-0.1Z0S20
G1X-0.1Z0S0
G1X-0.2Z0S20
G1X-0.1Z0S0
G1X-0.1Z0S20
G1X-0.1Z0S0
G1X-0.1Z0S20
G1X-0.3Z0S0
G1X-0.1Z0S20
G1X-0.1Z0S0
G1X-0.1Z0S20
G1X-0.2Z0S0
G1X-0.1Z0S20
G1X-0.1Z0S0
G1X-0.4Z0S20
G1X-0.1Z0S0
G1X-0.8Z0S20
G1X-0.1Z0S0
G1X-0.9Z0S20
G1X-0.1Z0S0
G1X-0.1Z0S20
G1X-0.1Z0S0
G1X-0.1Z0S20
G1X-0.2Z0S0
G1X-0.1Z0S20
G1X-0.2Z0S0
G1X-0.1Z0S20
G1X-4.3Z0S0
G1X-0.2Z0S20
G1X-0.1Z0S0
G1X-0.1Z0S20
G1X-0.2Z0S0
G1X-0.1Z0S20
G1X-0.1Z0S0
G1X-0.1Z0S20
G1X-0.5Z0S0
G1X-0.4Z0S20
G1X-0.1Z0S0
G1X-0.1Z0S20
G1X-0.3Z0S0
G1X-0.1Z0S20
G1X-0.3Z0S0
G1X-0.1Z0S20
G1X-0.1Z0S0
G1X-0.2Z0S20
G1X-0.3Z0S0
G1X-0.1Z0S20
G1X-0.1Z0S0
G1X-0.1Z0S20
G1X-0.4Z0S0
G1X-0.1Z0S20
G1X-0.4Z0S0
G1X-0.1Z0S20
G1X-0.8Z0S0
G1X-0.1Z0S20
G1X-0.3Z0S0
G1X-0.1Z0S20
G1X-4.6Z0S0
G1X-0.1Z0S20
G1X-0.3Z0S0
G1X-0.1Z0S20
G1X-0.1Z0S0
G1X-0.1Z0S20
G1X-0.1Z0S0
G1X-0.8Z0S20
G1X-0.1Z0S0
G1X-0.1Z0S20
G1X-0.1Z0S0
G1X-0.2Z0S20
G1X-0.1Z0S0
G1X-0.4Z0S20
G1X-0.1Z0S0
G1X-0.4Z0S20
G1X-0.1Z0S0
G1X-0.1Z0S20
G1X-0.2Z0S0
G1X-0.1Z0S20
G1X-0.1Z0S0
G1X-0.1Z0S20
G1X-0.1Z0S0
G1X-0.1Z0S20
G1X-0.2Z0S0
G1X-0.1Z0S20
G1X-0.1Z0S0
G1X-0.2Z0S20
G1X-0.1Z0S0
G1X-0.1Z0S20
G1X-2.5Z0S0
G1Z0S20
G1X0.1Z0S0
G1Z0S20
G1X2.5Z0S0
G1X0.1Z0S20
G1X0.1Z0S0
G1X0.2Z0S20
G1X0.6Z0S0
G1X0.1Z0S20
G1X0.1Z0S0
G1X0.1Z0S20
G1X0.2Z0S0
G1X0.8Z0S20
G1X0.1Z0S0
G1X0.4Z0S20
G1X0.2Z0S0
G1X0.1Z0S20
G1X0.1Z0S0
G1X0.7Z0S20
G1X0.1Z0S0
G1X0.2Z0S20
G1X0.1Z0S0
G1X0.1Z0S20
G1X0.1Z0S0
G1X0.1Z0S20
G1X0.2Z0S0
G1X0.1Z0S20
G1X4.3Z0S0
G1X0.1Z0S20
G1X0.4Z0S0
G1X0.1Z0S20
G1X0.7Z0S0
G1X0.1Z0S20
G1X0.1Z0S0
G1X0.1Z0S20
G1X0.2Z0S0
G1X0.1Z0S20
G1X0.3Z0S0
G1X0.1Z0S20
G1X0.2Z0S0
G1X0.1Z0S20
G1X0.4Z0S0
G1X0.1Z0S20
G1X0.2Z0S0
G1X0.1Z0S20
G1X0.4Z0S0
G1X0.2Z0S20
G1X0.3Z0S0
G1X0.2Z0S20
G1X0.2Z0S0
G1X0.2Z0S20
G1X0.1Z0S0
G1X0.2Z0S20
G1X0.1Z0S0
G1X0.1Z0S20
G1X0.4Z0S0
G1X0.1Z0S20
G1X0.2Z0S0
G1X0.1Z0S20
G1X4.3Z0S0
G1X0.1Z0S20
G1X0.4Z0S0
G1X0.1Z0S20
G1X0.1Z0S0
G1X0.1Z0S20
G1X0.1Z0S0
G1X0.8Z0S20
G1X0.1Z0S0
G1X0.1Z0S20
G1X0.2Z0S0
G1X0.7Z0S20
G1X0.1Z0S0
G1X0.4Z0S20
G1X0.1Z0S0
G1X0.1Z0S20
G1X0.1Z0S0
G1X0.1Z0S20
G1X0.1Z0S0
G1X0.1Z0S20
G1X0.1Z0S0
G1X0.1Z0S20
G1X0.3Z0S0
G1X0.2Z0S20
G1X0.1Z0S0
G1X0.1Z0S20
G1X2.5Z0S0
G1Z0S20
G1X-0.1Z0S0
G1Z0S20
G1X-2.5Z0S0
G1X-0.1Z0S20
G1X-0.1Z0S0
G1X-0.1Z0S20
G1X-0.1Z0S0
G1X-0.1Z0S20
G1X-0.4Z0S0
G1X-0.1Z0S20
G1X-0.1Z0S0
G1X-0.1Z0S20
G1X-0.1Z0S0
G1X-0.1Z0S20
G1X-0.1Z0S0
G1X-0.1Z0S20
G1X-0.1Z0S0
G1X-0.1Z0S20
G1X-0.1Z0S0
G1X-0.3Z0S20
G1X-0.1Z0S0
G1X-0.3Z0S20
G1X-0.1Z0S0
G1X-0.1Z0S20
G1X-0.1Z0S0
G1X-0.8Z0S20
G1X-0.1Z0S0
G1X-0.1Z0S20
G1X-0.1Z0S0
G1X-0.1Z0S20
G1X-0.2Z0S0
G1X-0.1Z0S20
G1X-4.5Z0S0
G1X-0.1Z0S20
G1X-0.2Z0S0
G1X-0.1Z0S20
G1X-0.3Z0S0
G1X-0.1Z0S20
G1X-0.1Z0S0
G1X-0.1Z0S20
G1X-0.4Z0S0
G1X-0.1Z0S20
G1X-0.1Z0S0
G1X-0.1Z0S20
G1X-0.1Z0S0
G1X-0.1Z0S20
G1X-0.4Z0S0
G1X-0.1Z0S20
G1X-1.1Z0S0
G1X-0.1Z0S20
G1X-0.1Z0S0
G1X-0.1Z0S20
G1X-0.6Z0S0
G1X-0.1Z0S20
G1X-0.3Z0S0
G1X-0.1Z0S20
G1X-0.1Z0S0
G1X-0.1Z0S20
G1X-0.7Z0S0
G1X-0.1Z0S20
G1X-0.4Z0S0
G1X-0.1Z0S20
G1X-4.3Z0S0
G1X-0.1Z0S20
G1X-0.1Z0S0
G1X-0.1Z0S20
G1X-0.2Z0S0
G1X-0.1Z0S20
G1X-0.2Z0S0
G1X-0.1Z0S20
G1X-0.1Z0S0
G1X-1Z0S20
G1X-0.1Z0S0
G1X-0.5Z0S20
G1X-0.1Z0S0
G1X-0.1Z0S20
G1X-0.1Z0S0
G1X-0.2Z0S20
G1X-0.1Z0S0
G1X-0.1Z0S20
G1X-0.1Z0S0
G1X-0.1Z0S20
G1X-0.1Z0S0
G1X-0.1Z0S20
G1X-0.2Z0S0
G1X-0.1Z0S20
G1X-0.2Z0S0
G1X-0.2Z0S20
G1X-0.1Z0S0
G1X-0.1Z0S20
G1X-2.5Z0S0
G1Z0S20
G1X0.1Z0.01S0
G1Z-0S20
G1X2.5Z-0S0
G1X0.1Z-0S20
G1X0.1Z-0S0
G1X0.1Z-0S20
G1X0.1Z-0S0
G1X0.1Z-0S20
G1X0.2Z-0S0
G1X0.1Z-0S20
G1X0.5Z-0S0
G1X0.1Z-0S20
G1X0.1Z-0S0
G1X0.1Z-0S20
G1X0.1Z-0S0
G1X0.1Z-0S20
G1X0.1Z-0S0
G1X0.1Z-0S20
G1X0.1Z-0S0
G1X0.3Z-0S20
G1X0.2Z-0S0
G1X0.1Z-0S20
G1X0.1Z-0S0
G1X0.7Z-0S20
G1X0.2Z-0S0
G1X0.2Z-0S20
G1X0.2Z-0S0
G1X0.1Z-0S20
G1X4.6Z-0S0
G1X0.1Z-0S20
G1X0.3Z-0S0
G1X0.1Z-0S20
G1X0.7Z-0S0
G1X0.1Z-0S20
G1X0.2Z-0S0
G1X0.1Z-0S20
G1X0.6Z-0S0
G1X0.1Z-0S20
G1X0.4Z-0S0
G1X0.1Z-0S20
G1X0.1Z-0S0
G1X0.2Z-0S20
G1X0.2Z-0S0
G1X0.2Z-0S20
G1X0.5Z-0S0
G1X0.2Z-0S20
G1X0.3Z-0S0
G1X0.1Z-0S20
G1X0.3Z-0S0
G1X0.2Z-0S20
G1X0.1Z-0S0
G1X0.1Z-0S20
G1X0.2Z-0S0
G1X0.1Z-0S20
G1X0.5Z-0S0
G1X0.1Z-0S20
G1X0.1Z-0S0
G1X0.1Z-0S20
G1X4.3Z-0S0
G1X0.1Z-0S20
G1X0.1Z-0S0
G1X0.1Z-0S20
G1X0.3Z-0S0
G1X0.1Z-0S20
G1X0.1Z-0S0
G1X0.1Z-0S20
G1X0.1Z-0S0
G1X0.8Z-0S20
G1X0.1Z-0S0
G1X0.1Z-0S20
G1X0.1Z-0S0
G1X0.3Z-0S20
G1X0.2Z-0S0
G1X0.1Z-0S20
G1X0.1Z-0S0
G1X0.2Z-0S20
G1X0.1Z-0S0
G1X0.1Z-0S20
G1X0.4Z-0S0
G1X0.1Z-0S20
G1X0.1Z-0S0
G1X0.1Z-0S20
G1X0.1Z-0S0
G1X0.1Z-0S20
G1X0.1Z-0S0
G1X0.1Z-0S20
G1X0.1Z-0S0
G1X0.1Z-0S20
G1X2.5Z-0S0
G1Z-0S20
G1X-0.3Z-0S0
G1Z-0S20
G1X-2.5Z-0S0
G1X-0.1Z-0S20
G1X-0.1Z-0S0
G1X-0.1Z-0S20
G1X-0.1Z-0S0
G1X-0.1Z-0S20
G1X-0.6Z-0S0
G1X-0.1Z-0S20
G1X-0.3Z-0S0
G1X-0.1Z-0S20
G1X-0.1Z-0S0
G1X-0.3Z-0S20
G1X-0.1Z-0S0
G1X-0.1Z-0S20
G1X-0.1Z-0S0
G1X-0.2Z-0S20
G1X-0.1Z-0S0
G1X-0.5Z-0S20
G1X-0.1Z-0S0
G1X-0.1Z-0S20
G1X-0.2Z-0S0
G1X-0.1Z-0S20
G1X-0.2Z-0S0
G1X-0.1Z-0S20
G1X-0.2Z-0S0
G1X-0.2Z-0S20
G1X-4.1Z-0S0
G1X-0.1Z-0S20
G1X-0.2Z-0S0
G1X-0.1Z-0S20
G1X-0.3Z-0S0
G1X-0.1Z-0S20
G1X-0.2Z-0S0
G1X-0.2Z-0S20
G1X-0.1Z-0S0
G1X-0.1Z-0S20
G1X-0.2Z-0S0
G1X-0.1Z-0S20
G1X-0.1Z-0S0
G1X-0.3Z-0S20
G1X-0.3Z-0S0
G1X-0.6Z-0S20
G1X-0.2Z-0S0
G1X-0.3Z-0S20
G1X-0.1Z-0S0
G1X-0.1Z-0S20
G1X-0.3Z-0S0
G1X-0.2Z-0S20
G1X-0.4Z-0S0
G1X-0.1Z-0S20
G1X-0.4Z-0S0
G1X-0.1Z-0S20
G1X-0.1Z-0S0
G1X-0.1Z-0S20
G1X-1Z-0S0
G1X-0.2Z-0S20
G1X-4.2Z-0S0
G1X-0.2Z-0S20
G1X-0.6Z-0S0
G1X-0.2Z-0S20
G1X-0.2Z-0S0
G1X-0.9Z-0S20
G1X-0.1Z-0S0
G1X-0.3Z-0S20
G1X-0.1Z-0S0
G1X-0.1Z-0S20
G1X-0.1Z-0S0
G1X-0.1Z-0S20
G1X-0.1Z-0S0
G1X-0.1Z-0S20
G1X-0.1Z-0S0
G1X-0.1Z-0S20
G1X-0.3Z-0S0
G1X-0.1Z-0S20
G1X-0.1Z-0S0
G1X-0.1Z-0S20
G1X-0.1Z-0S0
G1X-0.1Z-0S20
G1X-0.1Z-0S0
G1X-0.1Z-0S20
G1X-2.5Z-0S0
G1Z-0S20
G1X0.1Z0S0
G1X2.5Z0S0
G1X0.5Z0S20
G1X0.5Z0S0
G1X0.1Z0S20
G1X0.2Z0S0
G1X0.1Z0S20
G1X0.2Z0S0
G1X0.1Z0S20
G1X0.1Z0S0
G1X0.1Z0S20
G1X0.1Z0S0
G1X0.1Z0S20
G1X0.1Z0S0
G1X0.4Z0S20
G1X0.1Z0S0
G1X0.5Z0S20
G1X0.2Z0S0
G1X0.1Z0S20
G1X0.2Z0S0
G1X0.1Z0S20
G1X0.1Z0S0
G1X0.5Z0S20
G1X3.9Z0S0
G1X0.1Z0S20
G1X1Z0S0
G1X0.2Z0S20
G1X0.1Z0S0
G1X0.1Z0S20
G1X0.2Z0S0
G1X0.1Z0S20
G1X0.4Z0S0
G1X0.4Z0S20
G1X0.1Z0S0
G1X0.1Z0S20
G1X0.1Z0S0
G1X0.1Z0S20
G1X0.2Z0S0
G1X0.3Z0S20
G1X0.4Z0S0
G1X0.2Z0S20
G1X0.2Z0S0
G1X0.2Z0S20
G1X0.2Z0S0
G1X0.2Z0S20
G1X0.1Z0S0
G1X0.2Z0S20
G1X0.4Z0S0
G1X0.1Z0S20
G1X0.3Z0S0
G1X0.1Z0S20
G1X0.3Z0S0
G1X0.1Z0S20
G1X0.2Z0S0
G1X0.1Z0S20
G1X3.9Z0S0
G1X0.4Z0S20
G1X0.2Z0S0
G1X0.1Z0S20
G1X0.2Z0S0
G1X0.2Z0S20
G1X0.1Z0S0
G1X1Z0S20
G1X0.1Z0S0
G1X0.3Z0S20
G1X0.1Z0S0
G1X0.1Z0S20
G1X0.1Z0S0
G1X0.2Z0S20
G1X0.1Z0S0
G1X0.1Z0S20
G1X0.1Z0S0
G1X0.1Z0S20
G1X0.3Z0S0
G1X0.1Z0S20
G1X0.1Z0S0
G1X0.2Z0S20
G1X0.1Z0S0
G1X0.1Z0S20
G1X2.5Z0S0
G1X-0.2Z0S0
G1Z0S20
G1X-2.5Z0S0
G1X-0.1Z0S20
G1X-0.1Z0S0
G1X-0.2Z0S20
G1X-0.1Z0S0
G1X-0.1Z0S20
G1X-0.4Z0S0
G1X-0.1Z0S20
G1X-0.3Z0S0
G1X-0.1Z0S20
G1X-0.1Z0S0
G1X-0.1Z0S20
G1X-0.3Z0S0
G1X-0.8Z0S20
G1X-0.2Z0S0
G1X-0.1Z0S20
G1X-0.4Z0S0
G1X-0.1Z0S20
G1X-0.1Z0S0
G1X-0.7Z0S20
G1X-3.6Z0S0
G1X-0.1Z0S20
G1X-0.1Z0S0
G1X-0.2Z0S20
G1X-0.2Z0S0
G1X-0.2Z0S20
G1X-0.4Z0S0
G1X-0.1Z0S20
G1X-0.2Z0S0
G1X-0.1Z0S20
G1X-0.1Z0S0
G1X-0.4Z0S20
G1X-0.3Z0S0
G1X-0.1Z0S20
G1X-0.4Z0S0
G1X-0.2Z0S20
G1X-0.3Z0S0
G1X-0.1Z0S20
G1X-0.4Z0S0
G1X-0.2Z0S20
G1X-0.3Z0S0
G1X-0.1Z0S20
G1X-0.2Z0S0
G1X-0.3Z0S20
G1X-0.1Z0S0
G1X-0.1Z0S20
G1X-0.5Z0S0
G1X-0.1Z0S20
G1X-0.9Z0S0
G1X-0.3Z0S20
G1X-3.7Z0S0
G1X-0.6Z0S20
G1X-0.2Z0S0
G1X-0.1Z0S20
G1X-0.2Z0S0
G1X-0.2Z0S20
G1X-0.2Z0S0
G1X-0.8Z0S20
G1X-0.1Z0S0
G1X-0.1Z0S20
G1X-0.1Z0S0
G1X-0.1Z0S20
G1X-0.1Z0S0
G1X-0.1Z0S20
G1X-0.1Z0S0
G1X-0.1Z0S20
G1X-0.2Z0S0
G1X-0.1Z0S20
G1X-0.3Z0S0
G1X-0.1Z0S20
G1X-0.2Z0S0
G1X-0.1Z0S20
G1X-2.5Z0S0
G1Z0S20
G1X-0.2Z0S0
G1Z0S20
G1X2.5Z0S0
G1X0.2Z0S20
G1X0.1Z0S0
G1X0.1Z0S20
G1X0.4Z0S0
G1X0.1Z0S20
G1X0.2Z0S0
G1X0.1Z0S20
G1X0.2Z0S0
G1X0.3Z0S20
G1X0.1Z0S0
G1X0.2Z0S20
G1X0.1Z0S0
G1X0.6Z0S20
G1X0.1Z0S0
G1X0.1Z0S20
G1X0.1Z0S0
G1X0.1Z0S20
G1X0.3Z0S0
G1X0.1Z0S20
G1X0.1Z0S0
G1X0.9Z0S20
G1X3.5Z0S0
G1X0.1Z0S20
G1X1Z0S0
G1X0.1Z0S20
G1X0.3Z0S0
G1X0.1Z0S20
G1X0.2Z0S0
G1X0.4Z0S20
G1X0.1Z0S0
G1X0.1Z0S20
G1X0.1Z0S0
G1X0.1Z0S20
G1X0.3Z0S0
G1X0.1Z0S20
G1X0.3Z0S0
G1X0.1Z0S20
G1X0.6Z0S0
G1X0.1Z0S20
G1X0.3Z0S0
G1X0.1Z0S20
G1X0.1Z0S0
G1X0.1Z0S20
G1X0.2Z0S0
G1X0.1Z0S20
G1X0.2Z0S0
G1X0.1Z0S20
G1X0.2Z0S0
G1X0.1Z0S20
G1X0.6Z0S0
G1X0.1Z0S20
G1X0.1Z0S0
G1X0.1Z0S20
G1X0.1Z0S0
G1X0.2Z0S20
G1X0.1Z0S0
G1X0.1Z0S20
G1X3.4Z0S0
G1X0.9Z0S20
G1X0.2Z0S0
G1X0.1Z0S20
G1X0.2Z0S0
G1X0.2Z0S20
G1X0.1Z0S0
G1X0.8Z0S20
G1X0.1Z0S0
G1X0.2Z0S20
G1X0.1Z0S0
G1X0.2Z0S20
G1X0.1Z0S0
G1X0.1Z0S20
G1X0.1Z0S0
G1X0.1Z0S20
G1X0.4Z0S0
G1X0.1Z0S20
G1X0.3Z0S0
G1X0.1Z0S20
G1X2.5Z0S0
G1Z0S20
G1X0.1Z0.01S0
G1Z-0S20
G1X-2.5Z-0S0
G1X-0.1Z-0S20
G1X-0.1Z-0S0
G1X-0.3Z-0S20
G1X-0.2Z-0S0
G1X-0.1Z-0S20
G1X-0.3Z-0S0
G1X-0.1Z-0S20
G1X-0.2Z-0S0
G1X-0.1Z-0S20
G1X-0.3Z-0S0
G1X-0.3Z-0S20
G1X-0.1Z-0S0
G1X-0.4Z-0S20
G1X-0.2Z-0S0
G1X-0.1Z-0S20
G1X-0.3Z-0S0
G1X-0.1Z-0S20
G1X-0.3Z-0S0
G1X-0.1Z-0S20
G1X-0.1Z-0S0
G1X-0.8Z-0S20
G1X-3.2Z-0S0
G1X-0.1Z-0S20
G1X-0.1Z-0S0
G1X-0.2Z-0S20
G1X-0.2Z-0S0
G1X-0.2Z-0S20
G1X-0.3Z-0S0
G1X-0.1Z-0S20
G1X-0.1Z-0S0
G1X-0.1Z-0S20
G1X-0.1Z-0S0
G1X-0.1Z-0S20
G1X-0.1Z-0S0
G1X-0.2Z-0S20
G1X-0.2Z-0S0
G1X-0.1Z-0S20
G1X-0.1Z-0S0
G1X-0.1Z-0S20
G1X-0.1Z-0S0
G1X-0.2Z-0S20
G1X-0.8Z-0S0
G1X-0.1Z-0S20
G1X-0.1Z-0S0
G1X-0.1Z-0S20
G1X-0.3Z-0S0
G1X-0.1Z-0S20
G1X-0.3Z-0S0
G1X-0.1Z-0S20
G1X-0.1Z-0S0
G1X-0.1Z-0S20
G1X-0.1Z-0S0
G1X-0.1Z-0S20
G1X-0.2Z-0S0
G1X-0.3Z-0S20
G1X-0.2Z-0S0
G1X-0.1Z-0S20
G1X-0.2Z-0S0
G1X-0.2Z-0S20
G1X-0.5Z-0S0
G1X-0.1Z-0S20
G1X-0.1Z-0S0
G1X-0.1Z-0S20
G1X-0.1Z-0S0
G1X-0.1Z-0S20
G1X-3.2Z-0S0
G1X-0.6Z-0S20
G1X-0.1Z-0S0
G1X-0.2Z-0S20
G1X-0.1Z-0S0
G1X-0.1Z-0S20
G1X-0.2Z-0S0
G1X-0.1Z-0S20
G1X-0.2Z-0S0
G1X-0.1Z-0S20
G1X-0.1Z-0S0
G1X-0.1Z-0S20
G1X-0.1Z-0S0
G1X-0.9Z-0S20
G1X-0.2Z-0S0
G1X-0.1Z-0S20
G1X-0.1Z-0S0
G1X-0.1Z-0S20
G1X-0.1Z-0S0
G1X-0.1Z-0S20
G1X-0.5Z-0S0
G1X-0.2Z-0S20
G1X-0.1Z-0S0
G1X-0.1Z-0S20
G1X-2.5Z-0S0
G1Z-0S20
G1Z-0S0
G1Z-0S20
G1X2.5Z-0S0
G1X0.1Z-0S20
G1X0.1Z-0S0
G1X0.1Z-0S20
G1X0.1Z-0S0
G1X0.1Z-0S20
G1X0.1Z-0S0
G1X0.1Z-0S20
G1X0.4Z-0S0
G1X0.2Z-0S20
G1X0.2Z-0S0
G1X0.1Z-0S20
G1X0.1Z-0S0
G1X0.6Z-0S20
G1X0.1Z-0S0
G1X0.1Z-0S20
G1X0.1Z-0S0
G1X0.1Z-0S20
G1X0.3Z-0S0
G1X0.1Z-0S20
G1X0.2Z-0S0
G1X0.1Z-0S20
G1X0.1Z-0S0
G1X0.1Z-0S20
G1X0.1Z-0S0
G1X0.9Z-0S20
G1X3Z-0S0
G1X0.1Z-0S20
G1X0.1Z-0S0
G1X0.3Z-0S20
G1X0.5Z-0S0
G1X0.1Z-0S20
G1X0.2Z-0S0
G1X0.1Z-0S20
G1X0.2Z-0S0
G1X0.3Z-0S20
G1X0.1Z-0S0
G1X0.1Z-0S20
G1X0.1Z-0S0
G1X0.1Z-0S20
G1X0.1Z-0S0
G1X0.1Z-0S20
G1X0.1Z-0S0
G1X0.2Z-0S20
G1X0.8Z-0S0
G1X0.1Z-0S20
G1X0.5Z-0S0
G1X0.1Z-0S20
G1X0.4Z-0S0
G1X0.1Z-0S20
G1X0.1Z-0S0
G1X0.1Z-0S20
G1X0.2Z-0S0
G1X0.1Z-0S20
G1X0.2Z-0S0
G1X0.3Z-0S20
G1X0.3Z-0S0
G1X0.1Z-0S20
G1X0.4Z-0S0
G1X0.1Z-0S20
G1X0.2Z-0S0
G1X0.2Z-0S20
G1X0.2Z-0S0
G1X0.1Z-0S20
G1X2.9Z-0S0
G1X0.8Z-0S20
G1X0.2Z-0S0
G1X0.1Z-0S20
G1X0.1Z-0S0
G1X0.1Z-0S20
G1X0.2Z-0S0
G1X0.1Z-0S20
G1X0.2Z-0S0
G1X0.1Z-0S20
G1X0.1Z-0S0
G1X0.2Z-0S20
G1X0.1Z-0S0
G1X0.8Z-0S20
G1X0.1Z-0S0
G1X0.1Z-0S20
G1X0.1Z-0S0
G1X0.2Z-0S20
G1X0.5Z-0S0
G1X0.1Z-0S20
G1X0.1Z-0S0
G1X0.1Z-0S20
G1X0.1Z-0S0
G1X0.1Z-0S20
G1X2.5Z-0S0
G1Z-0S20
G1X-0.1Z-0S0
G1Z-0S20
G1X-2.5Z-0S0
G1X-0.1Z-0S20
G1X-0.1Z-0S0
G1X-0.1Z-0S20
G1X-0.1Z-0S0
G1X-0.1Z-0S20
G1X-0.1Z-0S0
G1X-0.1Z-0S20
G1X-0.1Z-0S0
G1X-0.1Z-0S20
G1X-0.1Z-0S0
G1X-0.1Z-0S20
G1X-0.1Z-0S0
G1X-0.1Z-0S20
G1X-0.1Z-0S0
G1X-0.1Z-0S20
G1X-0.1Z-0S0
G1X-0.7Z-0S20
G1X-0.2Z-0S0
G1X-0.1Z-0S20
G1X-0.2Z-0S0
G1X-0.1Z-0S20
G1X-0.2Z-0S0
G1X-0.2Z-0S20
G1X-0.1Z-0S0
G1X-0.1Z-0S20
G1X-0.1Z-0S0
G1X-0.2Z-0S20
G1X-0.1Z-0S0
G1X-0.7Z-0S20
G1X-2.8Z-0S0
G1X-0.1Z-0S20
G1X-0.1Z-0S0
G1X-0.2Z-0S20
G1X-0.2Z-0S0
G1X-0.2Z-0S20
G1X-0.3Z-0S0
G1X-0.1Z-0S20
G1X-0.2Z-0S0
G1X-0.2Z-0S20
G1X-0.6Z-0S0
G1X-0.1Z-0S20
G1X-0.2Z-0S0
G1X-0.1Z-0S20
G1X-0.1Z-0S0
G1X-0.1Z-0S20
G1X-0.2Z-0S0
G1X-0.1Z-0S20
G1X-0.1Z-0S0
G1X-0.1Z-0S20
G1X-0.3Z-0S0
G1X-0.1Z-0S20
G1X-0.2Z-0S0
G1X-0.1Z-0S20
G1X-0.3Z-0S0
G1X-0.1Z-0S20
G1X-0.2Z-0S0
G1X-0.1Z-0S20
G1X-0.3Z-0S0
G1X-0.1Z-0S20
G1X-0.2Z-0S0
G1X-0.1Z-0S20
G1X-0.1Z-0S0
G1X-0.1Z-0S20
G1X-0.1Z-0S0
G1X-0.2Z-0S20
G1X-0.1Z-0S0
G1X-0.1Z-0S20
G1X-0.2Z-0S0
G1X-0.2Z-0S20
G1X-0.5Z-0S0
G1X-0.2Z-0S20
G1X-0.1Z-0S0
G1X-0.1Z-0S20
G1X-2.8Z-0S0
G1X-0.9Z-0S20
G1X-0.2Z-0S0
G1X-0.2Z-0S20
G1X-0.1Z-0S0
G1X-0.1Z-0S20
G1X-0.2Z-0S0
G1X-0.1Z-0S20
G1X-0.2Z-0S0
G1X-0.1Z-0S20
G1X-0.1Z-0S0
G1X-0.1Z-0S20
G1X-0.1Z-0S0
G1X-0.8Z-0S20
G1X-0.1Z-0S0
G1X-0.1Z-0S20
G1X-0.1Z-0S0
G1X-0.1Z-0S20
G1X-0.1Z-0S0
G1X-0.1Z-0S20
G1X-0.1Z-0S0
G1X-0.1Z-0S20
G1X-0.2Z-0S0
G1X-0.1Z-0S20
G1X-0.1Z-0S0
G1X-0.1Z-0S20
G1X-0.1Z-0S0
G1X-0.1Z-0S20
G1X-2.5Z-0S0
G1Z-0S20
G1X0.1Z0S0
G1Z0S20
G1X2.5Z0S0
G1X0.2Z0S20
G1X0.1Z0S0
G1X0.1Z0S20
G1X0.1Z0S0
G1X0.1Z0S20
G1X0.2Z0S0
G1X0.2Z0S20
G1X0.2Z0S0
G1X0.7Z0S20
G1X0.1Z0S0
G1X0.1Z0S20
G1X0.2Z0S0
G1X0.1Z0S20
G1X0.3Z0S0
G1X0.1Z0S20
G1X0.2Z0S0
G1X0.3Z0S20
G1X0.1Z0S0
G1X0.2Z0S20
G1X0.1Z0S0
G1X0.1Z0S20
G1X0.2Z0S0
G1X0.2Z0S20
G1X0.1Z0S0
G1X0.5Z0S20
G1X2.5Z0S0
G1X0.1Z0S20
G1X0.1Z0S0
G1X0.3Z0S20
G1X0.4Z0S0
G1X0.2Z0S20
G1X0.3Z0S0
G1X0.3Z0S20
G1X0.1Z0S0
G1X0.1Z0S20
G1X0.1Z0S0
G1X0.1Z0S20
G1X0.3Z0S0
G1X0.1Z0S20
G1X0.1Z0S0
G1X0.2Z0S20
G1X0.3Z0S0
G1X0.2Z0S20
G1X0.2Z0S0
G1X0.3Z0S20
G1X0.3Z0S0
G1X0.2Z0S20
G1X0.1Z0S0
G1X0.2Z0S20
G1X0.1Z0S0
G1X0.2Z0S20
G1X0.3Z0S0
G1X0.2Z0S20
G1X0.2Z0S0
G1X0.1Z0S20
G1X0.1Z0S0
G1X0.3Z0S20
G1X0.2Z0S0
G1X0.1Z0S20
G1X0.5Z0S0
G1X0.1Z0S20
G1X0.1Z0S0
G1X0.3Z0S20
G1X0.1Z0S0
G1X0.1Z0S20
G1X2.5Z0S0
G1X0.7Z0S20
G1X0.2Z0S0
G1X0.1Z0S20
G1X0.1Z0S0
G1X0.1Z0S20
G1X0.1Z0S0
G1X0.3Z0S20
G1X0.1Z0S0
G1X0.1Z0S20
G1X0.5Z0S0
G1X0.1Z0S20
G1X0.1Z0S0
G1X0.1Z0S20
G1X0.1Z0S0
G1X0.7Z0S20
G1X0.1Z0S0
G1X0.1Z0S20
G1X0.2Z0S0
G1X0.1Z0S20
G1X0.3Z0S0
G1X0.1Z0S20
G1X0.1Z0S0
G1X0.1Z0S20
G1X0.1Z0S0
G1X0.1Z0S20
G1X2.5Z0S0
G1Z0S20
G1X-0.1Z0S0
G1Z0S20
G1X-2.5Z0S0
G1X-0.1Z0S20
G1X-0.3Z0S0
G1X-0.4Z0S20
G1X-0.1Z0S0
G1X-0.1Z0S20
G1X-0.1Z0S0
G1X-0.2Z0S20
G1X-0.1Z0S0
G1X-0.5Z0S20
G1X-0.1Z0S0
G1X-0.1Z0S20
G1X-0.1Z0S0
G1X-0.1Z0S20
G1X-0.2Z0S0
G1X-0.1Z0S20
G1X-0.2Z0S0
G1X-0.4Z0S20
G1X-0.1Z0S0
G1X-0.2Z0S20
G1X-0.1Z0S0
G1X-0.1Z0S20
G1X-0.2Z0S0
G1X-0.2Z0S20
G1X-0.1Z0S0
G1X-0.6Z0S20
G1X-2.3Z0S0
G1X-0.1Z0S20
G1X-0.1Z0S0
G1X-0.2Z0S20
G1X-0.2Z0S0
G1X-0.2Z0S20
G1X-0.3Z0S0
G1X-0.2Z0S20
G1X-0.1Z0S0
G1X-0.2Z0S20
G1X-0.1Z0S0
G1X-0.1Z0S20
G1X-0.1Z0S0
G1X-0.1Z0S20
G1X-0.2Z0S0
G1X-0.3Z0S20
G1X-0.1Z0S0
G1X-0.7Z0S20
G1X-0.1Z0S0
G1X-0.1Z0S20
G1X-0.1Z0S0
G1X-0.3Z0S20
G1X-0.1Z0S0
G1X-0.1Z0S20
G1X-0.1Z0S0
G1X-0.1Z0S20
G1X-0.2Z0S0
G1X-0.5Z0S20
G1X-0.1Z0S0
G1X-0.5Z0S20
G1X-0.1Z0S0
G1X-0.1Z0S20
G1X-0.1Z0S0
G1X-0.4Z0S20
G1X-0.2Z0S0
G1X-0.1Z0S20
G1X-0.1Z0S0
G1X-0.1Z0S20
G1X-0.1Z0S0
G1X-0.1Z0S20
G1X-0.2Z0S0
G1X-0.2Z0S20
G1X-0.2Z0S0
G1X-0.1Z0S20
G1X-2.3Z0S0
G1X-0.9Z0S20
G1X-0.1Z0S0
G1X-0.1Z0S20
G1X-0.1Z0S0
G1X-0.3Z0S20
G1X-0.1Z0S0
G1X-0.4Z0S20
G1X-0.4Z0S0
G1X-0.1Z0S20
G1X-0.1Z0S0
G1X-0.2Z0S20
G1X-0.1Z0S0
G1X-0.2Z0S20
G1X-0.1Z0S0
G1X-0.2Z0S20
G1X-0.1Z0S0
G1X-0.1Z0S20
G1X-0.1Z0S0
G1X-0.1Z0S20
G1X-0.2Z0S0
G1X-0.1Z0S20
G1X-0.1Z0S0
G1X-0.1Z0S20
G1X-0.3Z0S0
G1X-0.1Z0S20
G1X-2.5Z0S0
G1Z0S20
G1X0.1Z0.01S0
G1Z-0S20
G1X2.5Z-0S0
G1X0.1Z-0S20
G1X0.1Z-0S0
G1X0.1Z-0S20
G1X0.1Z-0S0
G1X0.1Z-0S20
G1X0.3Z-0S0
G1X1Z-0S20
G1X0.2Z-0S0
G1X0.1Z-0S20
G1X0.2Z-0S0
G1X0.1Z-0S20
G1X0.2Z-0S0
G1X0.1Z-0S20
G1X0.1Z-0S0
G1X0.3Z-0S20
G1X0.1Z-0S0
G1X0.2Z-0S20
G1X0.1Z-0S0
G1X0.1Z-0S20
G1X0.2Z-0S0
G1X0.1Z-0S20
G1X0.1Z-0S0
G1X0.3Z-0S20
G1X0.1Z-0S0
G1X0.4Z-0S20
G1X2.1Z-0S0
G1X0.1Z-0S20
G1X0.1Z-0S0
G1X0.3Z-0S20
G1X0.1Z-0S0
G1X0.1Z-0S20
G1X0.2Z-0S0
G1X0.1Z-0S20
G1X0.3Z-0S0
G1X0.3Z-0S20
G1X0.1Z-0S0
G1X0.1Z-0S20
G1X0.1Z-0S0
G1X0.1Z-0S20
G1X0.1Z-0S0
G1X0.1Z-0S20
G1X0.3Z-0S0
G1X0.3Z-0S20
G1X0.2Z-0S0
G1X0.1Z-0S20
G1X0.6Z-0S0
G1X0.2Z-0S20
G1X0.6Z-0S0
G1X0.3Z-0S20
G1X0.1Z-0S0
G1X0.4Z-0S20
G1X0.2Z-0S0
G1X0.2Z-0S20
G1X0.2Z-0S0
G1X0.1Z-0S20
G1X0.1Z-0S0
G1X0.2Z-0S20
G1X0.2Z-0S0
G1X0.2Z-0S20
G1X0.6Z-0S0
G1X0.2Z-0S20
G1X0.1Z-0S0
G1X0.1Z-0S20
G1X2.2Z-0S0
G1X0.4Z-0S20
G1X0.1Z-0S0
G1X0.3Z-0S20
G1X0.1Z-0S0
G1X0.1Z-0S20
G1X0.1Z-0S0
G1X0.1Z-0S20
G1X0.1Z-0S0
G1X0.6Z-0S20
G1X0.1Z-0S0
G1X0.2Z-0S20
G1X0.2Z-0S0
G1X0.1Z-0S20
G1X0.2Z-0S0
G1X0.1Z-0S20
G1X0.1Z-0S0
G1X0.1Z-0S20
G1X0.1Z-0S0
G1X0.2Z-0S20
G1X0.1Z-0S0
G1X0.4Z-0S20
G1X0.1Z-0S0
G1X0.1Z-0S20
G1X0.2Z-0S0
G1X0.1Z-0S20
G1X0.3Z-0S0
G1X0.2Z-0S20
G1X2.5Z-0S0
G1Z-0S20
G1X-0.2Z-0S0
G1Z-0S20
G1X-2.5Z-0S0
G1X-0.1Z-0S20
G1X-0.1Z-0S0
G1X-0.1Z-0S20
G1X-0.3Z-0S0
G1X-0.1Z-0S20
G1X-0.1Z-0S0
G1X-0.6Z-0S20
G1X-0.1Z-0S0
G1X-0.1Z-0S20
G1X-0.1Z-0S0
G1X-0.1Z-0S20
G1X-0.3Z-0S0
G1X-0.1Z-0S20
G1X-0.2Z-0S0
G1X-0.2Z-0S20
G1X-0.3Z-0S0
G1X-0.4Z-0S20
G1X-0.1Z-0S0
G1X-0.1Z-0S20
G1X-0.2Z-0S0
G1X-0.1Z-0S20
G1X-0.1Z-0S0
G1X-0.3Z-0S20
G1X-0.1Z-0S0
G1X-0.5Z-0S20
G1X-2.1Z-0S0
G1X-0.2Z-0S20
G1X-0.2Z-0S0
G1X-0.2Z-0S20
G1X-0.2Z-0S0
G1X-0.1Z-0S20
G1X-0.1Z-0S0
G1X-0.3Z-0S20
G1X-0.1Z-0S0
G1X-0.1Z-0S20
G1X-0.1Z-0S0
G1X-0.1Z-0S20
G1X-0.2Z-0S0
G1X-0.1Z-0S20
G1X-0.3Z-0S0
G1X-0.2Z-0S20
G1X-0.4Z-0S0
G1X-0.1Z-0S20
G1X-0.7Z-0S0
G1X-0.2Z-0S20
G1X-0.5Z-0S0
G1X-0.1Z-0S20
G1X-0.5Z-0S0
G1X-0.1Z-0S20
G1X-0.3Z-0S0
G1X-0.1Z-0S20
G1X-0.1Z-0S0
G1X-0.1Z-0S20
G1X-0.1Z-0S0
G1X-0.1Z-0S20
G1X-0.1Z-0S0
G1X-0.1Z-0S20
G1X-0.1Z-0S0
G1X-0.2Z-0S20
G1X-0.2Z-0S0
G1X-0.1Z-0S20
G1X-0.2Z-0S0
G1X-0.1Z-0S20
G1X-0.1Z-0S0
G1X-0.3Z-0S20
G1X-2.1Z-0S0
G1X-0.6Z-0S20
G1X-0.1Z-0S0
G1X-0.2Z-0S20
G1X-0.1Z-0S0
G1X-0.1Z-0S20
G1X-0.2Z-0S0
G1X-0.1Z-0S20
G1X-0.1Z-0S0
G1X-0.5Z-0S20
G1X-0.2Z-0S0
G1X-0.3Z-0S20
G1X-0.6Z-0S0
G1X-0.1Z-0S20
G1X-0.2Z-0S0
G1X-0.3Z-0S20
G1X-0.1Z-0S0
G1X-0.1Z-0S20
G1X-0.1Z-0S0
G1X-0.1Z-0S20
G1X-0.1Z-0S0
G1X-0.1Z-0S20
G1X-0.2Z-0S0
G1X-0.2Z-0S20
G1X-2.5Z-0S0
G1Z-0S20
G1X-0.3Z-0S0
G1Z-0S20
G1X2.5Z-0S0
G1X0.1Z-0S20
G1X0.2Z-0S0
G1X0.1Z-0S20
G1X0.4Z-0S0
G1X0.7Z-0S20
G1X0.1Z-0S0
G1X0.1Z-0S20
G1X0.1Z-0S0
G1X0.1Z-0S20
G1X0.3Z-0S0
G1X0.1Z-0S20
G1X0.1Z-0S0
G1X0.1Z-0S20
G1X0.2Z-0S0
G1X0.1Z-0S20
G1X0.3Z-0S0
G1X0.4Z-0S20
G1X0.1Z-0S0
G1X0.1Z-0S20
G1X0.1Z-0S0
G1X0.1Z-0S20
G1X0.1Z-0S0
G1X0.1Z-0S20
G1X0.2Z-0S0
G1X0.3Z-0S20
G1X0.1Z-0S0
G1X0.4Z-0S20
G1X1.7Z-0S0
G1X0.1Z-0S20
G1X0.2Z-0S0
G1X0.3Z-0S20
G1X0.3Z-0S0
G1X0.2Z-0S20
G1X0.1Z-0S0
G1X0.3Z-0S20
G1X0.1Z-0S0
G1X0.1Z-0S20
G1X0.1Z-0S0
G1X0.1Z-0S20
G1X0.1Z-0S0
G1X0.3Z-0S20
G1X0.3Z-0S0
G1X0.1Z-0S20
G1X1.1Z-0S0
G1X0.2Z-0S20
G1X0.5Z-0S0
G1X0.1Z-0S20
G1X0.7Z-0S0
G1X0.1Z-0S20
G1X0.3Z-0S0
G1X0.3Z-0S20
G1X0.2Z-0S0
G1X0.4Z-0S20
G1X0.2Z-0S0
G1X0.1Z-0S20
G1X0.3Z-0S0
G1X0.1Z-0S20
G1X0.2Z-0S0
G1X0.2Z-0S20
G1X0.1Z-0S0
G1X0.1Z-0S20
G1X1.7Z-0S0
G1X0.5Z-0S20
G1X0.1Z-0S0
G1X0.3Z-0S20
G1X0.2Z-0S0
G1X0.1Z-0S20
G1X0.2Z-0S0
G1X0.6Z-0S20
G1X0.2Z-0S0
G1X0.3Z-0S20
G1X0.1Z-0S0
G1X0.1Z-0S20
G1X0.5Z-0S0
G1X0.1Z-0S20
G1X0.2Z-0S0
G1X0.5Z-0S20
G1X0.1Z-0S0
G1X0.2Z-0S20
G1X0.4Z-0S0
G1X0.1Z-0S20
G1X2.5Z-0S0
G1Z-0S20
G1X0.3Z0S0
G1Z0S20
G1X-2.5Z0S0
G1X-0.1Z0S20
G1X-0.1Z0S0
G1X-0.2Z0S20
G1X-0.2Z0S0
G1X-0.1Z0S20
G1X-0.1Z0S0
G1X-0.6Z0S20
G1X-0.3Z0S0
G1X-0.1Z0S20
G1X-0.3Z0S0
G1X-0.1Z0S20
G1X-0.2Z0S0
G1X-0.2Z0S20
G1X-0.2Z0S0
G1X-0.2Z0S20
G1X-0.1Z0S0
G1X-0.1Z0S20
G1X-0.1Z0S0
G1X-0.2Z0S20
G1X-0.1Z0S0
G1X-0.2Z0S20
G1X-0.1Z0S0
G1X-0.1Z0S20
G1X-0.1Z0S0
G1X-0.1Z0S20
G1X-0.2Z0S0
G1X-0.2Z0S20
G1X-0.2Z0S0
G1X-0.4Z0S20
G1X-1.8Z0S0
G1X-0.1Z0S20
G1X-0.2Z0S0
G1X-0.2Z0S20
G1X-0.2Z0S0
G1X-0.1Z0S20
G1X-0.1Z0S0
G1X-0.3Z0S20
G1X-0.1Z0S0
G1X-0.1Z0S20
G1X-0.1Z0S0
G1X-0.4Z0S20
G1X-1.1Z0S0
G1X-0.1Z0S20
G1X-0.6Z0S0
G1X-0.2Z0S20
G1X-0.5Z0S0
G1X-0.1Z0S20
G1X-0.4Z0S0
G1X-0.2Z0S20
G1X-0.4Z0S0
G1X-0.2Z0S20
G1X-0.1Z0S0
G1X-0.4Z0S20
G1X-0.1Z0S0
G1X-0.2Z0S20
G1X-0.2Z0S0
G1X-0.1Z0S20
G1X-0.2Z0S0
G1X-0.1Z0S20
G1X-0.1Z0S0
G1X-0.3Z0S20
G1X-0.1Z0S0
G1X-0.1Z0S20
G1X-1.5Z0S0
G1X-0.4Z0S20
G1X-0.2Z0S0
G1X-0.3Z0S20
G1X-0.2Z0S0
G1X-0.1Z0S20
G1X-0.1Z0S0
G1X-0.1Z0S20
G1X-0.1Z0S0
G1X-0.5Z0S20
G1X-0.1Z0S0
G1X-0.1Z0S20
G1X-0.1Z0S0
G1X-0.2Z0S20
G1X-0.1Z0S0
G1X-0.3Z0S20
G1X-0.2Z0S0
G1X-0.1Z0S20
G1X-0.3Z0S0
G1X-0.1Z0S20
G1X-0.1Z0S0
G1X-0.1Z0S20
G1X-0.1Z0S0
G1X-0.4Z0S20
G1X-0.1Z0S0
G1X-0.1Z0S20
G1X-0.1Z0S0
G1X-0.1Z0S20
G1X-0.2Z0S0
G1X-0.1Z0S20
G1X-0.1Z0S0
G1X-0.1Z0S20
G1X-2.5Z0S0
G1Z0S20
G1X0.1Z0S0
G1Z0S20
G1X2.5Z0S0
G1X0.1Z0S20
G1X0.4Z0S0
G1X0.3Z0S20
G1X0.1Z0S0
G1X0.3Z0S20
G1X0.1Z0S0
G1X0.1Z0S20
G1X0.1Z0S0
G1X0.1Z0S20
G1X0.3Z0S0
G1X0.1Z0S20
G1X0.1Z0S0
G1X0.3Z0S20
G1X0.1Z0S0
G1X0.6Z0S20
G1X0.2Z0S0
G1X0.3Z0S20
G1X0.2Z0S0
G1X0.1Z0S20
G1X0.1Z0S0
G1X0.1Z0S20
G1X0.3Z0S0
G1X0.2Z0S20
G1X0.2Z0S0
G1X0.5Z0S20
G1X1.6Z0S0
G1X0.3Z0S20
G1X0.3Z0S0
G1X0.1Z0S20
G1X0.2Z0S0
G1X0.3Z0S20
G1X0.2Z0S0
G1X0.3Z0S20
G1X0.1Z0S0
G1X0.2Z0S20
G1X0.3Z0S0
G1X0.1Z0S20
G1X0.1Z0S0
G1X0.1Z0S20
G1X0.3Z0S0
G1X0.1Z0S20
G1X0.5Z0S0
G1X0.1Z0S20
G1X0.6Z0S0
G1X0.1Z0S20
G1X0.5Z0S0
G1X0.1Z0S20
G1X0.1Z0S0
G1X0.1Z0S20
G1X0.4Z0S0
G1X0.1Z0S20
G1X0.1Z0S0
G1X0.5Z0S20
G1X0.1Z0S0
G1X0.2Z0S20
G1X0.1Z0S0
G1X0.1Z0S20
G1X0.1Z0S0
G1X0.1Z0S20
G1X0.1Z0S0
G1X0.1Z0S20
G1X0.2Z0S0
G1X0.1Z0S20
G1X0.1Z0S0
G1X0.1Z0S20
G1X1.4Z0S0
G1X0.4Z0S20
G1X0.2Z0S0
G1X0.2Z0S20
G1X0.2Z0S0
G1X0.1Z0S20
G1X0.2Z0S0
G1X0.1Z0S20
G1X0.2Z0S0
G1X0.4Z0S20
G1X0.1Z0S0
G1X0.3Z0S20
G1X0.1Z0S0
G1X0.6Z0S20
G1X0.2Z0S0
G1X0.1Z0S20
G1X0.2Z0S0
G1X0.1Z0S20
G1X0.1Z0S0
G1X0.1Z0S20
G1X0.1Z0S0
G1X0.1Z0S20
G1X0.1Z0S0
G1X0.2Z0S20
G1X0.1Z0S0
G1X0.2Z0S20
G1X0.1Z0S0
G1X0.1Z0S20
G1X0.3Z0S0
G1X0.1Z0S20
G1X2.5Z0S0
G1Z0S20
G1Z0.01S0
G1Z-0S20
G1X-2.5Z-0S0
G1X-0.1Z-0S20
G1X-0.5Z-0S0
G1X-0.6Z-0S20
G1X-0.1Z-0S0
G1X-0.1Z-0S20
G1X-0.1Z-0S0
G1X-0.1Z-0S20
G1X-0.5Z-0S0
G1X-0.2Z-0S20
G1X-0.2Z-0S0
G1X-0.2Z-0S20
G1X-0.1Z-0S0
G1X-0.1Z-0S20
G1X-0.1Z-0S0
G1X-0.2Z-0S20
G1X-0.2Z-0S0
G1X-0.6Z-0S20
G1X-0.3Z-0S0
G1X-0.1Z-0S20
G1X-0.2Z-0S0
G1X-0.2Z-0S20
G1X-0.2Z-0S0
G1X-0.5Z-0S20
G1X-1.4Z-0S0
G1X-0.1Z-0S20
G1X-0.2Z-0S0
G1X-0.2Z-0S20
G1X-0.2Z-0S0
G1X-0.1Z-0S20
G1X-0.1Z-0S0
G1X-0.1Z-0S20
G1X-0.1Z-0S0
G1X-0.5Z-0S20
G1X-0.2Z-0S0
G1X-0.1Z-0S20
G1X-0.5Z-0S0
G1X-0.2Z-0S20
G1X-0.4Z-0S0
G1X-0.1Z-0S20
G1X-0.6Z-0S0
G1X-0.2Z-0S20
G1X-0.9Z-0S0
G1X-0.1Z-0S20
G1X-0.1Z-0S0
G1X-0.1Z-0S20
G1X-0.3Z-0S0
G1X-0.2Z-0S20
G1X-0.3Z-0S0
G1X-0.3Z-0S20
G1X-0.1Z-0S0
G1X-0.3Z-0S20
G1X-0.2Z-0S0
G1X-0.1Z-0S20
G1X-0.1Z-0S0
G1X-0.1Z-0S20
G1X-0.1Z-0S0
G1X-0.4Z-0S20
G1X-1.3Z-0S0
G1X-0.4Z-0S20
G1X-0.2Z-0S0
G1X-0.2Z-0S20
G1X-0.4Z-0S0
G1X-0.1Z-0S20
G1X-0.1Z-0S0
G1X-0.1Z-0S20
G1X-0.1Z-0S0
G1X-0.4Z-0S20
G1X-0.2Z-0S0
G1X-0.2Z-0S20
G1X-0.3Z-0S0
G1X-0.3Z-0S20
G1X-0.2Z-0S0
G1X-0.1Z-0S20
G1X-0.2Z-0S0
G1X-0.1Z-0S20
G1X-0.2Z-0S0
G1X-0.1Z-0S20
G1X-0.2Z-0S0
G1X-0.1Z-0S20
G1X-0.1Z-0S0
G1X-0.4Z-0S20
G1X-0.1Z-0S0
G1X-0.1Z-0S20
G1X-0.1Z-0S0
G1X-0.1Z-0S20
G1X-0.2Z-0S0
G1X-0.1Z-0S20
G1X-2.5Z-0S0
G1Z-0S20
G1Z-0S0
G1Z-0S20
G1X2.5Z-0S0
G1X0.1Z-0S20
G1X0.3Z-0S0
G1X0.6Z-0S20
G1X0.1Z-0S0
G1X0.1Z-0S20
G1X0.1Z-0S0
G1X0.1Z-0S20
G1X0.6Z-0S0
G1X0.5Z-0S20
G1X0.1Z-0S0
G1X0.4Z-0S20
G1X0.1Z-0S0
G1X0.3Z-0S20
G1X0.1Z-0S0
G1X0.5Z-0S20
G1X0.3Z-0S0
G1X0.1Z-0S20
G1X0.1Z-0S0
G1X0.1Z-0S20
G1X0.1Z-0S0
G1X0.2Z-0S20
G1X0.3Z-0S0
G1X0.4Z-0S20
G1X1.1Z-0S0
G1X0.1Z-0S20
G1X0.1Z-0S0
G1X0.2Z-0S20
G1X0.6Z-0S0
G1X0.1Z-0S20
G1X0.1Z-0S0
G1X0.3Z-0S20
G1X0.1Z-0S0
G1X0.1Z-0S20
G1X0.1Z-0S0
G1X0.1Z-0S20
G1X0.1Z-0S0
G1X0.1Z-0S20
G1X0.4Z-0S0
G1X0.2Z-0S20
G1X1.1Z-0S0
G1X0.1Z-0S20
G1X0.5Z-0S0
G1X0.3Z-0S20
G1X0.2Z-0S0
G1X0.1Z-0S20
G1X0.1Z-0S0
G1X0.2Z-0S20
G1X0.4Z-0S0
G1X0.1Z-0S20
G1X0.5Z-0S0
G1X0.5Z-0S20
G1X0.8Z-0S0
G1X0.1Z-0S20
G1X1.2Z-0S0
G1X0.4Z-0S20
G1X0.2Z-0S0
G1X0.2Z-0S20
G1X0.3Z-0S0
G1X0.1Z-0S20
G1X0.3Z-0S0
G1X0.1Z-0S20
G1X0.1Z-0S0
G1X0.3Z-0S20
G1X0.2Z-0S0
G1X0.2Z-0S20
G1X0.2Z-0S0
G1X0.4Z-0S20
G1X0.1Z-0S0
G1X0.2Z-0S20
G1X0.1Z-0S0
G1X0.2Z-0S20
G1X0.1Z-0S0
G1X0.1Z-0S20
G1X0.3Z-0S0
G1X0.1Z-0S20
G1X0.1Z-0S0
G1X0.1Z-0S20
G1X0.1Z-0S0
G1X0.2Z-0S20
G1X0.1Z-0S0
G1X0.3Z-0S20
G1X0.1Z-0S0
G1X0.1Z-0S20
G1X0.2Z-0S0
G1X0.1Z-0S20
G1X2.5Z-0S0
G1Z-0S20
G1Z-0S0
G1Z-0S20
G1X-2.5Z-0S0
G1X-0.1Z-0S20
G1X-0.3Z-0S0
G1X-0.1Z-0S20
G1X-0.1Z-0S0
G1X-0.5Z-0S20
G1X-0.2Z-0S0
G1X-0.1Z-0S20
G1X-0.6Z-0S0
G1X-0.6Z-0S20
G1X-0.2Z-0S0
G1X-0.4Z-0S20
G1X-0.1Z-0S0
G1X-0.3Z-0S20
G1X-0.2Z-0S0
G1X-0.3Z-0S20
G1X-0.1Z-0S0
G1X-0.1Z-0S20
G1X-0.3Z-0S0
G1X-0.1Z-0S20
G1X-0.3Z-0S0
G1X-0.2Z-0S20
G1X-0.2Z-0S0
G1X-0.4Z-0S20
G1X-1Z-0S0
G1X-0.1Z-0S20
G1X-0.1Z-0S0
G1X-0.1Z-0S20
G1X-0.1Z-0S0
G1X-0.1Z-0S20
G1X-0.1Z-0S0
G1X-0.1Z-0S20
G1X-0.1Z-0S0
G1X-0.1Z-0S20
G1X-0.1Z-0S0
G1X-0.3Z-0S20
G1X-0.1Z-0S0
G1X-0.3Z-0S20
G1X-0.2Z-0S0
G1X-0.1Z-0S20
G1X-0.4Z-0S0
G1X-0.1Z-0S20
G1X-0.1Z-0S0
G1X-0.1Z-0S20
G1X-0.4Z-0S0
G1X-0.2Z-0S20
G1X-0.4Z-0S0
G1X-0.3Z-0S20
G1X-0.4Z-0S0
G1X-0.1Z-0S20
G1X-0.4Z-0S0
G1X-0.2Z-0S20
G1X-0.4Z-0S0
G1X-0.2Z-0S20
G1X-0.3Z-0S0
G1X-0.1Z-0S20
G1X-0.2Z-0S0
G1X-0.3Z-0S20
G1X-0.2Z-0S0
G1X-0.1Z-0S20
G1X-0.3Z-0S0
G1X-0.3Z-0S20
G1X-0.1Z-0S0
G1X-0.1Z-0S20
G1X-1Z-0S0
G1X-0.4Z-0S20
G1X-0.1Z-0S0
G1X-0.3Z-0S20
G1X-0.6Z-0S0
G1X-0.1Z-0S20
G1X-0.1Z-0S0
G1X-0.4Z-0S20
G1X-0.2Z-0S0
G1X-0.3Z-0S20
G1X-0.1Z-0S0
G1X-0.4Z-0S20
G1X-0.1Z-0S0
G1X-0.3Z-0S20
G1X-0.1Z-0S0
G1X-0.3Z-0S20
G1X-0.1Z-0S0
G1X-0.1Z-0S20
G1X-0.2Z-0S0
G1X-0.1Z-0S20
G1X-0.3Z-0S0
G1X-0.1Z-0S20
G1X-0.1Z-0S0
G1X-0.4Z-0S20
G1X-0.1Z-0S0
G1X-0.1Z-0S20
G1X-0.3Z-0S0
G1X-0.1Z-0S20
G1X-2.5Z-0S0
G1Z-0S20
G1X0.4Z0S0
G1Z0S20
G1X2.5Z0S0
G1X0.1Z0S20
G1X0.1Z0S0
G1X0.4Z0S20
G1X0.2Z0S0
G1X0.1Z0S20
G1X0.1Z0S0
G1X0.1Z0S20
G1X0.7Z0S0
G1X0.3Z0S20
G1X0.1Z0S0
G1X0.2Z0S20
G1X0.2Z0S0
G1X0.1Z0S20
G1X0.1Z0S0
G1X0.2Z0S20
G1X0.2Z0S0
G1X0.1Z0S20
G1X0.3Z0S0
G1X0.4Z0S20
G1X0.1Z0S0
G1X0.1Z0S20
G1X0.1Z0S0
G1X0.1Z0S20
G1X0.3Z0S0
G1X0.1Z0S20
G1X0.1Z0S0
G1X0.1Z0S20
G1X0.2Z0S0
G1X0.4Z0S20
G1X0.8Z0S0
G1X0.1Z0S20
G1X0.1Z0S0
G1X0.2Z0S20
G1X0.1Z0S0
G1X0.1Z0S20
G1X0.2Z0S0
G1X0.1Z0S20
G1X0.1Z0S0
G1X0.4Z0S20
G1X0.1Z0S0
G1X0.1Z0S20
G1X0.1Z0S0
G1X0.1Z0S20
G1X0.2Z0S0
G1X0.2Z0S20
G1X0.3Z0S0
G1X0.1Z0S20
G1X0.1Z0S0
G1X0.1Z0S20
G1X0.3Z0S0
G1X0.1Z0S20
G1X0.5Z0S0
G1X0.3Z0S20
G1X0.5Z0S0
G1X0.1Z0S20
G1X0.4Z0S0
G1X0.3Z0S20
G1X0.3Z0S0
G1X0.2Z0S20
G1X0.1Z0S0
G1X0.1Z0S20
G1X0.2Z0S0
G1X0.1Z0S20
G1X0.2Z0S0
G1X0.4Z0S20
G1X0.1Z0S0
G1X0.1Z0S20
G1X0.3Z0S0
G1X0.1Z0S20
G1X0.1Z0S0
G1X0.1Z0S20
G1X0.8Z0S0
G1X0.5Z0S20
G1X0.1Z0S0
G1X0.2Z0S20
G1X0.3Z0S0
G1X0.1Z0S20
G1X0.2Z0S0
G1X0.1Z0S20
G1X0.1Z0S0
G1X0.5Z0S20
G1X0.2Z0S0
G1X0.2Z0S20
G1X0.1Z0S0
G1X0.2Z0S20
G1X0.1Z0S0
G1X0.1Z0S20
G1X0.2Z0S0
G1X0.3Z0S20
G1X0.1Z0S0
G1X0.2Z0S20
G1X0.2Z0S0
G1X0.1Z0S20
G1X0.1Z0S0
G1X0.1Z0S20
G1X0.3Z0S0
G1X0.1Z0S20
G1X0.1Z0S0
G1X0.1Z0S20
G1X0.1Z0S0
G1X0.5Z0S20
G1X0.1Z0S0
G1X0.1Z0S20
G1X2.5Z0S0
G1Z0S20
G1X0.3Z0S0
G1Z0S20
G1X-2.5Z0S0
G1X-0.1Z0S20
G1X-0.3Z0S0
G1X-0.1Z0S20
G1X-0.1Z0S0
G1X-0.3Z0S20
G1X-0.7Z0S0
G1X-0.1Z0S20
G1X-0.6Z0S0
G1X-0.7Z0S20
G1X-0.1Z0S0
G1X-0.3Z0S20
G1X-0.1Z0S0
G1X-0.1Z0S20
G1X-0.1Z0S0
G1X-0.2Z0S20
G1X-0.2Z0S0
G1X-0.4Z0S20
G1X-0.2Z0S0
G1X-0.1Z0S20
G1X-0.2Z0S0
G1X-0.1Z0S20
G1X-0.2Z0S0
G1X-0.2Z0S20
G1X-0.2Z0S0
G1X-0.4Z0S20
G1X-0.7Z0S0
G1X-0.1Z0S20
G1X-0.5Z0S0
G1X-0.1Z0S20
G1X-0.2Z0S0
G1X-0.4Z0S20
G1X-0.1Z0S0
G1X-0.1Z0S20
G1X-0.1Z0S0
G1X-0.2Z0S20
G1X-0.1Z0S0
G1X-0.1Z0S20
G1X-0.5Z0S0
G1X-0.3Z0S20
G1X-0.2Z0S0
G1X-0.3Z0S20
G1X-0.3Z0S0
G1X-0.1Z0S20
G1X-0.1Z0S0
G1X-0.2Z0S20
G1X-0.4Z0S0
G1X-0.2Z0S20
G1X-0.3Z0S0
G1X-0.2Z0S20
G1X-0.8Z0S0
G1X-0.2Z0S20
G1X-0.2Z0S0
G1X-0.5Z0S20
G1X-0.1Z0S0
G1X-0.1Z0S20
G1X-0.3Z0S0
G1X-0.2Z0S20
G1X-0.1Z0S0
G1X-0.1Z0S20
G1X-0.6Z0S0
G1X-0.5Z0S20
G1X-0.2Z0S0
G1X-0.2Z0S20
G1X-0.4Z0S0
G1X-0.1Z0S20
G1X-0.3Z0S0
G1X-0.3Z0S20
G1X-0.3Z0S0
G1X-0.2Z0S20
G1X-0.1Z0S0
G1X-0.2Z0S20
G1X-0.1Z0S0
G1X-0.2Z0S20
G1X-0.1Z0S0
G1X-0.2Z0S20
G1X-0.1Z0S0
G1X-0.3Z0S20
G1X-0.4Z0S0
G1X-0.1Z0S20
G1X-0.1Z0S0
G1X-0.1Z0S20
G1X-0.4Z0S0
G1X-0.1Z0S20
G1X-0.1Z0S0
G1X-0.1Z0S20
G1X-0.1Z0S0
G1X-0.3Z0S20
G1X-0.1Z0S0
G1X-0.1Z0S20
G1X-0.1Z0S0
G1X-0.1Z0S20
G1X-0.1Z0S0
G1X-0.1Z0S20
G1X-2.5Z0S0
G1Z0S20
G1Z0S0
G1Z0S20
G1X2.5Z0S0
G1X0.1Z0S20
G1X0.2Z0S0
G1X0.1Z0S20
G1X0.1Z0S0
G1X0.4Z0S20
G1X0.4Z0S0
G1X0.1Z0S20
G1X0.2Z0S0
G1X0.1Z0S20
G1X0.4Z0S0
G1X0.1Z0S20
G1X0.3Z0S0
G1X0.4Z0S20
G1X0.1Z0S0
G1X0.2Z0S20
G1X0.1Z0S0
G1X0.4Z0S20
G1X0.1Z0S0
G1X0.3Z0S20
G1X0.2Z0S0
G1X0.4Z0S20
G1X0.1Z0S0
G1X0.1Z0S20
G1X0.1Z0S0
G1X0.1Z0S20
G1X0.2Z0S0
G1X0.1Z0S20
G1X0.1Z0S0
G1X0.2Z0S20
G1X0.2Z0S0
G1X0.4Z0S20
G1X0.5Z0S0
G1X0.1Z0S20
G1X0.1Z0S0
G1X0.2Z0S20
G1X0.1Z0S0
G1X0.1Z0S20
G1X0.1Z0S0
G1X0.1Z0S20
G1X0.1Z0S0
G1X0.5Z0S20
G1X0.1Z0S0
G1X0.2Z0S20
G1X0.1Z0S0
G1X0.1Z0S20
G1X0.2Z0S0
G1X0.1Z0S20
G1X0.3Z0S0
G1X0.1Z0S20
G1X0.1Z0S0
G1X0.2Z0S20
G1X0.3Z0S0
G1X0.2Z0S20
G1X0.3Z0S0
G1X0.3Z0S20
G1X0.4Z0S0
G1X0.2Z0S20
G1X0.3Z0S0
G1X0.4Z0S20
G1X0.3Z0S0
G1X0.2Z0S20
G1X0.1Z0S0
G1X0.1Z0S20
G1X0.1Z0S0
G1X0.2Z0S20
G1X0.1Z0S0
G1X0.8Z0S20
G1X0.2Z0S0
G1X0.3Z0S20
G1X0.5Z0S0
G1X0.4Z0S20
G1X0.2Z0S0
G1X0.2Z0S20
G1X0.3Z0S0
G1X0.1Z0S20
G1X0.1Z0S0
G1X0.1Z0S20
G1X0.1Z0S0
G1X0.1Z0S20
G1X0.1Z0S0
G1X0.3Z0S20
G1X0.2Z0S0
G1X0.2Z0S20
G1X0.1Z0S0
G1X0.4Z0S20
G1X0.2Z0S0
G1X0.3Z0S20
G1X0.1Z0S0
G1X0.3Z0S20
G1X0.6Z0S0
G1X0.1Z0S20
G1X0.5Z0S0
G1X0.2Z0S20
G1X0.1Z0S0
G1X0.1Z0S20
G1X0.1Z0S0
G1X0.4Z0S20
G1X0.1Z0S0
G1X0.1Z0S20
G1X0.2Z0S0
G1X0.1Z0S20
G1X2.5Z0S0
G1Z0S20
G1Z0.01S0
G1Z-0S20
G1X-2.5Z-0S0
G1X-0.1Z-0S20
G1X-0.2Z-0S0
G1X-0.4Z-0S20
G1X-0.1Z-0S0
G1X-0.1Z-0S20
G1X-0.2Z-0S0
G1X-0.1Z-0S20
G1X-0.4Z-0S0
G1X-0.1Z-0S20
G1X-0.1Z-0S0
G1X-0.1Z-0S20
G1X-0.9Z-0S0
G1X-0.3Z-0S20
G1X-0.1Z-0S0
G1X-0.2Z-0S20
G1X-0.1Z-0S0
G1X-0.1Z-0S20
G1X-0.1Z-0S0
G1X-0.1Z-0S20
G1X-0.1Z-0S0
G1X-0.1Z-0S20
G1X-0.1Z-0S0
G1X-0.2Z-0S20
G1X-0.2Z-0S0
G1X-0.5Z-0S20
G1X-0.4Z-0S0
G1X-0.1Z-0S20
G1X-0.2Z-0S0
G1X-0.3Z-0S20
G1X-0.1Z-0S0
G1X-0.5Z-0S20
G1X-0.3Z-0S0
G1X-0.1Z-0S20
G1X-0.3Z-0S0
G1X-0.1Z-0S20
G1X-0.1Z-0S0
G1X-0.1Z-0S20
G1X-0.1Z-0S0
G1X-0.5Z-0S20
G1X-0.1Z-0S0
G1X-0.2Z-0S20
G1X-0.1Z-0S0
G1X-0.2Z-0S20
G1X-0.1Z-0S0
G1X-0.1Z-0S20
G1X-0.2Z-0S0
G1X-0.3Z-0S20
G1X-0.1Z-0S0
G1X-0.7Z-0S20
G1X-0.2Z-0S0
G1X-0.4Z-0S20
G1X-0.3Z-0S0
G1X-0.1Z-0S20
G1X-0.1Z-0S0
G1X-0.3Z-0S20
G1X-0.3Z-0S0
G1X-0.1Z-0S20
G1X-0.3Z-0S0
G1X-0.1Z-0S20
G1X-0.1Z-0S0
G1X-0.2Z-0S20
G1X-0.1Z-0S0
G1X-0.1Z-0S20
G1X-0.2Z-0S0
G1X-0.5Z-0S20
G1X-0.1Z-0S0
G1X-0.1Z-0S20
G1X-0.2Z-0S0
G1X-0.1Z-0S20
G1X-0.1Z-0S0
G1X-0.1Z-0S20
G1X-0.1Z-0S0
G1X-0.1Z-0S20
G1X-0.3Z-0S0
G1X-0.4Z-0S20
G1X-0.2Z-0S0
G1X-0.3Z-0S20
G1X-0.3Z-0S0
G1X-0.1Z-0S20
G1X-0.1Z-0S0
G1X-0.1Z-0S20
G1X-0.1Z-0S0
G1X-0.4Z-0S20
G1X-0.2Z-0S0
G1X-0.3Z-0S20
G1X-0.2Z-0S0
G1X-0.3Z-0S20
G1X-0.2Z-0S0
G1X-0.1Z-0S20
G1X-0.1Z-0S0
G1X-0.4Z-0S20
G1X-0.8Z-0S0
G1X-0.1Z-0S20
G1X-0.6Z-0S0
G1X-0.2Z-0S20
G1X-0.1Z-0S0
G1X-0.1Z-0S20
G1X-0.1Z-0S0
G1X-0.5Z-0S20
G1X-0.1Z-0S0
G1X-0.1Z-0S20
G1X-2.5Z-0S0
G1Z-0S20
G1Z-0S0
G1Z-0S20
G1X2.5Z-0S0
G1X0.1Z-0S20
G1X0.2Z-0S0
G1X0.1Z-0S20
G1X0.1Z-0S0
G1X0.3Z-0S20
G1X0.7Z-0S0
G1X0.1Z-0S20
G1X0.1Z-0S0
G1X0.1Z-0S20
G1X1.1Z-0S0
G1X0.3Z-0S20
G1X0.1Z-0S0
G1X0.2Z-0S20
G1X0.2Z-0S0
G1X0.4Z-0S20
G1X0.1Z-0S0
G1X0.2Z-0S20
G1X0.2Z-0S0
G1X0.4Z-0S20
G1X0.1Z-0S0
G1X0.1Z-0S20
G1X0.2Z-0S0
G1X0.1Z-0S20
G1X0.1Z-0S0
G1X0.1Z-0S20
G1X0.2Z-0S0
G1X0.2Z-0S20
G1X0.1Z-0S0
G1X0.5Z-0S20
G1X0.1Z-0S0
G1X0.1Z-0S20
G1X0.1Z-0S0
G1X0.2Z-0S20
G1X0.3Z-0S0
G1X0.1Z-0S20
G1X0.1Z-0S0
G1X0.5Z-0S20
G1X0.1Z-0S0
G1X0.3Z-0S20
G1X0.1Z-0S0
G1X0.4Z-0S20
G1X0.1Z-0S0
G1X0.2Z-0S20
G1X0.1Z-0S0
G1X0.1Z-0S20
G1X0.1Z-0S0
G1X0.2Z-0S20
G1X0.1Z-0S0
G1X0.3Z-0S20
G1X0.1Z-0S0
G1X0.3Z-0S20
G1X0.1Z-0S0
G1X0.1Z-0S20
G1X0.1Z-0S0
G1X0.6Z-0S20
G1X0.1Z-0S0
G1X0.1Z-0S20
G1X0.1Z-0S0
G1X0.8Z-0S20
G1X0.1Z-0S0
G1X0.2Z-0S20
G1X0.2Z-0S0
G1X0.5Z-0S20
G1X0.1Z-0S0
G1X0.2Z-0S20
G1X0.3Z-0S0
G1X0.1Z-0S20
G1X0.3Z-0S0
G1X0.4Z-0S20
G1X0.2Z-0S0
G1X0.2Z-0S20
G1X0.2Z-0S0
G1X0.1Z-0S20
G1X0.2Z-0S0
G1X0.1Z-0S20
G1X0.1Z-0S0
G1X0.5Z-0S20
G1X0.2Z-0S0
G1X0.2Z-0S20
G1X0.2Z-0S0
G1X0.4Z-0S20
G1X0.1Z-0S0
G1X0.3Z-0S20
G1X0.1Z-0S0
G1X0.3Z-0S20
G1X0.8Z-0S0
G1X0.1Z-0S20
G1X0.1Z-0S0
G1X0.1Z-0S20
G1X0.5Z-0S0
G1X0.1Z-0S20
G1X0.3Z-0S0
G1X0.3Z-0S20
G1X0.1Z-0S0
G1X0.2Z-0S20
G1X2.5Z-0S0
G1Z-0S20
G1X0.2Z0S0
G1Z0S20
G1X-2.5Z0S0
G1X-0.1Z0S20
G1X-0.2Z0S0
G1X-0.2Z0S20
G1X-0.1Z0S0
G1X-0.1Z0S20
G1X-0.3Z0S0
G1X-0.1Z0S20
G1X-0.3Z0S0
G1X-0.1Z0S20
G1X-0.1Z0S0
G1X-0.2Z0S20
G1X-1.2Z0S0
G1X-0.3Z0S20
G1X-0.1Z0S0
G1X-0.2Z0S20
G1X-0.2Z0S0
G1X-0.1Z0S20
G1X-0.1Z0S0
G1X-0.3Z0S20
G1X-0.1Z0S0
G1X-0.1Z0S20
G1X-0.3Z0S0
G1X-0.5Z0S20
G1X-0.1Z0S0
G1X-0.1Z0S20
G1X-0.1Z0S0
G1X-0.1Z0S20
G1X-0.2Z0S0
G1X-0.2Z0S20
G1X-0.1Z0S0
G1X-0.1Z0S20
G1X-0.1Z0S0
G1X-0.6Z0S20
G1X-0.2Z0S0
G1X-0.1Z0S20
G1X-0.3Z0S0
G1X-0.8Z0S20
G1X-0.1Z0S0
G1X-0.2Z0S20
G1X-0.1Z0S0
G1X-0.1Z0S20
G1X-0.2Z0S0
G1X-0.1Z0S20
G1X-0.2Z0S0
G1X-0.1Z0S20
G1X-0.5Z0S0
G1X-0.1Z0S20
G1X-0.1Z0S0
G1X-0.3Z0S20
G1X-0.1Z0S0
G1X-0.1Z0S20
G1X-0.1Z0S0
G1X-0.1Z0S20
G1X-0.1Z0S0
G1X-0.2Z0S20
G1X-0.4Z0S0
G1X-0.2Z0S20
G1X-0.2Z0S0
G1X-0.3Z0S20
G1X-0.1Z0S0
G1X-0.1Z0S20
G1X-0.1Z0S0
G1X-0.2Z0S20
G1X-0.1Z0S0
G1X-0.7Z0S20
G1X-0.1Z0S0
G1X-0.1Z0S20
G1X-0.2Z0S0
G1X-0.1Z0S20
G1X-0.1Z0S0
G1X-0.1Z0S20
G1X-0.1Z0S0
G1X-0.5Z0S20
G1X-0.2Z0S0
G1X-0.2Z0S20
G1X-0.1Z0S0
G1X-0.1Z0S20
G1X-0.2Z0S0
G1X-0.1Z0S20
G1X-0.1Z0S0
G1X-0.1Z0S20
G1X-0.1Z0S0
G1X-0.4Z0S20
G1X-0.2Z0S0
G1X-0.2Z0S20
G1X-0.1Z0S0
G1X-0.1Z0S20
G1X-0.1Z0S0
G1X-0.1Z0S20
G1X-0.1Z0S0
G1X-0.1Z0S20
G1X-0.1Z0S0
G1X-0.2Z0S20
G1X-0.1Z0S0
G1X-0.3Z0S20
G1X-1Z0S0
G1X-0.1Z0S20
G1X-0.1Z0S0
G1X-0.2Z0S20
G1X-0.5Z0S0
G1X-0.2Z0S20
G1X-0.4Z0S0
G1X-0.3Z0S20
G1X-2.5Z0S0
G1Z0S20
G1X-0.2Z0S0
G1Z0S20
G1X2.5Z0S0
G1X0.1Z0S20
G1X0.2Z0S0
G1X0.1Z0S20
G1X0.1Z0S0
G1X0.1Z0S20
G1X0.1Z0S0
G1X0.1Z0S20
G1X0.5Z0S0
G1X0.1Z0S20
G1X0.1Z0S0
G1X0.1Z0S20
G1X0.1Z0S0
G1X0.2Z0S20
G1X1.2Z0S0
G1X0.4Z0S20
G1X0.1Z0S0
G1X0.1Z0S20
G1X0.1Z0S0
G1X0.3Z0S20
G1X0.1Z0S0
G1X0.1Z0S20
G1X0.1Z0S0
G1X0.2Z0S20
G1X0.3Z0S0
G1X0.4Z0S20
G1X0.1Z0S0
G1X0.1Z0S20
G1X0.1Z0S0
G1X0.1Z0S20
G1X0.4Z0S0
G1X0.2Z0S20
G1X0.1Z0S0
G1X0.4Z0S20
G1X0.1Z0S0
G1X0.1Z0S20
G1X0.1Z0S0
G1X0.1Z0S20
G1X0.2Z0S0
G1X0.7Z0S20
G1X0.2Z0S0
G1X0.2Z0S20
G1X0.1Z0S0
G1X0.1Z0S20
G1X0.3Z0S0
G1X0.1Z0S20
G1X0.4Z0S0
G1X0.1Z0S20
G1X0.3Z0S0
G1X0.1Z0S20
G1X0.1Z0S0
G1X0.1Z0S20
G1X0.1Z0S0
G1X0.1Z0S20
G1X0.1Z0S0
G1X0.1Z0S20
G1X0.2Z0S0
G1X0.1Z0S20
G1X0.2Z0S0
G1X0.1Z0S20
G1X0.4Z0S0
G1X0.1Z0S20
G1X0.1Z0S0
G1X0.1Z0S20
G1X0.2Z0S0
G1X0.1Z0S20
G1X0.1Z0S0
G1X0.1Z0S20
G1X0.4Z0S0
G1X0.1Z0S20
G1X0.1Z0S0
G1X0.1Z0S20
G1X0.1Z0S0
G1X0.4Z0S20
G1X0.3Z0S0
G1X0.1Z0S20
G1X0.3Z0S0
G1X0.4Z0S20
G1X0.1Z0S0
G1X0.3Z0S20
G1X0.2Z0S0
G1X0.1Z0S20
G1X0.1Z0S0
G1X0.1Z0S20
G1X0.1Z0S0
G1X0.2Z0S20
G1X0.1Z0S0
G1X0.2Z0S20
G1X0.3Z0S0
G1X0.2Z0S20
G1X0.1Z0S0
G1X0.1Z0S20
G1X0.1Z0S0
G1X0.3Z0S20
G1X0.1Z0S0
G1X0.2Z0S20
G1X0.1Z0S0
G1X0.3Z0S20
G1X1.1Z0S0
G1X0.3Z0S20
G1X0.4Z0S0
G1X0.1Z0S20
G1X0.3Z0S0
G1X0.1Z0S20
G1X0.3Z0S0
G1X0.2Z0S20
G1X0.2Z0S0
G1X0.1Z0S20
G1X2.5Z0S0
G1Z0S20
G1X-0.1Z0S0
G1Z0S20
G1X-2.5Z0S0
G1X-0.2Z0S20
G1X-0.1Z0S0
G1X-0.1Z0S20
G1X-0.1Z0S0
G1X-0.2Z0S20
G1X-0.6Z0S0
G1X-0.3Z0S20
G1X-0.2Z0S0
G1X-0.1Z0S20
G1X-0.1Z0S0
G1X-0.1Z0S20
G1X-1.1Z0S0
G1X-0.2Z0S20
G1X-0.1Z0S0
G1X-0.2Z0S20
G1X-0.3Z0S0
G1X-0.3Z0S20
G1X-0.1Z0S0
G1X-0.3Z0S20
G1X-0.2Z0S0
G1X-0.3Z0S20
G1X-0.1Z0S0
G1X-0.1Z0S20
G1X-0.1Z0S0
G1X-0.2Z0S20
G1X-0.4Z0S0
G1X-0.1Z0S20
G1X-0.1Z0S0
G1X-0.1Z0S20
G1X-0.1Z0S0
G1X-0.2Z0S20
G1X-0.1Z0S0
G1X-0.1Z0S20
G1X-0.1Z0S0
G1X-0.1Z0S20
G1X-0.2Z0S0
G1X-0.5Z0S20
G1X-0.1Z0S0
G1X-0.1Z0S20
G1X-0.2Z0S0
G1X-0.1Z0S20
G1X-0.1Z0S0
G1X-0.1Z0S20
G1X-0.3Z0S0
G1X-0.1Z0S20
G1X-0.3Z0S0
G1X-0.2Z0S20
G1X-0.4Z0S0
G1X-0.1Z0S20
G1X-0.4Z0S0
G1X-0.1Z0S20
G1X-0.4Z0S0
G1X-0.1Z0S20
G1X-0.4Z0S0
G1X-0.1Z0S20
G1X-0.1Z0S0
G1X-0.1Z0S20
G1X-0.3Z0S0
G1X-0.1Z0S20
G1X-0.2Z0S0
G1X-0.2Z0S20
G1X-0.1Z0S0
G1X-0.1Z0S20
G1X-0.2Z0S0
G1X-0.2Z0S20
G1X-0.1Z0S0
G1X-0.3Z0S20
G1X-0.1Z0S0
G1X-0.1Z0S20
G1X-0.4Z0S0
G1X-0.1Z0S20
G1X-0.1Z0S0
G1X-0.2Z0S20
G1X-0.2Z0S0
G1X-0.2Z0S20
G1X-0.3Z0S0
G1X-0.1Z0S20
G1X-0.1Z0S0
G1X-0.2Z0S20
G1X-0.1Z0S0
G1X-0.4Z0S20
G1X-0.2Z0S0
G1X-0.2Z0S20
G1X-0.2Z0S0
G1X-0.3Z0S20
G1X-0.2Z0S0
G1X-0.2Z0S20
G1X-0.1Z0S0
G1X-0.3Z0S20
G1X-1.2Z0S0
G1X-0.2Z0S20
G1X-0.2Z0S0
G1X-0.2Z0S20
G1X-0.2Z0S0
G1X-0.1Z0S20
G1X-0.3Z0S0
G1X-0.1Z0S20
G1X-0.3Z0S0
G1X-0.2Z0S20
G1X-0.1Z0S0
G1X-0.1Z0S20
G1X-2.5Z0S0
G1Z0S20
G1X0.1Z0.01S0
G1Z-0S20
G1X2.5Z-0S0
G1X0.1Z-0S20
G1X0.1Z-0S0
G1X0.1Z-0S20
G1X0.1Z-0S0
G1X0.2Z-0S20
G1X0.6Z-0S0
G1X0.1Z-0S20
G1X0.2Z-0S0
G1X0.1Z-0S20
G1X0.3Z-0S0
G1X0.2Z-0S20
G1X1.2Z-0S0
G1X0.3Z-0S20
G1X0.1Z-0S0
G1X0.2Z-0S20
G1X0.1Z-0S0
G1X0.1Z-0S20
G1X0.1Z-0S0
G1X0.2Z-0S20
G1X0.1Z-0S0
G1X0.3Z-0S20
G1X0.2Z-0S0
G1X0.4Z-0S20
G1X0.1Z-0S0
G1X0.1Z-0S20
G1X0.1Z-0S0
G1X0.1Z-0S20
G1X0.4Z-0S0
G1X0.2Z-0S20
G1X0.1Z-0S0
G1X0.1Z-0S20
G1X0.1Z-0S0
G1X0.1Z-0S20
G1X0.1Z-0S0
G1X0.1Z-0S20
G1X0.1Z-0S0
G1X0.7Z-0S20
G1X0.1Z-0S0
G1X0.1Z-0S20
G1X0.2Z-0S0
G1X0.1Z-0S20
G1X0.2Z-0S0
G1X0.1Z-0S20
G1X0.2Z-0S0
G1X0.2Z-0S20
G1X0.3Z-0S0
G1X0.2Z-0S20
G1X0.3Z-0S0
G1X0.1Z-0S20
G1X0.4Z-0S0
G1X0.1Z-0S20
G1X0.5Z-0S0
G1X0.1Z-0S20
G1X0.4Z-0S0
G1X0.1Z-0S20
G1X0.4Z-0S0
G1X0.1Z-0S20
G1X0.3Z-0S0
G1X0.1Z-0S20
G1X0.2Z-0S0
G1X0.1Z-0S20
G1X0.1Z-0S0
G1X0.1Z-0S20
G1X0.1Z-0S0
G1X0.5Z-0S20
G1X0.2Z-0S0
G1X0.1Z-0S20
G1X0.1Z-0S0
G1X0.4Z-0S20
G1X0.1Z-0S0
G1X0.2Z-0S20
G1X0.4Z-0S0
G1X0.1Z-0S20
G1X0.2Z-0S0
G1X0.5Z-0S20
G1X0.2Z-0S0
G1X0.2Z-0S20
G1X0.1Z-0S0
G1X0.2Z-0S20
G1X0.1Z-0S0
G1X0.1Z-0S20
G1X0.1Z-0S0
G1X0.3Z-0S20
G1X0.1Z-0S0
G1X0.3Z-0S20
G1X1.2Z-0S0
G1X0.2Z-0S20
G1X0.2Z-0S0
G1X0.1Z-0S20
G1X0.3Z-0S0
G1X0.1Z-0S20
G1X0.1Z-0S0
G1X0.1Z-0S20
G1X0.5Z-0S0
G1X0.1Z-0S20
G1X0.1Z-0S0
G1X0.2Z-0S20
G1X2.5Z-0S0
G1Z-0S20
G1X0.1Z-0S0
G1Z-0S20
G1X-2.5Z-0S0
G1X-0.2Z-0S20
G1X-0.4Z-0S0
G1X-0.1Z-0S20
G1X-1Z-0S0
G1X-0.2Z-0S20
G1X-0.2Z-0S0
G1X-0.3Z-0S20
G1X-1.1Z-0S0
G1X-0.3Z-0S20
G1X-0.1Z-0S0
G1X-0.2Z-0S20
G1X-0.1Z-0S0
G1X-0.2Z-0S20
G1X-0.1Z-0S0
G1X-0.2Z-0S20
G1X-0.1Z-0S0
G1X-0.2Z-0S20
G1X-0.2Z-0S0
G1X-0.5Z-0S20
G1X-0.1Z-0S0
G1X-0.2Z-0S20
G1X-0.4Z-0S0
G1X-0.4Z-0S20
G1X-0.2Z-0S0
G1X-0.1Z-0S20
G1X-0.1Z-0S0
G1X-0.5Z-0S20
G1X-0.2Z-0S0
G1X-0.1Z-0S20
G1X-0.5Z-0S0
G1X-0.1Z-0S20
G1X-0.2Z-0S0
G1X-0.1Z-0S20
G1X-0.4Z-0S0
G1X-0.2Z-0S20
G1X-0.4Z-0S0
G1X-0.1Z-0S20
G1X-0.4Z-0S0
G1X-0.1Z-0S20
G1X-0.3Z-0S0
G1X-0.1Z-0S20
G1X-0.5Z-0S0
G1X-0.1Z-0S20
G1X-0.6Z-0S0
G1X-0.1Z-0S20
G1X-0.6Z-0S0
G1X-0.2Z-0S20
G1X-0.1Z-0S0
G1X-0.3Z-0S20
G1X-0.1Z-0S0
G1X-0.1Z-0S20
G1X-0.4Z-0S0
G1X-0.1Z-0S20
G1X-0.1Z-0S0
G1X-0.3Z-0S20
G1X-0.3Z-0S0
G1X-0.1Z-0S20
G1X-0.1Z-0S0
G1X-0.6Z-0S20
G1X-0.3Z-0S0
G1X-0.2Z-0S20
G1X-0.2Z-0S0
G1X-0.4Z-0S20
G1X-0.1Z-0S0
G1X-0.2Z-0S20
G1X-0.1Z-0S0
G1X-0.3Z-0S20
G1X-1.1Z-0S0
G1X-0.3Z-0S20
G1X-0.2Z-0S0
G1X-0.2Z-0S20
G1X-0.4Z-0S0
G1X-0.1Z-0S20
G1X-0.1Z-0S0
G1X-0.1Z-0S20
G1X-0.7Z-0S0
G1X-0.2Z-0S20
G1X-2.5Z-0S0
G1Z-0S20
G1X-0.1Z-0S0
G1X2.5Z-0S0
G1X0.1Z-0S20
G1X0.1Z-0S0
G1X0.1Z-0S20
G1X0.1Z-0S0
G1X0.2Z-0S20
G1X1.3Z-0S0
G1X0.2Z-0S20
G1X0.2Z-0S0
G1X0.2Z-0S20
G1X0.1Z-0S0
G1X0.1Z-0S20
G1X1Z-0S0
G1X0.2Z-0S20
G1X0.2Z-0S0
G1X0.1Z-0S20
G1X0.3Z-0S0
G1X0.3Z-0S20
G1X0.2Z-0S0
G1X0.2Z-0S20
G1X0.2Z-0S0
G1X0.4Z-0S20
G1X0.1Z-0S0
G1X0.1Z-0S20
G1X0.2Z-0S0
G1X0.1Z-0S20
G1X0.3Z-0S0
G1X0.1Z-0S20
G1X0.1Z-0S0
G1X0.1Z-0S20
G1X0.3Z-0S0
G1X0.7Z-0S20
G1X0.2Z-0S0
G1X0.1Z-0S20
G1X0.2Z-0S0
G1X0.1Z-0S20
G1X0.4Z-0S0
G1X0.1Z-0S20
G1X0.1Z-0S0
G1X0.1Z-0S20
G1X0.3Z-0S0
G1X0.1Z-0S20
G1X0.8Z-0S0
G1X0.1Z-0S20
G1X0.5Z-0S0
G1X0.1Z-0S20
G1X0.4Z-0S0
G1X0.1Z-0S20
G1X0.3Z-0S0
G1X0.1Z-0S20
G1X0.3Z-0S0
G1X0.1Z-0S20
G1X0.2Z-0S0
G1X0.1Z-0S20
G1X0.1Z-0S0
G1X0.1Z-0S20
G1X0.1Z-0S0
G1X0.1Z-0S20
G1X0.1Z-0S0
G1X0.3Z-0S20
G1X0.1Z-0S0
G1X0.1Z-0S20
G1X0.3Z-0S0
G1X0.1Z-0S20
G1X0.1Z-0S0
G1X0.2Z-0S20
G1X0.4Z-0S0
G1X0.1Z-0S20
G1X0.1Z-0S0
G1X0.5Z-0S20
G1X0.2Z-0S0
G1X0.2Z-0S20
G1X0.2Z-0S0
G1X0.2Z-0S20
G1X0.1Z-0S0
G1X0.1Z-0S20
G1X0.2Z-0S0
G1X0.1Z-0S20
G1X0.2Z-0S0
G1X0.2Z-0S20
G1X1.1Z-0S0
G1X0.1Z-0S20
G1X0.1Z-0S0
G1X0.1Z-0S20
G1X0.3Z-0S0
G1X0.1Z-0S20
G1X0.7Z-0S0
G1X0.1Z-0S20
G1X0.1Z-0S0
G1X0.1Z-0S20
G1X0.4Z-0S0
G1X0.2Z-0S20
G1X0.1Z-0S0
G1X0.1Z-0S20
G1X0.1Z-0S0
G1X0.1Z-0S20
G1X2.5Z-0S0
G1Z0S0
G1Z0S20
G1X-2.5Z0S0
G1X-0.2Z0S20
G1X-0.1Z0S0
G1X-0.1Z0S20
G1X-1.7Z0S0
G1X-0.2Z0S20
G1X-0.3Z0S0
G1X-0.2Z0S20
G1X-1.1Z0S0
G1X-0.3Z0S20
G1X-0.1Z0S0
G1X-0.2Z0S20
G1X-0.1Z0S0
G1X-0.1Z0S20
G1X-0.1Z0S0
G1X-0.3Z0S20
G1X-0.1Z0S0
G1X-0.2Z0S20
G1X-0.3Z0S0
G1X-0.4Z0S20
G1X-0.2Z0S0
G1X-0.1Z0S20
G1X-0.2Z0S0
G1X-0.2Z0S20
G1X-0.1Z0S0
G1X-0.1Z0S20
G1X-0.1Z0S0
G1X-0.2Z0S20
G1X-0.1Z0S0
G1X-0.5Z0S20
G1X-0.2Z0S0
G1X-0.1Z0S20
G1X-0.1Z0S0
G1X-0.1Z0S20
G1X-0.3Z0S0
G1X-0.1Z0S20
G1X-0.2Z0S0
G1X-0.1Z0S20
G1X-0.9Z0S0
G1X-0.1Z0S20
G1X-0.4Z0S0
G1X-0.1Z0S20
G1X-0.9Z0S0
G1X-0.1Z0S20
G1X-0.3Z0S0
G1X-0.1Z0S20
G1X-0.1Z0S0
G1X-0.1Z0S20
G1X-0.2Z0S0
G1X-0.1Z0S20
G1X-0.2Z0S0
G1X-0.1Z0S20
G1X-0.1Z0S0
G1X-0.6Z0S20
G1X-0.1Z0S0
G1X-0.1Z0S20
G1X-0.3Z0S0
G1X-0.2Z0S20
G1X-0.1Z0S0
G1X-0.1Z0S20
G1X-0.4Z0S0
G1X-0.1Z0S20
G1X-0.1Z0S0
G1X-0.4Z0S20
G1X-0.2Z0S0
G1X-0.3Z0S20
G1X-0.1Z0S0
G1X-0.2Z0S20
G1X-0.1Z0S0
G1X-0.1Z0S20
G1X-0.1Z0S0
G1X-0.2Z0S20
G1X-0.1Z0S0
G1X-0.3Z0S20
G1X-1.2Z0S0
G1X-0.2Z0S20
G1X-0.2Z0S0
G1X-0.2Z0S20
G1X-0.9Z0S0
G1X-0.1Z0S20
G1X-0.1Z0S0
G1X-0.1Z0S20
G1X-0.5Z0S0
G1X-0.3Z0S20
G1X-0.1Z0S0
G1X-0.1Z0S20
G1X-2.5Z0S0
G1Z0S20
G1Z0S0
G1Z0S20
G1X2.5Z0S0
G1X0.2Z0S20
G1X0.4Z0S0
G1X0.1Z0S20
G1X0.4Z0S0
G1X0.1Z0S20
G1X1.2Z0S0
G1X0.1Z0S20
G1X0.3Z0S0
G1X0.2Z0S20
G1X1.1Z0S0
G1X0.3Z0S20
G1X0.1Z0S0
G1X0.2Z0S20
G1X0.1Z0S0
G1X0.2Z0S20
G1X0.1Z0S0
G1X0.2Z0S20
G1X0.2Z0S0
G1X0.1Z0S20
G1X0.3Z0S0
G1X0.3Z0S20
G1X0.2Z0S0
G1X0.1Z0S20
G1X0.1Z0S0
G1X0.4Z0S20
G1X0.3Z0S0
G1X0.1Z0S20
G1X0.1Z0S0
G1X0.6Z0S20
G1X0.3Z0S0
G1X0.1Z0S20
G1X0.4Z0S0
G1X0.1Z0S20
G1X0.3Z0S0
G1X0.1Z0S20
G1X0.2Z0S0
G1X0.1Z0S20
G1X0.8Z0S0
G1X0.1Z0S20
G1X0.5Z0S0
G1X0.1Z0S20
G1X0.3Z0S0
G1X0.1Z0S20
G1X0.1Z0S0
G1X0.1Z0S20
G1X0.2Z0S0
G1X0.1Z0S20
G1X0.2Z0S0
G1X0.1Z0S20
G1X0.2Z0S0
G1X0.1Z0S20
G1X0.3Z0S0
G1X0.2Z0S20
G1X0.1Z0S0
G1X0.5Z0S20
G1X0.1Z0S0
G1X0.2Z0S20
G1X0.1Z0S0
G1X0.4Z0S20
G1X0.2Z0S0
G1X0.4Z0S20
G1X0.3Z0S0
G1X0.2Z0S20
G1X0.2Z0S0
G1X0.2Z0S20
G1X0.1Z0S0
G1X0.1Z0S20
G1X0.1Z0S0
G1X0.2Z0S20
G1X0.1Z0S0
G1X0.3Z0S20
G1X1.1Z0S0
G1X0.2Z0S20
G1X0.3Z0S0
G1X0.2Z0S20
G1X1.1Z0S0
G1X0.1Z0S20
G1X0.1Z0S0
G1X0.1Z0S20
G1X0.3Z0S0
G1X0.1Z0S20
G1X0.1Z0S0
G1X0.2Z0S20
G1X0.2Z0S0
G1X0.1Z0S20
G1X2.5Z0S0
G1Z0S20
G1Z0.01S0
G1Z-0S20
G1X-2.5Z-0S0
G1X-0.4Z-0S20
G1X-0.7Z-0S0
G1X-0.1Z-0S20
G1X-1.4Z-0S0
G1X-0.2Z-0S20
G1X-0.2Z-0S0
G1X-0.3Z-0S20
G1X-1.1Z-0S0
G1X-0.3Z-0S20
G1X-0.1Z-0S0
G1X-0.1Z-0S20
G1X-0.2Z-0S0
G1X-0.1Z-0S20
G1X-0.1Z-0S0
G1X-0.3Z-0S20
G1X-0.1Z-0S0
G1X-0.2Z-0S20
G1X-0.2Z-0S0
G1X-0.3Z-0S20
G1X-0.1Z-0S0
G1X-0.1Z-0S20
G1X-0.1Z-0S0
G1X-0.3Z-0S20
G1X-0.1Z-0S0
G1X-0.3Z-0S20
G1X-0.1Z-0S0
G1X-0.5Z-0S20
G1X-0.2Z-0S0
G1X-0.1Z-0S20
G1X-0.6Z-0S0
G1X-0.1Z-0S20
G1X-0.2Z-0S0
G1X-0.1Z-0S20
G1X-0.8Z-0S0
G1X-0.1Z-0S20
G1X-0.3Z-0S0
G1X-0.1Z-0S20
G1X-0.1Z-0S0
G1X-0.1Z-0S20
G1X-1.6Z-0S0
G1X-0.1Z-0S20
G1X-0.2Z-0S0
G1X-0.1Z-0S20
G1X-0.1Z-0S0
G1X-1Z-0S20
G1X-0.1Z-0S0
G1X-0.1Z-0S20
G1X-0.1Z-0S0
G1X-0.1Z-0S20
G1X-0.1Z-0S0
G1X-0.1Z-0S20
G1X-0.1Z-0S0
G1X-0.1Z-0S20
G1X-0.1Z-0S0
G1X-0.4Z-0S20
G1X-0.2Z-0S0
G1X-0.2Z-0S20
G1X-0.1Z-0S0
G1X-0.2Z-0S20
G1X-0.1Z-0S0
G1X-0.2Z-0S20
G1X-0.2Z-0S0
G1X-0.1Z-0S20
G1X-0.2Z-0S0
G1X-0.2Z-0S20
G1X-0.8Z-0S0
G1X-0.1Z-0S20
G1X-0.2Z-0S0
G1X-0.3Z-0S20
G1X-0.2Z-0S0
G1X-0.2Z-0S20
G1X-1.5Z-0S0
G1X-0.1Z-0S20
G1X-0.5Z-0S0
G1X-0.3Z-0S20
G1X-0.1Z-0S0
G1X-0.1Z-0S20
G1X-2.5Z-0S0
G1Z-0S20
G1Z-0S0
G1Z-0S20
G1X2.5Z-0S0
G1X0.2Z-0S20
G1X0.3Z-0S0
G1X0.1Z-0S20
G1X0.5Z-0S0
G1X0.1Z-0S20
G1X1.6Z-0S0
G1X0.2Z-0S20
G1X0.2Z-0S0
G1X0.2Z-0S20
G1X1.1Z-0S0
G1X0.3Z-0S20
G1X0.1Z-0S0
G1X0.2Z-0S20
G1X0.2Z-0S0
G1X0.2Z-0S20
G1X0.1Z-0S0
G1X0.1Z-0S20
G1X0.2Z-0S0
G1X0.2Z-0S20
G1X0.2Z-0S0
G1X0.4Z-0S20
G1X0.1Z-0S0
G1X0.1Z-0S20
G1X0.1Z-0S0
G1X0.1Z-0S20
G1X0.1Z-0S0
G1X0.1Z-0S20
G1X0.2Z-0S0
G1X0.7Z-0S20
G1X0.1Z-0S0
G1X0.2Z-0S20
G1X1.8Z-0S0
G1X0.1Z-0S20
G1X0.2Z-0S0
G1X0.1Z-0S20
G1X0.3Z-0S0
G1X0.1Z-0S20
G1X0.8Z-0S0
G1X0.1Z-0S20
G1X0.3Z-0S0
G1X0.1Z-0S20
G1X0.2Z-0S0
G1X0.1Z-0S20
G1X0.3Z-0S0
G1X0.1Z-0S20
G1X0.2Z-0S0
G1X0.6Z-0S20
G1X0.1Z-0S0
G1X1.1Z-0S20
G1X0.2Z-0S0
G1X0.2Z-0S20
G1X0.1Z-0S0
G1X0.2Z-0S20
G1X0.1Z-0S0
G1X0.2Z-0S20
G1X0.1Z-0S0
G1X0.2Z-0S20
G1X0.1Z-0S0
G1X0.2Z-0S20
G1X1Z-0S0
G1X0.1Z-0S20
G1X0.1Z-0S0
G1X0.2Z-0S20
G1X0.3Z-0S0
G1X0.2Z-0S20
G1X1.5Z-0S0
G1X0.1Z-0S20
G1X0.9Z-0S0
G1X0.1Z-0S20
G1X0.1Z-0S0
G1X0.1Z-0S20
G1X2.5Z-0S0
G1Z-0S20
G1Z-0S0
G1Z-0S20
G1X-2.5Z-0S0
G1X-0.2Z-0S20
G1X-0.1Z-0S0
G1X-0.1Z-0S20
G1X-0.1Z-0S0
G1X-0.1Z-0S20
G1X-0.3Z-0S0
G1X-0.1Z-0S20
G1X-0.1Z-0S0
G1X-0.1Z-0S20
G1X-1.8Z-0S0
G1X-0.2Z-0S20
G1X-0.2Z-0S0
G1X-0.2Z-0S20
G1X-0.2Z-0S0
G1X-0.1Z-0S20
G1X-0.1Z-0S0
G1X-0.1Z-0S20
G1X-0.7Z-0S0
G1X-0.3Z-0S20
G1X-0.1Z-0S0
G1X-0.1Z-0S20
G1X-0.2Z-0S0
G1X-0.1Z-0S20
G1X-0.1Z-0S0
G1X-0.2Z-0S20
G1X-0.2Z-0S0
G1X-0.2Z-0S20
G1X-0.2Z-0S0
G1X-0.6Z-0S20
G1X-0.1Z-0S0
G1X-0.8Z-0S20
G1X-0.1Z-0S0
G1X-0.1Z-0S20
G1X-0.2Z-0S0
G1X-0.1Z-0S20
G1X-0.2Z-0S0
G1X-0.1Z-0S20
G1X-0.2Z-0S0
G1X-0.1Z-0S20
G1X-0.3Z-0S0
G1X-0.1Z-0S20
G1X-0.1Z-0S0
G1X-0.1Z-0S20
G1X-0.3Z-0S0
G1X-0.2Z-0S20
G1X-0.2Z-0S0
G1X-0.1Z-0S20
G1X-0.2Z-0S0
G1X-0.1Z-0S20
G1X-0.1Z-0S0
G1X-0.2Z-0S20
G1X-0.2Z-0S0
G1X-0.3Z-0S20
G1X-0.6Z-0S0
G1X-0.2Z-0S20
G1X-0.2Z-0S0
G1X-0.1Z-0S20
G1X-0.3Z-0S0
G1X-0.9Z-0S20
G1X-0.1Z-0S0
G1X-0.2Z-0S20
G1X-0.1Z-0S0
G1X-0.6Z-0S20
G1X-0.3Z-0S0
G1X-0.1Z-0S20
G1X-0.2Z-0S0
G1X-0.4Z-0S20
G1X-0.2Z-0S0
G1X-0.2Z-0S20
G1X-0.1Z-0S0
G1X-0.3Z-0S20
G1X-0.8Z-0S0
G1X-0.1Z-0S20
G1X-0.1Z-0S0
G1X-0.3Z-0S20
G1X-0.3Z-0S0
G1X-0.1Z-0S20
G1X-1.8Z-0S0
G1X-0.1Z-0S20
G1X-0.7Z-0S0
G1X-0.1Z-0S20
G1X-0.1Z-0S0
G1X-0.1Z-0S20
G1X-0.1Z-0S0
G1X-0.1Z-0S20
G1X-2.5Z-0S0
G1Z-0S20
G1Z0S0
G1Z0S20
G1X2.5Z0S0
G1X0.2Z0S20
G1X0.7Z0S0
G1X0.1Z0S20
G1X0.1Z0S0
G1X0.1Z0S20
G1X2Z0S0
G1X0.2Z0S20
G1X0.2Z0S0
G1X0.2Z0S20
G1X0.3Z0S0
G1X0.1Z0S20
G1X0.8Z0S0
G1X0.2Z0S20
G1X0.1Z0S0
G1X0.3Z0S20
G1X0.2Z0S0
G1X0.4Z0S20
G1X0.1Z0S0
G1X0.2Z0S20
G1X0.2Z0S0
G1X0.6Z0S20
G1X0.1Z0S0
G1X0.1Z0S20
G1X0.1Z0S0
G1X0.6Z0S20
G1X0.2Z0S0
G1X0.4Z0S20
G1X0.4Z0S0
G1X0.1Z0S20
G1X0.2Z0S0
G1X0.1Z0S20
G1X0.1Z0S0
G1X0.2Z0S20
G1X0.6Z0S0
G1X0.2Z0S20
G1X0.1Z0S0
G1X0.1Z0S20
G1X0.9Z0S0
G1X0.1Z0S20
G1X0.2Z0S0
G1X0.1Z0S20
G1X0.1Z0S0
G1X0.1Z0S20
G1X0.4Z0S0
G1X0.4Z0S20
G1X0.1Z0S0
G1X0.1Z0S20
G1X0.1Z0S0
G1X1.3Z0S20
G1X0.3Z0S0
G1X0.1Z0S20
G1X0.2Z0S0
G1X0.2Z0S20
G1X0.1Z0S0
G1X0.1Z0S20
G1X0.2Z0S0
G1X0.2Z0S20
G1X0.1Z0S0
G1X0.2Z0S20
G1X1.2Z0S0
G1X0.2Z0S20
G1X0.3Z0S0
G1X0.1Z0S20
G1X3Z0S0
G1X0.1Z0S20
G1X0.1Z0S0
G1X0.1Z0S20
G1X2.5Z0S0
G1Z0S20
G1Z0S0
G1Z0S20
G1X-2.5Z0S0
G1X-0.2Z0S20
G1X-0.9Z0S0
G1X-0.1Z0S20
G1X-2.2Z0S0
G1X-0.2Z0S20
G1X-0.3Z0S0
G1X-0.2Z0S20
G1X-0.1Z0S0
G1X-0.1Z0S20
G1X-0.1Z0S0
G1X-0.1Z0S20
G1X-0.7Z0S0
G1X-0.3Z0S20
G1X-0.1Z0S0
G1X-0.2Z0S20
G1X-0.1Z0S0
G1X-0.1Z0S20
G1X-0.1Z0S0
G1X-0.3Z0S20
G1X-0.1Z0S0
G1X-0.2Z0S20
G1X-0.1Z0S0
G1X-1.3Z0S20
G1X-0.1Z0S0
G1X-0.2Z0S20
G1X-0.1Z0S0
G1X-0.1Z0S20
G1X-0.1Z0S0
G1X-0.1Z0S20
G1X-0.4Z0S0
G1X-0.1Z0S20
G1X-0.1Z0S0
G1X-0.1Z0S20
G1X-0.1Z0S0
G1X-0.1Z0S20
G1X-1.1Z0S0
G1X-0.2Z0S20
G1X-0.6Z0S0
G1X-0.1Z0S20
G1X-0.2Z0S0
G1X-0.2Z0S20
G1X-0.1Z0S0
G1X-0.1Z0S20
G1X-0.3Z0S0
G1X-0.1Z0S20
G1X-0.1Z0S0
G1X-0.5Z0S20
G1X-0.2Z0S0
G1X-0.7Z0S20
G1X-0.1Z0S0
G1X-0.3Z0S20
G1X-0.3Z0S0
G1X-0.2Z0S20
G1X-0.2Z0S0
G1X-0.3Z0S20
G1X-0.2Z0S0
G1X-0.2Z0S20
G1X-0.2Z0S0
G1X-0.3Z0S20
G1X-0.8Z0S0
G1X-0.1Z0S20
G1X-0.1Z0S0
G1X-0.3Z0S20
G1X-0.2Z0S0
G1X-0.2Z0S20
G1X-3.3Z0S0
G1X-0.1Z0S20
G1X-2.5Z0S0
G1Z0S20
G1X-0.1Z0.01S0
G1Z-0S20
G1X2.5Z-0S0
G1X0.1Z-0S20
G1X0.4Z-0S0
G1X0.1Z-0S20
G1X0.5Z-0S0
G1X0.1Z-0S20
G1X2.5Z-0S0
G1X0.1Z-0S20
G1X0.3Z-0S0
G1X0.1Z-0S20
G1X0.1Z-0S0
G1X0.1Z-0S20
G1X0.1Z-0S0
G1X0.1Z-0S20
G1X0.9Z-0S0
G1X0.2Z-0S20
G1X0.1Z-0S0
G1X0.2Z-0S20
G1X0.2Z-0S0
G1X0.1Z-0S20
G1X0.1Z-0S0
G1X0.2Z-0S20
G1X0.2Z-0S0
G1X0.1Z-0S20
G1X0.1Z-0S0
G1X1Z-0S20
G1X0.1Z-0S0
G1X0.1Z-0S20
G1X0.1Z-0S0
G1X0.1Z-0S20
G1X0.1Z-0S0
G1X0.4Z-0S20
G1X0.1Z-0S0
G1X0.2Z-0S20
G1X0.2Z-0S0
G1X0.2Z-0S20
G1X0.1Z-0S0
G1X0.1Z-0S20
G1X0.1Z-0S0
G1X0.1Z-0S20
G1X0.1Z-0S0
G1X0.2Z-0S20
G1X0.4Z-0S0
G1X0.1Z-0S20
G1X0.1Z-0S0
G1X0.1Z-0S20
G1X0.1Z-0S0
G1X0.1Z-0S20
G1X0.1Z-0S0
G1X0.1Z-0S20
G1X0.5Z-0S0
G1X0.1Z-0S20
G1X0.2Z-0S0
G1X0.2Z-0S20
G1X0.1Z-0S0
G1X0.2Z-0S20
G1X0.1Z-0S0
G1X0.3Z-0S20
G1X0.1Z-0S0
G1X0.1Z-0S20
G1X0.1Z-0S0
G1X0.2Z-0S20
G1X0.1Z-0S0
G1X1.3Z-0S20
G1X0.2Z-0S0
G1X0.2Z-0S20
G1X0.1Z-0S0
G1X0.1Z-0S20
G1X0.1Z-0S0
G1X0.2Z-0S20
G1X0.2Z-0S0
G1X0.2Z-0S20
G1X1Z-0S0
G1X0.4Z-0S20
G1X0.2Z-0S0
G1X0.2Z-0S20
G1X2.5Z-0S0
G1X0.1Z-0S20
G1X2.5Z-0S0
G1Z-0S20
G1X1.1Z-0S0
G1Z-0S20
G1X-2.5Z-0S0
G1X-0.3Z-0S20
G1X-0.8Z-0S0
G1X-0.1Z-0S20
G1X-2.7Z-0S0
G1X-0.2Z-0S20
G1X-0.3Z-0S0
G1X-0.1Z-0S20
G1X-0.1Z-0S0
G1X-0.1Z-0S20
G1X-0.1Z-0S0
G1X-0.1Z-0S20
G1X-0.7Z-0S0
G1X-0.3Z-0S20
G1X-0.2Z-0S0
G1X-0.1Z-0S20
G1X-0.2Z-0S0
G1X-0.4Z-0S20
G1X-0.2Z-0S0
G1X-0.1Z-0S20
G1X-0.1Z-0S0
G1X-0.5Z-0S20
G1X-0.1Z-0S0
G1X-0.1Z-0S20
G1X-0.1Z-0S0
G1X-0.1Z-0S20
G1X-0.1Z-0S0
G1X-0.3Z-0S20
G1X-0.1Z-0S0
G1X-0.2Z-0S20
G1X-0.2Z-0S0
G1X-0.2Z-0S20
G1X-0.1Z-0S0
G1X-0.2Z-0S20
G1X-0.2Z-0S0
G1X-0.1Z-0S20
G1X-0.1Z-0S0
G1X-0.2Z-0S20
G1X-0.1Z-0S0
G1X-0.1Z-0S20
G1X-0.1Z-0S0
G1X-0.1Z-0S20
G1X-0.3Z-0S0
G1X-0.2Z-0S20
G1X-0.2Z-0S0
G1X-0.3Z-0S20
G1X-0.1Z-0S0
G1X-0.2Z-0S20
G1X-0.1Z-0S0
G1X-0.1Z-0S20
G1X-0.1Z-0S0
G1X-0.1Z-0S20
G1X-0.1Z-0S0
G1X-0.1Z-0S20
G1X-0.3Z-0S0
G1X-0.1Z-0S20
G1X-0.2Z-0S0
G1X-0.5Z-0S20
G1X-0.1Z-0S0
G1X-0.1Z-0S20
G1X-0.9Z-0S0
G1X-0.6Z-0S20
G1X-0.1Z-0S0
G1X-0.2Z-0S20
G1X-0.1Z-0S0
G1X-0.2Z-0S20
G1X-0.2Z-0S0
G1X-0.2Z-0S20
G1X-1.1Z-0S0
G1X-0.3Z-0S20
G1X-0.2Z-0S0
G1X-0.2Z-0S20
G1X-2.7Z-0S0
G1X-0.1Z-0S20
G1X-0.8Z-0S0
G1X-0.2Z-0S20
G1X-2.5Z-0S0
G1Z-0S20
G1X0.8Z-0S0
G1Z-0S20
G1X2.5Z-0S0
G1X0.1Z-0S20
G1X0.1Z-0S0
G1X0.1Z-0S20
G1X2.9Z-0S0
G1X0.1Z-0S20
G1X0.3Z-0S0
G1X0.1Z-0S20
G1X0.1Z-0S0
G1X0.1Z-0S20
G1X0.1Z-0S0
G1X0.1Z-0S20
G1X0.8Z-0S0
G1X0.3Z-0S20
G1X0.2Z-0S0
G1X0.1Z-0S20
G1X0.1Z-0S0
G1X0.3Z-0S20
G1X0.1Z-0S0
G1X0.1Z-0S20
G1X0.1Z-0S0
G1X0.1Z-0S20
G1X0.1Z-0S0
G1X1.6Z-0S20
G1X0.1Z-0S0
G1X0.1Z-0S20
G1X0.1Z-0S0
G1X0.1Z-0S20
G1X0.1Z-0S0
G1X0.1Z-0S20
G1X0.1Z-0S0
G1X0.2Z-0S20
G1X0.1Z-0S0
G1X0.1Z-0S20
G1X0.1Z-0S0
G1X0.1Z-0S20
G1X0.1Z-0S0
G1X0.2Z-0S20
G1X0.1Z-0S0
G1X0.5Z-0S20
G1X0.1Z-0S0
G1X0.2Z-0S20
G1X0.2Z-0S0
G1X0.1Z-0S20
G1X0.1Z-0S0
G1X0.3Z-0S20
G1X0.1Z-0S0
G1X0.1Z-0S20
G1X0.2Z-0S0
G1X0.2Z-0S20
G1X0.2Z-0S0
G1X0.1Z-0S20
G1X0.2Z-0S0
G1X0.2Z-0S20
G1X0.2Z-0S0
G1X0.1Z-0S20
G1X0.3Z-0S0
G1X0.1Z-0S20
G1X0.1Z-0S0
G1X0.1Z-0S20
G1X0.5Z-0S0
G1X0.1Z-0S20
G1X0.1Z-0S0
G1X0.1Z-0S20
G1X0.1Z-0S0
G1X0.1Z-0S20
G1X0.1Z-0S0
G1X0.3Z-0S20
G1X0.1Z-0S0
G1X0.3Z-0S20
G1X1.1Z-0S0
G1X0.2Z-0S20
G1X0.2Z-0S0
G1X0.2Z-0S20
G1X3Z-0S0
G1X0.1Z-0S20
G1X0.1Z-0S0
G1X0.1Z-0S20
G1X0.6Z-0S0
G1X0.1Z-0S20
G1X2.5Z-0S0
G1Z-0S20
G1X0.1Z0S0
G1Z0S20
G1X-2.5Z0S0
G1X-0.1Z0S20
G1X-4.2Z0S0
G1X-0.1Z0S20
G1X-0.3Z0S0
G1X-0.2Z0S20
G1X-0.1Z0S0
G1X-0.1Z0S20
G1X-0.9Z0S0
G1X-0.3Z0S20
G1X-0.2Z0S0
G1X-0.1Z0S20
G1X-0.1Z0S0
G1X-0.2Z0S20
G1X-0.1Z0S0
G1X-0.1Z0S20
G1X-0.1Z0S0
G1X-0.1Z0S20
G1X-0.1Z0S0
G1X-0.1Z0S20
G1X-0.3Z0S0
G1X-0.1Z0S20
G1X-0.1Z0S0
G1X-0.2Z0S20
G1X-0.2Z0S0
G1X-0.3Z0S20
G1X-0.5Z0S0
G1X-0.1Z0S20
G1X-0.1Z0S0
G1X-0.2Z0S20
G1X-0.1Z0S0
G1X-0.1Z0S20
G1X-0.2Z0S0
G1X-0.5Z0S20
G1X-0.1Z0S0
G1X-0.1Z0S20
G1X-0.1Z0S0
G1X-0.8Z0S20
G1X-0.1Z0S0
G1X-0.1Z0S20
G1X-0.1Z0S0
G1X-0.1Z0S20
G1X-0.1Z0S0
G1X-0.1Z0S20
G1X-0.1Z0S0
G1X-0.1Z0S20
G1X-0.3Z0S0
G1X-0.1Z0S20
G1X-0.3Z0S0
G1X-0.5Z0S20
G1X-0.1Z0S0
G1X-1.5Z0S20
G1X-0.2Z0S0
G1X-0.5Z0S20
G1X-0.8Z0S0
G1X-0.1Z0S20
G1X-0.3Z0S0
G1X-0.1Z0S20
G1X-0.3Z0S0
G1X-0.2Z0S20
G1X-3.1Z0S0
G1X-0.1Z0S20
G1X-0.8Z0S0
G1X-0.2Z0S20
G1X-2.5Z0S0
G1Z0S20
G1Z0S0
G1Z0S20
G1X2.5Z0S0
G1X0.1Z0S20
G1X0.8Z0S0
G1X0.1Z0S20
G1X3.4Z0S0
G1X0.2Z0S20
G1X0.2Z0S0
G1X0.3Z0S20
G1X0.4Z0S0
G1X0.1Z0S20
G1X0.5Z0S0
G1X0.1Z0S20
G1X0.2Z0S0
G1X0.3Z0S20
G1X0.1Z0S0
G1X0.1Z0S20
G1X0.4Z0S0
G1X0.1Z0S20
G1X0.1Z0S0
G1X0.3Z0S20
G1X0.3Z0S0
G1X0.7Z0S20
G1X0.1Z0S0
G1X0.1Z0S20
G1X0.3Z0S0
G1X0.1Z0S20
G1X0.1Z0S0
G1X0.2Z0S20
G1X0.1Z0S0
G1X0.2Z0S20
G1X0.1Z0S0
G1X0.1Z0S20
G1X0.1Z0S0
G1X0.5Z0S20
G1X0.2Z0S0
G1X0.2Z0S20
G1X0.1Z0S0
G1X0.6Z0S20
G1X0.3Z0S0
G1X0.4Z0S20
G1X0.7Z0S0
G1X0.1Z0S20
G1X0.1Z0S0
G1X0.2Z0S20
G1X0.1Z0S0
G1X0.2Z0S20
G1X0.1Z0S0
G1X0.3Z0S20
G1X0.1Z0S0
G1X0.4Z0S20
G1X0.1Z0S0
G1X0.1Z0S20
G1X0.1Z0S0
G1X0.3Z0S20
G1X0.3Z0S0
G1X0.1Z0S20
G1X0.6Z0S0
G1X0.1Z0S20
G1X0.3Z0S0
G1X0.2Z0S20
G1X0.2Z0S0
G1X0.2Z0S20
G1X3.4Z0S0
G1X0.1Z0S20
G1X0.8Z0S0
G1X0.1Z0S20
G1X2.5Z0S0
G1Z0S20
G1Z0S0
G1Z0S20
G1X-2.5Z0S0
G1X-0.1Z0S20
G1X-0.7Z0S0
G1X-0.1Z0S20
G1X-3.7Z0S0
G1X-0.1Z0S20
G1X-0.3Z0S0
G1X-0.2Z0S20
G1X-0.3Z0S0
G1X-0.1Z0S20
G1X-0.4Z0S0
G1X-0.1Z0S20
G1X-0.3Z0S0
G1X-0.1Z0S20
G1X-0.1Z0S0
G1X-0.2Z0S20
G1X-0.1Z0S0
G1X-0.3Z0S20
G1X-0.1Z0S0
G1X-0.3Z0S20
G1X-0.1Z0S0
G1X-0.2Z0S20
G1X-0.1Z0S0
G1X-0.1Z0S20
G1X-0.1Z0S0
G1X-0.1Z0S20
G1X-0.3Z0S0
G1X-0.3Z0S20
G1X-0.1Z0S0
G1X-0.2Z0S20
G1X-0.1Z0S0
G1X-0.3Z0S20
G1X-0.4Z0S0
G1X-0.8Z0S20
G1X-0.1Z0S0
G1X-0.7Z0S20
G1X-0.1Z0S0
G1X-0.1Z0S20
G1X-0.1Z0S0
G1X-0.1Z0S20
G1X-0.2Z0S0
G1X-0.4Z0S20
G1X-0.2Z0S0
G1X-0.3Z0S20
G1X-0.2Z0S0
G1X-0.4Z0S20
G1X-0.1Z0S0
G1X-0.3Z0S20
G1X-0.6Z0S0
G1X-0.1Z0S20
G1X-0.8Z0S0
G1X-0.1Z0S20
G1X-0.1Z0S0
G1X-0.2Z0S20
G1X-0.6Z0S0
G1X-0.1Z0S20
G1X-0.1Z0S0
G1X-0.1Z0S20
G1X-0.2Z0S0
G1X-0.2Z0S20
G1X-3.6Z0S0
G1X-0.1Z0S20
G1X-0.8Z0S0
G1X-0.1Z0S20
G1X-2.5Z0S0
G1Z0S20
G1X-0.1Z0.01S0
G1Z-0S20
G1X2.5Z-0S0
G1X0.1Z-0S20
G1X0.8Z-0S0
G1X0.1Z-0S20
G1X3.9Z-0S0
G1X0.1Z-0S20
G1X0.3Z-0S0
G1X0.2Z-0S20
G1X0.2Z-0S0
G1X0.1Z-0S20
G1X0.1Z-0S0
G1X0.1Z-0S20
G1X0.2Z-0S0
G1X0.1Z-0S20
G1X1.2Z-0S0
G1X0.4Z-0S20
G1X0.1Z-0S0
G1X0.5Z-0S20
G1X0.1Z-0S0
G1X0.1Z-0S20
G1X0.1Z-0S0
G1X0.2Z-0S20
G1X0.1Z-0S0
G1X0.1Z-0S20
G1X0.3Z-0S0
G1X0.1Z-0S20
G1X0.1Z-0S0
G1X0.1Z-0S20
G1X0.4Z-0S0
G1X1.7Z-0S20
G1X0.2Z-0S0
G1X0.2Z-0S20
G1X0.1Z-0S0
G1X0.4Z-0S20
G1X0.1Z-0S0
G1X0.1Z-0S20
G1X0.1Z-0S0
G1X0.1Z-0S20
G1X0.1Z-0S0
G1X0.2Z-0S20
G1X0.5Z-0S0
G1X0.1Z-0S20
G1X0.6Z-0S0
G1X0.1Z-0S20
G1X0.1Z-0S0
G1X0.1Z-0S20
G1X0.1Z-0S0
G1X0.2Z-0S20
G1X0.1Z-0S0
G1X0.1Z-0S20
G1X0.1Z-0S0
G1X0.1Z-0S20
G1X0.1Z-0S0
G1X0.1Z-0S20
G1X0.1Z-0S0
G1X0.1Z-0S20
G1X0.1Z-0S0
G1X0.1Z-0S20
G1X0.3Z-0S0
G1X0.2Z-0S20
G1X0.3Z-0S0
G1X0.2Z-0S20
G1X4.7Z-0S0
G1X0.2Z-0S20
G1X2.5Z-0S0
G1Z-0S20
G1Z-0S0
G1Z-0S20
G1X-2.5Z-0S0
G1X-0.1Z-0S20
G1X-0.8Z-0S0
G1X-0.1Z-0S20
G1X-4.1Z-0S0
G1X-0.2Z-0S20
G1X-0.2Z-0S0
G1X-0.2Z-0S20
G1X-0.1Z-0S0
G1X-0.1Z-0S20
G1X-0.1Z-0S0
G1X-0.1Z-0S20
G1X-0.2Z-0S0
G1X-0.1Z-0S20
G1X-0.2Z-0S0
G1X-0.2Z-0S20
G1X-0.8Z-0S0
G1X-0.1Z-0S20
G1X-1Z-0S0
G1X-0.1Z-0S20
G1X-0.1Z-0S0
G1X-0.1Z-0S20
G1X-0.1Z-0S0
G1X-0.8Z-0S20
G1X-0.2Z-0S0
G1X-0.1Z-0S20
G1X-0.1Z-0S0
G1X-0.7Z-0S20
G1X-0.2Z-0S0
G1X-0.6Z-0S20
G1X-0.1Z-0S0
G1X-0.1Z-0S20
G1X-0.3Z-0S0
G1X-0.2Z-0S20
G1X-0.1Z-0S0
G1X-0.3Z-0S20
G1X-0.5Z-0S0
G1X-0.2Z-0S20
G1X-0.6Z-0S0
G1X-0.1Z-0S20
G1X-0.3Z-0S0
G1X-0.1Z-0S20
G1X-0.1Z-0S0
G1X-0.1Z-0S20
G1X-1.1Z-0S0
G1X-0.1Z-0S20
G1X-0.1Z-0S0
G1X-0.2Z-0S20
G1X-0.1Z-0S0
G1X-0.2Z-0S20
G1X-0.3Z-0S0
G1X-0.2Z-0S20
G1X-4.8Z-0S0
G1X-0.2Z-0S20
G1X-2.5Z-0S0
G1Z-0S20
G1X0.8Z0S0
G1Z0S20
G1X2.5Z0S0
G1X0.1Z0S20
G1X4.3Z0S0
G1X0.2Z0S20
G1X0.2Z0S0
G1X0.3Z0S20
G1X0.1Z0S0
G1X0.1Z0S20
G1X1Z0S0
G1X0.1Z0S20
G1X0.1Z0S0
G1X0.1Z0S20
G1X1.1Z0S0
G1X0.1Z0S20
G1X0.6Z0S0
G1X0.1Z0S20
G1X0.1Z0S0
G1X0.1Z0S20
G1X0.1Z0S0
G1X0.2Z0S20
G1X0.4Z0S0
G1X1.7Z0S20
G1X0.2Z0S0
G1X0.9Z0S20
G1X0.1Z0S0
G1X0.1Z0S20
G1X0.3Z0S0
G1X0.1Z0S20
G1X0.1Z0S0
G1X0.1Z0S20
G1X0.8Z0S0
G1X0.1Z0S20
G1X0.1Z0S0
G1X0.1Z0S20
G1X0.2Z0S0
G1X0.1Z0S20
G1X0.3Z0S0
G1X0.1Z0S20
G1X0.3Z0S0
G1X0.1Z0S20
G1X0.1Z0S0
G1X0.4Z0S20
G1X0.3Z0S0
G1X0.1Z0S20
G1X4.4Z0S0
G1X0.1Z0S20
G1X0.5Z0S0
G1X0.1Z0S20
G1X0.1Z0S0
G1X0.1Z0S20
G1X2.5Z0S0
G1Z0S20
G1X-0.1Z0S0
G1Z0S20
G1X-2.5Z0S0
G1X-0.1Z0S20
G1X-0.2Z0S0
G1X-0.1Z0S20
G1X-0.3Z0S0
G1X-0.1Z0S20
G1X-4.5Z0S0
G1X-0.2Z0S20
G1X-0.2Z0S0
G1X-0.1Z0S20
G1X-0.5Z0S0
G1X-0.1Z0S20
G1X-0.1Z0S0
G1X-0.1Z0S20
G1X-0.1Z0S0
G1X-0.3Z0S20
G1X-0.1Z0S0
G1X-0.1Z0S20
G1X-0.9Z0S0
G1X-0.2Z0S20
G1X-0.4Z0S0
G1X-0.6Z0S20
G1X-0.1Z0S0
G1X-0.4Z0S20
G1X-0.3Z0S0
G1X-0.1Z0S20
G1X-0.1Z0S0
G1X-1.5Z0S20
G1X-0.4Z0S0
G1X-0.1Z0S20
G1X-0.1Z0S0
G1X-0.4Z0S20
G1X-0.1Z0S0
G1X-0.1Z0S20
G1X-0.5Z0S0
G1X-0.1Z0S20
G1X-1Z0S0
G1X-0.1Z0S20
G1X-0.1Z0S0
G1X-0.1Z0S20
G1X-0.2Z0S0
G1X-0.1Z0S20
G1X-0.9Z0S0
G1X-0.1Z0S20
G1X-0.1Z0S0
G1X-0.1Z0S20
G1X-0.2Z0S0
G1X-0.1Z0S20
G1X-4.6Z0S0
G1X-0.1Z0S20
G1X-0.3Z0S0
G1X-0.1Z0S20
G1X-0.1Z0S0
G1X-0.2Z0S20
G1X-2.5Z0S0
G1Z0S20
G1X0.2Z0S0
G1Z0S20
G1X2.5Z0S0
G1X0.1Z0S20
G1X0.1Z0S0
G1X0.1Z0S20
G1X0.1Z0S0
G1X0.1Z0S20
G1X4.8Z0S0
G1X0.2Z0S20
G1X0.1Z0S0
G1X0.1Z0S20
G1X0.1Z0S0
G1X0.1Z0S20
G1X0.8Z0S0
G1X0.1Z0S20
G1X0.2Z0S0
G1X0.1Z0S20
G1X1.2Z0S0
G1X0.3Z0S20
G1X0.2Z0S0
G1X0.1Z0S20
G1X0.1Z0S0
G1X0.1Z0S20
G1X0.1Z0S0
G1X0.1Z0S20
G1X0.2Z0S0
G1X0.1Z0S20
G1X0.5Z0S0
G1X1.5Z0S20
G1X0.2Z0S0
G1X0.1Z0S20
G1X0.1Z0S0
G1X0.1Z0S20
G1X0.1Z0S0
G1X0.1Z0S20
G1X0.2Z0S0
G1X0.1Z0S20
G1X0.1Z0S0
G1X0.1Z0S20
G1X0.4Z0S0
G1X0.1Z0S20
G1X0.5Z0S0
G1X0.2Z0S20
G1X0.2Z0S0
G1X0.1Z0S20
G1X1.3Z0S0
G1X0.1Z0S20
G1X0.1Z0S0
G1X0.1Z0S20
G1X0.2Z0S0
G1X0.3Z0S20
G1X4.8Z0S0
G1X0.1Z0S20
G1X0.1Z0S0
G1X0.1Z0S20
G1X0.1Z0S0
G1X0.2Z0S20
G1X2.5Z0S0
G1Z0S20
G1X-5.5Z0.01S0
G1Z-0S20
G1X-2.5Z-0S0
G1X-0.1Z-0S20
G1X-0.3Z-0S0
G1X-0.2Z-0S20
G1X-2.8Z-0S0
G1X-0.1Z-0S20
G1X-0.1Z-0S0
G1X-0.1Z-0S20
G1X-0.2Z-0S0
G1X-0.1Z-0S20
G1X-0.2Z-0S0
G1X-0.1Z-0S20
G1X-0.1Z-0S0
G1X-0.2Z-0S20
G1X-0.1Z-0S0
G1X-1.5Z-0S20
G1X-0.5Z-0S0
G1X-0.1Z-0S20
G1X-0.1Z-0S0
G1X-0.1Z-0S20
G1X-0.1Z-0S0
G1X-0.2Z-0S20
G1X-0.1Z-0S0
G1X-0.1Z-0S20
G1X-0.3Z-0S0
G1X-0.1Z-0S20
G1X-0.1Z-0S0
G1X-0.1Z-0S20
G1X-1Z-0S0
G1X-0.1Z-0S20
G1X-0.3Z-0S0
G1X-0.1Z-0S20
G1X-0.9Z-0S0
G1X-0.1Z-0S20
G1X-0.2Z-0S0
G1X-0.1Z-0S20
G1X-2.5Z-0S0
G1Z-0S20
G1Z-0S0
G1Z-0S20
G1X2.5Z-0S0
G1X0.2Z-0S20
G1X3.5Z-0S0
G1X0.1Z-0S20
G1X0.1Z-0S0
G1X0.2Z-0S20
G1X0.1Z-0S0
G1X0.1Z-0S20
G1X0.5Z-0S0
G1X1.3Z-0S20
G1X0.4Z-0S0
G1X0.1Z-0S20
G1X0.1Z-0S0
G1X0.1Z-0S20
G1X3.7Z-0S0
G1X0.2Z-0S20
G1X2.5Z-0S0
G1Z-0S20
G1X0.3S0
G1X-2.5S0
G1X-0.1S20
G1X-0.3S0
G1X-0.1S20
G1X-0.1S0
G1X-0.1S20
G1X-3.3S0
G1X-0.1S20
G1X-0.2S0
G1X-0.2S20
G1X-0.2S0
G1X-0.1S20
G1X-0.1S0
G1X-1.4S20
G1X-0.3S0
G1X-0.3S20
G1X-0.1S0
G1X-0.1S20
G1X-3.6S0
G1X-0.2S20
G1X-0.1S0
G1X-0.1S20
G1X-2.5S0
G1Z0S0
G1Z0S20
G1X2.5Z0S0
G1X0.1Z0S20
G1X4Z0S0
G1X0.1Z0S20
G1X0.1Z0S0
G1X0.1Z0S20
G1X0.1Z0S0
G1X0.1Z0S20
G1X0.1Z0S0
G1X0.1Z0S20
G1X0.2Z0S0
G1X1.2Z0S20
G1X0.1Z0S0
G1X0.1Z0S20
G1X0.1Z0S0
G1X0.2Z0S20
G1X0.3Z0S0
G1X0.2Z0S20
G1X2.3Z0S0
G1X0.2Z0S20
G1X0.6Z0S0
G1X0.1Z0S20
G1X0.1Z0S0
G1X0.1Z0S20
G1X0.2Z0S0
G1X0.1Z0S20
G1X0.1Z0S0
G1X0.1Z0S20
G1X2.5Z0S0
G1Z0S20
G1X0.1Z0S0
G1Z0S20
G1X-2.5Z0S0
G1X-0.1Z0S20
G1X-0.3Z0S0
G1X-0.1Z0S20
G1X-0.1Z0S0
G1X-0.2Z0S20
G1X-0.5Z0S0
G1X-0.2Z0S20
G1X-2.3Z0S0
G1X-0.1Z0S20
G1X-0.1Z0S0
G1X-0.1Z0S20
G1X-0.4Z0S0
G1X-1.6Z0S20
G1X-0.1Z0S0
G1X-0.2Z0S20
G1X-0.1Z0S0
G1X-0.1Z0S20
G1X-0.1Z0S0
G1X-0.1Z0S20
G1X-0.1Z0S0
G1X-0.1Z0S20
G1X-0.4Z0S0
G1X-0.4Z0S20
G1X-3Z0S0
G1X-0.1Z0S20
G1X-0.2Z0S0
G1X-0.1Z0S20
G1X-2.5Z0S0
G1Z0S20
G1Z0.01S0
G1Z-0S20
G1X2.5Z-0S0
G1X0.1Z-0S20
G1X3.7Z-0S0
G1X0.3Z-0S20
G1X0.4Z-0S0
G1X0.2Z-0S20
G1X0.2Z-0S0
G1X0.1Z-0S20
G1X0.1Z-0S0
G1X1Z-0S20
G1X0.1Z-0S0
G1X0.4Z-0S20
G1X0.4Z-0S0
G1X0.1Z-0S20
G1X2.3Z-0S0
G1X0.1Z-0S20
G1X0.3Z-0S0
G1X0.2Z-0S20
G1X0.3Z-0S0
G1X0.2Z-0S20
G1X0.3Z-0S0
G1X0.1Z-0S20
G1X0.2Z-0S0
G1X0.1Z-0S20
G1X2.5Z-0S0
G1Z-0S20
G1X-0.4Z-0S0
G1Z-0S20
G1X-2.5Z-0S0
G1X-0.2Z-0S20
G1X-0.5Z-0S0
G1X-0.1Z-0S20
G1X-0.2Z-0S0
G1X-0.2Z-0S20
G1X-1Z-0S0
G1X-0.1Z-0S20
G1X-0.1Z-0S0
G1X-0.1Z-0S20
G1X-0.1Z-0S0
G1X-0.1Z-0S20
G1X-0.1Z-0S0
G1X-0.2Z-0S20
G1X-0.1Z-0S0
G1X-0.1Z-0S20
G1X-0.4Z-0S0
G1X-0.1Z-0S20
G1X-0.4Z-0S0
G1X-0.4Z-0S20
G1X-0.2Z-0S0
G1X-0.9Z-0S20
G1X-0.1Z-0S0
G1X-0.2Z-0S20
G1X-0.1Z-0S0
G1X-0.1Z-0S20
G1X-0.2Z-0S0
G1X-0.1Z-0S20
G1X-0.2Z-0S0
G1X-0.2Z-0S20
G1X-0.2Z-0S0
G1X-0.2Z-0S20
G1X-0.1Z-0S0
G1X-0.1Z-0S20
G1X-0.1Z-0S0
G1X-0.4Z-0S20
G1X-0.1Z-0S0
G1X-0.1Z-0S20
G1X-2.6Z-0S0
G1X-0.1Z-0S20
G1X-2.5Z-0S0
G1Z-0S20
G1Z-0S0
G1Z-0S20
G1X2.5Z-0S0
G1X0.1Z-0S20
G1X0.1Z-0S0
G1X0.1Z-0S20
G1X1.2Z-0S0
G1X0.1Z-0S20
G1X0.3Z-0S0
G1X0.1Z-0S20
G1X0.2Z-0S0
G1X0.1Z-0S20
G1X0.1Z-0S0
G1X0.3Z-0S20
G1X0.1Z-0S0
G1X0.2Z-0S20
G1X0.1Z-0S0
G1X0.1Z-0S20
G1X0.1Z-0S0
G1X0.1Z-0S20
G1X0.1Z-0S0
G1X0.3Z-0S20
G1X0.1Z-0S0
G1X0.2Z-0S20
G1X0.1Z-0S0
G1X0.1Z-0S20
G1X0.3Z-0S0
G1X0.2Z-0S20
G1X0.1Z-0S0
G1X0.1Z-0S20
G1X0.1Z-0S0
G1X1Z-0S20
G1X0.1Z-0S0
G1X0.4Z-0S20
G1X0.4Z-0S0
G1X0.1Z-0S20
G1X0.2Z-0S0
G1X1.6Z-0S20
G1X0.8Z-0S0
G1X0.1Z-0S20
G1X0.1Z-0S0
G1X0.1Z-0S20
G1X0.1Z-0S0
G1X0.2Z-0S20
G1X0.1Z-0S0
G1X0.1Z-0S20
G1X0.1Z-0S0
G1X0.1Z-0S20
G1X0.1Z-0S0
G1X0.1Z-0S20
G1X0.3Z-0S0
G1X0.1Z-0S20
G1X2.5Z-0S0
G1Z-0S20
G1X-0.6Z0S0
G1Z0S20
G1X-2.5Z0S0
G1X-0.1Z0S20
G1X-0.1Z0S0
G1X-0.1Z0S20
G1X-0.1Z0S0
G1X-0.1Z0S20
G1X-0.3Z0S0
G1X-0.1Z0S20
G1X-0.6Z0S0
G1X-2Z0S20
G1X-0.5Z0S0
G1X-0.5Z0S20
G1X-0.2Z0S0
G1X-0.7Z0S20
G1X-0.1Z0S0
G1X-0.1Z0S20
G1X-0.1Z0S0
G1X-0.1Z0S20
G1X-0.2Z0S0
G1X-0.1Z0S20
G1X-0.1Z0S0
G1X-0.1Z0S20
G1X-0.2Z0S0
G1X-0.1Z0S20
G1X-0.1Z0S0
G1X-1.5Z0S20
G1X-0.1Z0S0
G1X-0.1Z0S20
G1X-0.2Z0S0
G1X-0.1Z0S20
G1X-0.1Z0S0
G1X-0.1Z0S20
G1X-0.4Z0S0
G1X-0.1Z0S20
G1X-1.2Z0S0
G1X-0.1Z0S20
G1X-2.5Z0S0
G1Z0S20
G1X0.1Z0S0
G1Z0S20
G1X2.5Z0S0
G1X0.1Z0S20
G1X0.9Z0S0
G1X0.1Z0S20
G1X0.5Z0S0
G1X0.1Z0S20
G1X0.1Z0S0
G1X0.1Z0S20
G1X0.2Z0S0
G1X1.9Z0S20
G1X0.1Z0S0
G1X0.1Z0S20
G1X0.3Z0S0
G1X0.2Z0S20
G1X0.1Z0S0
G1X0.2Z0S20
G1X0.1Z0S0
G1X0.1Z0S20
G1X0.1Z0S0
G1X0.5Z0S20
G1X0.1Z0S0
G1X0.2Z0S20
G1X0.1Z0S0
G1X0.4Z0S20
G1X0.3Z0S0
G1X0.1Z0S20
G1X0.1Z0S0
G1X0.1Z0S20
G1X0.1Z0S0
G1X0.9Z0S20
G1X0.1Z0S0
G1X0.1Z0S20
G1X0.1Z0S0
G1X0.1Z0S20
G1X0.1Z0S0
G1X0.3Z0S20
G1X0.1Z0S0
G1X0.1Z0S20
G1X0.6Z0S0
G1X0.1Z0S20
G1X0.1Z0S0
G1X0.1Z0S20
G1X0.1Z0S0
G1X0.1Z0S20
G1X0.7Z0S0
G1X0.1Z0S20
G1X2.5Z0S0
G1Z0S20
G1Z0.01S0
G1Z-0S20
G1X-2.5Z-0S0
G1X-0.2Z-0S20
G1X-0.5Z-0S0
G1X-0.1Z-0S20
G1X-1Z-0S0
G1X-0.1Z-0S20
G1X-0.1Z-0S0
G1X-0.1Z-0S20
G1X-0.1Z-0S0
G1X-0.1Z-0S20
G1X-0.1Z-0S0
G1X-1.5Z-0S20
G1X-0.1Z-0S0
G1X-0.1Z-0S20
G1X-0.3Z-0S0
G1X-0.1Z-0S20
G1X-0.1Z-0S0
G1X-0.4Z-0S20
G1X-0.2Z-0S0
G1X-0.2Z-0S20
G1X-0.1Z-0S0
G1X-0.2Z-0S20
G1X-0.1Z-0S0
G1X-0.1Z-0S20
G1X-0.2Z-0S0
G1X-0.2Z-0S20
G1X-0.1Z-0S0
G1X-0.2Z-0S20
G1X-0.3Z-0S0
G1X-2Z-0S20
G1X-0.2Z-0S0
G1X-0.1Z-0S20
G1X-0.1Z-0S0
G1X-0.1Z-0S20
G1X-0.1Z-0S0
G1X-0.1Z-0S20
G1X-0.4Z-0S0
G1X-0.1Z-0S20
G1X-0.9Z-0S0
G1X-0.1Z-0S20
G1X-2.5Z-0S0
G1Z-0S20
G1X0.1Z-0S0
G1Z-0S20
G1X2.5Z-0S0
G1X0.1Z-0S20
G1X0.7Z-0S0
G1X0.1Z-0S20
G1X0.4Z-0S0
G1X0.1Z-0S20
G1X0.1Z-0S0
G1X0.1Z-0S20
G1X0.3Z-0S0
G1X0.1Z-0S20
G1X0.1Z-0S0
G1X2.1Z-0S20
G1X0.2Z-0S0
G1X0.2Z-0S20
G1X0.1Z-0S0
G1X0.2Z-0S20
G1X0.5Z-0S0
G1X0.2Z-0S20
G1X0.2Z-0S0
G1X0.1Z-0S20
G1X0.1Z-0S0
G1X0.5Z-0S20
G1X0.1Z-0S0
G1X0.1Z-0S20
G1X0.1Z-0S0
G1X0.1Z-0S20
G1X0.1Z-0S0
G1X1.7Z-0S20
G1X0.1Z-0S0
G1X0.1Z-0S20
G1X0.1Z-0S0
G1X0.1Z-0S20
G1X0.1Z-0S0
G1X0.1Z-0S20
G1X0.1Z-0S0
G1X0.1Z-0S20
G1X0.5Z-0S0
G1X0.1Z-0S20
G1X0.6Z-0S0
G1X0.1Z-0S20
G1X2.5Z-0S0
G1Z-0S20
G1X-0.1Z-0S0
G1Z-0S20
G1X-2.5Z-0S0
G1X-0.1Z-0S20
G1X-0.4Z-0S0
G1X-0.2Z-0S20
G1X-0.8Z-0S0
G1X-0.1Z-0S20
G1X-0.1Z-0S0
G1X-2.2Z-0S20
G1X-0.1Z-0S0
G1X-0.2Z-0S20
G1X-0.1Z-0S0
G1X-0.4Z-0S20
G1X-1Z-0S0
G1X-0.1Z-0S20
G1X-0.1Z-0S0
G1X-0.1Z-0S20
G1X-0.1Z-0S0
G1X-0.3Z-0S20
G1X-0.2Z-0S0
G1X-2.1Z-0S20
G1X-0.1Z-0S0
G1X-0.1Z-0S20
G1X-0.1Z-0S0
G1X-0.1Z-0S20
G1X-0.6Z-0S0
G1X-0.1Z-0S20
G1X-0.1Z-0S0
G1X-0.1Z-0S20
G1X-0.1Z-0S0
G1X-0.2Z-0S20
G1X-0.2Z-0S0
G1X-0.1Z-0S20
G1X-2.5Z-0S0
G1Z-0S20
G1Z0S0
G1Z0S20
G1X2.5Z0S0
G1X0.3Z0S20
G1X0.1Z0S0
G1X0.1Z0S20
G1X0.7Z0S0
G1X0.1Z0S20
G1X0.3Z0S0
G1X0.1Z0S20
G1X0.1Z0S0
G1X0.1Z0S20
G1X0.1Z0S0
G1X0.1Z0S20
G1X0.1Z0S0
G1X1.9Z0S20
G1X0.1Z0S0
G1X0.1Z0S20
G1X0.1Z0S0
G1X0.1Z0S20
G1X0.1Z0S0
G1X0.2Z0S20
G1X1.1Z0S0
G1X0.5Z0S20
G1X0.1Z0S0
G1X0.1Z0S20
G1X0.1Z0S0
G1X0.1Z0S20
G1X0.1Z0S0
G1X1.9Z0S20
G1X0.1Z0S0
G1X0.1Z0S20
G1X0.1Z0S0
G1X0.1Z0S20
G1X0.2Z0S0
G1X0.1Z0S20
G1X0.4Z0S0
G1X0.2Z0S20
G1X0.2Z0S0
G1X0.2Z0S20
G1X2.5Z0S0
G1Z0S20
G1Z0S0
G1Z0S20
G1X-2.5Z0S0
G1X-0.1Z0S20
G1X-0.2Z0S0
G1X-0.2Z0S20
G1X-0.1Z0S0
G1X-0.1Z0S20
G1X-0.3Z0S0
G1X-0.1Z0S20
G1X-0.4Z0S0
G1X-2.2Z0S20
G1X-0.1Z0S0
G1X-0.1Z0S20
G1X-0.1Z0S0
G1X-0.5Z0S20
G1X-0.1Z0S0
G1X-0.1Z0S20
G1X-0.9Z0S0
G1X-0.1Z0S20
G1X-0.1Z0S0
G1X-0.1Z0S20
G1X-0.2Z0S0
G1X-0.2Z0S20
G1X-0.1Z0S0
G1X-1.8Z0S20
G1X-0.1Z0S0
G1X-0.2Z0S20
G1X-0.1Z0S0
G1X-0.3Z0S20
G1X-0.1Z0S0
G1X-0.1Z0S20
G1X-0.6Z0S0
G1X-0.2Z0S20
G1X-0.1Z0S0
G1X-0.3Z0S20
G1X-2.5Z0S0
G1Z0S20
G1X0.1Z0S0
G1Z0S20
G1X2.5Z0S0
G1X0.1Z0S20
G1X0.1Z0S0
G1X0.2Z0S20
G1X0.6Z0S0
G1X0.1Z0S20
G1X0.1Z0S0
G1X0.1Z0S20
G1X0.1Z0S0
G1X0.3Z0S20
G1X0.1Z0S0
G1X0.2Z0S20
G1X0.1Z0S0
G1X1.9Z0S20
G1X0.1Z0S0
G1X0.1Z0S20
G1X0.1Z0S0
G1X0.2Z0S20
G1X1.2Z0S0
G1X0.3Z0S20
G1X0.3Z0S0
G1X0.1Z0S20
G1X0.1Z0S0
G1X2.4Z0S20
G1X0.2Z0S0
G1X0.1Z0S20
G1X0.2Z0S0
G1X0.1Z0S20
G1X0.1Z0S0
G1X0.1Z0S20
G1X0.1Z0S0
G1X0.3Z0S20
G1X2.5Z0S0
G1Z0S20
G1Z0.01S0
G1Z-0S20
G1X-2.5Z-0S0
G1X-0.1Z-0S20
G1X-0.1Z-0S0
G1X-0.1Z-0S20
G1X-0.4Z-0S0
G1X-0.1Z-0S20
G1X-0.1Z-0S0
G1X-0.1Z-0S20
G1X-0.1Z-0S0
G1X-0.1Z-0S20
G1X-0.1Z-0S0
G1X-2.4Z-0S20
G1X-0.1Z-0S0
G1X-0.1Z-0S20
G1X-0.2Z-0S0
G1X-0.4Z-0S20
G1X-1.1Z-0S0
G1X-0.2Z-0S20
G1X-0.2Z-0S0
G1X-0.1Z-0S20
G1X-0.1Z-0S0
G1X-1.7Z-0S20
G1X-0.1Z-0S0
G1X-0.2Z-0S20
G1X-0.1Z-0S0
G1X-0.2Z-0S20
G1X-0.1Z-0S0
G1X-0.2Z-0S20
G1X-0.1Z-0S0
G1X-0.2Z-0S20
G1X-0.1Z-0S0
G1X-0.1Z-0S20
G1X-0.4Z-0S0
G1X-0.3Z-0S20
G1X-2.5Z-0S0
G1Z-0S20
G1X0.1Z-0S0
G1Z-0S20
G1X2.5Z-0S0
G1X0.2Z-0S20
G1X0.5Z-0S0
G1X0.1Z-0S20
G1X0.1Z-0S0
G1X0.2Z-0S20
G1X0.1Z-0S0
G1X0.3Z-0S20
G1X0.1Z-0S0
G1X0.1Z-0S20
G1X0.1Z-0S0
G1X0.1Z-0S20
G1X0.1Z-0S0
G1X1.8Z-0S20
G1X0.3Z-0S0
G1X0.1Z-0S20
G1X0.8Z-0S0
G1X0.1Z-0S20
G1X0.4Z-0S0
G1X0.2Z-0S20
G1X0.1Z-0S0
G1X0.1Z-0S20
G1X0.1Z-0S0
G1X0.1Z-0S20
G1X0.1Z-0S0
G1X2.5Z-0S20
G1X0.2Z-0S0
G1X0.2Z-0S20
G1X0.1Z-0S0
G1X0.1Z-0S20
G1X0.4Z-0S0
G1X0.1Z-0S20
G1X2.5Z-0S0
G1Z-0S20
G1X0.1Z0S0
G1Z0S20
G1X-2.5Z0S0
G1X-0.1Z0S20
G1X-0.1Z0S0
G1X-0.1Z0S20
G1X-0.5Z0S0
G1X-0.3Z0S20
G1X-0.1Z0S0
G1X-2.8Z0S20
G1X-0.3Z0S0
G1X-0.1Z0S20
G1X-0.1Z0S0
G1X-0.1Z0S20
G1X-0.1Z0S0
G1X-0.1Z0S20
G1X-0.8Z0S0
G1X-0.2Z0S20
G1X-0.1Z0S0
G1X-0.2Z0S20
G1X-0.1Z0S0
G1X-1.6Z0S20
G1X-0.1Z0S0
G1X-0.1Z0S20
G1X-0.1Z0S0
G1X-0.4Z0S20
G1X-0.1Z0S0
G1X-0.4Z0S20
G1X-0.1Z0S0
G1X-0.1Z0S20
G1X-0.1Z0S0
G1X-0.1Z0S20
G1X-0.3Z0S0
G1X-0.2Z0S20
G1X-2.5Z0S0
G1Z0S20
G1Z0S0
G1Z0S20
G1X2.5Z0S0
G1X0.2Z0S20
G1X0.3Z0S0
G1X0.4Z0S20
G1X0.1Z0S0
G1X0.5Z0S20
G1X0.1Z0S0
G1X0.1Z0S20
G1X0.1Z0S0
G1X2.1Z0S20
G1X0.3Z0S0
G1X0.1Z0S20
G1X0.7Z0S0
G1X0.1Z0S20
G1X0.2Z0S0
G1X0.1Z0S20
G1X0.2Z0S0
G1X0.1Z0S20
G1X0.1Z0S0
G1X0.1Z0S20
G1X0.1Z0S0
G1X2.7Z0S20
G1X0.2Z0S0
G1X0.2Z0S20
G1X0.4Z0S0
G1X0.1Z0S20
G1X0.1Z0S0
G1X0.1Z0S20
G1X2.5Z0S0
G1Z0S20
G1Z0S0
G1Z0S20
G1X-2.5Z0S0
G1X-0.1Z0S20
G1X-0.1Z0S0
G1X-0.1Z0S20
G1X-0.5Z0S0
G1X-3.2Z0S20
G1X-0.1Z0S0
G1X-0.1Z0S20
G1X-0.3Z0S0
G1X-0.1Z0S20
G1X-0.8Z0S0
G1X-0.1Z0S20
G1X-0.3Z0S0
G1X-0.1Z0S20
G1X-0.1Z0S0
G1X-2.9Z0S20
G1X-0.1Z0S0
G1X-0.2Z0S20
G1X-0.1Z0S0
G1X-0.1Z0S20
G1X-0.1Z0S0
G1X-0.3Z0S20
G1X-2.5Z0S0
G1Z0S20
G1X-0.1Z0.01S0
G1Z-0S20
G1X2.5Z-0S0
G1X0.2Z-0S20
G1X0.1Z-0S0
G1X0.1Z-0S20
G1X0.3Z-0S0
G1X0.2Z-0S20
G1X0.1Z-0S0
G1X3Z-0S20
G1X0.2Z-0S0
G1X0.1Z-0S20
G1X0.9Z-0S0
G1X0.1Z-0S20
G1X0.2Z-0S0
G1X0.1Z-0S20
G1X0.1Z-0S0
G1X0.2Z-0S20
G1X0.1Z-0S0
G1X2.8Z-0S20
G1X0.2Z-0S0
G1X0.1Z-0S20
G1X0.5Z-0S0
G1X0.1Z-0S20
G1X0.1Z-0S0
G1X0.1Z-0S20
G1X2.5Z-0S0
G1Z-0S20
G1Z-0S0
G1Z-0S20
G1X-2.5Z-0S0
G1X-0.1Z-0S20
G1X-0.1Z-0S0
G1X-0.2Z-0S20
G1X-0.3Z-0S0
G1X-0.2Z-0S20
G1X-0.1Z-0S0
G1X-2.9Z-0S20
G1X-0.1Z-0S0
G1X-0.4Z-0S20
G1X-0.1Z-0S0
G1X-0.1Z-0S20
G1X-0.9Z-0S0
G1X-0.1Z-0S20
G1X-0.2Z-0S0
G1X-0.1Z-0S20
G1X-0.2Z-0S0
G1X-3.1Z-0S20
G1X-0.1Z-0S0
G1X-0.3Z-0S20
G1X-0.1Z-0S0
G1X-0.2Z-0S20
G1X-2.5Z-0S0
G1Z-0S20
G1X2.5S0
G1X0.2S20
G1X0.4S0
G1X0.1S20
G1X0.1S0
G1X3.1S20
G1X0.3S0
G1X0.1S20
G1X0.1S0
G1X0.1S20
G1X0.8S0
G1X0.7S20
G1X0.1S0
G1X2.7S20
G1X0.1S0
G1X0.2S20
G1X0.4S0
G1X0.2S20
G1X0.1S0
G1X0.1S20
G1X2.5S0
G1X0.1Z0S0
G1Z0S20
G1X-2.5Z0S0
G1X-0.1Z0S20
G1X-0.1Z0S0
G1X-0.1Z0S20
G1X-0.1Z0S0
G1X-0.1Z0S20
G1X-0.1Z0S0
G1X-0.1Z0S20
G1X-0.1Z0S0
G1X-0.1Z0S20
G1X-0.2Z0S0
G1X-2.8Z0S20
G1X-0.1Z0S0
G1X-0.2Z0S20
G1X-0.1Z0S0
G1X-0.3Z0S20
G1X-0.1Z0S0
G1X-0.1Z0S20
G1X-0.5Z0S0
G1X-0.4Z0S20
G1X-0.2Z0S0
G1X-0.2Z0S20
G1X-0.2Z0S0
G1X-2.8Z0S20
G1X-0.5Z0S0
G1X-0.1Z0S20
G1X-0.1Z0S0
G1X-0.3Z0S20
G1X-2.5Z0S0
G1Z0S20
G1Z0S0
G1Z0S20
G1X2.5Z0S0
G1X0.3Z0S20
G1X0.7Z0S0
G1X2.7Z0S20
G1X0.1Z0S0
G1X0.2Z0S20
G1X0.1Z0S0
G1X0.1Z0S20
G1X0.4Z0S0
G1X0.2Z0S20
G1X0.4Z0S0
G1X0.1Z0S20
G1X0.1Z0S0
G1X0.3Z0S20
G1X0.1Z0S0
G1X0.2Z0S20
G1X0.1Z0S0
G1X2.8Z0S20
G1X0.1Z0S0
G1X0.1Z0S20
G1X0.1Z0S0
G1X0.2Z0S20
G1X0.2Z0S0
G1X0.1Z0S20
G1X0.1Z0S0
G1X0.1Z0S20
G1X0.1Z0S0
G1X0.1Z0S20
G1X2.5Z0S0
G1Z0S20
G1Z0.01S0
G1Z-0S20
G1X-2.5Z-0S0
G1X-0.1Z-0S20
G1X-0.1Z-0S0
G1X-0.2Z-0S20
G1X-0.2Z-0S0
G1X-0.2Z-0S20
G1X-0.2Z-0S0
G1X-0.1Z-0S20
G1X-0.2Z-0S0
G1X-2.5Z-0S20
G1X-0.1Z-0S0
G1X-0.1Z-0S20
G1X-0.2Z-0S0
G1X-0.1Z-0S20
G1X-0.1Z-0S0
G1X-0.1Z-0S20
G1X-0.1Z-0S0
G1X-0.4Z-0S20
G1X-0.1Z-0S0
G1X-0.3Z-0S20
G1X-0.1Z-0S0
G1X-0.2Z-0S20
G1X-0.3Z-0S0
G1X-0.1Z-0S20
G1X-0.1Z-0S0
G1X-0.1Z-0S20
G1X-0.1Z-0S0
G1X-2.3Z-0S20
G1X-1.1Z-0S0
G1X-0.3Z-0S20
G1X-2.5Z-0S0
G1Z-0S20
G1X-0.1Z-0S0
G1Z-0S20
G1X2.5Z-0S0
G1X0.5Z-0S20
G1X1.2Z-0S0
G1X2Z-0S20
G1X0.3Z-0S0
G1X0.1Z-0S20
G1X0.1Z-0S0
G1X0.1Z-0S20
G1X0.1Z-0S0
G1X0.1Z-0S20
G1X0.1Z-0S0
G1X0.1Z-0S20
G1X0.1Z-0S0
G1X0.1Z-0S20
G1X0.1Z-0S0
G1X0.1Z-0S20
G1X0.2Z-0S0
G1X0.2Z-0S20
G1X0.1Z-0S0
G1X0.2Z-0S20
G1X0.1Z-0S0
G1X0.1Z-0S20
G1X0.2Z-0S0
G1X0.1Z-0S20
G1X0.1Z-0S0
G1X2.4Z-0S20
G1X0.5Z-0S0
G1X0.3Z-0S20
G1X0.1Z-0S0
G1X0.2Z-0S20
G1X2.5Z-0S0
G1Z-0S20
G1X0.3Z-0S0
G1Z-0S20
G1X-2.5Z-0S0
G1X-0.1Z-0S20
G1X-0.1Z-0S0
G1X-0.4Z-0S20
G1X-0.1Z-0S0
G1X-0.1Z-0S20
G1X-0.5Z-0S0
G1X-0.1Z-0S20
G1X-0.1Z-0S0
G1X-2.2Z-0S20
G1X-0.1Z-0S0
G1X-0.1Z-0S20
G1X-0.1Z-0S0
G1X-0.1Z-0S20
G1X-0.4Z-0S0
G1X-0.1Z-0S20
G1X-0.1Z-0S0
G1X-0.1Z-0S20
G1X-0.1Z-0S0
G1X-0.2Z-0S20
G1X-0.1Z-0S0
G1X-0.1Z-0S20
G1X-0.1Z-0S0
G1X-0.1Z-0S20
G1X-0.2Z-0S0
G1X-0.1Z-0S20
G1X-0.1Z-0S0
G1X-0.1Z-0S20
G1X-0.4Z-0S0
G1X-0.1Z-0S20
G1X-0.1Z-0S0
G1X-0.1Z-0S20
G1X-0.1Z-0S0
G1X-1.5Z-0S20
G1X-1.3Z-0S0
G1X-0.3Z-0S20
G1X-0.2Z-0S0
G1X-0.1Z-0S20
G1X-2.5Z-0S0
G1Z-0S20
G1Z0S0
G1Z0S20
G1X2.5Z0S0
G1X0.1Z0S20
G1X0.1Z0S0
G1X0.4Z0S20
G1X0.3Z0S0
G1X0.1Z0S20
G1X1.1Z0S0
G1X0.9Z0S20
G1X0.1Z0S0
G1X0.1Z0S20
G1X0.2Z0S0
G1X0.2Z0S20
G1X0.6Z0S0
G1X0.2Z0S20
G1X0.1Z0S0
G1X0.1Z0S20
G1X0.4Z0S0
G1X0.1Z0S20
G1X0.1Z0S0
G1X0.1Z0S20
G1X0.1Z0S0
G1X0.1Z0S20
G1X0.7Z0S0
G1X0.1Z0S20
G1X0.3Z0S0
G1X1.9Z0S20
G1X0.8Z0S0
G1X0.1Z0S20
G1X0.1Z0S0
G1X0.4Z0S20
G1X0.3Z0S0
G1X0.1Z0S20
G1X2.5Z0S0
G1Z0S20
G1Z0S0
G1Z0S20
G1X-2.5Z0S0
G1X-0.1Z0S20
G1X-0.3Z0S0
G1X-0.4Z0S20
G1X-0.9Z0S0
G1X-0.1Z0S20
G1X-0.1Z0S0
G1X-0.1Z0S20
G1X-0.1Z0S0
G1X-1.4Z0S20
G1X-0.9Z0S0
G1X-0.1Z0S20
G1X-0.3Z0S0
G1X-0.1Z0S20
G1X-0.6Z0S0
G1X-0.2Z0S20
G1X-0.1Z0S0
G1X-0.1Z0S20
G1X-0.2Z0S0
G1X-0.1Z0S20
G1X-0.7Z0S0
G1X-0.1Z0S20
G1X-0.1Z0S0
G1X-0.1Z0S20
G1X-0.1Z0S0
G1X-0.1Z0S20
G1X-0.1Z0S0
G1X-0.2Z0S20
G1X-0.1Z0S0
G1X-0.2Z0S20
G1X-0.1Z0S0
G1X-0.1Z0S20
G1X-1Z0S0
G1X-0.1Z0S20
G1X-0.3Z0S0
G1X-0.3Z0S20
G1X-0.1Z0S0
G1X-0.2Z0S20
G1X-0.1Z0S0
G1X-0.1Z0S20
G1X-2.5Z0S0
G1Z0S20
G1Z0.01S0
G1Z-0S20
G1X2.5Z-0S0
G1X0.1Z-0S20
G1X0.2Z-0S0
G1X0.2Z-0S20
G1X0.1Z-0S0
G1X0.2Z-0S20
G1X0.2Z-0S0
G1X0.1Z-0S20
G1X0.1Z-0S0
G1X0.1Z-0S20
G1X1.3Z-0S0
G1X0.1Z-0S20
G1X0.2Z-0S0
G1X0.2Z-0S20
G1X1.2Z-0S0
G1X0.3Z-0S20
G1X0.7Z-0S0
G1X0.1Z-0S20
G1X0.4Z-0S0
G1X0.1Z-0S20
G1X0.1Z-0S0
G1X0.1Z-0S20
G1X0.1Z-0S0
G1X0.1Z-0S20
G1X0.7Z-0S0
G1X0.2Z-0S20
G1X0.1Z-0S0
G1X0.5Z-0S20
G1X0.1Z-0S0
G1X0.1Z-0S20
G1X0.1Z-0S0
G1X0.2Z-0S20
G1X0.4Z-0S0
G1X0.2Z-0S20
G1X0.5Z-0S0
G1X0.7Z-0S20
G1X0.2Z-0S0
G1X0.1Z-0S20
G1X2.5Z-0S0
G1Z-0S20
G1X0.2Z-0S0
G1Z-0S20
G1X-2.5Z-0S0
G1X-0.2Z-0S20
G1X-0.2Z-0S0
G1X-0.2Z-0S20
G1X-0.1Z-0S0
G1X-0.2Z-0S20
G1X-0.1Z-0S0
G1X-0.1Z-0S20
G1X-0.1Z-0S0
G1X-0.1Z-0S20
G1X-0.2Z-0S0
G1X-0.1Z-0S20
G1X-0.3Z-0S0
G1X-0.1Z-0S20
G1X-0.2Z-0S0
G1X-0.1Z-0S20
G1X-0.2Z-0S0
G1X-0.4Z-0S20
G1X-0.1Z-0S0
G1X-0.1Z-0S20
G1X-0.1Z-0S0
G1X-0.2Z-0S20
G1X-1.2Z-0S0
G1X-0.1Z-0S20
G1X-0.1Z-0S0
G1X-0.1Z-0S20
G1X-1Z-0S0
G1X-0.1Z-0S20
G1X-0.1Z-0S0
G1X-0.1Z-0S20
G1X-0.1Z-0S0
G1X-0.1Z-0S20
G1X-1.3Z-0S0
G1X-0.1Z-0S20
G1X-1.4Z-0S0
G1X-0.1Z-0S20
G1X-0.1Z-0S0
G1X-0.1Z-0S20
G1X-0.2Z-0S0
G1X-0.1Z-0S20
G1X-0.1Z-0S0
G1X-0.2Z-0S20
G1X-0.1Z-0S0
G1X-0.2Z-0S20
G1X-0.1Z-0S0
G1X-0.3Z-0S20
G1X-2.5Z-0S0
G1Z-0S20
G1X-0.2Z-0S0
G1Z-0S20
G1X2.5Z-0S0
G1X0.4Z-0S20
G1X0.2Z-0S0
G1X0.4Z-0S20
G1X0.1Z-0S0
G1X0.2Z-0S20
G1X0.3Z-0S0
G1X0.1Z-0S20
G1X0.1Z-0S0
G1X0.1Z-0S20
G1X2.6Z-0S0
G1X0.1Z-0S20
G1X0.1Z-0S0
G1X0.1Z-0S20
G1X0.2Z-0S0
G1X0.1Z-0S20
G1X1Z-0S0
G1X0.1Z-0S20
G1X0.1Z-0S0
G1X0.1Z-0S20
G1X2.6Z-0S0
G1X0.1Z-0S20
G1X0.1Z-0S0
G1X0.2Z-0S20
G1X0.1Z-0S0
G1X0.2Z-0S20
G1X0.1Z-0S0
G1X0.1Z-0S20
G1X0.1Z-0S0
G1X0.1Z-0S20
G1X0.1Z-0S0
G1X0.4Z-0S20
G1X0.2Z-0S0
G1X0.3Z-0S20
G1X2.5Z-0S0
G1Z-0S20
G1X0.2Z0S0
G1Z0S20
G1X-2.5Z0S0
G1X-0.5Z0S20
G1X-0.2Z0S0
G1X-0.3Z0S20
G1X-0.1Z0S0
G1X-0.2Z0S20
G1X-0.1Z0S0
G1X-0.2Z0S20
G1X-0.1Z0S0
G1X-0.6Z0S20
G1X-0.2Z0S0
G1X-0.1Z0S20
G1X-2.4Z0S0
G1X-0.2Z0S20
G1X-1.3Z0S0
G1X-0.1Z0S20
G1X-0.1Z0S0
G1X-0.1Z0S20
G1X-2.5Z0S0
G1X-0.2Z0S20
G1X-0.1Z0S0
G1X-0.1Z0S20
G1X-0.2Z0S0
G1X-0.1Z0S20
G1X-0.2Z0S0
G1X-0.1Z0S20
G1X-0.1Z0S0
G1X-0.1Z0S20
G1X-0.1Z0S0
G1X-0.1Z0S20
G1X-0.2Z0S0
G1X-0.1Z0S20
G1X-0.1Z0S0
G1X-0.3Z0S20
G1X-2.5Z0S0
G1Z0S20
G1X-0.2Z0S0
G1Z0S20
G1X2.5Z0S0
G1X0.3Z0S20
G1X0.1Z0S0
G1X0.1Z0S20
G1X0.1Z0S0
G1X0.1Z0S20
G1X0.2Z0S0
G1X0.3Z0S20
G1X0.1Z0S0
G1X0.1Z0S20
G1X0.1Z0S0
G1X0.3Z0S20
G1X0.2Z0S0
G1X0.1Z0S20
G1X0.1Z0S0
G1X0.1Z0S20
G1X0.1Z0S0
G1X0.1Z0S20
G1X2.3Z0S0
G1X0.2Z0S20
G1X0.2Z0S0
G1X0.2Z0S20
G1X1Z0S0
G1X0.1Z0S20
G1X2.4Z0S0
G1X0.1Z0S20
G1X0.2Z0S0
G1X0.1Z0S20
G1X0.1Z0S0
G1X0.1Z0S20
G1X0.3Z0S0
G1X0.1Z0S20
G1X0.1Z0S0
G1X0.1Z0S20
G1X0.1Z0S0
G1X0.1Z0S20
G1X0.2Z0S0
G1X0.6Z0S20
G1X0.2Z0S0
G1X0.1Z0S20
G1X0.1Z0S0
G1X0.2Z0S20
G1X2.5Z0S0
G1Z0S20
G1X0.2Z0S0
G1Z0S20
G1X-2.5Z0S0
G1X-0.4Z0S20
G1X-0.1Z0S0
G1X-0.3Z0S20
G1X-0.1Z0S0
G1X-0.3Z0S20
G1X-0.1Z0S0
G1X-0.1Z0S20
G1X-0.1Z0S0
G1X-0.1Z0S20
G1X-0.1Z0S0
G1X-0.2Z0S20
G1X-0.1Z0S0
G1X-0.1Z0S20
G1X-0.3Z0S0
G1X-0.2Z0S20
G1X-0.3Z0S0
G1X-0.1Z0S20
G1X-3.9Z0S0
G1X-0.1Z0S20
G1X-2.1Z0S0
G1X-0.1Z0S20
G1X-0.1Z0S0
G1X-0.1Z0S20
G1X-0.1Z0S0
G1X-0.2Z0S20
G1X-0.1Z0S0
G1X-0.1Z0S20
G1X-0.2Z0S0
G1X-0.1Z0S20
G1X-0.2Z0S0
G1X-0.1Z0S20
G1X-0.1Z0S0
G1X-0.1Z0S20
G1X-0.1Z0S0
G1X-0.3Z0S20
G1X-0.1Z0S0
G1X-0.4Z0S20
G1X-0.1Z0S0
G1X-0.4Z0S20
G1X-2.5Z0S0
G1Z0S20
G1X-0.1Z0.01S0
G1Z-0S20
G1X2.5Z-0S0
G1X0.2Z-0S20
G1X0.1Z-0S0
G1X0.1Z-0S20
G1X0.1Z-0S0
G1X0.1Z-0S20
G1X0.1Z-0S0
G1X0.1Z-0S20
G1X0.3Z-0S0
G1X0.2Z-0S20
G1X0.1Z-0S0
G1X0.2Z-0S20
G1X0.1Z-0S0
G1X0.1Z-0S20
G1X0.3Z-0S0
G1X0.1Z-0S20
G1X0.2Z-0S0
G1X0.1Z-0S20
G1X0.1Z-0S0
G1X0.2Z-0S20
G1X0.1Z-0S0
G1X0.1Z-0S20
G1X0.1Z-0S0
G1X0.1Z-0S20
G1X0.1Z-0S0
G1X0.1Z-0S20
G1X1.8Z-0S0
G1X0.1Z-0S20
G1X0.4Z-0S0
G1X0.2Z-0S20
G1X0.9Z-0S0
G1X0.1Z-0S20
G1X2.2Z-0S0
G1X0.1Z-0S20
G1X0.1Z-0S0
G1X0.1Z-0S20
G1X0.1Z-0S0
G1X0.2Z-0S20
G1X0.1Z-0S0
G1X0.2Z-0S20
G1X0.1Z-0S0
G1X0.3Z-0S20
G1X0.3Z-0S0
G1X0.1Z-0S20
G1X0.1Z-0S0
G1X0.5Z-0S20
G1X0.2Z-0S0
G1X0.2Z-0S20
G1X0.1Z-0S0
G1X0.1Z-0S20
G1X0.1Z-0S0
G1X0.3Z-0S20
G1X2.5Z-0S0
G1Z-0S20
G1X0.1Z-0S0
G1Z-0S20
G1X-2.5Z-0S0
G1X-0.4Z-0S20
G1X-0.1Z-0S0
G1X-0.1Z-0S20
G1X-0.1Z-0S0
G1X-0.1Z-0S20
G1X-0.1Z-0S0
G1X-0.1Z-0S20
G1X-0.1Z-0S0
G1X-0.5Z-0S20
G1X-0.1Z-0S0
G1X-0.1Z-0S20
G1X-0.1Z-0S0
G1X-0.1Z-0S20
G1X-0.1Z-0S0
G1X-0.2Z-0S20
G1X-0.2Z-0S0
G1X-0.1Z-0S20
G1X-0.1Z-0S0
G1X-0.1Z-0S20
G1X-0.2Z-0S0
G1X-0.1Z-0S20
G1X-0.1Z-0S0
G1X-0.1Z-0S20
G1X-3.1Z-0S0
G1X-0.3Z-0S20
G1X-2.3Z-0S0
G1X-0.1Z-0S20
G1X-0.1Z-0S0
G1X-0.1Z-0S20
G1X-0.1Z-0S0
G1X-0.1Z-0S20
G1X-0.1Z-0S0
G1X-0.1Z-0S20
G1X-0.1Z-0S0
G1X-0.1Z-0S20
G1X-0.4Z-0S0
G1X-0.1Z-0S20
G1X-0.2Z-0S0
G1X-0.1Z-0S20
G1X-0.1Z-0S0
G1X-0.1Z-0S20
G1X-0.1Z-0S0
G1X-0.3Z-0S20
G1X-0.1Z-0S0
G1X-0.1Z-0S20
G1X-0.1Z-0S0
G1X-0.1Z-0S20
G1X-0.1Z-0S0
G1X-0.1Z-0S20
G1X-0.1Z-0S0
G1X-0.2Z-0S20
G1X-0.1Z-0S0
G1X-0.4Z-0S20
G1X-2.5Z-0S0
G1Z-0S20
G1X-0.2Z0S0
G1Z0S20
G1X2.5Z0S0
G1X0.3Z0S20
G1X0.1Z0S0
G1X0.1Z0S20
G1X0.1Z0S0
G1X0.1Z0S20
G1X0.1Z0S0
G1X0.1Z0S20
G1X0.1Z0S0
G1X0.1Z0S20
G1X0.1Z0S0
G1X0.1Z0S20
G1X0.2Z0S0
G1X0.3Z0S20
G1X0.1Z0S0
G1X0.1Z0S20
G1X0.4Z0S0
G1X0.1Z0S20
G1X0.1Z0S0
G1X0.1Z0S20
G1X0.2Z0S0
G1X0.1Z0S20
G1X0.1Z0S0
G1X0.1Z0S20
G1X0.1Z0S0
G1X0.1Z0S20
G1X0.1Z0S0
G1X0.1Z0S20
G1X0.2Z0S0
G1X0.3Z0S20
G1X1.5Z0S0
G1X0.1Z0S20
G1X1.1Z0S0
G1X0.1Z0S20
G1X0.1Z0S0
G1X0.1Z0S20
G1X0.1Z0S0
G1X0.1Z0S20
G1X2.2Z0S0
G1X0.2Z0S20
G1X0.4Z0S0
G1X0.4Z0S20
G1X0.1Z0S0
G1X0.2Z0S20
G1X0.4Z0S0
G1X0.1Z0S20
G1X0.1Z0S0
G1X0.1Z0S20
G1X0.1Z0S0
G1X0.2Z0S20
G1X0.2Z0S0
G1X0.1Z0S20
G1X0.1Z0S0
G1X0.3Z0S20
G1X0.2Z0S0
G1X0.1Z0S20
G1X0.1Z0S0
G1X0.2Z0S20
G1X2.5Z0S0
G1Z0S20
G1X0.2Z0S0
G1Z0S20
G1X-2.5Z0S0
G1X-0.5Z0S20
G1X-0.1Z0S0
G1X-0.3Z0S20
G1X-0.3Z0S0
G1X-0.1Z0S20
G1X-0.2Z0S0
G1X-0.5Z0S20
G1X-0.2Z0S0
G1X-0.1Z0S20
G1X-0.2Z0S0
G1X-0.2Z0S20
G1X-0.2Z0S0
G1X-0.4Z0S20
G1X-0.2Z0S0
G1X-0.3Z0S20
G1X-0.1Z0S0
G1X-0.1Z0S20
G1X-1.8Z0S0
G1X-0.1Z0S20
G1X-0.1Z0S0
G1X-0.1Z0S20
G1X-0.2Z0S0
G1X-0.1Z0S20
G1X-0.2Z0S0
G1X-0.1Z0S20
G1X-0.4Z0S0
G1X-0.4Z0S20
G1X-1.6Z0S0
G1X-0.1Z0S20
G1X-0.4Z0S0
G1X-0.1Z0S20
G1X-0.2Z0S0
G1X-0.2Z0S20
G1X-0.1Z0S0
G1X-0.1Z0S20
G1X-0.3Z0S0
G1X-0.1Z0S20
G1X-0.3Z0S0
G1X-0.1Z0S20
G1X-0.1Z0S0
G1X-0.1Z0S20
G1X-0.1Z0S0
G1X-0.5Z0S20
G1X-0.2Z0S0
G1X-0.1Z0S20
G1X-0.3Z0S0
G1X-0.2Z0S20
G1X-0.1Z0S0
G1X-0.1Z0S20
G1X-0.1Z0S0
G1X-0.1Z0S20
G1X-0.1Z0S0
G1X-0.2Z0S20
G1X-2.5Z0S0
G1Z0S20
G1X-0.2Z0S0
G1Z0S20
G1X2.5Z0S0
G1X0.3Z0S20
G1X0.1Z0S0
G1X0.1Z0S20
G1X0.1Z0S0
G1X0.3Z0S20
G1X0.3Z0S0
G1X0.1Z0S20
G1X0.1Z0S0
G1X0.1Z0S20
G1X0.2Z0S0
G1X0.4Z0S20
G1X0.2Z0S0
G1X0.1Z0S20
G1X0.5Z0S0
G1X0.2Z0S20
G1X0.2Z0S0
G1X0.1Z0S20
G1X0.1Z0S0
G1X0.1Z0S20
G1X0.1Z0S0
G1X0.2Z0S20
G1X0.6Z0S0
G1X0.1Z0S20
G1X1.1Z0S0
G1X0.1Z0S20
G1X0.1Z0S0
G1X0.5Z0S20
G1X0.1Z0S0
G1X0.1Z0S20
G1X0.4Z0S0
G1X0.1Z0S20
G1X0.2Z0S0
G1X0.1Z0S20
G1X0.2Z0S0
G1X0.1Z0S20
G1X0.1Z0S0
G1X0.2Z0S20
G1X1.7Z0S0
G1X0.2Z0S20
G1X0.1Z0S0
G1X0.2Z0S20
G1X0.1Z0S0
G1X0.4Z0S20
G1X0.1Z0S0
G1X0.3Z0S20
G1X0.1Z0S0
G1X0.1Z0S20
G1X0.2Z0S0
G1X0.1Z0S20
G1X0.1Z0S0
G1X0.4Z0S20
G1X0.2Z0S0
G1X0.2Z0S20
G1X0.1Z0S0
G1X0.1Z0S20
G1X0.2Z0S0
G1X0.1Z0S20
G1X0.1Z0S0
G1X0.1Z0S20
G1X0.1Z0S0
G1X0.1Z0S20
G1X0.1Z0S0
G1X0.2Z0S20
G1X2.5Z0S0
G1Z0S20
G1X0.2Z0.01S0
G1Z-0S20
G1X-2.5Z-0S0
G1X-0.3Z-0S20
G1X-0.1Z-0S0
G1X-0.1Z-0S20
G1X-0.1Z-0S0
G1X-0.1Z-0S20
G1X-0.1Z-0S0
G1X-0.1Z-0S20
G1X-0.2Z-0S0
G1X-0.1Z-0S20
G1X-0.3Z-0S0
G1X-0.1Z-0S20
G1X-0.2Z-0S0
G1X-0.3Z-0S20
G1X-0.2Z-0S0
G1X-0.1Z-0S20
G1X-0.3Z-0S0
G1X-0.1Z-0S20
G1X-0.1Z-0S0
G1X-0.1Z-0S20
G1X-0.2Z-0S0
G1X-0.3Z-0S20
G1X-0.1Z-0S0
G1X-0.4Z-0S20
G1X-0.1Z-0S0
G1X-0.5Z-0S20
G1X-0.9Z-0S0
G1X-0.3Z-0S20
G1X-0.1Z-0S0
G1X-0.1Z-0S20
G1X-0.1Z-0S0
G1X-0.1Z-0S20
G1X-0.1Z-0S0
G1X-0.3Z-0S20
G1X-0.1Z-0S0
G1X-0.1Z-0S20
G1X-0.1Z-0S0
G1X-0.1Z-0S20
G1X-0.3Z-0S0
G1X-0.2Z-0S20
G1X-0.2Z-0S0
G1X-0.7Z-0S20
G1X-0.1Z-0S0
G1X-0.1Z-0S20
G1X-0.6Z-0S0
G1X-0.1Z-0S20
G1X-0.1Z-0S0
G1X-0.1Z-0S20
G1X-0.3Z-0S0
G1X-0.1Z-0S20
G1X-0.2Z-0S0
G1X-0.1Z-0S20
G1X-0.1Z-0S0
G1X-0.1Z-0S20
G1X-0.1Z-0S0
G1X-0.1Z-0S20
G1X-0.2Z-0S0
G1X-0.1Z-0S20
G1X-0.1Z-0S0
G1X-0.1Z-0S20
G1X-0.2Z-0S0
G1X-0.1Z-0S20
G1X-0.2Z-0S0
G1X-0.2Z-0S20
G1X-0.1Z-0S0
G1X-0.4Z-0S20
G1X-0.1Z-0S0
G1X-0.1Z-0S20
G1X-0.1Z-0S0
G1X-0.1Z-0S20
G1X-0.1Z-0S0
G1X-0.1Z-0S20
G1X-0.3Z-0S0
G1X-0.1Z-0S20
G1X-0.1Z-0S0
G1X-0.1Z-0S20
G1X-0.1Z-0S0
G1X-0.1Z-0S20
G1X-0.1Z-0S0
G1X-0.2Z-0S20
G1X-2.5Z-0S0
G1Z-0S20
G1X-0.2Z-0S0
G1Z-0S20
G1X2.5Z-0S0
G1X0.4Z-0S20
G1X0.1Z-0S0
G1X0.2Z-0S20
G1X0.1Z-0S0
G1X0.1Z-0S20
G1X0.2Z-0S0
G1X0.2Z-0S20
G1X0.1Z-0S0
G1X0.1Z-0S20
G1X0.1Z-0S0
G1X0.2Z-0S20
G1X0.2Z-0S0
G1X0.2Z-0S20
G1X0.1Z-0S0
G1X0.1Z-0S20
G1X0.1Z-0S0
G1X0.1Z-0S20
G1X0.6Z-0S0
G1X0.2Z-0S20
G1X0.3Z-0S0
G1X0.1Z-0S20
G1X0.1Z-0S0
G1X0.1Z-0S20
G1X0.4Z-0S0
G1X0.2Z-0S20
G1X0.4Z-0S0
G1X0.7Z-0S20
G1X0.1Z-0S0
G1X0.1Z-0S20
G1X0.3Z-0S0
G1X0.1Z-0S20
G1X0.2Z-0S0
G1X0.1Z-0S20
G1X0.7Z-0S0
G1X0.1Z-0S20
G1X0.6Z-0S0
G1X0.1Z-0S20
G1X0.2Z-0S0
G1X0.1Z-0S20
G1X0.1Z-0S0
G1X0.1Z-0S20
G1X0.1Z-0S0
G1X0.1Z-0S20
G1X0.1Z-0S0
G1X0.4Z-0S20
G1X0.1Z-0S0
G1X0.3Z-0S20
G1X0.1Z-0S0
G1X0.4Z-0S20
G1X0.1Z-0S0
G1X0.3Z-0S20
G1X0.1Z-0S0
G1X0.4Z-0S20
G1X0.1Z-0S0
G1X0.2Z-0S20
G1X0.3Z-0S0
G1X0.1Z-0S20
G1X0.1Z-0S0
G1X0.1Z-0S20
G1X0.1Z-0S0
G1X0.3Z-0S20
G1X0.4Z-0S0
G1X0.1Z-0S20
G1X0.1Z-0S0
G1X0.1Z-0S20
G1X0.1Z-0S0
G1X0.1Z-0S20
G1X0.1Z-0S0
G1X0.1Z-0S20
G1X0.1Z-0S0
G1X0.2Z-0S20
G1X0.1Z-0S0
G1X0.1Z-0S20
G1X0.1Z-0S0
G1X0.3Z-0S20
G1X2.5Z-0S0
G1Z-0S20
G1X0.1Z0S0
G1X-2.5Z0S0
G1X-0.3Z0S20
G1X-0.1Z0S0
G1X-0.1Z0S20
G1X-0.1Z0S0
G1X-0.1Z0S20
G1X-0.1Z0S0
G1X-0.1Z0S20
G1X-0.4Z0S0
G1X-0.1Z0S20
G1X-0.1Z0S0
G1X-0.1Z0S20
G1X-0.1Z0S0
G1X-0.1Z0S20
G1X-0.3Z0S0
G1X-0.4Z0S20
G1X-0.1Z0S0
G1X-0.1Z0S20
G1X-0.3Z0S0
G1X-0.2Z0S20
G1X-0.2Z0S0
G1X-0.3Z0S20
G1X-0.2Z0S0
G1X-0.2Z0S20
G1X-0.2Z0S0
G1X-0.2Z0S20
G1X-0.1Z0S0
G1X-0.1Z0S20
G1X-0.1Z0S0
G1X-0.1Z0S20
G1X-0.2Z0S0
G1X-0.2Z0S20
G1X-2Z0S0
G1X-0.1Z0S20
G1X-0.2Z0S0
G1X-0.2Z0S20
G1X-0.1Z0S0
G1X-0.1Z0S20
G1X-1.7Z0S0
G1X-0.1Z0S20
G1X-1Z0S0
G1X-0.1Z0S20
G1X-0.1Z0S0
G1X-0.3Z0S20
G1X-0.1Z0S0
G1X-0.1Z0S20
G1X-0.2Z0S0
G1X-0.1Z0S20
G1X-0.2Z0S0
G1X-0.2Z0S20
