; LightBurn 0.9.24
; GRBL device profile, absolute coords
; Bounds: X3 Y3 to X23.63 Y33
G00 G17 G40 G21 G54
G90
M4
; Cut @ 6000 mm/min, 20% power
M8
M5
G0X10.96Y4.41
M3 S30
; Layer C00
G1X11.12Y4.25S20F6000
G1X11.3Y4.12
G1X11.52Y4
G1X11.72Y3.92
G1X11.9Y3.87
G1X12.08Y3.85
G1X12.23Y3.86
G1X12.37Y3.9
G1X12.5Y3.98
G1X12.6Y4.08
G1X12.7Y4.22
G1X12.74Y4.32
G1X12.78Y4.4
G1X12.79Y4.46
G1Y4.51
G1X12.78Y4.52
G1X12.75
G1X12.7Y4.47
G1X12.64Y4.4
G1X12.51Y4.24
G1X12.37Y4.13
G1X12.21Y4.07
G1X12.03
G1X11.83Y4.11
G1X11.6Y4.2
G1X11.34Y4.35
G1X11.04Y4.55
G1X10.85Y4.69
G1X10.79Y4.72
G1X10.75Y4.74
G1Y4.71
G1X10.77Y4.67
G1X10.81Y4.62
G1X10.96Y4.41
M5
G0X12.3Y5.09
M3 S30
; Layer C00
G1X12.32
G1Y5.12
G1Y5.18
G1X12.33Y5.38
G1Y5.52
G1Y5.63
G1Y5.7
G1X12.31Y5.74
G1X12.3Y5.75
G1X12.28Y5.72
G1X12.26Y5.66
G1X12.24Y5.56
G1Y5.36
G1X12.27Y5.17
G1X12.3Y5.09
M5
G0X11.65Y5.53
M3 S30
; Layer C00
G1Y5.55
G1X11.68Y5.62
G1Y5.76
G1Y5.9
G1X11.66Y5.97
G1X11.65Y5.99
G1X11.63Y5.96
G1X11.6Y5.87
G1X11.58Y5.72
G1X11.6Y5.59
G1X11.63Y5.54
G1X11.65Y5.53
M5
G0X10.8Y5.73
M3 S30
; Layer C00
G1X10.86Y5.94
G1X10.9Y6.11
G1Y6.25
G1Y6.29
G1X10.88Y6.3
G1X10.86Y6.29
G1X10.83Y6.24
G1X10.8Y6.1
G1Y5.93
G1Y5.73
M5
G0X10.15Y6.35
M3 S30
; Layer C00
G1X10.21Y6.63
G1X10.23Y6.75
G1Y6.84
G1Y6.92
G1X10.2Y6.96
G1X10.17
G1X10.16Y6.92
G1X10.15Y6.83
G1Y6.69
G1Y6.35
M5
G0X9.77Y6.66
M3 S30
; Layer C00
G1X9.82Y6.94
G1Y7.05
G1X9.83Y7.15
G1Y7.23
G1X9.81Y7.27
G1X9.78
G1X9.77Y7.22
G1X9.76Y7.13
G1Y7
G1Y6.66
M5
G0X10.41Y7.25
M3 S30
; Layer C00
G1X10.21Y7.34
G1X10.07Y7.41
G1X9.97Y7.55
G1X9.9Y7.75
G1X9.87Y8.02
G1Y8.14
G1X9.86Y8.23
G1Y8.3
G1X9.87Y8.34
G1X9.92Y8.38
G1X10.03
G1X10.13
G1X10.19Y8.33
G1X10.2Y8.28
G1X10.21Y8.2
G1X10.22Y8.09
G1Y7.94
G1X10.24Y7.75
G1X10.27Y7.59
G1X10.3Y7.48
G1X10.33Y7.41
G1X10.37Y7.38
G1X10.39
G1Y7.4
G1X10.38Y7.46
G1X10.34Y7.64
G1X10.3Y7.88
G1X10.25Y8.18
G1X10.61Y8.09
G1X10.47Y8.23
G1X10.4Y8.31
G1X10.36Y8.41
G1X10.34Y8.54
G1Y8.73
G1Y9.11
G1X10.75Y9.07
G1X10.77Y8.64
G1Y8.45
G1Y8.3
G1X10.74Y8.21
G1X10.71Y8.16
G1X10.67Y8.14
G1Y8.12
G1X10.68
G1X10.73
G1X10.78Y8.09
G1X10.82Y8.03
G1X10.85Y7.9
G1X10.87Y7.69
G1X10.89Y7.52
G1X10.91Y7.35
G1X10.93Y7.2
G1X10.95Y7.1
G1X11Y6.93
G1X10.67Y7.11
G1X10.41Y7.25
M5
G0X11.05Y7.35
M3 S30
; Layer C00
G1Y7.86
G1X11.22Y7.8
G1X11.35Y7.76
G1X11.42Y7.77
G1X11.44Y7.74
G1X11.48Y7.63
G1X11.53Y7.46
G1X11.58Y7.24
G1X11.62Y7.02
G1X11.65Y6.83
G1X11.67Y6.7
G1Y6.65
G1X11.58
G1X11.41Y6.71
G1X11.3Y6.76
G1X11.23Y6.82
G1X11.18Y6.88
G1X11.17Y6.95
G1Y7.02
G1X11.16Y7.05
G1X11.14Y7.03
G1X11.11Y6.97
G1X11.08Y6.94
G1X11.07Y7
G1X11.05Y7.14
G1Y7.35
M5
G0X11.71Y7.17
M3 S30
; Layer C00
G1X11.67Y7.73
G1X11.92Y7.66
G1X12.11Y7.61
G1X12.2Y7.58
G1X12.22Y7.54
G1X12.24Y7.43
G1X12.28Y7.29
G1X12.39Y6.75
G1X12.44Y6.51
G1X12.45Y6.43
G1X12.43Y6.39
G1X12.35
G1X12.2Y6.41
G1X11.97Y6.46
G1X11.83Y6.53
G1X11.8Y6.6
G1X11.76Y6.74
G1X11.73Y6.93
G1X11.71Y7.17
M5
G0X12.49Y7.19
M3 S30
; Layer C00
G1Y7.29
G1Y7.34
G1Y7.37
G1X12.51
G1X12.53Y7.33
G1X12.61Y7.19
G1X12.64Y7.15
G1X12.65Y7.16
G1Y7.21
G1X12.67Y7.28
G1X12.72Y7.32
G1X12.81Y7.34
G1X12.97
G1X13.28
G1X13.3Y6.84
G1Y6.65
G1Y6.5
G1X13.27Y6.39
G1X13.24Y6.3
G1X13.19Y6.25
G1X13.11Y6.22
G1X13.01Y6.2
G1X12.88
G1X12.78
G1X12.7Y6.22
G1X12.64Y6.25
G1X12.59Y6.3
G1X12.56Y6.39
G1X12.54Y6.51
G1X12.52Y6.67
G1X12.5Y6.88
G1X12.49Y7.19
M5
G0X12.66Y7.5
M3 S30
; Layer C00
G1X12.58Y7.55
G1X12.53Y7.61
G1X12.5Y7.69
G1X12.48Y7.81
G1Y7.97
G1X12.47Y8.17
G1Y8.35
G1Y8.5
G1X12.49Y8.62
G1X12.5Y8.7
G1X12.52Y8.75
G1X12.54Y8.77
G1X12.57Y8.76
G1X12.61Y8.71
G1X12.63Y8.68
G1X12.65Y8.67
G1X12.66Y8.71
G1X12.71Y8.77
G1X12.82Y8.79
G1X12.98Y8.77
G1X13.14Y8.72
G1X13.24Y8.67
G1X13.29Y8.59
G1Y8.52
G1X13.31Y8.44
G1Y8.32
G1Y8.17
G1Y7.97
G1X13.3Y7.8
G1X13.28Y7.66
G1X13.27Y7.58
G1X13.24Y7.52
G1X13.22Y7.51
G1X13.2Y7.53
G1X13.15Y7.65
G1X13.13Y7.66
G1Y7.64
G1Y7.56
G1X13.11Y7.48
G1X13.08Y7.44
G1X13.01
G1X12.88Y7.45
G1X12.76Y7.47
G1X12.66Y7.5
M5
G0X12.21Y7.69
M3 S30
; Layer C00
G1X12.14Y7.68
G1X11.99Y7.71
G1X11.81Y7.78
G1X11.71Y7.85
G1X11.66Y7.92
G1X11.63Y8.04
G1Y8.21
G1Y8.5
G1X11.67Y8.72
G1X11.72Y8.86
G1X11.78Y8.91
G1X11.89Y8.88
G1X12.06Y8.79
G1X12.18Y8.71
G1X12.25Y8.62
G1X12.26Y8.55
G1X12.27Y8.46
G1Y8.34
G1Y8.02
G1Y7.9
G1Y7.81
G1X12.25Y7.75
G1X12.21Y7.69
M5
G0X11.5Y7.89
M3 S30
; Layer C00
G1X11.46Y7.84
G1X11.35
G1X11.22Y7.9
G1X11.09Y7.99
G1X11Y8.11
G1X10.95Y8.29
G1X10.92Y8.52
G1Y8.76
G1X10.95Y8.94
G1X11.02Y9.02
G1X11.13Y9.03
G1X11.24Y8.98
G1X11.36Y8.87
G1X11.41Y8.77
G1X11.45Y8.63
G1X11.49Y8.47
G1X11.51Y8.3
G1X11.52Y8.13
G1Y7.99
G1X11.5Y7.89
M5
G0X10.13Y8.48
M3 S30
; Layer C00
G1X10.04Y8.52
G1X9.93Y8.62
G1X9.85Y8.74
G1X9.81Y8.85
G1X9.84Y9.01
G1X9.89Y9.15
G1X9.97Y9.25
G1X10.06Y9.27
G1X10.11Y9.25
G1X10.15Y9.18
G1X10.17Y9.06
G1X10.18Y8.87
G1Y8.72
G1Y8.59
G1X10.15Y8.51
G1X10.13Y8.48
M5
G0X9.79Y8.51
M3 S30
; Layer C00
G1X9.77Y8.44
G1Y8.34
G1X9.75Y8.2
G1Y8.06
G1Y7.71
G1X9.62Y7.85
G1X9.56Y7.94
G1X9.52Y8.04
G1X9.5Y8.16
G1Y8.3
G1Y8.47
G1X9.52Y8.56
G1X9.57Y8.6
G1X9.66
G1X9.74
G1X9.78Y8.58
G1X9.8Y8.55
G1X9.79Y8.51
M5
G0X9.67Y8.67
M3 S30
; Layer C00
G1X9.6Y8.69
G1X9.53Y8.75
G1X9.48Y8.83
G1X9.44Y8.94
G1X9.42Y9.05
G1Y9.16
G1X9.45Y9.26
G1X9.5Y9.33
G1X9.6Y9.38
G1X9.67Y9.34
G1X9.73Y9.22
G1X9.76Y9
G1Y8.83
G1Y8.73
G1X9.73Y8.68
G1X9.67Y8.67
M5
G0X10.33Y9.47
M3 S30
; Layer C00
G1X10.37Y9.49
G1X10.39Y9.54
G1X10.37Y9.64
G1X10.33Y9.78
G1X10.3Y9.85
G1X10.29Y9.87
G1X10.28Y9.82
G1Y9.7
G1Y9.61
G1Y9.54
G1X10.31Y9.49
G1X10.33Y9.47
M5
G0X10.81Y9.53
M3 S30
; Layer C00
G1X10.85Y9.44
G1X10.89
G1X10.91Y9.51
G1X10.89Y9.63
G1X10.85Y9.78
G1X10.82Y9.86
G1X10.81Y9.87
G1X10.8Y9.82
G1Y9.71
G1Y9.53
M5
G0X11.45Y9.49
M3 S30
; Layer C00
G1X11.48Y9.33
G1X11.52Y9.27
G1X11.54Y9.28
G1X11.55Y9.37
G1Y9.55
G1Y9.68
G1Y9.78
G1Y9.85
G1X11.53Y9.89
G1X11.5Y9.86
G1X11.48Y9.79
G1X11.46Y9.68
G1X11.45Y9.49
M5
G0X12.24Y9.52
M3 S30
; Layer C00
G1X12.27Y9.32
G1X12.3Y9.24
G1X12.32Y9.25
G1Y9.29
G1Y9.36
G1X12.33Y9.58
G1Y9.75
G1Y9.9
G1Y9.99
G1X12.31Y10.03
G1Y10.01
G1X12.28Y9.95
G1X12.27Y9.87
G1X12.25Y9.76
G1X12.24Y9.52
M5
G0X13.37Y8.6
M3 S30
; Layer C00
G1X13.55Y8.69
G1X13.74Y8.77
G1X13.91Y8.79
G1X14.04Y8.76
G1X14.09Y8.68
G1Y8.63
G1X14.1Y8.62
G1X14.12Y8.64
G1X14.15Y8.7
G1X14.17Y8.72
G1X14.19Y8.66
G1X14.21Y8.52
G1X14.23Y8.3
G1X14.24Y8.08
G1Y7.9
G1X14.22Y7.77
G1X14.19Y7.66
G1X14.13Y7.58
G1X14.06Y7.53
G1X13.95Y7.49
G1X13.82Y7.46
G1X13.62Y7.45
G1X13.51Y7.47
G1X13.48Y7.53
G1X13.46Y7.67
G1X13.43Y7.85
G1X13.41Y8.06
G1X13.37Y8.6
M5
G0X14.43Y8.56
M3 S30
; Layer C00
G1X14.51Y8.68
G1X14.66Y8.8
G1X14.83Y8.88
G1X14.96Y8.89
G1X14.99Y8.85
G1X15.02Y8.74
G1X15.04Y8.59
G1X15.06Y8.41
G1Y8.18
G1Y8.02
G1X15.03Y7.92
G1X14.98Y7.85
G1X14.87Y7.77
G1X14.72Y7.71
G1X14.59Y7.68
G1X14.51
G1X14.49Y7.74
G1X14.47Y7.83
G1X14.45Y7.95
G1X14.43Y8.09
G1Y8.37
G1Y8.56
M5
G0X15.24Y8.53
M3 S30
; Layer C00
G1X15.28Y8.69
G1X15.33Y8.82
G1X15.39Y8.91
G1X15.47Y8.98
G1X15.54Y9.02
G1X15.6Y9.04
G1X15.65Y9.02
G1X15.69Y8.97
G1X15.72Y8.89
G1X15.74Y8.78
G1X15.76Y8.64
G1Y8.36
G1X15.71Y8.14
G1X15.62Y7.97
G1X15.49Y7.87
G1X15.42Y7.83
G1X15.39Y7.81
G1X15.43
G1X15.7Y7.85
G1X15.72Y7.03
G1X15.8Y7.34
G1X15.86Y7.62
G1X15.89Y7.86
G1X15.9Y7.98
G1X15.93Y8.05
G1X15.99Y8.08
G1X16.09Y8.09
G1X16.19
G1X16.25Y8.08
G1X16.28Y8.04
G1X16.29Y7.97
G1X16.3Y7.91
G1X16.31Y7.9
G1X16.33Y7.93
G1X16.36Y8.02
G1X16.38Y8.08
G1X16.39Y8.06
G1Y7.96
G1X16.37Y7.56
G1Y7.49
G1Y7.45
G1X16.39Y7.43
G1X16.43Y7.49
G1X16.48Y7.71
G1X16.51Y8.02
G1Y8.14
G1Y8.23
G1X16.53Y8.29
G1X16.54Y8.34
G1X16.6Y8.39
G1X16.69Y8.41
G1X16.79
G1X16.85Y8.38
G1Y8.34
G1X16.87Y8.27
G1Y8.19
G1Y8.07
G1X16.84Y7.77
G1X16.78Y7.57
G1X16.71Y7.49
G1X16.56Y7.39
G1X16.37Y7.27
G1X16.15Y7.15
G1X15.33Y6.74
G1X15.23Y6.69
G1X15.13Y6.65
G1X15.06Y6.63
G1X15.03
G1Y6.67
G1Y6.76
G1X15.06Y6.88
G1X15.09Y7.03
G1X15.16Y7.35
G1X15.19Y7.6
G1Y7.7
G1X15.21Y7.75
G1X15.23Y7.77
G1X15.27
G1X15.3Y7.75
G1Y7.78
G1X15.26Y7.82
G1X15.22Y7.9
G1X15.2Y8.03
G1Y8.19
G1X15.21Y8.36
G1X15.24Y8.53
M5
G0X15.95Y8.49
M3 S30
; Layer C00
G1Y8.65
G1Y8.8
G1X15.97Y8.91
G1Y8.99
G1X15.99Y9.04
G1X16.05Y9.09
G1X16.16Y9.1
G1X16.26
G1X16.32Y9.06
G1X16.36Y8.99
G1X16.39Y8.88
G1X16.4Y8.65
G1X16.36Y8.42
G1X16.27Y8.25
G1X16.16Y8.16
G1X16.04Y8.15
G1X15.97Y8.21
G1X15.96Y8.28
G1X15.95Y8.37
G1Y8.49
M5
G0X16.58Y8.61
M3 S30
; Layer C00
G1X16.55Y8.71
G1X16.53Y8.87
G1Y9
G1Y9.1
G1X16.55Y9.19
G1X16.58Y9.25
G1X16.62Y9.28
G1X16.67
G1X16.73Y9.26
G1X16.79Y9.21
G1X16.84Y9.11
G1X16.87Y8.96
G1Y8.79
G1X16.83Y8.64
G1X16.77Y8.57
G1X16.67Y8.54
G1X16.62Y8.56
G1X16.58Y8.61
M5
G0X16.94Y8.52
M3 S30
; Layer C00
G1X16.95Y8.8
G1X16.97Y9.05
G1X17Y9.24
G1X17.03Y9.34
G1X17.1Y9.4
G1X17.16Y9.37
G1X17.22Y9.27
G1X17.25Y9.11
G1X17.24Y8.89
G1X17.19Y8.76
G1X17.16Y8.71
G1X17.15Y8.67
G1Y8.62
G1X17.19Y8.58
G1X17.22Y8.51
G1X17.24Y8.42
G1Y8.31
G1X17.23Y8.18
G1X17.17Y7.95
G1X17.09Y7.8
G1X17.02Y7.75
G1X16.97
G1X16.95Y7.83
G1X16.93Y8.01
G1Y8.25
G1Y8.52
M5
G0X16.89Y9.56
M3 S30
; Layer C00
G1X16.91
G1X16.94Y9.61
G1X16.98Y9.72
G1Y9.84
G1X16.96Y9.93
G1X16.92
G1X16.88Y9.84
G1Y9.69
G1Y9.6
G1Y9.56
M5
G0X16.46Y9.66
M3 S30
; Layer C00
G1X16.42Y9.76
G1X16.39Y9.81
G1X16.37
G1X16.36Y9.76
G1Y9.66
G1Y9.55
G1Y9.5
G1X16.39
G1X16.42Y9.55
G1X16.46Y9.66
M5
G0X15.91Y9.7
M3 S30
; Layer C00
G1X15.89Y9.81
G1X15.87Y9.85
G1X15.85
G1Y9.78
G1X15.84Y9.67
G1Y9.57
G1Y9.49
G1Y9.43
G1X15.86Y9.41
G1X15.89Y9.46
G1X15.91Y9.57
G1Y9.7
M5
G0X15.25Y9.69
M3 S30
; Layer C00
G1Y9.8
G1X15.24Y9.88
G1X15.23Y9.9
G1X15.22Y9.88
G1X15.2Y9.82
G1X15.18Y9.73
G1X15.16Y9.61
G1Y9.49
G1Y9.39
G1Y9.31
G1X15.19Y9.26
G1X15.21
G1X15.24Y9.3
G1Y9.4
G1X15.25Y9.55
G1Y9.69
M5
G0X14.46Y9.66
M3 S30
; Layer C00
G1X14.45Y9.76
G1X14.43Y9.78
G1Y9.76
G1X14.41Y9.71
G1X14.39Y9.54
G1X14.37Y9.41
G1X14.36Y9.3
G1Y9.22
G1Y9.18
G1X14.41Y9.2
G1X14.45Y9.32
G1X14.47Y9.48
G1Y9.66
M5
G0X14.96Y10.9
M3 S30
; Layer C00
G1X15.13Y10.93
G1X15.32Y11.03
G1X15.48Y11.16
G1X15.58Y11.3
G1X15.62Y11.46
G1X15.63Y11.65
G1X15.61Y11.84
G1X15.57Y12.05
G1X15.49Y12.25
G1X15.39Y12.45
G1X15.27Y12.64
G1X15.12Y12.82
G1X14.87Y13.09
G1X15.15Y12.55
G1X15.26Y12.32
G1X15.36Y12.1
G1X15.43Y11.9
G1X15.47Y11.76
G1Y11.51
G1X15.41Y11.29
G1X15.27Y11.11
G1X15.07Y10.99
G1X14.97Y10.95
G1X14.92Y10.92
G1Y10.9
G1X14.96
M5
G0X13.38Y11.17
M3 S30
; Layer C00
G1X13.35
G1X13.32Y11.22
G1X13.29Y11.3
G1X13.28Y11.42
G1X13.26Y11.73
G1X13.28Y12.12
G1X13.31Y12.34
G1X13.33Y12.48
G1X13.35Y12.54
G1X13.38Y12.53
G1X13.4Y12.45
G1X13.42Y12.3
G1Y12.08
G1X13.43Y11.81
G1Y11.57
G1Y11.37
G1X13.4Y11.23
G1X13.38Y11.17
M5
G0X13.7Y10.96
M3 S30
; Layer C00
G1X13.83Y11.05
G1X13.95Y11.11
G1X14.09Y11.13
G1X14.5Y11.15
G1X14.63Y11.17
G1X14.74Y11.21
G1X14.83Y11.29
G1X14.92Y11.39
G1X14.97Y11.5
G1X15Y11.63
G1Y11.77
G1X14.96Y11.94
G1X14.89Y12.14
G1X14.79Y12.37
G1X14.65Y12.63
G1X14.33Y13.31
G1X14.03Y14.06
G1X13.93Y14.34
G1X13.84Y14.56
G1X13.76Y14.73
G1X13.7Y14.85
G1X13.64Y14.92
G1X13.58Y14.95
G1X13.53
G1X13.47Y14.91
G1X13.42Y14.87
G1X13.37
G1X13.33
G1X13.29Y14.9
G1X13.21Y14.96
G1X13.13
G1X13.05Y14.93
G1X12.98Y14.85
G1X12.96Y14.8
G1X12.9Y14.64
G1X12.74Y14.24
G1X12.62Y13.91
G1X12.33Y13.17
G1X12.01Y12.52
G1X11.9Y12.31
G1X11.82Y12.14
G1X11.76Y12
G1X11.72Y11.88
G1X11.7Y11.67
G1X11.76Y11.47
G1X11.85Y11.32
G1X11.97Y11.21
G1X12.15Y11.16
G1X12.4Y11.14
G1X12.59
G1X12.75Y11.1
G1X12.89Y11.04
G1X13.04Y10.95
G1X13.16Y10.88
G1X13.27Y10.82
G1X13.35Y10.78
G1X13.4
G1X13.45
G1X13.52Y10.83
G1X13.6Y10.89
G1X13.7Y10.96
M5
G0X11.85Y10.94
M3 S30
; Layer C00
G1X11.77
G1X11.6Y11.01
G1X11.42Y11.14
G1X11.31Y11.25
G1X11.26Y11.35
G1X11.24Y11.48
G1X11.25Y11.67
G1X11.28Y11.86
G1X11.34Y12.06
G1X11.44Y12.29
G1X11.58Y12.57
G1X11.69Y12.78
G1X11.78Y12.96
G1X11.83Y13.07
G1X11.85Y13.12
G1X11.83Y13.1
G1X11.78Y13.05
G1X11.71Y12.98
G1X11.64Y12.89
G1X11.4Y12.58
G1X11.23Y12.27
G1X11.12Y11.97
G1X11.08Y11.69
G1X11.09Y11.44
G1X11.18Y11.23
G1X11.32Y11.06
G1X11.54Y10.95
G1X11.72Y10.91
G1X11.84
G1X11.85Y10.94
M5
G0X9.78Y10.09
M3 S30
; Layer C00
G1X9.77Y10.07
G1X9.76Y10.01
G1Y9.94
G1X9.75Y9.84
G1Y9.74
G1X9.77Y9.67
G1X9.78Y9.63
G1X9.8Y9.62
G1X9.83Y9.7
G1Y9.86
G1X9.81Y10.02
G1X9.78Y10.09
M5
G0X7.07Y8.45
M3 S30
; Layer C00
G1Y8.42
G1X7.16Y8.22
G1X7.33Y7.96
G1X7.53Y7.62
G1X7.72Y7.25
G1X7.78Y7.09
G1X7.84Y6.97
G1X7.89Y6.87
G1X7.94Y6.8
G1X8.05Y6.67
G1X8.22Y6.55
G1X8.28Y6.51
G1X8.33Y6.49
G1X8.35
G1X8.36
G1X8.35Y6.53
G1X8.32Y6.58
G1X8.26Y6.64
G1X8.19Y6.72
G1X8.14Y6.8
G1X8.08Y6.93
G1X8.01Y7.08
G1X7.95Y7.25
G1X7.86Y7.46
G1X7.75Y7.66
G1X7.6Y7.88
G1X7.41Y8.11
G1X7.25Y8.29
G1X7.14Y8.4
G1X7.07Y8.45
M5
G0X7.12Y12.26
M3 S30
; Layer C00
G1X7.13
G1X7.1Y12.3
G1X7.04Y12.35
G1X6.93Y12.43
G1X6.66Y12.64
G1X6.38Y12.91
G1X6.11Y13.19
G1X5.91Y13.46
G1X5.84Y13.55
G1X5.79Y13.61
G1X5.75Y13.64
G1X5.74
G1X5.76Y13.57
G1X5.83Y13.46
G1X5.94Y13.3
G1X6.06Y13.12
G1X6.23Y12.91
G1X6.4Y12.74
G1X6.57Y12.59
G1X6.74Y12.47
G1X6.89Y12.38
G1X7Y12.32
G1X7.08Y12.28
G1X7.12Y12.26
M5
G0X7.59Y13.58
M3 S30
; Layer C00
G1X7.67Y13.57
G1Y13.58
G1X7.61Y13.64
G1X7.45Y13.74
G1X7.12Y13.98
G1X6.76Y14.3
G1X6.62Y14.43
G1X6.51Y14.52
G1X6.44Y14.57
G1X6.43Y14.55
G1X6.5Y14.41
G1X6.61Y14.26
G1X6.75Y14.11
G1X6.91Y13.96
G1X7.09Y13.83
G1X7.26Y13.72
G1X7.43Y13.63
G1X7.59Y13.58
M5
G0X7.84Y13.99
M3 S30
; Layer C00
G1X8.23Y13.88
G1X8.7Y13.82
G1X9.2Y13.78
G1X9.73
G1X10.24Y13.82
G1X10.7Y13.89
G1X10.91Y13.94
G1X11.09Y13.99
G1X11.25Y14.06
G1X11.38Y14.13
G1X11.58Y14.29
G1X11.74Y14.49
G1X11.82Y14.62
G1X11.89Y14.78
G1X11.96Y14.97
G1X12.12Y15.41
G1X12.19Y15.58
G1X12.26Y15.71
G1X12.34Y15.82
G1X12.44Y15.92
G1X12.56Y16.01
G1X12.73Y16.12
G1X12.95Y16.24
G1X12.98Y16.27
G1X12.95Y16.29
G1X12.85
G1X12.68Y16.3
G1X12.37Y16.32
G1X12.13Y16.42
G1X12.02Y16.5
G1X11.9Y16.61
G1X11.78Y16.76
G1X11.64Y16.94
G1X11.34Y17.31
G1X11.04Y17.64
G1X10.88Y17.79
G1X10.72Y17.89
G1X10.53Y17.97
G1X10.27Y18.03
G1X10.02Y18.08
G1X9.7Y18.12
G1X9.34Y18.15
G1X9Y18.17
G1X8.69
G1X8.4
G1X8.14Y18.15
G1X7.9Y18.12
G1X7.49Y18.01
G1X7.15Y17.84
G1X6.99Y17.75
G1X6.89Y17.7
G1X6.85
G1X6.86Y17.74
G1X6.91Y17.79
G1X6.99Y17.85
G1X7.09Y17.92
G1X7.21Y18
G1X7.48Y18.14
G1X7.75Y18.25
G1X7.92Y18.31
G1X7.99Y18.34
G1Y18.36
G1X7.91
G1X7.69Y18.34
G1X7.45Y18.28
G1X7.17Y18.19
G1X6.94Y18.07
G1X6.74Y17.93
G1X6.55Y17.75
G1X6.35Y17.5
G1X6.19Y17.23
G1X6.08Y16.95
G1X6.03Y16.66
G1Y16.36
G1X6.07Y16.05
G1X6.16Y15.75
G1X6.31Y15.44
G1X6.52Y15.15
G1X6.8Y14.9
G1X7.15Y14.69
G1X7.56Y14.52
G1X8.04Y14.38
G1X8.57Y14.29
G1X9.16Y14.24
G1X9.8
G1X10.11
G1X10.46Y14.25
G1X10.58
G1X10.59
G1X10.56Y14.22
G1X10.47Y14.19
G1X10.34Y14.17
G1X10.16Y14.14
G1X9.72Y14.11
G1X9.23Y14.1
G1X8.9
G1X8.59Y14.12
G1X8.3Y14.15
G1X8.05Y14.19
G1X7.59Y14.3
G1X7.18Y14.47
G1X7.05Y14.54
G1X6.94Y14.59
G1X6.86Y14.62
G1X6.84
G1X6.87Y14.58
G1X6.95Y14.51
G1X7.08Y14.42
G1X7.23Y14.32
G1X7.56Y14.12
G1X7.84Y13.99
M5
G0X10.05Y13.32
M3 S30
; Layer C00
G1X10.06Y13.29
G1X10.17Y13.25
G1X10.33
G1X10.53Y13.29
G1X10.75Y13.36
G1X10.97Y13.45
G1X11.16Y13.55
G1X11.31Y13.66
G1X11.39Y13.77
G1X11.41Y13.83
G1Y13.85
G1X10.98Y13.63
G1X10.6Y13.47
G1X10.28Y13.38
G1X10.16Y13.36
G1X10.09Y13.34
G1X10.05Y13.32
M5
G0X12.35Y14.32
M3 S30
; Layer C00
G1X12.37
G1X12.4Y14.38
G1X12.44Y14.47
G1X12.58Y14.82
G1X12.71Y15.11
G1X12.81Y15.31
G1X12.9Y15.44
G1X12.99Y15.51
G1X13.07Y15.55
G1X13.1Y15.57
G1X13.08Y15.58
G1X13.02
G1X12.9Y15.57
G1X12.78Y15.53
G1X12.72Y15.47
G1X12.66Y15.39
G1X12.59Y15.27
G1X12.53Y15.13
G1X12.42Y14.82
G1X12.36Y14.52
G1Y14.42
G1Y14.35
G1Y14.32
M5
G0X14.17Y14.7
M3 S30
; Layer C00
G1X14.24Y14.52
G1X14.3Y14.39
G1X14.35Y14.3
G1X14.38Y14.27
G1Y14.29
G1Y14.36
G1Y14.48
G1X14.31Y14.76
G1X14.21Y15.05
G1X14.1Y15.3
G1X13.98Y15.47
G1X13.86Y15.55
G1X13.74Y15.59
G1X13.6
G1X13.74Y15.53
G1X13.81Y15.47
G1X13.89Y15.36
G1X13.98Y15.18
G1X14.08Y14.93
G1X14.17Y14.7
M5
G0X14.77Y14.93
M3 S30
; Layer C00
G1X14.87Y14.69
G1X14.97Y14.49
G1X15.08Y14.34
G1X15.2Y14.22
G1X15.34Y14.12
G1X15.5Y14.05
G1X15.69Y13.98
G1X16.16Y13.87
G1X16.71Y13.81
G1X17.29Y13.78
G1X17.88Y13.8
G1X18.17Y13.83
G1X18.43Y13.87
G1X18.67Y13.92
G1X18.88Y13.98
G1X19.25Y14.15
G1X19.57Y14.39
G1X19.69Y14.51
G1X19.75Y14.57
G1Y14.59
G1X19.45Y14.43
G1X19.18Y14.32
G1X18.87Y14.24
G1X18.53Y14.17
G1X18.16Y14.12
G1X17.76Y14.1
G1X17.33
G1X16.88Y14.11
G1X16.59Y14.13
G1X16.38Y14.16
G1X16.26Y14.18
G1X16.23Y14.21
G1X16.29Y14.22
G1X16.43Y14.24
G1X16.65
G1X16.96
G1X17.46
G1X17.94Y14.27
G1X18.37Y14.32
G1X18.77Y14.39
G1X19.13Y14.5
G1X19.45Y14.62
G1X19.73Y14.77
G1X19.97Y14.95
G1X20.26Y15.25
G1X20.48Y15.59
G1X20.61Y15.96
G1X20.68Y16.39
G1Y16.66
G1Y16.85
G1X20.63Y17.02
G1X20.54Y17.21
G1X20.41Y17.44
G1X20.26Y17.65
G1X20.09Y17.84
G1X19.9Y17.99
G1X19.69Y18.12
G1X19.47Y18.23
G1X19.23Y18.3
G1X18.97Y18.34
G1X18.65Y18.37
G1X18.88Y18.29
G1X19.18Y18.16
G1X19.43Y18.04
G1X19.63Y17.91
G1X19.78Y17.77
G1X19.84Y17.71
G1X19.87Y17.67
G1X19.86
G1X19.81Y17.7
G1X19.46Y17.91
G1X19.04Y18.06
G1X18.79Y18.12
G1X18.53Y18.15
G1X18.25Y18.18
G1X17.95
G1X17.35Y18.15
G1X16.71Y18.07
G1X16.42Y18.01
G1X16.17Y17.95
G1X15.98Y17.89
G1X15.84Y17.82
G1X15.75Y17.73
G1X15.6Y17.57
G1X15.42Y17.37
G1X15.03Y16.89
G1X14.86Y16.69
G1X14.72Y16.55
G1X14.59Y16.44
G1X14.47Y16.37
G1X14.34Y16.33
G1X14.21Y16.31
G1X13.92Y16.3
G1X13.82Y16.29
G1X13.75Y16.28
G1X13.74Y16.26
G1X13.77Y16.23
G1X13.86Y16.18
G1X13.97Y16.11
G1X14.11Y16.03
G1X14.45Y15.85
G1X14.66Y15.22
G1X14.77Y14.93
M5
G0X15.29Y13.85
M3 S30
; Layer C00
G1X15.28
G1X15.29Y13.82
G1X15.33Y13.77
G1X15.39Y13.7
G1X15.48Y13.62
G1X15.75Y13.44
G1X16.06Y13.31
G1X16.37Y13.25
G1X16.65Y13.27
G1X16.75Y13.3
G1X16.77Y13.32
G1X16.71Y13.34
G1X16.55Y13.37
G1X16.27Y13.43
G1X15.98Y13.52
G1X15.72Y13.63
G1X15.5Y13.75
G1X15.41Y13.8
G1X15.34Y13.84
G1X15.29Y13.85
M5
G0X19.04Y13.58
M3 S30
; Layer C00
G1X19.06Y13.57
G1X19.11
G1X19.19Y13.6
G1X19.31Y13.64
G1X19.56Y13.78
G1X19.83Y14
G1X20.07Y14.25
G1X20.24Y14.49
G1X20.29Y14.58
G1X20.33Y14.66
G1X20.35Y14.7
G1Y14.72
G1X20.32Y14.69
G1X20.24Y14.61
G1X19.99Y14.35
G1X19.65Y14.03
G1X19.32Y13.79
G1X19.2Y13.71
G1X19.12Y13.65
G1X19.06Y13.6
G1X19.04Y13.58
M5
G0X20.45Y13.06
M3 S30
; Layer C00
G1X20.27Y12.89
G1X20.09Y12.73
G1X19.92Y12.58
G1X19.76Y12.46
G1X19.62Y12.37
G1X19.53Y12.31
G1X19.49Y12.28
G1Y12.26
G1X19.55
G1X19.64
G1X19.75Y12.3
G1X19.87Y12.36
G1X20Y12.44
G1X20.25Y12.64
G1X20.47Y12.88
G1X20.69Y13.17
G1X20.86Y13.42
G1X20.93Y13.53
G1X20.98Y13.61
G1X21Y13.67
G1Y13.7
G1X20.98
G1X20.94Y13.64
G1X20.88Y13.57
G1X20.82Y13.47
G1X20.73Y13.36
G1X20.6Y13.22
G1X20.45Y13.06
M5
G0X19.65Y8.44
M3 S30
; Layer C00
G1X19.61Y8.42
G1X19.55Y8.37
G1X19.46Y8.28
G1X19.35Y8.18
G1X19.13Y7.92
G1X18.96Y7.68
G1X18.83Y7.44
G1X18.74Y7.18
G1X18.63Y6.92
G1X18.47Y6.67
G1X18.39Y6.56
G1X18.35Y6.5
G1Y6.48
G1X18.4Y6.5
G1X18.59Y6.62
G1X18.74Y6.76
G1X18.86Y6.94
G1X18.97Y7.18
G1X19.17Y7.59
G1X19.4Y8
G1X19.5Y8.17
G1X19.58Y8.3
G1X19.63Y8.4
G1X19.65Y8.44
M5
G0X16.9Y7.28
M3 S30
; Layer C00
G1X16.89
G1X16.88Y7.24
G1Y7.15
G1X16.89Y6.99
G1X16.93Y6.84
G1X16.96Y6.79
G1X16.98
G1Y6.83
G1X16.99Y6.94
G1X16.98Y7.12
G1X16.93Y7.25
G1X16.9Y7.28
M5
G0X16.5Y6.96
M3 S30
; Layer C00
G1Y6.9
G1X16.49Y6.75
G1Y6.62
G1Y6.55
G1X16.52
G1X16.55Y6.58
G1X16.59Y6.71
G1X16.56Y6.86
G1X16.52Y6.95
G1X16.5Y6.96
M5
G0X15.87Y6.18
M3 S30
; Layer C00
G1X15.86Y6.16
G1Y6.11
G1Y6.01
G1Y5.91
G1Y5.85
G1Y5.84
G1X15.88Y5.87
G1X15.89Y6.01
G1X15.88Y6.15
G1X15.87Y6.18
M5
G0X15.1Y5.99
M3 S30
; Layer C00
G1X15.06Y6
G1X15.02Y5.93
G1Y5.8
G1X15.05Y5.6
G1X15.11Y5.36
G1Y5.68
G1Y5.88
G1X15.1Y5.99
M5
G0X14.38Y5.74
M3 S30
; Layer C00
G1X14.36
G1Y5.69
G1Y5.61
G1X14.37Y5.42
G1X14.41Y5.24
G1X14.44Y5.14
G1X14.45Y5.12
G1X14.46Y5.18
G1Y5.33
G1Y5.55
G1X14.41Y5.7
G1X14.38Y5.74
M5
G0X14.06Y6.22
M3 S30
; Layer C00
G1X13.97Y6.2
G1X13.83
G1X13.64Y6.22
G1X13.49Y6.28
G1X13.41Y6.38
G1Y6.49
G1Y6.55
G1X13.43Y6.66
G1Y6.8
G1Y6.96
G1Y7.34
G1X13.68
G1X13.88Y7.32
G1X14Y7.29
G1X14.07
G1X14.13Y7.35
G1X14.16Y7.37
G1X14.18Y7.29
G1X14.19Y7.16
G1X14.2Y6.99
G1Y6.81
G1Y6.62
G1X14.18Y6.47
G1X14.16Y6.36
G1X14.11Y6.27
G1X14.06Y6.22
M5
G0X14.29Y6.39
M3 S30
; Layer C00
G1X14.27Y6.43
G1Y6.49
G1X14.28Y6.57
G1X14.31Y6.69
G1X14.39Y6.99
G1X14.47Y7.47
G1X14.51Y7.56
G1X14.57Y7.61
G1X14.66Y7.63
G1X14.88Y7.67
G1X14.91Y7.63
G1X14.93Y7.54
G1Y7.46
G1X14.94Y7.44
G1X14.96Y7.46
G1X15Y7.52
G1X15.02Y7.56
G1X15.03Y7.53
G1Y7.43
G1Y7.28
G1X15Y7.03
G1X14.97Y6.85
G1X14.95Y6.71
G1X14.92Y6.61
G1X14.83Y6.5
G1X14.68Y6.44
G1X14.53Y6.41
G1X14.42Y6.38
G1X14.34
G1X14.29Y6.39
M5
G0X15.98Y4.82
M3 S30
; Layer C00
G1X15.95Y4.79
G1X15.9Y4.74
G1X15.83Y4.68
G1X15.63Y4.51
G1X15.36Y4.33
G1X15.09Y4.18
G1X14.85Y4.09
G1X14.63Y4.06
G1X14.41Y4.1
G1X14.23Y4.21
G1X14.08Y4.36
G1X14.03Y4.43
G1X13.99Y4.47
G1X13.97
G1X13.96Y4.45
G1X13.97Y4.34
G1X14.05Y4.16
G1X14.13Y4.05
G1X14.23Y3.96
G1X14.36Y3.9
G1X14.5Y3.86
G1X14.66Y3.85
G1X14.82Y3.86
G1X14.99Y3.91
G1X15.16Y3.98
G1X15.39Y4.12
G1X15.62Y4.29
G1X15.81Y4.48
G1X15.94Y4.67
G1X16Y4.78
G1Y4.83
G1X15.98Y4.82
M5
G0X16.65Y4.38
M3 S30
; Layer C00
G1X16.31Y3.98
G1X16.17Y3.82
G1X16.04Y3.69
G1X15.81Y3.48
G1X15.59Y3.34
G1X15.34Y3.27
G1X15.03Y3.24
G1X14.84
G1X14.63
G1X14.1Y3.26
G1X13.52Y3.27
G1X13.01
G1X12.59Y3.26
G1X12.26Y3.23
G1X12.02Y3.21
G1X11.8Y3.2
G1X11.6
G1X11.42Y3.23
G1X11.12Y3.31
G1X10.89Y3.46
G1X10.78Y3.58
G1X10.61Y3.76
G1X10.4Y3.99
G1X9.83Y4.66
G1X9.5Y5.03
G1X9.19Y5.35
G1X8.9Y5.63
G1X8.63Y5.87
G1X8.37Y6.07
G1X8.12Y6.23
G1X7.89Y6.37
G1X7.67Y6.48
G1X7.55Y6.58
G1X7.48Y6.69
G1X7.34Y7.16
G1X7.22Y7.44
G1X7.07Y7.72
G1X6.87Y8.02
G1X6.72Y8.24
G1X6.65Y8.4
G1X6.63Y8.48
G1Y8.58
G1Y8.7
G1Y8.85
G1X6.66Y9.54
G1Y10.31
G1Y10.66
G1Y10.97
G1X6.64Y11.22
G1X6.62Y11.37
G1X6.6Y11.5
G1Y11.58
G1X6.62Y11.62
G1X6.66Y11.63
G1X6.71Y11.6
G1X6.76Y11.52
G1X6.82Y11.38
G1X6.88Y11.19
G1X6.94Y10.97
G1X7Y10.72
G1X7.06Y10.45
G1X7.11Y10.15
G1X7.19Y9.63
G1X7.21Y10.16
G1Y10.67
G1X7.17Y11.14
G1X7.15Y11.31
G1Y11.44
G1Y11.53
G1X7.16Y11.6
G1X7.24Y11.68
G1X7.4Y11.69
G1X7.47
G1X7.51Y11.64
G1Y11.54
G1Y11.34
G1Y10.98
G1X7.54Y10.61
G1X7.57Y10.45
G1X7.59Y10.37
G1X7.61Y10.46
G1X7.64Y10.76
G1X7.72Y11.12
G1X7.76Y11.28
G1X7.8Y11.43
G1X7.84Y11.54
G1X7.87Y11.59
G1X7.88
G1X7.9Y11.55
G1Y11.48
G1X7.91Y11.37
G1Y11.23
G1X7.92Y11.06
G1Y10.85
G1X7.91Y9.56
G1X8.12Y9.07
G1X8.24Y8.82
G1X8.4Y8.49
G1X8.58Y8.14
G1X8.76Y7.8
G1X9.4Y6.63
G1X9.6Y6.29
G1X9.79Y6.04
G1X9.85Y5.97
G1X9.89Y5.93
G1X9.91Y5.92
G1Y5.95
G1X9.88Y6.03
G1X9.83Y6.17
G1X9.64Y6.66
G1X9.49Y7.08
G1X9.39Y7.49
G1X9.37Y7.67
G1X9.36Y7.8
G1Y7.89
G1X9.4Y7.92
G1X9.44Y7.9
G1X9.52Y7.83
G1X9.61Y7.73
G1X9.72Y7.61
G1X9.96Y7.36
G1X10.17Y7.2
G1X10.28Y7.14
G1X10.43Y7.05
G1X10.61Y6.95
G1X10.97Y6.73
G1X11.15Y6.63
G1X11.32Y6.54
G1X11.44Y6.48
G1X11.64Y6.38
G1X11.82Y6.29
G1X11.98Y6.22
G1X12.13Y6.2
G1X12.29Y6.16
G1X12.46Y6.08
G1X12.6Y6.03
G1X12.81Y5.99
G1X13.08Y5.97
G1X13.37Y5.96
G1X13.66
G1X13.93Y5.99
G1X14.14Y6.03
G1X14.28Y6.09
G1X14.43Y6.16
G1X14.59Y6.19
G1X14.64Y6.2
G1X14.72Y6.22
G1X14.83Y6.27
G1X14.97Y6.33
G1X15.17Y6.43
G1X15.42Y6.56
G1X15.73Y6.73
G1X16.12Y6.94
G1X16.51Y7.2
G1X16.91Y7.54
G1X17.32Y7.92
G1Y7.62
G1X17.31Y7.44
G1X17.26Y7.21
G1X17.18Y6.93
G1X17.07Y6.61
G1X16.93Y6.24
G1X16.89Y6.12
G1X16.87Y6.05
G1Y6.02
G1X16.89
G1X16.92Y6.05
G1X16.97Y6.1
G1X17.12Y6.31
G1X17.26Y6.55
G1X17.34Y6.69
G1X17.45Y6.89
G1X17.58Y7.12
G1X17.72Y7.35
G1X17.87Y7.62
G1X18.05Y7.96
G1X18.24Y8.32
G1X18.4Y8.67
G1X18.77Y9.44
G1X18.8Y10.55
G1X18.82Y11.17
G1Y11.35
G1X18.84Y11.47
G1X18.85Y11.53
G1X18.87
G1X18.89Y11.49
G1X18.92Y11.42
G1X18.96Y11.28
G1X19Y11.1
G1X19.03Y10.89
G1X19.08Y10.48
G1X19.1Y10.36
G1X19.12Y10.32
G1X19.14Y10.35
G1X19.16Y10.46
G1X19.17Y10.63
G1X19.19Y10.86
G1Y11.15
G1Y11.75
G1X19.4Y11.68
G1X19.51Y11.64
G1X19.57Y11.59
G1Y11.49
G1Y11.33
G1X19.51Y10.86
G1X19.49Y10.45
G1Y10.27
G1Y10.12
G1Y10
G1X19.51Y9.9
G1X19.53Y9.84
G1X19.54Y9.8
G1X19.55Y9.78
G1X19.56
G1X19.57Y9.82
G1X19.58Y9.89
G1X19.61Y10.12
G1X19.69Y10.63
G1X19.81Y11.1
G1X19.87Y11.31
G1X19.94Y11.47
G1X19.99Y11.58
G1X20.05Y11.62
G1X20.1
G1X20.12Y11.56
G1Y11.5
G1X20.1Y11.41
G1X20.08Y11.3
G1X20.06Y11.16
G1X20.03Y10.97
G1X20.01Y10.75
G1X20Y10.5
G1Y10.23
G1Y9.93
G1X20.02Y9.59
G1X20.05Y9.24
G1X20.08Y8.85
G1X20.1Y8.61
G1X20.07Y8.45
G1X20.04Y8.37
G1X19.99Y8.27
G1X19.92Y8.16
G1X19.82Y8.02
G1X19.56Y7.57
G1X19.36Y7.08
G1X19.2Y6.58
G1X18.78Y6.35
G1X18.55Y6.21
G1X18.31Y6.04
G1X18.06Y5.84
G1X17.8Y5.61
G1X17.53Y5.35
G1X17.25Y5.06
G1X16.96Y4.74
G1X16.65Y4.38
M5
G0X14.52Y17.91
M3 S30
; Layer C00
G1X14.56Y17.96
G1X14.75Y18.22
G1X14.94Y18.44
G1X15.14Y18.62
G1X15.36Y18.77
G1X15.61Y18.9
G1X15.9Y19
G1X16.23Y19.09
G1X16.61Y19.17
G1X17.23Y19.28
G1X18.26Y19.47
G1X17.74
G1X17.25Y19.45
G1X16.78Y19.42
G1X16.42Y19.37
G1X16.09Y19.29
G1X15.79Y19.2
G1X15.52Y19.09
G1X15.28Y18.96
G1X15.07Y18.82
G1X14.9Y18.65
G1X14.77Y18.47
G1X14.64Y18.24
G1X14.54Y18.03
G1X14.52Y17.96
G1X14.51Y17.91
M5
G0X13.65Y18.28
M3 S30
; Layer C00
G1X13.74Y18.68
G1X13.8Y19.04
G1X13.81Y19.33
G1X13.79Y19.58
G1X13.71Y19.4
G1X13.68Y19.3
G1X13.66Y19.14
G1X13.64Y18.95
G1Y18.75
G1Y18.28
M5
G0X13.02Y18.34
M3 S30
; Layer C00
G1X13.04Y18.9
G1Y19.13
G1Y19.34
G1X13.02Y19.51
G1X13Y19.61
G1X12.96Y19.69
G1X12.94Y19.71
G1X12.93Y19.68
G1X12.9Y19.57
G1Y19.46
G1Y19.29
G1X12.92Y19.08
G1X12.94Y18.87
G1X13.02Y18.34
M5
G0X12.09Y18.24
M3 S30
; Layer C00
G1X11.96Y18.46
G1X11.79Y18.66
G1X11.59Y18.84
G1X11.36Y19
G1X11.09Y19.14
G1X10.79Y19.25
G1X10.47Y19.33
G1X10.27Y19.36
G1X9.98Y19.39
G1X9.65Y19.42
G1X9.31Y19.45
G1X8.99Y19.47
G1X8.74
G1X8.64
G1X8.58
G1X8.55
G1Y19.45
G1X8.58
G1X8.75Y19.41
G1X9.19Y19.33
G1X9.56Y19.27
G1X9.95Y19.2
G1X10.34Y19.12
G1X10.67Y19.04
G1X10.91Y18.97
G1X11.26Y18.82
G1X11.59Y18.6
G1X11.88Y18.34
G1X12.08Y18.07
G1X12.14Y17.98
G1X12.17Y17.93
G1X12.18Y17.94
G1Y18
G1X12.09Y18.24
M5
G0X6.98Y19.44
M3 S30
; Layer C00
G1X6.94Y19.45
G1X6.86Y19.43
G1X6.73Y19.39
G1X6.55Y19.32
G1X6.34Y19.23
G1X6.19Y19.16
G1X6.05Y19.1
G1X5.96Y19.07
G1X5.91Y19.05
G1X5.88Y19.08
G1X5.84Y19.17
G1X5.79Y19.3
G1X5.74Y19.46
G1X5.63Y19.83
G1X5.55Y20.16
G1X5.51Y20.35
G1X5.5Y20.39
G1Y20.4
G1Y20.37
G1Y20.3
G1Y20.03
G1X5.56Y19.6
G1X5.65Y19.21
G1X5.71Y19.02
G1X5.73Y18.9
G1X5.71Y18.82
G1X5.64Y18.74
G1X5.55Y18.66
G1X5.5Y18.64
G1X5.48Y18.69
G1X5.43Y18.83
G1X5.38Y19.02
G1X5.15Y19.82
G1X5.19Y19.42
G1X5.23Y19.05
G1X5.29Y18.73
G1X5.32Y18.59
G1Y18.47
G1Y18.38
G1X5.28Y18.3
G1X5.24Y18.19
G1X5.21Y17.99
G1X5.18Y17.73
G1X5.15Y17.14
G1X5.13Y16.92
G1Y16.84
G1X5.11Y16.78
G1Y16.75
G1X5.09
G1X5.08Y16.77
G1X5.05Y16.82
G1X4.98Y16.99
G1X4.88Y17.24
G1X4.78Y17.53
G1X4.65Y17.88
G1X4.57Y18.18
G1X4.51Y18.46
G1X4.5Y18.73
G1X4.52Y19
G1X4.57Y19.3
G1X4.67Y19.63
G1X4.79Y20.03
G1X4.92Y20.39
G1X5.02Y20.71
G1X5.1Y20.98
G1X5.17Y21.23
G1X5.28Y21.72
G1X5.46Y22.72
G1X5.55Y23.12
G1X5.64Y23.46
G1X5.74Y23.76
G1X5.86Y24.01
G1X5.99Y24.22
G1X6.13Y24.39
G1X6.29Y24.52
G1X6.44Y24.62
G1X6.61Y24.7
G1X6.81Y24.76
G1X7.06Y24.81
G1X7.38Y24.83
G1X7.78Y24.85
G1X8.03
G1X8.29
G1X9.9
G1X10.23
G1X10.5
G1X10.93Y24.91
G1X11.42Y25
G1X11.98Y25.12
G1X12.47Y25.22
G1X12.9Y25.31
G1X13.26Y25.38
G1X13.57Y25.43
G1X13.84Y25.48
G1X14.07Y25.51
G1X14.28Y25.53
G1X14.81Y25.57
G1X15.41
G1X15.7Y25.55
G1X15.97Y25.53
G1X16.2Y25.5
G1X16.38Y25.47
G1X16.53Y25.43
G1X16.69Y25.38
G1X16.89Y25.31
G1X17.1Y25.23
G1X17.58Y25.03
G1X18.09Y24.8
G1X18.62Y24.55
G1X19.12Y24.3
G1X19.57Y24.06
G1X19.94Y23.84
G1X20.38Y23.53
G1X20.78Y23.18
G1X20.96Y23.01
G1X21.11Y22.83
G1X21.24Y22.67
G1X21.33Y22.52
G1X21.46Y22.24
G1X21.57Y21.92
G1X21.67Y21.55
G1X21.75Y21.12
G1X21.82Y20.63
G1X21.88Y20.08
G1X21.92Y19.46
G1X21.95Y18.77
G1X22Y17.66
G1X21.8Y17.17
G1X21.72Y16.98
G1X21.66Y16.85
G1X21.61Y16.79
G1X21.59
G1X21.56Y17.34
G1X21.51Y17.82
G1X21.48Y18.01
G1X21.46Y18.17
G1X21.43Y18.27
G1X21.39Y18.38
G1Y18.47
G1Y18.6
G1X21.44Y18.77
G1X21.5Y19.13
G1X21.52Y19.45
G1Y19.76
G1X21.46Y19.45
G1X21.39Y19.16
G1X21.3Y18.88
G1X21.24Y18.73
G1X21.19Y18.66
G1X21.14
G1X21.07Y18.72
G1X21.01Y18.79
G1X20.99Y18.87
G1Y18.93
G1X21.01Y19.01
G1X21.04Y19.11
G1X21.07Y19.24
G1X21.17Y19.68
G1X21.23Y20.14
G1X21.27Y20.63
G1X21.15Y20.09
G1X21.09Y19.86
G1X21.03Y19.62
G1X20.97Y19.42
G1X20.91Y19.27
G1X20.8Y18.99
G1X20.62Y19.12
G1X20.41Y19.22
G1X20.11Y19.35
G1X19.96Y19.4
G1X19.82Y19.44
G1X19.7Y19.47
G1X19.63Y19.48
G1Y19.47
G1X19.69Y19.43
G1X19.8Y19.37
G1X19.94Y19.29
G1X20.3Y19.08
G1X20.65Y18.8
G1X20.95Y18.49
G1X21.15Y18.2
G1X21.19Y18.11
G1X21.23Y18.01
G1X21.25Y17.9
G1Y17.73
G1X21.26Y17.51
G1Y17.19
G1X21.23Y15.78
G1X21.22Y15.41
G1Y15.11
G1Y14.86
G1Y14.66
G1X21.23Y14.52
G1X21.25Y14.42
G1X21.26Y14.36
G1X21.32Y14.3
G1X21.41Y14.24
G1X21.54Y14.18
G1X21.83Y14.09
G1X21.94Y14.04
G1X22.02Y14
G1X22.05Y13.96
G1X22.03Y13.89
G1X21.98Y13.8
G1X21.91Y13.68
G1X21.81Y13.55
G1X21.56Y13.25
G1X21.26Y12.92
G1X20.94Y12.6
G1X20.63Y12.32
G1X20.49Y12.2
G1X20.36Y12.1
G1X20.24Y12.02
G1X20.15Y11.97
G1X20Y11.92
G1X19.86Y11.9
G1X19.69Y11.91
G1X19.46Y11.95
G1X19Y11.99
G1X18.5
G1X18.24Y11.97
G1X18Y11.92
G1X17.78Y11.84
G1X17.59Y11.74
G1X17.42Y11.61
G1X17.26Y11.45
G1X17.11Y11.26
G1X16.98Y11.03
G1X16.9Y10.88
G1X16.87Y10.79
G1X16.88
G1X16.91Y10.82
G1X16.96Y10.89
G1X17.01Y10.98
G1X17.07Y11.08
G1X17.12Y11.14
G1X17.17Y11.17
G1X17.21Y11.15
G1Y11.12
G1X17.23Y11.06
G1X17.25Y10.98
G1X17.26Y10.87
G1X17.29Y10.6
G1X17.31Y10.29
G1X17.34Y9.49
G1X17.12Y9.45
G1X16.92Y9.42
G1X16.75Y9.41
G1X16.59Y9.38
G1X16.44Y9.32
G1X16.31Y9.26
G1X16.19
G1X16.09Y9.27
G1X15.98Y9.25
G1X15.85Y9.22
G1X15.69
G1X15.53Y9.21
G1X15.2Y9.1
G1X14.93Y9.06
G1X14.58Y9.04
G1X14.17
G1X13.83Y9.02
G1X13.55Y8.96
G1X13.43Y8.91
G1X13.34Y8.9
G1X13.26Y8.91
G1X13.16Y8.96
G1X13.06Y8.99
G1X12.91Y9.02
G1X12.74Y9.03
G1X12.55
G1X12.1Y9.04
G1X11.74Y9.07
G1X11.6Y9.08
G1X11.48Y9.1
G1X11.39Y9.13
G1X11.34Y9.16
G1X11.21Y9.21
G1X11.03Y9.23
G1X10.74
G1X10.51Y9.26
G1X10.34Y9.29
G1X10.21Y9.34
G1X10.07Y9.39
G1X9.94
G1X9.84
G1X9.69Y9.45
G1X9.54Y9.47
G1X9.34
G1X9.38Y10.17
G1X9.4Y10.45
G1X9.43Y10.71
G1X9.45Y10.92
G1X9.48Y11.05
G1X9.53Y11.23
G1X9.67Y11.02
G1X9.77Y10.85
G1X9.83Y10.71
G1X9.85Y10.72
G1Y10.77
G1X9.83Y10.85
G1X9.78Y10.96
G1X9.71Y11.08
G1X9.53Y11.35
G1X9.35Y11.55
G1X9.16Y11.7
G1X8.96Y11.82
G1X8.73Y11.91
G1X8.47Y11.97
G1X8.2Y12.01
G1X7.9
G1X7.57Y11.99
G1X7.22Y11.94
G1X6.98Y11.91
G1X6.82
G1X6.68Y11.93
G1X6.54Y11.99
G1X6.44Y12.05
G1X6.32Y12.13
G1X6.19Y12.24
G1X6.04Y12.37
G1X5.73Y12.66
G1X5.41Y12.98
G1X5.12Y13.31
G1X4.87Y13.61
G1X4.77Y13.74
G1X4.7Y13.85
G1X4.65Y13.94
G1X4.64Y14
G1X4.66Y14.02
G1X4.73Y14.04
G1X4.82Y14.07
G1X4.94Y14.1
G1X5.13Y14.15
G1X5.27Y14.2
G1X5.36Y14.28
G1X5.43Y14.43
G1X5.45Y14.53
G1X5.46Y14.67
G1Y14.83
G1X5.47Y15.02
G1Y15.25
G1Y16.2
G1Y17.16
G1Y17.49
G1Y17.74
G1X5.49Y17.92
G1X5.51Y18.05
G1X5.53Y18.15
G1X5.56Y18.22
G1X5.76Y18.5
G1X6.05Y18.79
G1X6.38Y19.06
G1X6.71Y19.27
G1X6.86Y19.35
G1X6.95Y19.41
G1X6.98Y19.44
M5
G0X4.28Y20.73
M3 S30
; Layer C00
G1X4.26
G1X4.24Y20.76
G1X4.22Y20.83
G1X4.21Y20.91
G1X4.2Y21.14
G1X4.21Y21.39
G1X4.28Y21.76
G1X4.37Y22.07
G1X4.5Y22.34
G1X4.67Y22.54
G1X4.76Y22.64
G1X4.84Y22.7
G1X4.9Y22.74
G1X4.94Y22.75
G1X4.96Y22.74
G1Y22.7
G1X4.94Y22.63
G1X4.89Y22.54
G1X4.82Y22.4
G1X4.73Y22.16
G1X4.63Y21.86
G1X4.53Y21.54
G1X4.44Y21.23
G1X4.33Y20.88
G1X4.29Y20.75
G1Y20.73
M5
G0X3.4Y22.7
M3 S30
; Layer C00
G1X3.36Y22.74
G1X3.34Y22.83
G1X3.4Y22.99
G1X3.55Y23.15
G1X3.74Y23.27
G1X3.95Y23.32
G1X4.12Y23.3
G1X4.21Y23.26
G1Y23.22
G1X4.16Y23.17
G1X4.07Y23.12
G1X3.97Y23.07
G1X3.73Y22.94
G1X3.56Y22.82
G1X3.47Y22.73
G1X3.4Y22.7
M5
G0X3.86Y24.29
M3 S30
; Layer C00
G1Y24.44
G1X3.89Y24.59
G1X3.97Y24.72
G1X4.09Y24.84
G1X4.25Y24.94
G1X4.42Y25
G1X4.61Y25.04
G1X4.8
G1X4.99Y24.99
G1X5.03Y24.96
G1X5Y24.93
G1X4.9Y24.88
G1X4.71Y24.81
G1X4.36Y24.65
G1X4.08Y24.48
G1X3.86Y24.29
M5
G0X4.02Y25.68
M3 S30
; Layer C00
G1X3.99Y25.71
G1X4.05Y25.78
G1X4.19Y25.87
G1X4.37Y25.97
G1X4.56Y26.04
G1X4.79Y26.07
G1X5.07Y26.05
G1X5.37Y26
G1X5.63Y25.9
G1X5.83Y25.78
G1X6.02Y25.64
G1X6.09Y25.57
G1X6.15Y25.52
G1X6.17Y25.47
G1Y25.44
G1X6.14
G1X6.07Y25.45
G1X5.99Y25.48
G1X5.89Y25.53
G1X5.45Y25.68
G1X4.96Y25.76
G1X4.72Y25.78
G1X4.49
G1X4.28Y25.74
G1X4.1Y25.69
G1X4.02Y25.68
M5
G0X6.13Y26.22
M3 S30
; Layer C00
G1X5.61Y26.73
G1X5.85Y26.69
G1X5.96Y26.66
G1X6.09Y26.61
G1X6.21Y26.53
G1X6.33Y26.43
G1X6.49Y26.24
G1X6.62Y26.03
G1X6.67Y25.94
G1X6.7Y25.85
G1Y25.79
G1X6.68Y25.74
G1X6.67
G1X6.63Y25.77
G1X6.57Y25.81
G1X6.51Y25.87
G1X6.33Y26.02
G1X6.13Y26.22
M5
G0X7.51Y26.33
M3 S30
; Layer C00
G1X7.37Y26.67
G1X7.29Y26.92
G1X7.23Y27.16
G1X7.21Y27.43
G1Y27.8
G1Y28
G1Y28.17
G1Y28.31
G1X7.23Y28.44
G1X7.29Y28.67
G1X7.38Y28.94
G1X7.55Y29.33
G1X7.74Y29.68
G1X7.94Y29.98
G1X8.17Y30.24
G1X8.42Y30.46
G1X8.69Y30.64
G1X8.98Y30.79
G1X9.3Y30.89
G1X9.6Y30.97
G1X9.62
G1Y30.96
G1X9.59Y30.93
G1X9.5Y30.89
G1X9.37Y30.82
G1X9.22Y30.74
G1X8.86Y30.54
G1X8.54Y30.28
G1X8.26Y29.98
G1X8.01Y29.63
G1X7.81Y29.24
G1X7.66Y28.81
G1X7.55Y28.36
G1X7.5Y27.88
G1Y27.37
G1X7.56Y26.89
G1X7.7Y26.4
G1X7.9Y25.88
G1X8Y25.66
G1X8.03Y25.58
G1X8.05Y25.53
G1Y25.49
G1X7.99Y25.54
G1X7.82Y25.76
G1X7.66Y26.03
G1X7.51Y26.33
M5
G0X7.99Y26.36
M3 S30
; Layer C00
G1X7.93Y26.81
G1X7.92Y27.3
G1X7.95Y27.82
G1X8.03Y28.32
G1X8.15Y28.78
G1X8.32Y29.18
G1X8.5Y29.46
G1X8.74Y29.72
G1X9.04Y29.96
G1X9.38Y30.19
G1X9.76Y30.39
G1X10.18Y30.56
G1X10.63Y30.71
G1X11.11Y30.82
G1X11.41Y30.88
G1X11.67Y30.91
G1X11.77
G1X11.84
G1X11.88
G1Y30.89
G1X11.83Y30.87
G1X11.71Y30.84
G1X11.54Y30.79
G1X11.34Y30.74
G1X10.77Y30.55
G1X10.15Y30.3
G1X9.81Y30.13
G1X9.54Y29.98
G1X9.31Y29.81
G1X9.08Y29.61
G1X8.86Y29.38
G1X8.67Y29.14
G1X8.52Y28.88
G1X8.4Y28.6
G1X8.31Y28.29
G1X8.23Y27.94
G1X8.18Y27.54
G1X8.15Y27.09
G1Y26.86
G1X8.14Y26.67
G1Y26.51
G1Y26.38
G1X8.18Y26.16
G1X8.25Y25.94
G1X8.32Y25.74
G1X8.34Y25.68
G1Y25.64
G1X8.32
G1X8.26Y25.72
G1X8.17Y25.84
G1X8.1Y25.99
G1X8.04Y26.17
G1X7.99Y26.36
M5
G0X8.94Y26.46
M3 S30
; Layer C00
G1X8.92Y26.82
G1Y27.17
G1Y27.48
G1X8.95Y27.77
G1X8.99Y28.04
G1X9.12Y28.52
G1X9.31Y28.96
G1X9.54Y29.29
G1X9.83Y29.59
G1X10.17Y29.85
G1X10.56Y30.09
G1X10.99Y30.28
G1X11.44Y30.42
G1X11.9Y30.51
G1X12.37Y30.54
G1X12.76
G1X12.24Y30.42
G1X11.88Y30.34
G1X11.55Y30.24
G1X11.25Y30.13
G1X10.97Y30.01
G1X10.48Y29.74
G1X10.05Y29.4
G1X9.79Y29.12
G1X9.58Y28.83
G1X9.42Y28.49
G1X9.29Y28.07
G1X9.21Y27.77
G1X9.16Y27.47
G1X9.15Y27.29
G1Y27.09
G1X9.14Y26.86
G1Y26.04
G1X9.13Y25.88
G1Y25.77
G1X9.11Y25.72
G1X9.09
G1X9.07Y25.74
G1X9.04Y25.8
G1X9Y25.94
G1X8.96Y26.16
G1X8.94Y26.46
M5
G0X9.9Y26.49
M3 S30
; Layer C00
G1X9.91Y26.72
G1X9.96Y27.2
G1X10.05Y27.62
G1X10.17Y27.99
G1X10.35Y28.33
G1X10.59Y28.65
G1X10.88Y28.97
G1X11.23Y29.26
G1X11.61Y29.51
G1X12.01Y29.69
G1X12.39Y29.81
G1X12.56Y29.84
G1X12.83Y29.87
G1X13.15Y29.91
G1X13.51Y29.95
G1X13.88Y29.98
G1X14.22Y30.01
G1X14.52Y30.03
G1X14.73Y30.04
G1X14.83
G1X14.88
G1X14.89Y30.02
G1X14.86Y30
G1X14.82Y29.98
G1X14.74Y29.96
G1X14.61Y29.93
G1X14.46Y29.9
G1X14.08Y29.83
G1X13.63Y29.75
G1X13.15Y29.67
G1X12.78Y29.6
G1X12.49Y29.54
G1X12.27Y29.49
G1X11.94Y29.36
G1X11.63Y29.18
G1X11.26Y28.91
G1X10.93Y28.59
G1X10.65Y28.24
G1X10.42Y27.86
G1X10.27Y27.47
G1X10.14Y27
G1X10.04Y26.53
G1X10Y26.11
G1Y25.95
G1X9.99Y25.89
G1X9.97Y25.91
G1X9.93Y26
G1X9.91Y26.12
G1Y26.29
G1Y26.49
M5
G0X11.18Y26.35
M3 S30
; Layer C00
G1X11.2Y26.44
G1X11.4Y27.12
G1X11.48Y27.37
G1X11.57Y27.59
G1X11.66Y27.79
G1X11.75Y27.97
G1X11.97Y28.28
G1X12.24Y28.55
G1X12.53Y28.79
G1X12.79Y28.98
G1X13.05Y29.12
G1X13.32Y29.22
G1X13.63Y29.29
G1X13.99Y29.34
G1X14.41Y29.36
G1X14.93
G1X15.38
G1X15.78
G1X15.94
G1X16.07Y29.34
G1X16.17
G1X16.22Y29.33
G1X16.23Y29.32
G1X16.2Y29.3
G1X16.11Y29.29
G1X15.99Y29.27
G1X15.82Y29.25
G1X15.61Y29.23
G1X15.37Y29.2
G1X14.59Y29.14
G1X14.17Y29.09
G1X13.84Y29.04
G1X13.55Y28.98
G1X13.31Y28.9
G1X13.1Y28.8
G1X12.89Y28.68
G1X12.67Y28.53
G1X12.33Y28.25
G1X12.05Y27.94
G1X11.93Y27.76
G1X11.8Y27.55
G1X11.69Y27.32
G1X11.47Y26.85
G1X11.39Y26.68
G1X11.31Y26.53
G1X11.25Y26.42
G1X11.21Y26.34
G1X11.18Y26.32
G1Y26.35
M5
G0X12.75Y26.8
M3 S30
; Layer C00
G1Y26.86
G1X12.8Y26.99
G1X12.89Y27.15
G1X13.01Y27.35
G1X13.29Y27.75
G1X13.56Y28.06
G1X13.89Y28.33
G1X14.26Y28.55
G1X14.44Y28.63
G1X14.62Y28.7
G1X14.78Y28.74
G1X14.92Y28.75
G1X15.04
G1X15.05Y28.73
G1X15.02Y28.7
G1X14.96Y28.67
G1X14.74Y28.56
G1X14.37Y28.34
G1X13.97Y28.04
G1X13.57Y27.67
G1X13.17Y27.23
G1X13.02Y27.05
G1X12.88Y26.91
G1X12.79Y26.82
G1X12.75Y26.8
M5
G0X13.8Y26.88
M3 S30
; Layer C00
G1Y26.91
G1X13.83Y26.95
G1X13.87Y27.01
G1X14.03Y27.24
G1X14.25Y27.49
G1X14.52Y27.73
G1X14.81Y27.96
G1X15.12Y28.17
G1X15.44Y28.35
G1X15.75Y28.5
G1X16.03Y28.6
G1X16.23Y28.64
G1X16.5Y28.66
G1X16.81
G1X17.15
G1X17.49
G1X17.82Y28.63
G1X18.1Y28.59
G1X18.33Y28.55
G1X18.65Y28.46
G1X17.81Y28.45
G1X17.44
G1X17.1Y28.43
G1X16.81Y28.41
G1X16.54Y28.38
G1X16.09Y28.29
G1X15.73Y28.17
G1X15.33Y27.97
G1X14.86Y27.69
G1X14.42Y27.38
G1X14.06Y27.09
G1X13.89Y26.94
G1X13.84Y26.9
G1X13.81Y26.88
G1X13.8
M5
G0X14.89Y26.98
M3 S30
; Layer C00
G1Y27.03
G1X14.96Y27.11
G1X15.07Y27.23
G1X15.2Y27.37
G1X15.34Y27.51
G1X15.49Y27.64
G1X15.63Y27.75
G1X15.74Y27.83
G1X15.92Y27.91
G1X16.14Y27.99
G1X16.4Y28.05
G1X16.65Y28.1
G1X16.9Y28.13
G1X17.11Y28.14
G1X17.27Y28.13
G1X17.35Y28.08
G1X17.33Y28.05
G1X17.24Y28.01
G1X17.1Y27.97
G1X16.92Y27.92
G1X16.48Y27.8
G1X16.09Y27.66
G1X15.72Y27.47
G1X15.35Y27.24
G1X15.18Y27.13
G1X15.04Y27.04
G1X14.93Y26.99
G1X14.89
M5
G0X15.77Y26.56
M3 S30
; Layer C00
G1X15.84Y26.61
G1X15.95Y26.68
G1X16.23Y26.84
G1X16.58Y27
G1X17.12Y27.22
G1X17.62Y27.36
G1X18.15Y27.43
G1X18.75
G1X18.98
G1X19.16
G1X19.32Y27.41
G1X19.44Y27.4
G1X19.67Y27.33
G1X19.93Y27.23
G1X20.1Y27.15
G1X20.24Y27.08
G1X20.33Y27.03
G1X20.36Y27
G1X20.33
G1X20.23Y27.02
G1X20.08Y27.05
G1X19.9Y27.1
G1X19.53Y27.17
G1X19.12Y27.2
G1X18.67
G1X18.2Y27.15
G1X17.7Y27.08
G1X17.2Y26.97
G1X16.71Y26.83
G1X16.22Y26.66
G1X16.03Y26.59
G1X15.88Y26.53
G1X15.77Y26.5
G1X15.72
G1Y26.52
G1X15.77Y26.56
M5
G0X17.16Y26.02
M3 S30
; Layer C00
G1X17.23Y26.06
G1X17.35Y26.1
G1X17.49Y26.16
G1X17.8Y26.26
G1X18.07Y26.34
G1X18.24Y26.37
G1X18.46Y26.38
G1X18.7Y26.39
G1X18.96
G1X19.21
G1X19.45Y26.37
G1X19.66Y26.35
G1X19.83Y26.32
G1X20.16Y26.21
G1X20.47Y26.06
G1X20.72Y25.89
G1X20.92Y25.69
G1X21.16Y25.47
G1X21.47Y25.25
G1X21.62Y25.16
G1X21.74Y25.09
G1X21.82Y25.04
G1X21.85Y25.01
G1X21.83
G1X21.76Y25.03
G1X21.67Y25.05
G1X21.55Y25.09
G1X21.33Y25.17
G1X21.11Y25.29
G1X20.98Y25.37
G1X20.84Y25.47
G1X20.67Y25.58
G1X20.47Y25.73
G1X20.19Y25.89
G1X19.89Y26.01
G1X19.67Y26.06
G1X19.42Y26.1
G1X19.14Y26.12
G1X18.85Y26.14
G1X18.25
G1X17.71Y26.07
G1X17.5Y26.04
G1X17.32Y26.01
G1X17.2Y26
G1X17.14
G1X17.16Y26.02
M5
G0X18.21Y25.57
M3 S30
; Layer C00
G1X18.29Y25.61
G1X18.45Y25.65
G1X18.68Y25.7
G1X19.04Y25.75
G1X19.4Y25.74
G1X19.75Y25.68
G1X20.07Y25.57
G1X20.32Y25.44
G1X20.54Y25.29
G1X20.64Y25.22
G1X20.7Y25.16
G1X20.74Y25.11
G1Y25.08
G1X20.7
G1X20.59Y25.12
G1X20.45Y25.17
G1X20.27Y25.24
G1X20Y25.35
G1X19.75Y25.41
G1X19.61Y25.43
G1X19.43Y25.44
G1X19.22Y25.45
G1X18.64Y25.48
G1X18.42Y25.5
G1X18.27Y25.52
G1X18.2Y25.54
G1Y25.57
M5
G0X19.3Y24.84
M3 S30
; Layer C00
G1X19.45Y24.89
G1X19.68Y24.9
G1X19.92Y24.86
G1X20.16Y24.77
G1X20.35Y24.65
G1X20.56Y24.49
G1X20.79Y24.3
G1X20.56Y24.34
G1X20.44Y24.37
G1X20.27Y24.42
G1X20.08Y24.49
G1X19.71Y24.63
G1X19.53Y24.69
G1X19.4Y24.72
G1X19.31Y24.74
G1X19.23
G1X19.2Y24.75
G1X19.22Y24.78
G1X19.3Y24.84
M5
G0X20.6Y23.78
M3 S30
; Layer C00
G1X20.66Y23.77
G1X21.09Y23.6
G1X21.43Y23.47
G1X21.85Y23.34
G1X22.31Y23.22
G1X22.5Y23.17
G1X22.68Y23.13
G1X22.81Y23.09
G1X22.89Y23.06
G1X22.9Y23.05
G1X22.89Y23.04
G1X22.85Y23.03
G1X22.79Y23.02
G1X22.61
G1X22.4
G1X22.16
G1X21.92Y23.04
G1X21.73Y23.06
G1X21.59Y23.09
G1X21.33Y23.21
G1X21.04Y23.38
G1X20.9Y23.47
G1X20.78Y23.55
G1X20.69Y23.63
G1X20.63Y23.7
G1X20.59Y23.76
G1Y23.78
M5
G0X21.75Y24.12
M3 S30
; Layer C00
G1Y24.15
G1X21.82Y24.19
G1X21.91Y24.21
G1X22.05
G1X22.21Y24.22
G1X22.39
G1X22.57Y24.2
G1X22.73Y24.18
G1X22.87Y24.15
G1X22.97Y24.11
G1X23.05Y24.07
G1X23.07Y24.04
G1X23.05Y24.02
G1X22.98Y23.99
G1X22.76Y23.95
G1X22.47
G1X22.17Y23.97
G1X21.93Y24.03
G1X21.81Y24.09
G1X21.75Y24.12
M5
G0X22.05Y22.38
M3 S30
; Layer C00
G1X22.1
G1X22.18Y22.35
G1X22.3Y22.29
G1X22.52Y22.11
G1X22.68Y21.85
G1X22.74Y21.72
G1X22.77Y21.59
G1Y21.47
G1X22.75Y21.37
G1X22.73Y21.31
G1X22.71Y21.29
G1Y21.33
G1X22.7Y21.41
G1X22.68Y21.51
G1X22.61Y21.63
G1X22.51Y21.77
G1X22.37Y21.93
G1X22.23Y22.08
G1X22.13Y22.21
G1X22.07Y22.3
G1X22.04Y22.36
G1X22.05Y22.38
M5
G0X23.3Y22.28
M3 S30
; Layer C00
G1X23.4Y22.55
G1X23.53Y22.88
G1X23.6Y23.1
G1X23.63Y23.33
G1X23.61Y23.58
G1X23.56Y23.86
G1X23.45Y24.17
G1X23.3Y24.53
G1X23.1Y24.94
G1X22.85Y25.41
G1X22.6Y25.84
G1X22.36Y26.22
G1X22.12Y26.56
G1X21.87Y26.88
G1X21.61Y27.16
G1X21.33Y27.43
G1X21.03Y27.68
G1X20.7Y27.93
G1X20.17Y28.32
G1X19.59Y28.76
G1X18.83Y29.31
G1X18.13Y29.79
G1X17.45Y30.19
G1X16.79Y30.53
G1X16.13Y30.81
G1X15.44Y31.04
G1X14.71Y31.23
G1X13.92Y31.39
G1X13.77Y31.42
G1X13.58Y31.44
G1X13.37Y31.46
G1X13.14Y31.47
G1X12.62Y31.5
G1X12.08Y31.51
G1X11.54
G1X11.04
G1X10.81Y31.49
G1X10.61Y31.48
G1X10.43Y31.46
G1X10.29Y31.44
G1X9.9Y31.37
G1X9.54Y31.28
G1X9.21Y31.17
G1X8.9Y31.05
G1X8.61Y30.91
G1X8.35Y30.75
G1X8.09Y30.57
G1X7.85Y30.37
G1X7.57Y30.08
G1X7.34Y29.76
G1X7.24Y29.59
G1X7.15Y29.38
G1X7.06Y29.16
G1X6.97Y28.9
G1X6.86Y28.6
G1X6.74Y28.39
G1X6.65Y28.28
G1X6.54Y28.17
G1X6.39Y28.03
G1X6.2Y27.86
G1X5.94Y27.63
G1X5.65Y27.39
G1X5.37Y27.19
G1X4.75Y26.76
G1X4.39Y26.46
G1X4.07Y26.15
G1X3.79Y25.82
G1X3.55Y25.47
G1X3.35Y25.1
G1X3.19Y24.72
G1X3.08Y24.34
G1X3.04Y24.12
G1X3.01Y23.85
G1Y23.55
G1X3Y23.22
G1X3.03Y22.55
G1X3.11Y21.93
G1X3.23Y21.38
G1X3.39Y20.77
G1X3.47Y20.47
G1X3.55Y20.2
G1X3.63Y19.96
G1X3.73Y19.71
G1X3.8Y19.48
G1X3.97Y18.96
G1X4.09Y18.57
G1X4.41Y17.6
G1X4.77Y16.65
G1X4.89Y16.35
G1X4.98Y16.11
G1X5.05Y15.92
G1X5.1Y15.76
G1X5.14Y15.49
G1X5.15Y15.18
G1Y14.99
G1Y14.83
G1X5.12Y14.71
G1X5.08Y14.62
G1X5.03Y14.56
G1X4.95Y14.51
G1X4.85Y14.48
G1X4.72Y14.46
G1X4.5Y14.39
G1X4.35Y14.29
G1X4.28Y14.22
G1X4.26Y14.15
G1X4.28Y14.05
G1X4.34Y13.89
G1X4.42Y13.74
G1X4.53Y13.56
G1X4.67Y13.36
G1X4.84Y13.15
G1X5.24Y12.71
G1X5.68Y12.29
G1X5.84Y12.14
G1X5.97Y12.01
G1X6.07Y11.89
G1X6.14Y11.77
G1X6.2Y11.63
G1X6.24Y11.45
G1X6.28Y11.23
G1X6.32Y10.95
G1X6.35Y10.64
G1X6.36Y10.35
G1Y10.04
G1X6.32Y9.66
G1X6.28Y9.3
G1X6.25Y9.02
G1Y8.79
G1Y8.61
G1X6.31Y8.34
G1X6.45Y8.09
G1X6.59Y7.88
G1X6.7Y7.71
G1X6.79Y7.55
G1X6.86Y7.41
G1X6.98Y7.15
G1X7.06Y6.88
G1X7.11Y6.72
G1X7.15Y6.59
G1X7.2Y6.48
G1X7.27Y6.39
G1X7.35Y6.3
G1X7.45Y6.23
G1X7.58Y6.15
G1X7.75Y6.06
G1X7.96Y5.95
G1X8.17Y5.8
G1X8.41Y5.61
G1X8.65Y5.4
G1X8.91Y5.15
G1X9.18Y4.87
G1X9.47Y4.55
G1X9.77Y4.2
G1X9.92Y4.02
G1X10.28Y3.6
G1X10.45Y3.41
G1X10.59Y3.27
G1X10.81Y3.1
G1X11.08Y2.97
G1X11.27Y2.9
G1X11.45Y2.87
G1X11.55
G1X11.68
G1X11.84
G1X12.04Y2.89
G1X12.71Y2.93
G1X13.37Y2.94
G1X14.02Y2.93
G1X14.64Y2.89
G1X14.84Y2.88
G1X15Y2.87
G1X15.13
G1X15.24
G1X15.42Y2.9
G1X15.61Y2.98
G1X15.89Y3.12
G1X16.17Y3.34
G1X16.33Y3.49
G1X16.51Y3.69
G1X16.73Y3.94
G1X16.99Y4.25
G1X17.27Y4.58
G1X17.54Y4.88
G1X17.79Y5.15
G1X18.03Y5.38
G1X18.26Y5.58
G1X18.48Y5.76
G1X18.7Y5.91
G1X18.91Y6.04
G1X19.11Y6.15
G1X19.26Y6.25
G1X19.38Y6.33
G1X19.47Y6.42
G1X19.54Y6.52
G1X19.59Y6.63
G1X19.64Y6.77
G1X19.69Y6.94
G1X19.83Y7.35
G1X20.02Y7.72
G1X20.2Y8
G1X20.33Y8.2
G1X20.42Y8.36
G1X20.47Y8.49
G1X20.49Y8.63
G1Y8.79
G1X20.46Y9
G1X20.43Y9.29
G1X20.38Y9.94
G1Y10.6
G1X20.4Y10.9
G1X20.42Y11.18
G1X20.46Y11.41
G1X20.5Y11.6
G1X20.57Y11.76
G1X20.72Y11.96
G1X20.83Y12.08
G1X20.97Y12.23
G1X21.13Y12.4
G1X21.33Y12.59
G1X21.7Y12.97
G1X22Y13.31
G1X22.21Y13.59
G1X22.36Y13.84
G1X22.42Y14.04
G1Y14.19
G1X22.33Y14.31
G1X22.18Y14.39
G1X21.97Y14.46
G1X21.78Y14.5
G1X21.69Y14.53
G1X21.63Y14.59
G1X21.59Y14.68
G1X21.56Y14.85
G1X21.54Y15.2
G1X21.58Y15.56
G1X21.63Y15.76
G1X21.69Y15.98
G1X21.78Y16.22
G1X22.15Y17.18
G1X22.39Y17.85
G1X22.6Y18.51
G1X22.77Y19.15
G1X22.9Y19.76
G1X23Y20.33
G1X23.06Y20.87
G1X23.08Y21.37
G1X23.1Y21.62
G1X23.16Y21.89
G1X23.22Y22.07
G1X23.3Y22.28
M9
G1S0
M5
G90
; return to user-defined finish pos
G0 X0 Y0
M2
