; LightBurn 0.9.24
; GRBL device profile, absolute coords
; Bounds: X3 Y3 to X22.54 Y33
G00 G17 G40 G21 G54
G90
M4
; Cut @ 6000 mm/min, 20% power
M8
M5
G0X7.31Y6.81
M3 S30
; Layer C00
G1X7.48Y6.74S20F6000
G1X7.62Y6.69
G1X7.87Y6.64
G1X8.09
G1X8.22
G1X8.31Y6.67
G1X8.38Y6.71
G1X8.46Y6.78
G1X8.52Y6.86
G1X8.56Y6.91
G1X8.57Y6.97
G1Y7.03
G1X8.53Y7.13
G1X8.46Y7.21
G1X8.35Y7.29
G1X7.93Y7.51
G1X7.78Y7.63
G1X7.66Y7.79
G1X7.53Y8.04
G1X7.37Y8.31
G1X7.2Y8.51
G1X7.1Y8.6
G1X6.98Y8.69
G1X6.83Y8.79
G1X6.35Y9.06
G1X6.11Y9.23
G1X5.99Y9.33
G1X5.86Y9.44
G1X5.71Y9.57
G1X5.54Y9.73
G1X5.22Y10.04
G1X4.94Y10.32
G1X4.71Y10.6
G1X4.5Y10.89
G1X4.3Y11.21
G1X4.11Y11.56
G1X3.92Y11.97
G1X3.71Y12.46
G1X3.6Y12.72
G1X3.5Y12.93
G1X3.42Y13.1
G1X3.36Y13.24
G1X3.25Y13.42
G1X3.17Y13.52
G1X3.13Y13.56
G1X3.1Y13.57
G1X3.08Y13.56
G1X3.06Y13.52
G1X3.03Y13.43
G1X3.01Y13.29
G1Y13.13
G1Y12.93
G1X3.04Y12.53
G1X3.11Y12.15
G1X3.21Y11.86
G1X3.38Y11.52
G1X3.49Y11.33
G1X3.62Y11.12
G1X3.76Y10.9
G1X3.93Y10.66
G1X4.35Y10.01
G1X4.74Y9.32
G1X5.01Y8.83
G1X5.25Y8.42
G1X5.48Y8.08
G1X5.71Y7.81
G1X5.95Y7.57
G1X6.22Y7.37
G1X6.53Y7.19
G1X6.88Y7.01
G1X7.11Y6.9
G1X7.31Y6.81
M5
G0X8.91Y8.2
M3 S30
; Layer C00
G1X9.12Y8.12
G1X9.32Y8.09
G1X9.59Y8.07
G1X9.88Y8.09
G1X10.08Y8.16
G1X10.2Y8.22
G1X10.33Y8.32
G1X10.48Y8.45
G1X10.65Y8.63
G1X10.84Y8.84
G1X11.07Y9.11
G1X11.34Y9.44
G1X11.98Y10.24
G1X12.27Y10.59
G1X12.52Y10.88
G1X12.76Y11.13
G1X13.2Y11.52
G1X13.7Y11.86
G1X13.87Y11.97
G1X14.08Y12.11
G1X14.32Y12.27
G1X14.77Y12.59
G1X14.96Y12.72
G1X15.09Y12.82
G1X15.22Y12.92
G1X15.34Y13.01
G1X15.53Y13.16
G1X15.86Y13.45
G1X15.96Y13.52
G1X16.05Y13.56
G1X16.27Y13.62
G1X16.35Y13.66
G1X16.4Y13.7
G1X16.42Y13.74
G1Y13.79
G1X16.38Y13.85
G1X16.31Y13.9
G1X16.21Y13.96
G1X16.1Y14.01
G1X15.97Y14.05
G1X15.81Y14.07
G1X15.64
G1X15.44Y14.05
G1X15.2Y14.02
G1X14.93Y13.97
G1X14.3Y13.83
G1X14.2Y13.81
G1X14.16
G1X14.13Y13.87
G1X14.07Y14.02
G1X13.98Y14.2
G1X13.86Y14.35
G1X13.81Y14.41
G1X13.77Y14.44
G1X13.75
G1Y14.4
G1X13.81Y14.26
G1X13.92Y14.04
G1X14.06Y13.76
G1X13.98Y13.74
G1X13.91Y13.73
G1X13.85Y13.74
G1X13.82Y13.77
G1X13.81Y13.82
G1X13.78Y13.9
G1X13.73Y14.02
G1X13.66Y14.11
G1X13.63
G1Y14.02
G1X13.66Y13.86
G1X13.68Y13.76
G1Y13.7
G1X13.67Y13.66
G1X13.63Y13.63
G1X13.6Y13.61
G1X13.56Y13.62
G1X13.52Y13.69
G1X13.42Y13.89
G1X13.38Y13.94
G1X13.36Y13.97
G1X13.34
G1Y13.96
G1Y13.91
G1Y13.84
G1X13.38Y13.62
G1Y13.55
G1X13.36Y13.51
G1X13.31Y13.47
G1X13.25Y13.42
G1X13.21Y13.4
G1X13.17Y13.46
G1X13.1Y13.59
G1X13.05Y13.69
G1X13.02Y13.73
G1X13.01
G1X13Y13.69
G1Y13.58
G1X13.02Y13.45
G1X13.03Y13.37
G1Y13.32
G1X13Y13.29
G1X12.94Y13.25
G1X12.86Y13.21
G1X12.8
G1X12.77Y13.26
G1X12.75Y13.36
G1X12.71Y13.49
G1X12.65Y13.6
G1X12.57Y13.71
G1X12.59Y13.49
G1X12.61Y13.31
G1X12.64Y13.1
G1X12.62Y13.06
G1X12.56Y13.01
G1X12.42Y12.95
G1X12.4Y12.97
G1X12.39Y13.06
G1X12.33Y13.35
G1X12.22Y13.6
G1X12.19Y13.63
G1X12.17
G1Y13.57
G1X12.18Y13.46
G1X12.21Y13.25
G1X12.26Y13.07
G1X12.3Y12.97
G1Y12.91
G1X12.29Y12.87
G1X12.24Y12.83
G1X12.17Y12.78
G1X12.12Y12.76
G1Y12.78
G1X12.1Y12.85
G1X12.08Y12.94
G1X12.06Y13.05
G1X12Y13.31
G1X11.92Y13.52
G1X11.83Y13.71
G1X11.84Y13.49
G1X11.88Y13.26
G1X11.96Y12.99
G1X12Y12.86
G1X12.02Y12.77
G1Y12.72
G1Y12.7
G1X11.96Y12.67
G1X11.87Y12.62
G1X11.75Y12.54
G1X11.59Y12.43
G1X11.22Y12.18
G1X10.53Y11.69
G1X10.31Y11.54
G1X10.13Y11.41
G1X9.97Y11.31
G1X9.69Y11.14
G1X9.4Y10.98
G1X8.9Y10.76
G1X8.44Y10.63
G1X7.97Y10.57
G1X7.5Y10.59
G1X6.9Y10.68
G1X6.36Y10.85
G1X6.11Y10.95
G1X5.89Y11.07
G1X5.7Y11.19
G1X5.53Y11.33
G1X5.3Y11.57
G1X5.07Y11.89
G1X4.94Y12.09
G1X4.81Y12.32
G1X4.66Y12.59
G1X4.33Y13.21
G1X4.19Y13.47
G1X4.13Y13.58
G1X4.05Y13.73
G1X4.02Y13.76
G1X3.95Y13.85
G1Y13.62
G1X3.98Y13.37
G1X4.07Y13.06
G1X4.14Y12.88
G1X4.22Y12.68
G1X4.33Y12.45
G1X4.45Y12.21
G1X4.71Y11.74
G1X4.99Y11.3
G1X5.29Y10.88
G1X5.6Y10.49
G1X5.94Y10.13
G1X6.28Y9.8
G1X6.64Y9.5
G1X7.01Y9.24
G1X7.16Y9.14
G1X7.28Y9.06
G1X7.37Y9.01
G1X7.43Y8.99
G1X7.45
G1Y9.01
G1X7.4Y9.05
G1X7.32Y9.12
G1X7.24Y9.21
G1X7.1Y9.36
G1X6.94Y9.54
G1X6.4Y10.16
G1X5.96Y10.65
G1X6.17Y10.57
G1X6.43Y10.48
G1X6.75Y10.39
G1X6.95Y10.35
G1X7.19Y10.32
G1X7.46Y10.27
G1X7.77Y10.23
G1X8.19Y10.18
G1X8.55Y10.14
G1X8.85Y10.13
G1X9.11
G1X9.55Y10.21
G1X9.96Y10.37
G1X10.2Y10.51
G1X10.45Y10.68
G1X10.6Y10.8
G1X10.76Y10.94
G1X10.95Y11.1
G1X11.37Y11.47
G1X11.57Y11.64
G1X11.75Y11.78
G1X11.89Y11.89
G1X12.27Y12.15
G1X12.72Y12.42
G1X13.19Y12.69
G1X13.62Y12.91
G1X14.13Y13.13
G1X14.62Y13.32
G1X14.83Y13.39
G1X15Y13.44
G1X15.12Y13.47
G1X15.18
G1X15.16Y13.44
G1X15.09Y13.4
G1X14.98Y13.34
G1X14.85Y13.28
G1X14.29Y12.97
G1X13.8Y12.61
G1X13.56Y12.39
G1X13.3Y12.12
G1X13.01Y11.79
G1X12.08Y10.67
G1X11.48Y9.98
G1X11.21Y9.68
G1X10.97Y9.42
G1X10.78Y9.21
G1X10.63Y9.07
G1X10.38Y8.86
G1X10.13Y8.68
G1X9.88Y8.54
G1X9.59Y8.41
G1X9.3Y8.32
G1X9.05Y8.28
G1X8.81Y8.31
G1X8.57Y8.39
G1X8.41Y8.45
G1X8.33Y8.47
G1X8.35Y8.45
G1X8.42Y8.42
G1X8.52Y8.37
G1X8.65Y8.31
G1X8.91Y8.2
M5
G0X12.33Y7.54
M3 S30
; Layer C00
G1X12.15Y7.2
G1X12Y6.85
G1X11.88Y6.49
G1X11.85Y6.36
G1X11.83Y6.28
G1Y6.24
G1X11.85
G1X11.89Y6.28
G1X11.94Y6.36
G1X12.01Y6.48
G1X12.1Y6.64
G1X12.28Y6.96
G1X12.5Y7.29
G1X12.74Y7.61
G1X13Y7.93
G1X13.27Y8.22
G1X13.55Y8.49
G1X13.82Y8.72
G1X14.6Y9.29
G1X15.14Y9.73
G1X15.61Y10.13
G1X16.03Y10.47
G1X16.42Y10.75
G1X16.78Y10.99
G1X17.14Y11.2
G1X17.51Y11.37
G1X17.91Y11.53
G1X18.33Y11.67
G1X18.69Y11.78
G1X19.02Y11.86
G1X19.2Y11.9
G1X19.39Y11.93
G1X19.62Y11.97
G1X19.88Y12.01
G1X20.13Y12.05
G1X20.35Y12.1
G1X20.52Y12.14
G1X20.66Y12.19
G1X20.77Y12.24
G1X20.85Y12.29
G1X20.89Y12.35
G1X20.91Y12.41
G1Y12.45
G1X20.88Y12.47
G1X20.83
G1X20.75Y12.46
G1X20.6Y12.44
G1X20.39Y12.41
G1X20.37
G1X20.4Y12.43
G1X20.49Y12.47
G1X20.82Y12.63
G1X21.07Y12.83
G1X21.19Y12.95
G1X21.23Y12.71
G1X21.34Y12.92
G1X21.42Y13.1
G1X21.48Y13.28
G1X21.53Y13.48
G1X21.56Y13.72
G1Y13.84
G1Y13.92
G1Y13.94
G1X21.53Y13.91
G1X21.5Y13.84
G1X21.46Y13.69
G1X21.41Y13.49
G1X21.37Y13.81
G1X21.27Y13.53
G1X21.17Y13.29
G1X21.09Y13.12
G1X21.02Y12.99
G1Y13.18
G1Y13.31
G1X20.99Y13.37
G1X20.94Y13.31
G1X20.77Y12.96
G1X20.65Y12.79
G1X20.54Y12.66
G1X20.42Y12.56
G1X20.3Y12.5
G1X20.21Y12.48
G1X20.12Y12.5
G1X20.01Y12.55
G1X19.87Y12.6
G1X19.7Y12.61
G1X19.51Y12.57
G1X19.31Y12.5
G1X19.13Y12.41
G1X19.45
G1X19.71Y12.39
G1X19.88Y12.37
G1X19.93Y12.36
G1Y12.35
G1X19.86Y12.33
G1X19.73Y12.3
G1X19.09Y12.17
G1X18.41Y11.99
G1X17.74Y11.78
G1X17.14Y11.56
G1X16.64Y11.34
G1X16.16Y11.11
G1X15.72Y10.87
G1X15.29Y10.6
G1X14.88Y10.32
G1X14.48Y10
G1X14.09Y9.66
G1X13.69Y9.28
G1X13.35Y8.93
G1X13.05Y8.58
G1X12.78Y8.24
G1X12.54Y7.89
G1X12.33Y7.54
M5
G0X14.2Y7.6
M3 S30
; Layer C00
G1Y7.55
G1X14.23Y7.54
G1X14.26Y7.56
G1X14.3Y7.6
G1X14.35Y7.67
G1X14.41Y7.75
G1X14.56Y7.96
G1X14.71Y8.21
G1X14.81Y8.36
G1X14.94Y8.52
G1X15.1Y8.69
G1X15.29Y8.87
G1X15.5Y9.05
G1X15.74Y9.25
G1X16.01Y9.44
G1X16.3Y9.65
G1X16.61Y9.87
G1X16.91Y10.08
G1X17.17Y10.26
G1X17.34Y10.39
G1X17.63Y10.62
G1X17.93Y10.9
G1X18.06Y11.03
G1X18.16Y11.13
G1X18.23Y11.2
G1Y11.23
G1X18.2Y11.21
G1X18.13Y11.17
G1X18.03Y11.11
G1X17.92Y11.03
G1X17.51Y10.76
G1X17.14Y10.52
G1X16.78Y10.31
G1X16.08Y9.93
G1X15.77Y9.75
G1X15.5Y9.55
G1X15.25Y9.34
G1X15.03Y9.11
G1X14.82Y8.86
G1X14.63Y8.58
G1X14.44Y8.27
G1X14.32Y8.03
G1X14.24Y7.79
G1X14.21Y7.68
G1Y7.6
M5
G0X14.92Y7.1
M3 S30
; Layer C00
G1X14.82Y7.04
G1X14.74Y6.99
G1X14.69Y6.94
G1X14.67Y6.92
G1X14.7
G1X15.05Y7.08
G1X15.45Y7.22
G1X15.89Y7.33
G1X16.35Y7.4
G1X16.62Y7.43
G1X16.83Y7.44
G1X16.93
G1X17.05Y7.42
G1X17.2Y7.4
G1X17.73Y7.33
G1X17.85Y7.32
G1X17.95Y7.31
G1X18.16
G1X18.46Y7.35
G1X18.93Y7.42
G1X19.34Y7.49
G1X19.71Y7.56
G1X20.02Y7.65
G1X20.28Y7.74
G1X20.49Y7.84
G1X20.65Y7.94
G1X20.77Y8.06
G1X20.82Y8.17
G1X20.86Y8.31
G1Y8.45
G1X20.83Y8.53
G1X20.76Y8.59
G1X20.72Y8.56
G1X20.67Y8.49
G1X20.57Y8.38
G1X20.43Y8.27
G1X20.3Y8.19
G1X20.12Y8.13
G1X19.88Y8.07
G1X19.02Y7.89
G1X18.24Y7.71
G1X18.2
G1X18.03Y7.69
G1X17.57Y7.67
G1X16.65Y7.64
G1X16.46
G1X16.32Y7.62
G1X16.09Y7.59
G1X15.89Y7.54
G1X15.59Y7.44
G1X15.33Y7.33
G1X15.13Y7.23
G1X14.92Y7.1
M5
G0X14.5Y6
M3 S30
; Layer C00
G1X14.2Y6.02
G1X14.61Y5.92
G1X14.94Y5.82
G1X15.24Y5.72
G1X15.51Y5.59
G1X15.78Y5.44
G1X16.05Y5.28
G1X16.3Y5.14
G1X16.54Y5.03
G1X16.77Y4.94
G1X17.25Y4.8
G1X17.79Y4.72
G1X18.04Y4.69
G1X18.26Y4.66
G1X18.45Y4.62
G1X18.63Y4.57
G1X18.97Y4.43
G1X19.36Y4.22
G1X19.6Y4.08
G1X19.82Y3.97
G1X20.03Y3.89
G1X20.22Y3.84
G1X20.4Y3.81
G1X20.58
G1X20.74Y3.84
G1X20.91Y3.89
G1X21.14Y3.99
G1X21.37Y4.12
G1X21.58Y4.26
G1X21.75Y4.4
G1X21.87Y4.52
G1X21.91Y4.63
G1X21.89Y4.73
G1X21.8Y4.82
G1X21.68Y4.92
G1X21.22Y4.49
G1X21.04Y4.32
G1X20.86Y4.17
G1X20.72Y4.06
G1X20.63Y4.01
G1X20.38Y3.95
G1X20.11Y3.98
G1X19.83Y4.1
G1X19.52Y4.31
G1X19.26Y4.52
G1X19.15Y4.6
G1X19.06Y4.66
G1X18.91Y4.76
G1X18.75Y4.83
G1X18.62Y4.89
G1X18.48Y4.92
G1X18.39
G1X18.27
G1X17.92
G1X17.63
G1X17.4Y4.93
G1X17.19Y4.95
G1X17.01Y4.99
G1X16.83Y5.06
G1X16.64Y5.15
G1X16.43Y5.27
G1X16.18Y5.43
G1X15.76Y5.68
G1X15.38Y5.85
G1X14.97Y5.95
G1X14.5Y6
M5
G0X12.19Y4.97
M3 S30
; Layer C00
G1X12.07Y5.06
G1X11.92Y5.15
G1X11.74Y5.26
G1X11.55Y5.36
G1X11.41Y5.46
G1X11.31Y5.57
G1X11.19Y5.75
G1X11.15Y5.78
G1X11.1Y5.8
G1X11.03
G1X10.92Y5.79
G1X10.84Y5.74
G1X10.81Y5.67
G1Y5.6
G1X10.84Y5.52
G1X10.91Y5.42
G1X11.02Y5.32
G1X11.16Y5.21
G1X11.33Y5.09
G1X11.77Y4.82
G1X11.95Y4.69
G1X12.09Y4.56
G1X12.19Y4.41
G1X12.26Y4.24
G1X12.3Y4.03
G1X12.33Y3.77
G1X12.35Y3.21
G1X12.36Y3.03
G1X12.37Y2.9
G1X12.38Y2.86
G1X12.39Y2.89
G1Y2.97
G1X12.4Y3.1
G1X12.41Y3.27
G1X12.42Y3.77
G1X12.43Y4.47
G1X12.4Y4.69
G1X12.29Y4.88
G1X12.19Y4.97
M5
G0X12.56Y10.22
M3 S30
; Layer C00
G1X12.61
G1X12.69Y10.27
G1X12.79Y10.32
G1X13.02Y10.47
G1X13.26Y10.66
G1X13.57Y10.9
G1X13.93Y11.14
G1X14.33Y11.37
G1X14.82Y11.6
G1X15.09Y11.71
G1X15.4Y11.84
G1X15.72Y11.96
G1X16.08Y12.09
G1X16.47Y12.23
G1X16.9Y12.37
G1X17.36Y12.53
G1X18.39Y12.86
G1X18.85Y13.02
G1X19.04Y13.09
G1X19.2Y13.15
G1X19.32Y13.19
G1X19.38Y13.22
G1X19.59Y13.35
G1X19.77Y13.5
G1X19.93Y13.66
G1X20.08Y13.85
G1X20.2Y14.07
G1X20.31Y14.3
G1X20.4Y14.57
G1X20.47Y14.85
G1X20.51Y15.16
G1X20.53Y15.53
G1Y15.68
G1X20.52Y15.8
G1X20.5Y15.84
G1X20.48Y15.81
G1X20.46Y15.73
G1X20.32Y15.23
G1X20.25Y14.97
G1X20.17Y14.73
G1X20.08Y14.53
G1X19.98Y14.34
G1X19.75Y14.03
G1X19.48Y13.79
G1X19.31Y13.68
G1X19.09Y13.56
G1X18.82Y13.43
G1X18.49Y13.3
G1X18.12Y13.15
G1X17.7Y12.99
G1X17.22Y12.83
G1X16.7Y12.65
G1X15.9Y12.38
G1X15.15Y12.11
G1X14.82Y11.98
G1X14.52Y11.87
G1X14.29Y11.77
G1X14.11Y11.68
G1X13.83Y11.53
G1X13.58Y11.37
G1X13.34Y11.19
G1X13.12Y11
G1X12.93Y10.8
G1X12.74Y10.56
G1X12.66Y10.45
G1X12.6Y10.36
G1X12.55Y10.28
G1X12.54Y10.23
G1X12.56Y10.22
M5
G0X11.68Y12.67
M3 S30
; Layer C00
G1X11.66Y12.94
G1X11.63Y13.14
G1X11.59Y13.33
G1X11.53Y13.48
G1X11.47Y13.6
G1X11.44Y13.63
G1X11.43
G1X11.42Y13.61
G1Y13.54
G1X11.49Y13.18
G1X11.62Y12.8
G1X11.68Y12.67
M5
G0X11.27Y12.64
M3 S30
; Layer C00
G1X11.26Y13.05
G1X11.25Y13.25
G1X11.24Y13.39
G1X11.21Y13.49
G1X11.18Y13.56
G1X11.14Y13.62
G1X11.13
G1Y13.58
G1Y13.52
G1Y13.31
G1X11.16Y13.02
G1X11.21Y12.8
G1X11.27Y12.64
M5
G0X10.76Y12.81
M3 S30
; Layer C00
G1X10.78Y12.88
G1X10.8Y12.98
G1X10.82Y13.11
G1X10.85Y13.39
G1Y13.59
G1X10.82Y13.69
G1X10.79Y13.72
G1X10.76Y13.7
G1X10.73Y13.61
G1X10.71Y13.17
G1X10.74Y12.8
G1X10.76Y12.81
M5
G0X10.4Y12.88
M3 S30
; Layer C00
G1X10.44Y12.98
G1X10.47Y13.16
G1X10.5Y13.38
G1X10.52Y13.58
G1Y13.74
G1X10.49Y13.83
G1X10.45
G1X10.41Y13.74
G1X10.39Y13.53
G1X10.37Y13.24
G1Y13.09
G1Y12.98
G1X10.39Y12.9
G1X10.4Y12.88
M5
G0X10.07Y12.96
M3 S30
; Layer C00
G1X10.16Y13.28
G1X10.23Y13.55
G1X10.27Y13.75
G1X10.28Y13.89
G1X10.27Y13.99
G1X10.25Y14.05
G1X10.23Y14.06
G1X10.21Y14.01
G1X10.17Y13.9
G1X10.12Y13.65
G1X10.09Y13.33
G1X10.07Y12.96
M5
G0X9.74Y13.37
M3 S30
; Layer C00
G1X9.76Y13.39
G1X9.91Y13.62
G1X10.05Y13.92
G1X10.11Y14.07
G1X10.14Y14.18
G1X10.16Y14.27
G1X10.14Y14.3
G1X10.12Y14.28
G1X10.09Y14.22
G1X10.04Y14.15
G1X9.99Y14.05
G1X9.88Y13.82
G1X9.78Y13.57
G1X9.75Y13.47
G1X9.73Y13.4
G1Y13.37
M5
G0X9.55Y13.59
M3 S30
; Layer C00
G1X9.52Y13.61
G1X9.5Y13.63
G1Y13.67
G1X9.54Y13.71
G1X9.74Y13.95
G1X9.86Y14.12
G1X9.95Y14.27
G1X10Y14.39
G1X10.02Y14.47
G1Y14.51
G1X9.97Y14.47
G1X9.88Y14.37
G1X9.75Y14.19
G1X9.59Y13.94
G1X9.52Y13.82
G1X9.47Y13.71
G1X9.44Y13.64
G1X9.43Y13.6
G1X9.46Y13.59
G1X9.51
G1X9.55
M5
G0X9.01Y13.83
M3 S30
; Layer C00
G1X9.14Y13.94
G1X9.34Y14.12
G1X9.45Y14.22
G1X9.54Y14.33
G1X9.6Y14.42
G1X9.63Y14.49
G1X9.61Y14.51
G1X9.58Y14.5
G1X9.52Y14.46
G1X9.43Y14.4
G1X9.17Y14.12
G1X8.93Y13.8
G1X8.94Y13.78
G1X9.01Y13.83
M5
G0X8.68Y14.04
M3 S30
; Layer C00
G1X8.9Y14.18
G1X9.13Y14.32
G1X9.29Y14.44
G1X9.4Y14.53
G1X9.46Y14.62
G1X9.5Y14.72
G1Y14.76
G1X9.44Y14.75
G1X9.33Y14.68
G1X9.05Y14.47
G1X8.8Y14.19
G1X8.68Y14.04
M5
G0X8.48Y14.3
M3 S30
; Layer C00
G1X8.64Y14.41
G1X8.81Y14.51
G1X9Y14.63
G1X9.16Y14.77
G1X9.22Y14.84
G1X9.25Y14.89
G1Y14.92
G1X9.22Y14.94
G1X9.15Y14.91
G1X9.02Y14.85
G1X8.86Y14.73
G1X8.66Y14.56
G1X8.57Y14.47
G1X8.5Y14.39
G1X8.46Y14.33
G1X8.45Y14.3
G1X8.48
M5
G0X8.34Y14.71
M3 S30
; Layer C00
G1X8.47Y14.75
G1X8.67Y14.8
G1X8.86Y14.87
G1X9.02Y14.94
G1X9.14Y15.03
G1X9.22Y15.12
G1X9.23Y15.15
G1Y15.17
G1X9.2Y15.18
G1X9.15
G1X9.01Y15.16
G1X8.82Y15.08
G1X8.63Y14.98
G1X8.44Y14.84
G1X8.36Y14.78
G1X8.32Y14.73
G1X8.3Y14.7
G1X8.34
M5
G0X8.48Y15.12
M3 S30
; Layer C00
G1X8.7Y15.15
G1X8.94Y15.27
G1X9.02Y15.35
G1Y15.39
G1X8.94
G1X8.79Y15.35
G1X8.68Y15.31
G1X8.57Y15.24
G1X8.5Y15.17
G1X8.48Y15.12
M5
G0X9.09Y15.8
M3 S30
; Layer C00
G1X9.48Y15.89
G1X9.57Y15.93
G1X9.62Y16.05
G1X9.65Y16.15
G1Y16.2
G1X9.6Y16.18
G1X9.48Y16.12
G1X9.33Y16.01
G1X9.2Y15.91
G1X9.09Y15.8
M5
G0X8.84Y16
M3 S30
; Layer C00
G1X8.86Y16.04
G1X8.92Y16.11
G1X9.01Y16.2
G1X9.11Y16.3
G1X9.29Y16.46
G1X9.33Y16.5
G1X9.3Y16.45
G1Y16.42
G1X9.57Y16.55
G1X9.86Y16.74
G1X9.89Y16.77
G1X9.99
G1X10.03Y16.81
G1X10.06Y16.85
G1X10.03Y16.86
G1X9.96
G1X9.86Y16.88
G1X9.77
G1X9.68
G1X9.6Y16.84
G1X9.52Y16.76
G1X9.43Y16.67
G1X9.56Y16.87
G1X9.45Y16.85
G1X9.31Y16.83
G1X9.13Y16.81
G1X9.01Y16.79
G1X8.92Y16.76
G1X8.84Y16.7
G1X8.73Y16.58
G1X8.55Y16.38
G1X8.7Y16.17
G1X8.75Y16.09
G1X8.8Y16.03
G1X8.83Y16
G1X8.84
M5
G0X8.51Y16.44
M3 S30
; Layer C00
G1X8.58Y16.49
G1X8.69Y16.59
G1X8.8Y16.7
G1X8.84Y16.76
G1Y16.79
G1X8.8Y16.8
G1X8.68Y16.82
G1X8.57
G1X8.48Y16.8
G1X8.42Y16.77
G1X8.37Y16.69
G1X8.34Y16.61
G1Y16.53
G1X8.4Y16.46
G1X8.46Y16.43
G1X8.51
M5
G0X8.24Y16.57
M3 S30
; Layer C00
G1X8.27Y16.6
G1X8.3Y16.67
G1X8.34Y16.78
G1Y16.83
G1X8.3Y16.82
G1X8.21Y16.74
G1X8.14Y16.67
G1X8.11Y16.63
G1X8.12Y16.61
G1X8.16Y16.58
G1X8.21Y16.56
G1X8.24
M5
G0X8.05Y16.7
M3 S30
; Layer C00
G1X8.12Y16.75
G1X8.2Y16.81
G1Y16.86
G1X8.13Y16.89
G1X7.98Y16.92
G1X7.89
G1X7.83
G1X7.8Y16.9
G1X7.77Y16.86
G1X7.75Y16.81
G1Y16.78
G1X7.8Y16.75
G1X7.87Y16.72
G1X7.94Y16.69
G1X8
G1X8.05Y16.7
M5
G0X7.51Y16.97
M3 S30
; Layer C00
G1Y17
G1X7.5Y17.02
G1X7.47
G1X7.44Y17.01
G1Y16.98
G1X7.46Y16.95
G1X7.49
G1X7.51Y16.97
M5
G0X7.88Y17.36
M3 S30
; Layer C00
G1X7.94Y17.34
G1X7.98Y17.35
G1X8.03Y17.39
G1X8.07Y17.42
G1X8.09Y17.43
G1Y17.41
G1X8.04Y17.32
G1Y17.3
G1X8.05
G1X8.1Y17.31
G1X8.21Y17.35
G1X8.46Y17.48
G1X8.52Y17.5
G1X8.5Y17.48
G1X8.29Y17.33
G1X8.24Y17.28
G1X8.3Y17.26
G1X8.42
G1X8.57Y17.25
G1X8.67Y17.24
G1X8.77Y17.25
G1X8.9Y17.34
G1X8.96Y17.4
G1X8.99Y17.44
G1X9Y17.46
G1X8.99
G1X8.91Y17.48
G1X8.81Y17.49
G1X8.75
G1X8.71
G1X8.67Y17.46
G1X8.6Y17.36
G1Y17.41
G1X8.64Y17.49
G1Y17.53
G1X8.55
G1X8.29Y17.6
G1X8.2Y17.58
G1X8.15Y17.56
G1Y17.59
G1X8.17Y17.63
G1Y17.65
G1X8.1Y17.66
G1X7.81Y17.75
G1X7.71Y17.62
G1X7.61Y17.49
G1X7.78Y17.41
G1X7.88Y17.36
M5
G0X7.56Y17.54
M3 S30
; Layer C00
G1X7.69Y17.63
G1X7.74Y17.75
G1X7.54Y17.81
G1X7.38
G1X7.46Y17.65
G1X7.56Y17.54
M5
G0X6.79Y17.51
M3 S30
; Layer C00
G1X6.78Y17.56
G1X6.74Y17.57
G1X6.67Y17.55
G1X6.56Y17.5
G1X6.44Y17.46
G1X6.39Y17.45
G1X6.44Y17.49
G1X6.58Y17.56
G1X6.79Y17.66
G1Y17.87
G1X6.77Y18.05
G1X6.73Y18.2
G1X6.65Y18.34
G1X6.34Y18.7
G1X6.16Y18.97
G1X6.02Y19.29
G1X5.91Y19.65
G1X5.82Y20.09
G1X5.77Y20.54
G1X5.76Y20.83
G1Y21.17
G1Y21.6
G1Y22.61
G1X5.77Y23.02
G1X5.78Y23.36
G1X5.8Y23.64
G1X5.81Y23.87
G1X5.83Y24.05
G1X5.86Y24.2
G1X5.89Y24.32
G1X5.92Y24.45
G1Y24.61
G1Y24.73
G1X5.9Y24.78
G1X5.87Y24.74
G1X5.83Y24.63
G1X5.76Y24.47
G1X5.69Y24.27
G1X5.55Y23.82
G1X5.44Y23.4
G1X5.36Y22.97
G1X5.29Y22.47
G1X5.25Y22.21
G1X5.2Y22.01
G1X5.12Y21.83
G1X5Y21.63
G1X4.93Y21.52
G1X4.88Y21.44
G1X4.85Y21.39
G1Y21.36
G1X4.87
G1X4.91Y21.37
G1X4.98Y21.42
G1X5.15Y21.56
G1X5.2Y21.59
G1Y21.58
G1Y21.53
G1X5.17Y21.48
G1X5.12Y21.39
G1X5.06Y21.29
G1X4.91Y21.05
G1X4.85Y20.95
G1X4.82Y20.89
G1X4.81Y20.84
G1Y20.82
G1X4.85
G1X4.9Y20.86
G1X5.07Y20.97
G1X5.13Y21.01
G1X5.15
G1Y20.99
G1Y20.94
G1X5.11Y20.88
G1X5.03Y20.71
G1X4.91Y20.51
G1X4.86Y20.42
G1X4.81Y20.34
G1X4.79Y20.29
G1Y20.26
G1X4.84Y20.29
G1X4.97Y20.37
G1X5.14Y20.5
G1X5.09Y20.36
G1X5.01Y20.18
G1X4.8Y19.78
G1X4.76Y19.68
G1Y19.63
G1X4.78Y19.6
G1X4.85Y19.56
G1X4.94Y19.5
G1X5.05Y19.41
G1X5.18Y19.32
G1X5.43Y19.11
G1X5.64Y18.92
G1X5.81Y18.75
G1X5.94Y18.57
G1X6.02Y18.39
G1X6.07Y18.22
G1X6.09Y18.12
G1X6.11Y18.08
G1X6.18Y18.12
G1X6.47Y18.32
G1X6.56Y18.38
G1X6.6Y18.4
G1Y18.38
G1X6.56Y18.35
G1X6.46Y18.27
G1X6.22Y18.09
G1X6.15Y18.03
G1X6.12Y17.97
G1Y17.91
G1X6.15Y17.67
G1X6.24Y17.42
G1X6.3Y17.31
G1X6.35Y17.23
G1X6.41Y17.17
G1X6.47Y17.15
G1X6.55Y17.19
G1X6.65Y17.3
G1X6.75Y17.42
G1X6.79Y17.51
M5
G0X7.81Y18.21
M3 S30
; Layer C00
G1X7.92Y18.15
G1X7.98Y18.12
G1X8.02Y18.1
G1X8.05
G1Y18.12
G1X8.08Y18.17
G1X8.14Y18.21
G1X8.17Y18.23
G1Y18.24
G1X8.1
G1X7.98Y18.25
G1X7.89
G1X7.82
G1X7.77
G1Y18.24
G1X7.81Y18.21
M5
G0X8.09Y18.05
M3 S30
; Layer C00
G1X8.17Y17.99
G1X8.26Y17.95
G1X8.33Y17.94
G1X8.39Y17.96
G1X8.45Y18.01
G1X8.48Y18.06
G1X8.49
G1X8.42Y17.94
G1Y17.91
G1Y17.89
G1X8.48Y17.87
G1X8.63Y17.82
G1X8.73Y17.81
G1X8.79Y17.85
G1X8.84Y17.94
G1X8.89Y18.04
G1X8.91Y18.06
G1Y18.02
G1X8.86Y17.91
G1X8.82Y17.82
G1X8.8Y17.77
G1X8.83
G1X8.91
G1X9.17Y17.86
G1X9.46Y18.02
G1X9.53Y18.07
G1X9.46
G1X9.26Y18.01
G1X9.04Y17.85
G1X8.97Y17.81
G1X8.93Y17.8
G1X8.97Y17.85
G1X9.2Y18.03
G1X9.25Y18.08
G1X9.21Y18.1
G1X8.98Y18.12
G1X8.82Y18.16
G1X8.67Y18.18
G1X8.58Y18.16
G1X8.53Y18.13
G1Y18.17
G1X8.5Y18.22
G1X8.4
G1X8.28Y18.19
G1X8.17Y18.13
G1X8.09Y18.05
M5
G0X7.48Y18.47
M3 S30
; Layer C00
G1X7.5Y18.49
G1Y18.53
G1X7.48Y18.59
G1X7.4Y18.75
G1X7.26Y18.96
G1X7.02Y19.34
G1X6.87Y19.68
G1X6.78Y20
G1X6.75Y20.33
G1Y20.48
G1X6.76Y20.57
G1X6.79Y20.63
G1X6.83Y20.68
G1X6.89Y20.73
G1X6.96Y20.74
G1X7.09
G1X7.3Y20.69
G1X7.41Y20.7
G1X7.51Y20.76
G1X7.6Y20.88
G1X7.67Y21.06
G1X7.75Y21.32
G1X7.84Y21.5
G1X7.93Y21.62
G1X8.06Y21.72
G1X8.17Y21.79
G1X8.23Y21.84
G1X8.25Y21.87
G1X8.23Y21.89
G1X8.16Y21.88
G1X8.07Y21.85
G1X7.93Y21.8
G1X7.77Y21.73
G1X7.58Y21.63
G1X7.44Y21.52
G1X7.34Y21.42
G1X7.31Y21.32
G1Y21.27
G1X7.34Y21.25
G1X7.38Y21.27
G1X7.45Y21.33
G1X7.52Y21.37
G1X7.58Y21.38
G1X7.63Y21.36
G1X7.65Y21.3
G1X7.58Y21.11
G1X7.45Y20.96
G1X7.39Y20.95
G1X7.31Y20.96
G1X7.24Y21
G1X7.19Y21.06
G1X7.17Y21.07
G1X7.13
G1X7.06
G1X6.96Y21.03
G1X6.8Y20.99
G1X6.68
G1X6.58Y21.05
G1X6.5Y21.15
G1X6.46Y21.24
G1X6.44Y21.38
G1Y21.49
G1Y21.64
G1Y22.07
G1X6.46Y22.71
G1X6.51Y23.3
G1X6.54Y23.57
G1X6.58Y23.8
G1X6.63Y24.01
G1X6.68Y24.17
G1X6.75Y24.39
G1X6.79Y24.56
G1X6.8Y24.69
G1X6.78Y24.77
G1X6.74Y24.8
G1X6.71Y24.81
G1X6.67Y24.8
G1X6.62Y24.76
G1X6.58Y24.71
G1X6.53Y24.64
G1X6.47Y24.53
G1X6.41Y24.42
G1X6.28Y24.12
G1X6.19Y23.75
G1X6.13Y23.34
G1X6.11Y22.9
G1X6.12Y22.7
G1X6.14Y22.46
G1X6.16Y22.18
G1X6.2Y21.89
G1X6.24Y21.6
G1X6.28Y21.33
G1X6.32Y21.09
G1X6.36Y20.91
G1X6.38Y20.79
G1X6.39Y20.66
G1Y20.5
G1X6.38Y20.1
G1Y19.93
G1X6.4Y19.78
G1X6.44Y19.66
G1X6.5Y19.54
G1X6.59Y19.43
G1X6.7Y19.3
G1X7Y19.02
G1X7.13Y18.88
G1X7.24Y18.76
G1X7.3Y18.66
G1X7.39Y18.54
G1X7.45Y18.48
G1X7.48
M5
G0X7.9Y18.9
M3 S30
; Layer C00
G1X8.05Y18.86
G1X8.18
G1X8.26Y18.89
G1X8.32Y18.97
G1X8.31Y19.01
G1X8.27Y19.02
G1X8.2Y19.03
G1X8.1
G1X7.59
G1X7.73Y18.96
G1X7.9Y18.9
M5
G0X8.3Y18.85
M3 S30
; Layer C00
G1X8.29Y18.81
G1X8.35Y18.82
G1X8.48Y18.88
G1X8.62Y18.94
G1X8.7Y18.96
G1Y18.94
G1X8.65Y18.88
G1X8.59Y18.83
G1X8.57Y18.81
G1X8.58Y18.79
G1X8.62Y18.78
G1X8.7Y18.8
G1X8.8Y18.88
G1X8.86Y18.95
G1X8.89Y18.98
G1X8.87Y19
G1X8.83Y19.02
G1X8.69Y19.04
G1X8.57
G1X8.46Y19
G1X8.37Y18.93
G1X8.3Y18.85
M5
G0X8.82Y18.79
M3 S30
; Layer C00
G1Y18.75
G1X8.87Y18.74
G1X8.91Y18.77
G1X8.96Y18.81
G1X8.99Y18.82
G1X9.01Y18.81
G1Y18.76
G1Y18.73
G1X9.03Y18.71
G1X9.12
G1X9.28
G1X9.49Y18.74
G1X9.64Y18.78
G1X9.68Y18.8
G1X9.69Y18.81
G1X9.67Y18.82
G1X9.6
G1X9.33Y18.88
G1X9.14Y18.97
G1X9.09
G1X9.01Y18.95
G1X8.91Y18.9
G1X8.85Y18.85
G1X8.82Y18.79
M5
G0X8.01Y19.33
M3 S30
; Layer C00
G1X8.1Y19.4
G1X8.23Y19.56
G1X8.33Y19.72
G1X8.37Y19.81
G1X8.34Y19.85
G1X8.29
G1X8.23
G1X8.16Y19.82
G1X8.07Y19.74
G1X7.99Y19.62
G1X7.94Y19.49
G1X7.93Y19.39
G1X7.96Y19.34
G1X8.01
M5
G0X7.59Y19.73
M3 S30
; Layer C00
G1X7.64Y19.77
G1X7.68Y19.84
G1X7.71Y19.92
G1X7.72Y20.01
G1X7.76Y20.1
G1X7.85Y20.21
G1X7.96Y20.36
G1X8.05Y20.52
G1X8.14Y20.69
G1X8.29Y20.83
G1X8.45Y20.96
G1X8.56Y21.1
G1X8.65Y21.21
G1X8.74Y21.28
G1X8.84Y21.36
G1X8.9Y21.45
G1X8.93Y21.56
G1Y21.68
G1X8.9Y21.74
G1X8.89Y21.77
G1X8.88
G1X8.86Y21.73
G1X8.78Y21.55
G1X8.7Y21.43
G1X8.56Y21.3
G1X8.32Y21.11
G1X8.16Y20.96
G1X8.04Y20.82
G1X7.95Y20.68
G1X7.82Y20.5
G1X7.68Y20.39
G1X7.56Y20.32
G1X7.47Y20.23
G1X7.42Y20.11
G1X7.41Y19.98
G1X7.42Y19.86
G1X7.46Y19.78
G1X7.52Y19.73
G1X7.59
M5
G0X9.48Y20.04
M3 S30
; Layer C00
G1X9.59Y19.67
G1X9.77Y19.3
G1X9.86Y19.19
G1X9.96Y19.12
G1X10.1Y19.05
G1X10.29Y18.99
G1X10.49Y18.91
G1X10.63Y18.81
G1X10.73Y18.67
G1X10.8Y18.5
G1X10.84Y18.37
G1X10.89Y18.27
G1X10.97Y18.18
G1X11.24Y17.89
G1X11.33Y17.77
G1X11.36Y17.65
G1X11.34Y17.54
G1X11.31Y17.44
G1X11.26Y17.37
G1X11.17Y17.29
G1X11.01Y17.17
G1X10.82Y17.02
G1X10.7Y16.92
G1X10.5Y16.72
G1X10.34Y16.57
G1X10.18Y16.46
G1X10.01Y16.38
G1X9.86Y16.31
G1X9.78Y16.25
G1X9.73Y16.19
G1X9.69Y16.1
G1X9.65Y15.98
G1Y15.94
G1X9.95Y16.01
G1X10.14Y16.05
G1X10.4Y16.08
G1X10.6
G1X10.86
G1X11.62
G1X12.35
G1X12.6
G1X12.79
G1X12.94
G1X13.05Y16.06
G1X13.13Y16.05
G1X13.28Y16.01
G1X13.34Y16
G1X13.38
G1X13.39Y16.01
G1X13.41
G1X13.45Y15.97
G1X13.53Y15.88
G1X13.65Y15.77
G1X13.74Y15.71
G1X13.82Y15.67
G1X13.9Y15.65
G1X14.01
G1X14.16
G1X14.23Y15.67
G1Y15.73
G1X14.19Y15.8
G1X14.12Y15.87
G1X14.04Y15.92
G1X13.98Y15.94
G1X13.88Y15.99
G1X13.76Y16.06
G1X13.64Y16.13
G1X13.33Y16.31
G1X13.02Y16.45
G1X12.73Y16.58
G1X12.41Y16.73
G1X12.14Y16.88
G1X11.95Y17
G1X11.83Y17.11
G1X11.75Y17.25
G1X11.7Y17.4
G1Y17.55
G1X11.72Y17.63
G1X11.78Y17.76
G1X11.85Y17.91
G1X11.94Y18.09
G1X12.04Y18.26
G1X12.14Y18.43
G1X12.23Y18.57
G1X12.3Y18.67
G1X12.43Y18.79
G1X12.61Y18.9
G1X12.85Y19.06
G1X13.09Y19.28
G1X13.29Y19.49
G1X13.39Y19.67
G1X13.43Y19.84
G1X13.46Y20
G1Y20.13
G1X13.45Y20.19
G1X13.41Y20.17
G1X13.35Y20.11
G1X13.28Y20.03
G1X13.18Y19.98
G1X13.02
G1X12.8Y20
G1X12.6Y20.02
G1X12.45
G1X12.37Y20.01
G1X12.27Y19.98
G1X12.15Y19.95
G1X12Y19.91
G1X11.7Y19.84
G1X11.42Y19.82
G1X11.13Y19.84
G1X10.84Y19.9
G1X10.67Y19.94
G1X10.56Y19.96
G1X10.46
G1X10.32Y19.93
G1X10.08Y19.89
G1X9.89Y19.88
G1X9.74Y19.91
G1X9.62Y19.98
G1X9.52Y20.04
G1X9.48
M5
G0X10.32Y18.13
M3 S30
; Layer C00
G1X9.99Y18.03
G1X9.7Y17.87
G1X9.54Y17.75
G1X9.68
G1X9.82Y17.78
G1X9.94Y17.84
G1X10.04Y17.91
G1X10.11Y17.95
G1X10.15Y17.97
G1X10.11Y17.92
G1X10.08Y17.87
G1Y17.84
G1X10.12
G1X10.17
G1X10.31Y17.91
G1X10.45Y18.02
G1X10.51Y18.1
G1Y18.14
G1X10.44Y18.15
G1X10.32Y18.13
M5
G0X9.81Y18.02
M3 S30
; Layer C00
G1X9.78Y18.03
G1X9.66Y18.01
G1X9.53Y17.96
G1X9.35Y17.88
G1X9.12Y17.77
G1X9.3
G1X9.4Y17.76
G1X9.48Y17.77
G1X9.55Y17.81
G1X9.65Y17.87
G1X9.77Y17.96
G1X9.81Y18.02
M5
G0X10.13Y17.49
M3 S30
; Layer C00
G1X10.08Y17.46
G1X10Y17.38
G1X9.92Y17.28
G1X9.89Y17.24
G1X9.93
G1X10.01
G1X10.09Y17.28
G1X10.13Y17.37
G1X10.14Y17.46
G1X10.13Y17.49
M5
G0X10.2Y17.41
M3 S30
; Layer C00
G1X10.16Y17.35
G1Y17.3
G1X10.22
G1X10.32Y17.33
G1X10.45Y17.39
G1X10.57Y17.46
G1X10.64Y17.5
G1X10.68Y17.54
G1Y17.56
G1X10.67Y17.58
G1X10.62Y17.6
G1X10.57
G1X10.49Y17.58
G1X10.38Y17.54
G1X10.28Y17.48
G1X10.2Y17.41
M5
G0X9.94Y17.4
M3 S30
; Layer C00
G1X9.93Y17.42
G1X9.88Y17.43
G1X9.79
G1X9.64
G1X9.55Y17.4
G1X9.48Y17.35
G1X9.42Y17.27
G1X9.36Y17.18
G1X9.57Y17.2
G1X9.72Y17.22
G1X9.81Y17.25
G1X9.88Y17.3
G1X9.93Y17.37
G1X9.94Y17.4
M5
G0X9.53Y17.43
M3 S30
; Layer C00
G1X9.38
G1X9.26Y17.44
G1X9.17Y17.45
G1X9.08Y17.42
G1X8.96Y17.34
G1X8.82Y17.22
G1X9.07
G1X9.2
G1X9.29Y17.24
G1X9.35Y17.27
G1X9.42Y17.33
G1X9.53Y17.43
M5
G0X12.43Y17.46
M3 S30
; Layer C00
G1X12.46Y17.38
G1X12.56Y17.28
G1X12.69Y17.18
G1X12.81Y17.11
G1X12.93Y17.07
G1X12.98Y17.06
G1X12.96Y17.12
G1X12.91Y17.25
G1X12.86Y17.35
G1X12.82Y17.41
G1X12.77Y17.44
G1X12.69Y17.45
G1X12.58Y17.47
G1X12.49Y17.49
G1X12.45
G1X12.43Y17.46
M5
G0X12.91Y17.4
M3 S30
; Layer C00
G1X12.93Y17.33
G1X12.97Y17.21
G1X13.01Y17.11
G1X13.04Y17.06
G1X13.09Y17.05
G1X13.18
G1X13.28
G1X13.32Y17.07
G1X13.16Y17.27
G1X12.97Y17.43
G1X12.93
G1X12.91Y17.4
M5
G0X13.13Y17.41
M3 S30
; Layer C00
G1X13.38Y17.04
G1X13.61
G1X13.71
G1X13.78Y17.05
G1X13.82
G1X13.83Y17.07
G1X13.89Y17.09
G1X14.2Y17.11
G1X14.28Y17.12
G1Y17.16
G1X14.24Y17.23
G1X14.2Y17.27
G1X14.19Y17.28
G1X14.21Y17.27
G1X14.28Y17.22
G1X14.4Y17.16
G1X14.55
G1X14.65Y17.18
G1X14.73Y17.2
G1X14.78Y17.21
G1X14.81Y17.23
G1Y17.27
G1X14.71Y17.34
G1X14.61Y17.4
G1X14.54Y17.43
G1X14.5
G1X14.48Y17.41
G1X14.42Y17.39
G1X14.16
G1X14.12Y17.37
G1X14.07Y17.35
G1X14.01
G1X13.74Y17.36
G1X13.66
G1Y17.31
G1X13.78Y17.18
G1X13.79Y17.15
G1X13.73Y17.18
G1X13.64Y17.26
G1X13.5Y17.35
G1X13.32Y17.39
G1X13.13Y17.41
M5
G0X13.46Y17.88
M3 S30
; Layer C00
G1X13.55Y17.86
G1X13.58Y17.87
G1X13.43Y17.97
G1X13.23Y18.04
G1X13.2Y18.02
G1X13.26Y17.97
G1X13.35Y17.92
G1X13.46Y17.88
M5
G0X13.63Y17.97
M3 S30
; Layer C00
G1X13.67Y17.95
G1X13.75Y17.91
G1X13.89Y17.85
G1X13.96Y17.83
G1Y17.86
G1X13.88Y17.93
G1X13.8Y18
G1X13.75Y18.03
G1X13.71
G1X13.65Y18.01
G1X13.62Y17.99
G1Y17.97
M5
G0X13.83Y18.03
M3 S30
; Layer C00
G1X13.96Y17.93
G1X14.07Y17.86
G1X14.16Y17.83
G1X14.23
G1Y17.89
G1Y17.92
G1Y17.93
G1Y17.92
G1X14.26Y17.89
G1X14.34Y17.84
G1X14.49
G1X14.62Y17.87
G1X14.67Y17.88
G1X14.57Y18.04
G1X14.47Y18.18
G1X14.33Y18.13
G1X14.23Y18.08
G1X14.21Y18.02
G1Y17.98
G1Y17.97
G1Y17.98
G1X14.17Y18.02
G1X14.1Y18.06
G1X13.98
G1X13.83Y18.03
M5
G0X13.15Y17.95
M3 S30
; Layer C00
G1X13.14Y17.98
G1X13.05Y18.04
G1X12.96Y18.09
G1X12.91Y18.11
G1X12.87Y18.1
G1X12.82Y18.06
G1X12.79Y18.04
G1Y18.02
G1X12.84Y18
G1X12.95Y17.97
G1X13.09Y17.94
G1X13.15
M5
G0X13.62Y18.72
M3 S30
; Layer C00
G1X13.9Y18.79
G1X14.14Y18.88
G1X14.21Y18.9
G1X14.33Y18.92
G1X14.47
G1X14.57Y18.94
G1X14.61Y18.96
G1X14.62Y18.98
G1X14.61Y19
G1X14.57Y19.04
G1X14.51Y19.09
G1X14.44Y19.1
G1X14.33Y19.08
G1X14.16Y19.02
G1X13.95Y18.94
G1X13.76Y18.84
G1X13.68Y18.79
G1X13.63Y18.75
G1X13.61Y18.73
G1X13.62Y18.72
M5
G0X14.55Y19.13
M3 S30
; Layer C00
G1X14.73Y18.96
G1X15.17Y19.04
G1X15.49Y19.09
G1X15.59Y19.11
G1X15.63Y19.12
G1X15.6Y19.15
G1X15.49Y19.16
G1X15.36
G1X15.26Y19.15
G1X15.19Y19.12
G1X15.09Y19.17
G1X14.99
G1X14.86
G1X14.69Y19.15
G1X14.55Y19.13
M5
G0X15.09Y19.56
M3 S30
; Layer C00
G1X15.16Y19.52
G1X15.22Y19.51
G1X15.26Y19.53
G1X15.3Y19.59
G1X15.32Y19.71
G1X15.26Y19.81
G1X15.16Y19.86
G1X15.05Y19.82
G1X15.01Y19.76
G1Y19.68
G1X15.03Y19.61
G1X15.09Y19.56
M5
G0X15.92Y19.74
M3 S30
; Layer C00
G1X15.98Y19.58
G1X16.03Y19.5
G1X16.07Y19.47
G1X16.1Y19.5
G1X16.15Y19.53
G1X16.24Y19.56
G1X16.3Y19.57
G1X16.33Y19.6
G1X16.35Y19.65
G1Y19.74
G1X16.33Y19.83
G1X16.31Y19.89
G1X16.27Y19.93
G1X16.06Y20.06
G1X15.95Y20.16
G1X15.82Y20.31
G1X15.66Y20.54
G1X15.47Y20.79
G1X15.32Y20.96
G1X15.19Y21.07
G1X15.07Y21.13
G1X14.99
G1X14.97Y21.09
G1X14.99Y21
G1X15.06Y20.89
G1X15.18Y20.75
G1X15.56Y20.37
G1X15.71Y20.19
G1X15.82Y19.99
G1X15.92Y19.74
M5
G0X16.35Y19.91
M3 S30
; Layer C00
G1X16.39
G1X16.45Y19.95
G1X16.49Y19.99
G1X16.52Y20.05
G1X16.53Y20.17
G1X16.55Y20.56
G1X16.58Y20.72
G1X16.62Y20.8
G1X16.66Y20.9
G1X16.72Y21.03
G1X16.8Y21.2
G1X16.94Y21.48
G1X17.06Y21.75
G1X17.15Y21.99
G1X17.23Y22.22
G1X17.34Y22.66
G1X17.38Y23.09
G1Y23.39
G1X17.36Y23.63
G1X17.3Y23.83
G1X17.2Y24
G1X17.12Y24.08
G1X17.04Y24.13
G1X16.97
G1X16.95Y24.1
G1Y24.05
G1X16.96Y23.97
G1X17Y23.73
G1X17.04Y23.37
G1X17.06Y22.95
G1Y22.74
G1X17.04Y22.55
G1X17.03Y22.38
G1X17Y22.24
G1X16.9Y21.87
G1X16.75Y21.49
G1X16.67Y21.31
G1X16.59Y21.15
G1X16.51Y21.02
G1X16.45Y20.94
G1X16.35Y20.85
G1X16.27Y20.81
G1X16.19Y20.83
G1X16.09Y20.89
G1X15.95Y20.98
G1X15.81Y21.04
G1X15.66Y21.1
G1X15.52Y21.19
G1X15.37Y21.35
G1X15.19Y21.59
G1X15.07Y21.75
G1X14.99Y21.87
G1X14.92Y21.95
G1X14.87Y22
G1X14.85
G1Y21.94
G1X14.89Y21.86
G1X15.03Y21.57
G1X15.24Y21.29
G1X15.49Y21.03
G1X15.8Y20.79
G1X15.97Y20.65
G1X16.11Y20.5
G1X16.21Y20.32
G1X16.27Y20.13
G1X16.32Y19.98
G1X16.35Y19.91
M5
G0X17.39Y19.93
M3 S30
; Layer C00
G1X17.45Y19.74
G1X17.48Y19.66
G1X17.5Y19.62
G1Y19.59
G1X17.47Y19.58
G1X17.35Y19.5
G1X17.19Y19.36
G1X17.03Y19.18
G1X16.93Y19.04
G1X16.87Y18.91
G1X16.81Y18.77
G1X16.78Y18.66
G1Y18.61
G1X16.82Y18.66
G1X16.91Y18.77
G1X17.17Y19.07
G1X17.49Y19.33
G1X17.65Y19.43
G1X17.88Y19.33
G1X18.08Y19.23
G1X18.2Y19.09
G1X18.3Y18.95
G1X18.28Y19.32
G1X18.24Y19.7
G1X18.14Y20.09
G1X18.05Y20.45
G1X18.03Y20.8
G1X18.05Y20.99
G1X18.08Y21.2
G1X18.13Y21.44
G1X18.2Y21.71
G1X18.24Y21.9
G1X18.28Y22.04
G1X18.3Y22.16
G1X18.32Y22.26
G1Y22.47
G1Y22.77
G1X18.29Y23.17
G1X18.23Y23.55
G1X18.14Y23.93
G1X18.01Y24.34
G1X17.89Y24.64
G1X17.79Y24.87
G1X17.7Y25.03
G1X17.61Y25.12
G1X17.56Y25.15
G1X17.52Y25.17
G1X17.47
G1X17.41Y25.14
G1X17.33Y25.09
G1X17.27Y25.02
G1X17.22Y24.94
G1X17.21Y24.85
G1X17.23Y24.71
G1X17.28Y24.5
G1X17.36Y24.26
G1X17.64Y23.58
G1X17.74Y23.23
G1X17.81Y22.9
G1X17.83Y22.53
G1Y22.15
G1X17.79Y21.79
G1X17.75Y21.6
G1X17.7Y21.38
G1X17.63Y21.14
G1X17.54Y20.86
G1X17.44Y20.48
G1X17.39Y20.17
G1Y19.93
M5
G0X18.64Y19.82
M3 S30
; Layer C00
G1X18.57Y19.62
G1X18.52Y19.46
G1X18.5Y19.31
G1Y19.13
G1Y18.91
G1X18.54Y18.75
G1X18.6Y18.63
G1X18.71Y18.52
G1X18.79Y18.45
G1X18.87Y18.42
G1X18.93
G1X19Y18.46
G1X19.05Y18.5
G1X19.07Y18.55
G1Y18.64
G1X19.06Y18.8
G1X19.03Y19.15
G1X19.04Y19.44
G1X19.1Y19.73
G1X19.21Y20.08
G1X19.28Y20.3
G1X19.34Y20.5
G1X19.38Y20.67
G1X19.4Y20.78
G1X19.42Y20.97
G1X19.53Y20.87
G1X19.6Y20.81
G1X19.62Y20.82
G1X19.61Y20.86
G1X19.58Y20.91
G1X19.5Y21.1
G1X19.44Y21.24
G1X19.42Y21.31
G1X19.48Y21.3
G1X19.68Y21.2
G1X19.71
G1X19.5Y21.59
G1X19.42Y21.74
G1Y21.77
G1X19.46Y21.76
G1X19.68Y21.66
G1X19.75Y21.64
G1Y21.66
G1X19.72Y21.71
G1X19.68Y21.78
G1X19.55Y21.96
G1X19.5Y22.04
G1X19.46Y22.09
G1X19.45Y22.12
G1X19.49
G1X19.71Y22.02
G1X19.77Y22.01
G1X19.76Y22.03
G1X19.72Y22.08
G1X19.67Y22.16
G1X19.48Y22.42
G1X19.44Y22.47
G1X19.42Y22.5
G1X19.43Y22.52
G1X19.57Y22.44
G1X19.61Y22.43
G1X19.62Y22.45
G1X19.59Y22.49
G1X19.49Y22.63
G1X19.37Y22.81
G1X19.32Y22.89
G1X19.28Y22.97
G1X19.26Y23.02
G1Y23.03
G1X19.29
G1X19.36Y22.96
G1X19.42Y22.93
G1X19.46Y22.91
G1X19.47
G1Y22.95
G1X19.43Y23.02
G1X19.33Y23.27
G1X19.23Y23.58
G1X19.13Y23.93
G1X19.05Y24.28
G1X19.01Y24.48
G1X18.97Y24.65
G1X18.93Y24.79
G1X18.89Y24.91
G1X18.79Y25.12
G1X18.65Y25.34
G1X18.42Y25.62
G1X18.13Y25.93
G1X17.98Y26.07
G1X17.84Y26.19
G1X17.72Y26.28
G1X17.64Y26.33
G1X17.54Y26.37
G1X16.81Y26.71
G1X16.63Y26.79
G1X16.49Y26.85
G1X16.4Y26.87
G1X16.29Y26.9
G1X16.43Y26.79
G1X16.68Y26.61
G1X16.91Y26.46
G1X17.12Y26.33
G1X17.32Y26.23
G1X17.53Y26.13
G1X17.71Y26
G1X17.87Y25.84
G1X18.02Y25.66
G1X18.15Y25.45
G1X18.27Y25.21
G1X18.38Y24.93
G1X18.47Y24.62
G1X18.62Y24.11
G1X18.82Y23.4
G1X18.88Y23.2
G1X18.92Y23.02
G1X18.94Y22.84
G1X18.95Y22.64
G1X18.96Y22.4
G1Y22.09
G1X18.95Y21.33
G1Y21.04
G1X18.93Y20.82
G1X18.91Y20.63
G1X18.87Y20.47
G1X18.82Y20.29
G1X18.74Y20.09
G1X18.64Y19.82
M5
G0X20.36Y19.64
M3 S30
; Layer C00
G1Y19.63
G1X20.38Y19.6
G1X20.57Y19.36
G1X20.75Y19.1
G1X20.91Y18.81
G1X21.03Y18.51
G1X21.11Y18.22
G1Y18.16
G1X21.09
G1X21.04Y18.24
G1X20.87Y18.5
G1X20.79Y18.6
G1X20.73Y18.68
G1X20.69Y18.73
G1X20.64Y18.77
G1Y18.71
G1X20.7Y18.59
G1X20.85Y18.08
G1X20.94Y17.61
G1X20.91Y17.62
G1X20.83Y17.71
G1X20.76Y17.8
G1X20.7Y17.86
G1X20.66Y17.89
G1X20.64
G1X20.67Y17.82
G1X20.72Y17.66
G1X20.82Y17.35
G1X20.92Y16.96
G1X20.93Y16.91
G1Y16.89
G1X20.89Y16.92
G1X20.82Y17
G1X20.72Y17.09
G1X20.67Y17.11
G1Y17.04
G1X20.72Y16.89
G1X20.79Y16.63
G1X20.84Y16.33
G1X20.86Y16.06
G1X20.84Y15.87
G1X20.8Y15.65
G1X20.77Y15.34
G1Y15.2
G1Y15.08
G1Y15.01
G1X20.78Y14.99
G1X20.84Y15.08
G1X20.89Y15.25
G1X20.95Y15.47
G1X20.99Y15.72
G1X21Y15.83
G1X21.02Y15.95
G1X21.03Y15.98
G1X21.04
G1X21.07Y15.82
G1Y15.79
G1X21.09
G1X21.1Y15.83
G1X21.13Y15.98
G1X21.15Y16.18
G1X21.16Y16.31
G1Y16.47
G1X21.18Y17.32
G1Y17.45
G1Y17.53
G1X21.2Y17.58
G1Y17.6
G1X21.22
G1X21.3Y17.49
G1X21.37Y17.42
G1X21.4Y17.38
G1X21.42Y17.4
G1Y17.49
G1X21.41Y17.67
G1X21.38Y17.94
G1X21.32Y18.21
G1X21.25Y18.46
G1X21.16Y18.67
G1X21.1Y18.81
G1X21.08Y18.92
G1Y18.99
G1X21.05Y19.09
G1X21.01Y19.21
G1X20.96Y19.36
G1X20.83Y19.65
G1X20.71Y19.9
G1X20.59Y20.08
G1X20.46Y20.24
G1X20.4Y20.31
G1X20.35Y20.36
G1X20.32Y20.39
G1X20.31
G1X20.34Y20.32
G1X20.42Y20.19
G1X20.5Y20.04
G1X20.6Y19.84
G1X20.71Y19.6
G1X20.82Y19.36
G1X20.79
G1X20.74Y19.39
G1X20.67Y19.43
G1X20.52Y19.54
G1X20.41Y19.61
G1X20.36Y19.64
M5
G0X21.6Y20.04
M3 S30
; Layer C00
G1X21.64Y19.99
G1X21.65
G1X21.58Y20.24
G1X21.45Y20.54
G1X21.42Y20.6
G1X21.43
G1X21.46Y20.59
G1X21.51Y20.55
G1X21.76Y20.34
G1X21.84Y20.28
G1X21.9Y20.24
G1X21.91
G1X21.76Y20.59
G1X21.61Y20.9
G1X21.38Y21.21
G1X21.08Y21.57
G1Y21.59
G1X21.18Y21.56
G1X21.34Y21.49
G1X21.68Y21.32
G1X21.75Y21.29
G1X21.72Y21.34
G1X21.67Y21.39
G1X21.61Y21.46
G1X21.42Y21.66
G1X21.19Y21.94
G1X21.08Y22.08
G1X20.99Y22.19
G1X20.94Y22.27
G1X20.92Y22.31
G1X20.95
G1X21.01Y22.28
G1X21.11Y22.24
G1X21.33Y22.15
G1X21.42Y22.11
G1X21.48Y22.09
G1X21.5
G1X21.48Y22.13
G1X21.4Y22.21
G1X21.29Y22.32
G1X21.01Y22.61
G1X20.87Y22.75
G1X20.76Y22.88
G1X20.69Y22.97
G1X20.56Y23.14
G1X20.67Y23.12
G1X20.82Y23.07
G1X21.04Y22.98
G1X21.3Y22.86
G1X21.1Y23.03
G1X20.99Y23.12
G1X20.85Y23.25
G1X20.69Y23.39
G1X20.53Y23.54
G1X20.38Y23.68
G1X20.23Y23.81
G1X20.1Y23.9
G1X20.01Y23.96
G1X19.91Y24.01
G1X19.85Y24.03
G1X19.83
G1X19.85Y23.99
G1X19.98Y23.82
G1X20.2Y23.54
G1X20.29Y23.41
G1Y23.39
G1X20.24Y23.41
G1X20.14Y23.45
G1X20.04Y23.48
G1X19.99
G1Y23.46
G1X20.03Y23.41
G1X20.08Y23.34
G1X20.34Y23
G1X20.47Y22.83
G1X20.55Y22.72
G1X20.57Y22.67
G1X20.53Y22.65
G1X20.44Y22.66
G1X20.35Y22.67
G1X20.31
G1X20.33Y22.59
G1X20.4Y22.47
G1X20.48Y22.33
G1X20.57Y22.2
G1X20.67Y22.06
G1X20.7Y21.99
G1X20.68Y21.97
G1X20.59Y21.98
G1X20.49Y21.99
G1X20.46Y21.97
G1X20.49Y21.87
G1X20.57Y21.73
G1X20.67Y21.56
G1X20.79Y21.4
G1X20.94Y21.22
G1X20.81Y21.24
G1X20.72
G1X20.68Y21.22
G1X20.78Y21.07
G1X20.93Y20.92
G1X20.97Y20.89
G1X21.02Y20.83
G1X21.09Y20.76
G1X21.16Y20.66
G1X21.32Y20.44
G1X21.55Y20.12
G1X21.6Y20.04
M5
G0X18.07Y18.18
M3 S30
; Layer C00
G1X18Y18.23
G1X17.88Y18.25
G1X17.85
G1X17.78Y18.21
G1X17.56Y18.12
G1X17.32Y18.01
G1X17.23Y17.97
G1X17.12Y17.93
G1X17.11Y17.92
G1X17.14Y17.88
G1X17.34Y17.73
G1X17.49Y17.8
G1X17.67Y17.9
G1X17.86Y18.01
G1X17.94Y18.07
G1X18.01Y18.12
G1X18.05Y18.16
G1X18.07Y18.18
M5
G0X17.28Y17.71
M3 S30
; Layer C00
G1X17.03Y17.89
G1X16.73Y17.71
G1X16.42Y17.53
G1X16.72Y17.39
G1X17.28Y17.71
M5
G0X16.65Y17.39
M3 S30
; Layer C00
G1X16.63
G1X16.59Y17.41
G1X16.49Y17.45
G1X16.38Y17.48
G1X16.3Y17.45
G1X16.26Y17.42
G1Y17.4
G1X16.28Y17.37
G1X16.33Y17.31
G1X16.39Y17.26
G1X16.44Y17.24
G1X16.48Y17.25
G1X16.54Y17.28
G1X16.6Y17.32
G1X16.64Y17.36
G1X16.65Y17.39
M5
G0X16.15Y17.26
M3 S30
; Layer C00
G1X16.09Y17.29
G1X16.02
G1X15.93Y17.25
G1X15.84Y17.2
G1X15.8Y17.15
G1X15.81Y17.1
G1X15.87Y17.02
G1X15.96Y16.93
G1X16.1Y17.02
G1X16.17Y17.07
G1X16.2Y17.11
G1X16.21Y17.14
G1Y17.18
G1X16.15Y17.26
M5
G0X15.74Y17.09
M3 S30
; Layer C00
G1X15.69Y17.11
G1X15.63Y17.1
G1X15.54Y17.06
G1X15.45Y17.02
G1X15.41Y16.99
G1X15.46Y16.96
G1X15.57Y16.88
G1X15.7Y16.82
G1X15.79
G1X15.84Y16.87
G1X15.86Y16.91
G1X15.84Y16.96
G1X15.79Y17.03
G1X15.74Y17.09
M5
G0X15.55Y16.82
M3 S30
; Layer C00
G1X15.5
G1Y16.77
G1X15.53Y16.72
G1X15.58Y16.69
G1X15.63
G1Y16.74
G1X15.6Y16.79
G1X15.55Y16.82
M5
G0X15.35Y16.73
M3 S30
; Layer C00
G1X15.26Y16.86
G1X15.19Y16.92
G1X15.1
G1X14.96Y16.89
G1X14.78Y16.84
G1X15.02Y16.65
G1X15.19Y16.52
G1X15.3Y16.46
G1X15.36Y16.45
G1X15.41Y16.49
G1X15.43Y16.52
G1Y16.57
G1X15.4Y16.63
G1X15.35Y16.73
M5
G0X15.06Y16.53
M3 S30
; Layer C00
G1X14.96Y16.62
G1X14.84Y16.71
G1X14.78Y16.76
G1X14.75
G1X14.76Y16.72
G1X14.84Y16.5
G1X14.92Y16.28
G1X14.96Y16.19
G1X15Y16.11
G1X15.02Y16.06
G1X15.04Y16.04
G1X15.08Y16.09
G1X15.16Y16.19
G1X15.22Y16.3
G1Y16.37
G1X15.19Y16.41
G1X15.14Y16.47
G1X15.06Y16.53
M5
G0X14.78Y16.53
M3 S30
; Layer C00
G1X14.7Y16.76
G1X14.68Y16.8
G1X14.66Y16.82
G1X14.62
G1X14.53
G1X14.36Y16.8
G1X14.17Y16.77
G1X14.5Y16.44
G1X14.89Y16.03
G1X14.92Y16.01
G1Y16.05
G1X14.89Y16.16
G1X14.83Y16.37
G1X14.78Y16.53
M5
G0X13.76Y16.51
M3 S30
; Layer C00
G1X13.72Y16.54
G1X13.66Y16.61
G1X13.61Y16.69
G1X13.6Y16.72
G1X13.63Y16.69
G1X13.7Y16.61
G1X13.75Y16.54
G1Y16.51
M5
G0X13.67Y16.36
M3 S30
; Layer C00
G1X13.82Y16.21
G1X13.92Y16.13
G1X13.98Y16.1
G1Y16.12
G1X13.96Y16.19
G1X13.94Y16.24
G1Y16.25
G1X13.95Y16.23
G1X13.99Y16.19
G1X14.05Y16.11
G1X14.07Y16.07
G1X14.09Y16.05
G1X14.14Y16.02
G1X14.21Y15.98
G1X14.31Y15.94
G1X14.48Y15.85
G1X14.6Y15.75
G1X14.69Y15.63
G1X14.73Y15.49
G1X14.75Y15.4
G1X14.78Y15.35
G1X14.81Y15.34
G1X14.84Y15.48
G1X14.89Y15.64
G1X14.96Y15.84
G1X14.76Y16.07
G1X14.56Y16.31
G1X14.36Y16.54
G1X14.15Y16.77
G1X13.72
G1X13.41
G1X13.32
G1X13.29
G1X13.3Y16.74
G1X13.41Y16.63
G1X13.67Y16.36
M5
G0X14.24Y15.85
M3 S30
; Layer C00
G1Y15.83
G1X14.26Y15.79
G1X14.29Y15.75
G1X14.32Y15.73
G1X14.36
G1X14.4Y15.76
G1X14.44Y15.81
G1Y15.84
G1X14.4Y15.86
G1X14.33
G1X14.27
G1X14.24
M5
G0X13.88Y15.11
M3 S30
; Layer C00
G1X13.85
G1Y15.08
G1X13.87Y15.04
G1X13.94Y14.98
G1X14.03Y14.9
G1X14.15Y14.82
G1X14.27Y14.74
G1X14.38Y14.68
G1X14.48Y14.63
G1X14.54Y14.62
G1Y14.63
G1X14.5Y14.67
G1X14.43Y14.74
G1X14.34Y14.81
G1X14.16Y14.96
G1X14.02Y15.05
G1X13.93Y15.09
G1X13.88Y15.11
M5
G0X13.95Y14.76
M3 S30
; Layer C00
G1Y14.71
G1X14.01Y14.59
G1X14.2Y14.32
G1X14.42Y14.12
G1X14.46Y14.09
G1X14.47
G1X14.46Y14.13
G1X14.25Y14.46
G1X14.18Y14.57
G1X14.09Y14.66
G1X14.01Y14.73
G1X13.95Y14.76
M5
G0X16.99Y15.88
M3 S30
; Layer C00
G1X17.06Y15.81
G1X17.14Y15.73
G1X17.32Y15.55
G1X17.44Y15.39
G1X17.51Y15.17
G1X17.55Y14.88
G1Y14.57
G1X17.49Y14.24
G1Y14.2
G1X17.54Y14.25
G1X17.6Y14.35
G1X17.71Y14.55
G1X17.78Y14.71
G1X17.8Y14.87
G1Y15.06
G1X17.76Y15.3
G1X17.68Y15.5
G1X17.56Y15.66
G1X17.44Y15.78
G1X17.33Y15.85
G1X17.23Y15.87
G1X17.18
G1X17.11Y15.92
G1X17Y15.97
G1X16.94Y15.95
G1Y15.93
G1X16.99Y15.88
M5
G0X17.94Y15.96
M3 S30
; Layer C00
G1X18.02Y15.65
G1X18.14Y15.32
G1X18.21Y15.18
G1X18.27Y15.07
G1X18.33Y15
G1X18.37Y14.97
G1X18.39Y15
G1Y15.07
G1X18.37Y15.19
G1X18.34Y15.33
G1Y15.42
G1Y15.46
G1X18.35
G1X18.39Y15.43
G1X18.53Y15.25
G1X18.66Y14.98
G1X18.74Y14.68
G1X18.78Y14.38
G1Y14.28
G1X18.81Y14.27
G1X18.84Y14.34
G1X18.87Y14.49
G1X18.9Y14.63
G1X18.98Y14.42
G1X19.05Y14.24
G1X19.07Y14.12
G1X19.09Y14.04
G1X19.12Y13.97
G1X19.13
G1X19.14Y14.01
G1Y14.1
G1Y14.55
G1Y14.57
G1X19.33Y14.23
G1X19.36Y14.18
G1Y14.2
G1Y14.28
G1X19.26Y14.56
G1X19.08Y14.89
G1X18.99Y15.04
G1X18.9Y15.15
G1X18.83Y15.23
G1X18.78Y15.24
G1X18.73Y15.28
G1X18.65Y15.42
G1X18.55Y15.59
G1X18.41Y15.76
G1X18.25Y15.91
G1X18.08Y16.02
G1X17.91Y16.11
G1X17.94Y15.96
M5
G0X15.58Y17.51
M3 S30
; Layer C00
G1X15.67Y17.56
G1X15.75Y17.61
G1X15.79Y17.65
G1Y17.69
G1Y17.72
G1X15.76Y17.77
G1X15.72Y17.78
G1X15.65Y17.77
G1X15.54Y17.72
G1X15.43Y17.67
G1X15.39Y17.63
G1Y17.58
G1X15.45Y17.53
G1X15.49Y17.5
G1X15.53Y17.49
G1X15.58Y17.51
M5
G0X15.44Y17.49
M3 S30
; Layer C00
G1X15.4Y17.54
G1X15.34Y17.59
G1X15.28Y17.6
G1X15.2
G1X15.09Y17.57
G1X15Y17.53
G1X14.97Y17.5
G1X14.96Y17.48
G1X14.93
G1X14.78
G1X14.67Y17.43
G1X14.83Y17.33
G1X15.01Y17.28
G1X15.02Y17.31
G1X15Y17.37
G1X14.96Y17.45
G1X15.1Y17.29
G1X15.39Y17.42
G1X15.44Y17.46
G1Y17.49
M5
G0X15.85Y17.79
M3 S30
; Layer C00
G1X15.91Y17.77
G1X15.98Y17.81
G1X16.07Y17.91
G1X16.11Y17.98
G1X16.08Y18
G1X15.99Y17.95
G1X15.92Y17.9
G1X15.86Y17.86
G1X15.83Y17.83
G1X15.85Y17.79
M5
G0X15.27Y18.1
M3 S30
; Layer C00
G1X15.29Y18.13
G1Y18.16
G1X15.25Y18.21
G1X15.18Y18.27
G1X15.08Y18.36
G1X15.03Y18.4
G1X14.9Y18.33
G1X14.77Y18.27
G1X14.91Y18.15
G1X15.02Y18.08
G1X15.11Y18.05
G1X15.2
G1X15.27Y18.1
M5
G0X15.41Y18.22
M3 S30
; Layer C00
G1X15.46Y18.25
G1X15.54Y18.32
G1X15.63Y18.43
G1X15.72Y18.55
G1X15.81Y18.68
G1X15.88Y18.79
G1X15.92Y18.88
G1Y18.93
G1X15.9Y18.92
G1X15.85Y18.89
G1X15.79Y18.83
G1X15.72Y18.77
G1X15.55Y18.63
G1X15.39Y18.54
G1X15.27Y18.5
G1X15.23Y18.47
G1X15.31Y18.33
G1X15.41Y18.22
M5
G0X14.94Y18.06
M3 S30
; Layer C00
G1X14.83Y18.15
G1X14.71Y18.2
G1X14.61Y18.22
G1X14.54Y18.19
G1X14.56Y18.13
G1X14.62Y18.03
G1X14.67Y17.95
G1X14.72Y17.92
G1X14.76Y17.9
G1X14.83Y17.91
G1X14.92Y17.94
G1X14.97Y17.97
G1Y18.01
G1X14.94Y18.06
M5
G0X16.1Y21.14
M3 S30
; Layer C00
G1X16.12Y21.18
G1Y21.27
G1Y21.34
G1X16.08Y21.42
G1X16.01Y21.5
G1X15.89Y21.63
G1X15.72Y21.78
G1X15.59Y21.85
G1X15.52
G1X15.49Y21.76
G1X15.51Y21.66
G1X15.56Y21.56
G1X15.67Y21.43
G1X15.84Y21.3
G1X15.99Y21.19
G1X16.1Y21.14
M5
G0X16.33Y21.86
M3 S30
; Layer C00
G1X16.54Y21.87
G1X16.63Y21.89
G1X16.7Y21.92
G1X16.74Y21.96
G1X16.76Y22
G1X16.74Y22.05
G1X16.69Y22.08
G1X16.6Y22.1
G1X16.45
G1X16.3Y22.12
G1X16.2Y22.14
G1X16.16Y22.19
G1X16.19Y22.25
G1X16.27Y22.3
G1X16.39Y22.34
G1X16.56Y22.4
G1X16.74Y22.53
G1X16.88Y22.63
G1X16.96Y22.68
G1X16.98Y22.8
G1X16.94Y22.96
G1X16.89Y22.99
G1X16.84
G1X16.79Y22.97
G1X16.72Y22.91
G1X16.6Y22.83
G1X16.43Y22.79
G1X16.28Y22.76
G1X16.18Y22.7
G1X16.09Y22.6
G1X16.01Y22.43
G1X15.9Y22.2
G1X15.75Y22.22
G1X15.65
G1X15.6
G1X15.66Y22.15
G1X15.8Y22.05
G1X15.96Y21.96
G1X16.11Y21.9
G1X16.33Y21.86
M5
G0X15.02Y23.13
M3 S30
; Layer C00
G1X15.06Y23.15
G1X15.11Y23.19
G1X15.18Y23.24
G1X15.36Y23.37
G1X15.51Y23.45
G1X15.68Y23.49
G1X15.89
G1X16.03Y23.5
G1X16.15Y23.52
G1X16.25Y23.55
G1X16.33Y23.59
G1X16.39Y23.65
G1X16.45Y23.74
G1X16.49Y23.85
G1X16.53Y23.98
G1X16.59Y24.12
G1X16.67Y24.26
G1X16.72Y24.34
G1X16.75Y24.41
G1Y24.48
G1Y24.58
G1X16.71Y24.88
G1Y24.98
G1X16.7Y25.06
G1Y25.17
G1X16.73Y25.24
G1X16.88Y25.39
G1X17.07Y25.5
G1X17.09Y25.54
G1X17.07Y25.63
G1X17.01Y25.75
G1X16.9Y25.92
G1X16.78Y26.08
G1X16.64Y26.23
G1X16.51Y26.34
G1X16.43Y26.39
G1X16.38Y26.37
G1X16.3Y26.31
G1X16.23Y26.24
G1X16.2Y26.15
G1X16.23Y26.03
G1X16.3Y25.87
G1X16.36Y25.67
G1X16.41Y25.45
G1X16.43Y25.23
G1X16.41Y25.05
G1X16.36Y24.97
G1X16.27Y24.91
G1X16.19Y24.85
G1X16.16Y24.8
G1X16.14Y24.74
G1X16.09Y24.67
G1X16Y24.62
G1X15.88Y24.6
G1X15.72Y24.62
G1X15.54Y24.66
G1X15.22Y24.71
G1X14.92Y24.68
G1X14.77Y24.62
G1X14.62Y24.54
G1X14.47Y24.44
G1X14.31Y24.3
G1X14.15Y24.15
G1X14.03Y24.01
G1X13.93Y23.87
G1X13.86Y23.72
G1X13.83Y23.57
G1X13.81Y23.4
G1X13.82Y23.22
G1X13.86Y23.02
G1X13.9Y22.82
G1X14.08Y23.05
G1X14.19Y22.83
G1X14.37Y23.17
G1X14.44Y23.31
G1X14.52Y23.43
G1X14.58Y23.53
G1X14.62Y23.58
G1X14.74Y23.63
G1X14.93Y23.67
G1X15.14Y23.71
G1X15.28Y23.76
G1X15.39Y23.85
G1X15.51Y23.99
G1X15.61Y24.12
G1X15.7Y24.22
G1X15.77Y24.3
G1X15.84Y24.35
G1X15.95Y24.39
G1X16.04Y24.35
G1X16.08Y24.28
G1Y24.19
G1X16.05Y24.08
G1X15.98Y23.96
G1X15.88Y23.83
G1X15.76Y23.72
G1X15.62Y23.62
G1X15.43Y23.52
G1X15.29Y23.44
G1X15.15Y23.32
G1X15.05Y23.21
G1X15Y23.13
G1X15.02
M5
G0X13.31Y23.61
M3 S30
; Layer C00
G1X13.36Y23.71
G1X13.43Y23.89
G1X13.47Y24.02
G1X13.51Y24.1
G1X13.56Y24.15
G1X13.82Y24.31
G1X13.91Y24.39
G1Y24.46
G1X13.85Y24.54
G1X13.79Y24.59
G1X13.72
G1X13.64Y24.56
G1X13.5Y24.48
G1X13.36Y24.39
G1X13.26Y24.37
G1X13.2Y24.4
G1X13.16Y24.48
G1X13.09Y24.62
G1X13.01Y24.7
G1X12.92
G1X12.82Y24.65
G1X12.78Y24.58
G1X12.77Y24.51
G1X12.8Y24.45
G1X12.88Y24.38
G1X13.03Y24.27
G1X13.12Y24.18
G1X13.16Y24.11
G1Y24.04
G1X13.13Y23.9
G1Y23.78
G1X13.15Y23.68
G1X13.19Y23.61
G1X13.22Y23.58
G1X13.25
G1X13.27
G1X13.31Y23.61
M5
G0X13.64Y24.65
M3 S30
; Layer C00
G1X13.67Y24.67
G1X13.72Y24.73
G1X13.75Y24.78
G1X13.76Y24.84
G1Y24.93
G1X13.73Y25.06
G1X13.71Y25.32
G1X13.75Y25.63
G1X13.82Y25.94
G1X13.7Y26.16
G1X13.62Y26.32
G1X13.58Y26.41
G1X13.54Y26.51
G1X13.42Y26.63
G1X13.25Y26.75
G1X13.05Y26.84
G1X12.76Y26.97
G1X12.57Y27.13
G1X12.52Y27.21
G1X12.5Y27.28
G1X12.52Y27.34
G1X12.57Y27.38
G1X12.71Y27.42
G1X12.93
G1X13.19Y27.39
G1X13.79Y27.27
G1X14.07Y27.24
G1X14.3
G1X14.5Y27.21
G1X14.64Y27.19
G1X14.7
G1Y27.24
G1X14.64Y27.33
G1X14.56Y27.42
G1X14.47Y27.49
G1X14.35Y27.55
G1X14.19Y27.6
G1X13.99Y27.65
G1X13.77Y27.69
G1X13.29Y27.75
G1X12.81Y27.78
G1X12.68
G1X12.58Y27.79
G1X12.51Y27.82
G1X12.45Y27.85
G1X12.37Y27.94
G1X12.33Y28.06
G1Y28.18
G1X12.37Y28.3
G1X12.44Y28.42
G1X12.54Y28.51
G1X12.65Y28.57
G1X12.79Y28.6
G1X12.85Y28.59
G1X12.91Y28.55
G1X12.99Y28.49
G1X13.26Y28.23
G1X13.37Y28.14
G1X13.44Y28.12
G1X13.57Y28.09
G1X13.76Y28.07
G1X14.18Y28.03
G1X14.33Y28.02
G1X14.45Y28
G1X14.55Y27.99
G1X14.72Y27.94
G1X14.91Y27.86
G1Y27.87
G1X14.86Y27.93
G1X14.7Y28.03
G1X14.45Y28.15
G1X14.18Y28.29
G1X13.97Y28.42
G1X13.79Y28.56
G1X13.63Y28.67
G1X13.47Y28.73
G1X13.29Y28.78
G1X12.9Y28.85
G1X12.61Y28.94
G1X12.5Y28.97
G1X12.34Y28.99
G1X12.1Y29
G1X11.77Y29.01
G1X11.5
G1X11.27
G1X11.09
G1X10.99Y29
G1X10.87Y28.96
G1X10.73Y28.89
G1X10.63Y28.83
G1X10.5Y28.75
G1X10.11Y28.51
G1X9.68Y28.22
G1X9.31Y27.96
G1X9.16Y27.85
G1X9.05Y27.77
G1X8.98Y27.7
G1X8.95Y27.67
G1X8.99Y27.64
G1X9.1
G1X9.24Y27.68
G1X9.4Y27.74
G1X9.63Y27.85
G1X9.89Y27.97
G1X10.16Y28.12
G1X10.41Y28.31
G1X10.59Y28.47
G1X10.75Y28.57
G1X10.92Y28.65
G1X11.12Y28.72
G1X11.37Y28.77
G1X11.59
G1X11.76Y28.71
G1X11.86Y28.6
G1X11.88Y28.51
G1X11.89Y28.33
G1Y28.1
G1Y27.84
G1X11.87Y27.57
G1X11.85Y27.31
G1X11.82Y27.1
G1X11.79Y26.95
G1X11.71Y26.75
G1X11.6Y26.59
G1X11.48Y26.49
G1X11.36Y26.46
G1X11.27Y26.49
G1X11.24Y26.54
G1X11.28Y26.61
G1X11.38Y26.69
G1X11.48Y26.76
G1X11.55Y26.85
G1X11.59Y26.95
G1X11.6Y27.06
G1Y27.15
G1X11.53Y27.04
G1X11.39Y26.9
G1X11.18Y26.81
G1X10.93Y26.79
G1X10.65Y26.83
G1X10.44Y26.87
G1X10.27Y26.89
G1X10.14Y26.87
G1X10Y26.82
G1X9.87Y26.76
G1X9.78Y26.7
G1X9.68Y26.63
G1X9.31Y26.49
G1X9.16Y26.41
G1X9.05Y26.31
G1X8.95Y26.18
G1X8.87Y26.06
G1X8.79Y25.97
G1X8.75Y25.93
G1X8.71Y25.91
G1X8.67
G1X8.61Y25.94
G1X8.49Y25.99
G1X8.39
G1X8.28Y25.92
G1X8.15Y25.8
G1X7.98Y25.64
G1X7.82Y25.52
G1X7.75Y25.45
G1X7.7Y25.39
G1X7.68Y25.32
G1Y25.26
G1X7.72Y25.2
G1X7.77Y25.15
G1X7.86Y25.11
G1X7.96Y25.07
G1X8.15Y25.02
G1X8.37Y24.94
G1X8.57Y24.89
G1X8.71Y24.86
G1X8.81
G1X8.87Y24.9
G1X8.89Y24.95
G1X8.85Y25
G1X8.77Y25.06
G1X8.64Y25.12
G1X8.51Y25.17
G1X8.44Y25.23
G1X8.42Y25.3
G1X8.44Y25.37
G1X8.53Y25.47
G1X8.68Y25.51
G1X8.86Y25.47
G1X9.05Y25.37
G1X9.18Y25.28
G1X9.1Y25.45
G1X9.04Y25.61
G1X9.01Y25.76
G1X9Y25.89
G1X9.02Y25.99
G1X9.13Y26.11
G1X9.3Y26.23
G1X9.51Y26.35
G1X9.74Y26.44
G1X9.92Y26.49
G1X10.08Y26.52
G1X10.26Y26.54
G1X10.51
G1X10.71
G1X10.85
G1X10.94Y26.53
G1X10.97Y26.51
G1X10.91Y26.43
G1X10.78Y26.32
G1X10.61Y26.22
G1X10.46Y26.15
G1X10.32Y26.11
G1X10.21Y26.06
G1X10.12Y26
G1X10.04Y25.93
G1X9.89Y25.71
G1X9.79Y25.45
G1X9.76Y25.33
G1X9.75Y25.21
G1Y25.12
G1X9.78Y25.05
G1X9.81Y25.02
G1X9.84Y25.03
G1X9.86Y25.09
G1X9.92Y25.38
G1X9.97Y25.5
G1X10.03Y25.6
G1X10.14Y25.71
G1X10.26Y25.83
G1X10.38Y25.9
G1X10.5Y25.95
G1X10.63
G1X10.77Y25.98
G1X10.88Y26.04
G1X10.99Y26.12
G1X11.11Y26.2
G1X11.22Y26.28
G1X11.19Y26.15
G1X11.18Y26.07
G1Y26.03
G1X11.23Y26
G1X11.32Y25.99
G1X11.34Y25.97
G1X11.32Y25.92
G1X11.24Y25.83
G1X10.96Y25.54
G1X10.85Y25.41
G1X10.78Y25.31
G1X10.74Y25.22
G1X10.73Y25.15
G1X10.75Y25.1
G1X10.81Y25.08
G1X10.9Y25.07
G1X11.02Y25.1
G1X11.15Y25.2
G1X11.28Y25.35
G1X11.41Y25.56
G1X11.47Y25.66
G1X11.52Y25.74
G1X11.56Y25.8
G1X11.59Y25.81
G1X11.61Y25.75
G1Y25.48
G1X11.64Y25.38
G1X11.67Y25.31
G1X11.72Y25.28
G1X11.77Y25.31
G1X11.81Y25.41
G1X11.85Y25.56
G1X11.87Y25.76
G1X11.89Y26.08
G1X11.99Y25.98
G1X12.11Y25.82
G1X12.23Y25.6
G1X12.37Y25.32
G1X12.49Y25.12
G1X12.58Y25
G1X12.65Y24.96
G1X12.68Y25
G1X12.7Y25.1
G1Y25.23
G1X12.68Y25.37
G1X12.61Y25.54
G1X12.46Y25.73
G1X12.35Y25.86
G1X12.29Y25.93
G1Y25.98
G1X12.32Y26.02
G1X12.4Y26.04
G1X12.52Y25.99
G1X12.63Y25.94
G1X12.69Y25.93
G1X12.71Y25.95
G1X12.7Y26
G1X12.66Y26.09
G1X12.6Y26.16
G1X12.51Y26.23
G1X12.38Y26.3
G1X12.23Y26.39
G1X12.13Y26.48
G1X12.07Y26.59
G1Y26.71
G1Y26.78
G1X12.09Y26.82
G1X12.14Y26.83
G1X12.23Y26.84
G1X12.34
G1X12.44Y26.8
G1X12.52Y26.72
G1X12.64Y26.61
G1X13.02Y26.21
G1X13.18Y26.05
G1X13.31Y25.9
G1X13.41Y25.78
G1X13.46Y25.72
G1X13.48Y25.65
G1X13.49Y25.54
G1X13.5Y25.4
G1X13.51Y25.05
G1X13.52Y24.92
G1X13.54Y24.81
G1X13.57Y24.74
G1X13.61Y24.67
G1X13.64Y24.65
M5
G0X14.39Y25.23
M3 S30
; Layer C00
G1X14.41
G1X14.45Y25.32
G1X14.47Y25.47
G1Y25.64
G1X14.43Y25.79
G1X14.4Y25.98
G1X14.44Y26.1
G1X14.47Y26.13
G1X14.52
G1X14.57Y26.1
G1X14.62Y26.04
G1X14.65Y25.98
G1X14.67Y25.9
G1Y25.79
G1Y25.63
G1Y25.32
G1X14.78Y25.28
G1X14.89Y25.26
G1X15.03Y25.3
G1X15.12Y25.33
G1X15.23Y25.34
G1X15.39
G1X15.89Y25.32
G1X15.98
G1X16.04
G1X16.12Y25.34
G1X16.18Y25.39
G1X16.25Y25.47
G1X16.27Y25.55
G1X16.22Y25.66
G1X16.08Y25.77
G1X15.9Y25.85
G1X15.71Y25.89
G1X15.6Y25.85
G1X15.43Y25.78
G1X15.24Y25.69
G1X15.1Y25.64
G1X15.04Y25.62
G1X15.01
G1Y25.65
G1X15.04Y25.81
G1X15.07Y25.95
G1X15.09Y26.1
G1X14.77Y26.4
G1X14.56Y26.59
G1X14.41Y26.7
G1X14.3Y26.73
G1X14.23Y26.7
G1X14.21Y26.65
G1X14.2Y26.54
G1X14.18Y26.4
G1X14.17Y26.23
G1X14.15Y25.81
G1X14.26Y25.68
G1X14.31Y25.62
G1X14.35Y25.55
G1X14.36Y25.48
G1X14.37Y25.29
G1Y25.24
G1X14.39Y25.23
M5
G0X10.75Y25.65
M3 S30
; Layer C00
G1Y25.69
G1X10.73Y25.7
G1X10.68Y25.68
G1X10.58Y25.63
G1X10.4Y25.51
G1X10.21Y25.34
G1X10.03Y25.15
G1X9.91Y24.99
G1X9.86Y24.84
G1X9.83Y24.68
G1Y24.59
G1Y24.5
G1X9.87Y24.4
G1X9.95Y24.26
G1X10.06Y24.05
G1X10.13Y23.87
G1X10.18Y23.73
G1Y23.92
G1X10.16Y24.11
G1X10.07Y24.32
G1X10.01Y24.44
G1X9.98Y24.52
G1Y24.6
G1X10Y24.69
G1X10.05Y24.86
G1X10.15Y25.01
G1X10.28Y25.17
G1X10.58Y25.45
G1X10.67Y25.54
G1X10.72Y25.61
G1X10.75Y25.65
M5
G0X9.09Y24.48
M3 S30
; Layer C00
G1X8.87Y24.59
G1X8.74Y24.62
G1X8.63Y24.63
G1X8.48
G1X7.97Y24.58
G1X7.73Y24.57
G1X7.56
G1X7.47Y24.6
G1X7.45Y24.63
G1X7.43Y24.69
G1X7.42Y24.78
G1X7.4Y24.89
G1X7.38Y25.16
G1X7.57Y25.46
G1X7.66Y25.61
G1X7.73Y25.73
G1X7.77Y25.84
G1X7.79Y25.93
G1Y26.05
G1X7.76Y26.1
G1X7.71Y26.06
G1X7.64Y25.95
G1X7.53Y25.78
G1X7.23Y25.44
G1X7.15Y25.28
G1X7.13Y25.1
G1X7.14Y24.84
G1X7.15Y24.67
G1Y24.55
G1X7.12Y24.45
G1X7Y24.14
G1X6.97Y24.05
G1X6.99
G1X7.03Y24.08
G1X7.08Y24.12
G1X7.24Y24.26
G1X7.33Y24.32
G1X7.4Y24.36
G1X7.45Y24.37
G1X7.49
G1X7.51Y24.34
G1X7.52Y24.29
G1X7.5Y24.17
G1X7.52
G1X7.58Y24.18
G1X7.7Y24.23
G1X7.87Y24.29
G1X7.98Y24.3
G1X8.02Y24.27
G1X8.09Y24.21
G1X8.17Y24.12
G1X8.25Y24.01
G1X8.39Y23.83
G1X8.52Y23.71
G1X8.65Y23.63
G1X9.02Y23.53
G1X9.16Y23.42
G1X9.2Y23.34
G1X9.24Y23.24
G1X9.26Y23.11
G1X9.31Y22.77
G1X9.34Y22.66
G1X9.38Y22.62
G1X9.44Y22.64
G1X9.5Y22.7
G1X9.55Y22.82
G1X9.59Y22.97
G1X9.62Y23.15
G1Y23.55
G1X9.57Y23.9
G1X9.47Y24.12
G1X9.3Y24.32
G1X9.09Y24.48
M5
G0X7.93Y23.91
M3 S30
; Layer C00
G1X7.81Y23.95
G1X7.64Y23.96
G1X7.53
G1X7.44Y23.95
G1X7.38Y23.93
G1X7.34Y23.91
G1X7.31Y23.85
G1X7.32Y23.78
G1X7.36Y23.71
G1X7.43Y23.64
G1X7.65Y23.52
G1X7.96Y23.41
G1X8.17Y23.35
G1X8.37Y23.27
G1X8.48Y23.22
G1X8.55Y23.2
G1X8.61
G1X8.68Y23.22
G1X8.78Y23.26
G1X8.67Y23.28
G1X8.55Y23.32
G1X8.45Y23.37
G1X8.36Y23.45
G1X8.26Y23.56
G1X8.15Y23.69
G1X8.06Y23.79
G1X7.99Y23.86
G1X7.93Y23.91
M5
G0X7Y23.76
M3 S30
; Layer C00
G1X6.98
G1X6.94Y23.69
G1X6.87Y23.41
G1X6.85Y23.09
G1X6.86Y22.94
G1X6.89Y22.8
G1X6.93Y22.69
G1X6.98Y22.61
G1X7.08Y22.53
G1X7.28Y22.42
G1X7.33Y22.37
G1X7.36Y22.3
G1X7.4Y22.2
G1X7.46Y22.06
G1X7.53Y21.99
G1X7.63Y21.98
G1X7.79Y22.02
G1X7.93Y22.08
G1X8.05Y22.17
G1X8.14Y22.25
G1X8.17Y22.33
G1Y22.37
G1X8.15Y22.39
G1X8.1Y22.38
G1X7.91Y22.3
G1X7.85Y22.28
G1X7.81Y22.34
G1X7.68Y22.6
G1X7.61Y22.68
G1X7.54Y22.74
G1X7.43Y22.78
G1X7.28Y22.86
G1X7.12Y23
G1X7Y23.12
G1X6.94Y23.24
G1Y23.37
G1X7Y23.69
G1Y23.76
M5
G0X8.11Y23.07
M3 S30
; Layer C00
G1X8.06Y23.02
G1X8.05Y22.97
G1X8.07Y22.93
G1X8.19Y22.89
G1X8.35
G1X8.48Y22.93
G1X8.54Y23
G1X8.5Y23.06
G1X8.41Y23.1
G1X8.29Y23.12
G1X8.19Y23.11
G1X8.11Y23.07
M5
G0X6.86Y26.01
M3 S30
; Layer C00
G1X6.89Y26.02
G1X6.97Y26.11
G1X7.12Y26.25
G1X7.54Y26.61
G1X7.69Y26.77
G1X7.79Y26.94
G1X7.88Y27.16
G1X7.97Y27.38
G1X8.11Y27.68
G1Y27.72
G1X8.08Y27.7
G1X7.99Y27.61
G1X7.87Y27.44
G1X7.72Y27.21
G1X7.54Y26.95
G1X7.17Y26.52
G1X7.02Y26.31
G1X6.91Y26.13
G1X6.86Y26.01
M5
G0X5.91Y26.47
M3 S30
; Layer C00
G1X5.97Y26.53
G1X6.13Y26.75
G1X6.2Y26.82
G1X6.27Y26.87
G1X6.37Y26.9
G1X6.5Y26.96
G1X6.63Y27.03
G1X6.71Y27.11
G1X6.75Y27.18
G1X6.77Y27.25
G1X6.83Y27.36
G1X6.9Y27.51
G1X6.81Y27.59
G1X6.73Y27.64
G1X6.6Y27.69
G1X6.4Y27.75
G1X6.1Y27.83
G1X5.94Y27.87
G1X5.86Y27.9
G1X5.91Y27.93
G1X6.05Y27.98
G1X6.16Y28.01
G1X6.29Y28.03
G1X6.46Y28.04
G1X6.83
G1X6.96Y28.05
G1X7.05Y28.06
G1X7.09
G1X7.06Y28.11
G1X6.98Y28.17
G1X6.87Y28.25
G1X6.73Y28.34
G1X6.4Y28.52
G1X6.07Y28.69
G1X5.88Y28.77
G1X6Y28.79
G1X6.26
G1X6.58Y28.72
G1X6.88Y28.58
G1X7.13Y28.42
G1X7.18Y28.36
G1X7.23Y28.33
G1X7.25Y28.31
G1X7.26Y28.32
G1Y28.35
G1X7.24Y28.39
G1X7.21Y28.46
G1X7.16Y28.55
G1X6.98Y28.83
G1X6.73Y29.08
G1X6.45Y29.28
G1X6.14Y29.42
G1X6.07Y29.45
G1X6.03Y29.47
G1X6.01Y29.48
G1X6.03
G1X6.13
G1X6.33Y29.44
G1X6.61Y29.35
G1X6.89Y29.21
G1X7.13Y29.05
G1X7.31Y28.89
G1X7.35Y28.84
G1X7.37Y28.82
G1X7.38
G1Y28.84
G1X7.34Y28.93
G1X7.25Y29.08
G1X7.12Y29.27
G1X6.96Y29.44
G1X6.8Y29.59
G1X6.61Y29.73
G1X6.42Y29.84
G1X6.21Y29.92
G1X6Y29.98
G1X5.79Y30.02
G1X5.55Y30.04
G1X5.67Y30.21
G1X5.73Y30.3
G1X5.8Y30.37
G1X5.9Y30.43
G1X6.02Y30.49
G1X6.25Y30.58
G1X6.47Y30.62
G1X6.68
G1X6.9Y30.56
G1X7.16Y30.47
G1X7.44Y30.33
G1X7.72Y30.16
G1X7.97Y29.98
G1X8.15Y29.85
G1X8.42Y29.64
G1X8.53Y29.57
G1X8.6Y29.52
G1X8.66Y29.48
G1X8.7Y29.47
G1X8.72
G1Y29.49
G1X8.68Y29.55
G1X8.63Y29.63
G1X8.57Y29.72
G1X8.33Y30.01
G1X8.08Y30.23
G1X7.93Y30.34
G1X7.76Y30.44
G1X7.56Y30.55
G1X7.33Y30.67
G1X6.66Y31
G1X6.44Y31.07
G1X6.17Y31.09
G1X5.87Y31.07
G1X5.56Y31.01
G1X5.22Y30.88
G1X4.97Y30.73
G1X4.87Y30.63
G1X4.77Y30.51
G1X4.68Y30.36
G1X4.58Y30.19
G1X4.46Y29.91
G1X4.36Y29.64
G1X4.3Y29.36
G1X4.26Y29.08
G1Y28.68
G1X4.35Y28.32
G1X4.53Y27.99
G1X4.79Y27.67
G1X4.91Y27.55
G1X5Y27.45
G1X5.06Y27.37
G1X5.11Y27.3
G1X5.14Y27.14
G1X5.13Y26.91
G1X5.1Y26.58
G1X5.24Y26.73
G1X5.37Y26.87
G1X5.47Y26.99
G1X5.55Y27.06
G1X5.62Y27.1
G1X5.68Y27.09
G1X5.72Y27.04
G1X5.74Y26.88
G1X5.71Y26.7
G1X5.68Y26.61
G1X5.65Y26.52
G1X5.64Y26.46
G1Y26.43
G1X5.69
G1X5.77
G1X5.85Y26.44
G1X5.91Y26.47
M5
G0X7.91Y26.63
M3 S30
; Layer C00
G1X7.93
G1X8Y26.68
G1X8.09Y26.76
G1X8.2Y26.86
G1X8.32Y26.97
G1X8.42Y27.07
G1X8.51Y27.17
G1X8.56Y27.23
G1X8.6Y27.35
G1X8.64Y27.47
G1Y27.56
G1X8.63Y27.6
G1X8.58Y27.58
G1X8.52Y27.52
G1X8.42Y27.4
G1X8.17Y27.06
G1X8.09Y26.98
G1X7.98Y26.81
G1X7.91Y26.63
M5
G0X9.48Y27.24
M3 S30
; Layer C00
G1X9.56Y27.21
G1X9.66
G1X9.8Y27.23
G1X9.97Y27.28
G1X10.1Y27.31
G1X10.27Y27.34
G1X10.48Y27.37
G1X10.69Y27.39
G1X10.89Y27.41
G1X11.07Y27.42
G1X11.22Y27.44
G1X11.31Y27.46
G1X11.44Y27.51
G1X11.52Y27.58
G1X11.56Y27.72
G1X11.57Y27.94
G1Y28.11
G1Y28.2
G1X11.56Y28.25
G1X11.52Y28.27
G1X11.46Y28.25
G1X11.41Y28.2
G1X11.36Y28.09
G1X11.33Y27.95
G1X11.29Y27.8
G1X11.2Y27.72
G1X11.12Y27.7
G1X11.01Y27.68
G1X10.86Y27.67
G1X10.67Y27.66
G1X10.45Y27.65
G1X10.26Y27.63
G1X10.1Y27.6
G1X9.96Y27.57
G1X9.76Y27.49
G1X9.59Y27.39
G1X9.53Y27.34
G1X9.48Y27.3
G1X9.47Y27.26
G1X9.48Y27.24
M5
G0X10.34Y29
M3 S30
; Layer C00
G1X10.39
G1X10.49Y29.03
G1X10.63Y29.06
G1X10.8Y29.1
G1X11.21Y29.18
G1X11.54Y29.2
G1X11.8Y29.22
G1X12Y29.25
G1X12.15Y29.29
G1X12Y29.32
G1X11.79Y29.34
G1X11.49
G1X11.15Y29.33
G1X10.83Y29.24
G1X10.62Y29.17
G1X10.46Y29.1
G1X10.36Y29.04
G1X10.34Y29
M5
G0X12.17Y29.21
M3 S30
; Layer C00
G1X12.2Y29.2
G1X12.3Y29.18
G1X12.44Y29.16
G1X12.81Y29.12
G1X12.98Y29.09
G1X13.12Y29.06
G1X13.22Y29.03
G1X13.34Y28.98
G1X13.47
G1X13.58Y29.01
G1X13.72Y29.05
G1X13.92Y29.11
G1X14.3Y29.23
G1X14.45Y29.28
G1X14.49Y29.29
G1Y29.31
G1X14.41
G1X14.23Y29.3
G1X13.84Y29.22
G1X13.62Y29.21
G1X13.36Y29.22
G1X13.04Y29.26
G1X12.78Y29.29
G1X12.59Y29.3
G1X12.44
G1X12.31Y29.27
G1X12.21Y29.24
G1X12.17Y29.21
M5
G0X14.99Y28.11
M3 S30
; Layer C00
G1X15.15Y28.07
G1X15.52Y27.96
G1X15.83Y27.83
G1X16.07Y27.73
G1X16.28Y27.67
G1X16.46Y27.63
G1X16.54Y27.6
G1Y27.58
G1X16.46Y27.55
G1X16.33Y27.5
G1X16.48Y27.43
G1X16.69Y27.35
G1X16.99Y27.26
G1X17.13Y27.22
G1X17.26Y27.18
G1X17.37Y27.14
G1X17.43Y27.12
G1X17.48Y27.09
G1Y27.06
G1X17.43Y27.04
G1X17.3Y27.01
G1X17.23Y26.99
G1X17.25Y26.95
G1X17.31Y26.91
G1X17.41Y26.85
G1X17.75Y26.67
G1X18.18Y26.43
G1X18.59Y26.18
G1X18.81Y26.04
G1X18.88Y26
G1X18.93Y25.98
G1X18.96
G1X18.94Y26.03
G1X18.86Y26.15
G1X18.73Y26.29
G1X18.57Y26.45
G1X18.4Y26.58
G1X18.27Y26.68
G1X18.53Y26.63
G1X18.38Y26.76
G1X18.17Y26.93
G1X17.92Y27.09
G1X17.66Y27.23
G1X17.41Y27.33
G1X17.31Y27.37
G1X17.23Y27.4
G1X17.18Y27.42
G1X17.16Y27.44
G1X17.19
G1X17.25
G1X17.34Y27.42
G1X17.47Y27.4
G1X17.53
G1X17.49Y27.44
G1X17.37Y27.52
G1X17.2Y27.6
G1X17.03Y27.67
G1X16.82Y27.73
G1X16.46Y27.82
G1X16.37Y27.85
G1X16.31Y27.87
G1X16.3Y27.89
G1X16.36Y27.92
G1X16.49Y27.94
G1X16.66Y27.97
G1X16.48Y28.04
G1X16.02Y28.15
G1X15.56Y28.2
G1X15.39Y28.18
G1X15.19Y28.15
G1X14.99Y28.11
M5
G0X16.65Y28.61
M3 S30
; Layer C00
G1X16.92Y28.58
G1X17.16Y28.54
G1X17.37Y28.48
G1X17.54Y28.38
G1X17.67Y28.27
G1X17.75Y28.12
G1X17.81Y27.92
G1X17.85Y27.73
G1X17.91Y27.59
G1X18.04Y27.45
G1X18.26Y27.28
G1X18.38Y27.2
G1X18.48Y27.13
G1X18.57Y27.08
G1X18.62Y27.06
G1X18.72Y27.11
G1X18.83Y27.22
G1X18.93Y27.37
G1X19Y27.52
G1X19.05Y27.67
G1X19.1Y27.77
G1X19.16Y27.83
G1X19.22Y27.85
G1X19.29Y27.82
G1X19.36Y27.75
G1X19.43Y27.65
G1X19.49Y27.51
G1X19.55Y27.38
G1X19.63Y27.27
G1X19.72Y27.18
G1X19.81Y27.28
G1X19.86Y27.35
G1X19.89Y27.4
G1Y27.48
G1Y27.59
G1X19.86Y27.79
G1X19.84Y27.97
G1Y28.11
G1Y28.24
G1X19.85Y28.48
G1X19.9Y28.72
G1X19.96Y28.99
G1X20Y29.21
G1X20.04Y29.39
G1X20.06Y29.53
G1X20.07Y29.77
G1X20.05Y29.98
G1X20.02Y30.19
G1X19.96Y30.37
G1X19.89Y30.54
G1X19.8Y30.69
G1X19.69Y30.83
G1X19.55Y30.95
G1X19.39Y31.07
G1X19.21Y31.18
G1X19.03Y31.28
G1X18.88Y31.35
G1X18.76Y31.41
G1X18.65Y31.45
G1X18.45Y31.5
G1X18.2Y31.51
G1X18.05
G1X17.91
G1X17.8
G1X17.73Y31.49
G1X17.43Y31.36
G1X17.12Y31.17
G1X16.56Y30.6
G1X16.02Y29.95
G1X15.95Y29.83
G1X15.91Y29.71
G1X15.89Y29.63
G1Y29.6
G1X15.93Y29.62
G1X16Y29.68
G1X16.08Y29.78
G1X16.18Y29.89
G1X16.45Y30.19
G1X16.72Y30.45
G1X16.84Y30.56
G1X16.96Y30.66
G1X17.05Y30.73
G1X17.14Y30.78
G1X17.3Y30.86
G1X17.07Y30.63
G1X16.77Y30.31
G1X16.47Y29.96
G1X16.34Y29.8
G1X16.24Y29.68
G1X16.19Y29.59
G1Y29.56
G1X16.22Y29.58
G1X16.3Y29.64
G1X16.4Y29.73
G1X16.52Y29.83
G1X16.9Y30.14
G1X17.26Y30.37
G1X17.42Y30.45
G1X17.58Y30.51
G1X17.73Y30.55
G1X17.86
G1X17.92
G1X17.88Y30.51
G1X17.77Y30.45
G1X17.58Y30.34
G1X17.4Y30.22
G1X17.06Y29.92
G1X16.7Y29.56
G1X16.54Y29.38
G1X16.41Y29.24
G1X16.34Y29.13
G1X16.32Y29.08
G1X16.35
G1X16.41Y29.11
G1X16.49Y29.16
G1X16.6Y29.23
G1X17.08Y29.54
G1X17.31Y29.67
G1X17.59Y29.79
G1X17.86Y29.88
G1X18.05Y29.92
G1X18.1
G1Y29.9
G1X18.07Y29.88
G1X17.97Y29.85
G1X17.69Y29.74
G1X17.42Y29.59
G1X17.16Y29.42
G1X16.9Y29.21
G1X16.78Y29.09
G1X16.69Y28.99
G1X16.63Y28.91
G1Y28.86
G1X16.65
G1X16.72Y28.89
G1X16.81Y28.93
G1X16.92Y28.98
G1X17.16Y29.09
G1X17.42Y29.19
G1X17.67Y29.25
G1X17.86Y29.27
G1X17.88
G1X17.84Y29.24
G1X17.73Y29.2
G1X17.56Y29.14
G1X17.25Y29.03
G1X17.01Y28.92
G1X16.84Y28.82
G1X16.73Y28.71
G1X16.65Y28.61
M5
G0X8.02Y28.94
M3 S30
; Layer C00
G1X7.99Y29.01
G1X7.9Y29.12
G1X7.77Y29.25
G1X7.61Y29.39
G1X7.44Y29.52
G1X7.28Y29.65
G1X7.13Y29.74
G1X6.96Y29.82
G1X6.94Y29.85
G1X6.9Y29.88
G1X6.84Y29.85
G1Y29.82
G1X6.87Y29.78
G1X6.92Y29.72
G1X6.98Y29.64
G1X7.17Y29.45
G1X7.42Y29.21
G1X7.55Y29.1
G1X7.66Y29
G1X7.77Y28.93
G1X7.85Y28.89
G1X7.92Y28.86
G1X7.98
G1X8.01Y28.89
G1Y28.94
M5
G0X4.06Y19.82
M3 S30
; Layer C00
G1Y19.78
G1X4.04Y19.65
G1Y19.47
G1Y19.24
G1Y18.94
G1X4.07Y18.72
G1X4.09Y18.54
G1X4.19Y18.15
G1Y17.96
G1X4.15Y17.76
G1X4.06Y17.49
G1X3.94Y17.1
G1X3.85Y16.7
G1X3.82Y16.52
G1X3.8Y16.39
G1Y16.31
G1X3.83
G1X4Y16.52
G1X4.11Y16.63
G1X4.16Y16.68
G1X4.14Y16.61
G1X4.1Y16.46
G1X4.03Y16.22
G1X3.98Y15.97
G1X3.96Y15.72
G1Y15.52
G1X3.99Y15.35
G1X4.06Y15.52
G1X4.13Y15.66
G1X4.22Y15.81
G1X4.3Y15.93
G1X4.36Y15.99
G1X4.38Y16
G1X4.39Y15.99
G1Y15.95
G1X4.36Y15.88
G1X4.27Y15.3
G1X4.22Y14.77
G1X4.23Y14.78
G1X4.26Y14.82
G1X4.3Y14.89
G1X4.47Y15.21
G1X4.51Y15.27
G1X4.54Y15.29
G1X4.56Y15.27
G1Y15.21
G1Y15.12
G1Y14.98
G1X4.58Y14.62
G1X4.65Y14.34
G1X4.69Y14.24
G1X4.72Y14.15
G1X4.74Y14.1
G1X4.75Y14.09
G1X4.76Y14.11
G1X4.78Y14.18
G1X4.8Y14.26
G1X4.88Y14.64
G1X4.9Y14.71
G1X4.92Y14.74
G1X4.94Y14.73
G1X4.95Y14.68
G1X4.97Y14.6
G1X5Y14.48
G1X5.07Y14.19
G1X5.17Y13.95
G1X5.27Y13.74
G1X5.31Y14.27
G1X5.51Y13.91
G1X5.63Y13.72
G1X5.74Y13.56
G1X5.87Y13.41
G1X6.04Y13.24
G1X6.37Y12.93
G1X6.21Y13.23
G1X6.05Y13.55
G1X5.89Y13.9
G1X5.75Y14.22
G1X5.61Y14.51
G1X5.48Y14.75
G1X5.35Y14.93
G1X5.24Y15.09
G1X5.15Y14.78
G1Y14.94
G1X5.09Y15.28
G1X5.01Y15.55
G1X4.97Y15.56
G1X4.93Y15.52
G1X4.91Y15.5
G1X4.89
G1Y15.56
G1Y15.67
G1X4.87Y15.84
G1X4.85Y16
G1X4.81Y16.11
G1X4.77Y16.15
G1X4.73Y16.13
G1X4.7Y16.09
G1X4.68Y16.07
G1Y16.09
G1Y16.16
G1Y16.26
G1Y16.46
G1Y16.6
G1X4.65Y16.7
G1X4.37Y16.39
G1X4.46Y16.68
G1X4.52Y16.95
G1X4.55Y17.17
G1Y17.37
G1X4.43Y17.29
G1X4.35Y17.24
G1X4.3Y17.23
G1Y17.26
G1X4.32Y17.31
G1X4.34Y17.4
G1X4.38Y17.49
G1X4.44Y17.71
G1X4.46Y17.94
G1X4.44Y18.07
G1X4.42Y18.22
G1X4.38Y18.39
G1X4.32Y18.58
G1X4.23Y18.94
G1X4.17Y19.27
G1X4.15Y19.43
G1X4.12Y19.66
G1X4.11Y19.73
G1X4.09Y19.8
G1X4.06Y19.82
M5
G0X22.13Y12.01
M3 S30
; Layer C00
G1X22.11Y11.97
G1Y11.87
G1Y11.73
G1X22.19Y11.48
G1X22.21Y11.34
G1X22.22Y11.13
G1Y10.84
G1Y10.35
G1X22.16Y9.9
G1X22.11Y9.66
G1X22.05Y9.41
G1X21.98Y9.12
G1X21.88Y8.78
G1X21.81Y8.53
G1X21.98Y8.72
G1X22.2Y8.99
G1X22.37Y9.32
G1X22.48Y9.69
G1X22.54Y10.1
G1Y10.44
G1X22.52Y10.83
G1X22.5Y11.03
G1X22.47Y11.21
G1X22.44Y11.36
G1X22.41Y11.49
G1X22.35Y11.66
G1X22.27Y11.83
G1X22.19Y11.96
G1X22.13Y12.01
M9
G1S0
M5
G90
; return to user-defined finish pos
G0 X0 Y0
M2
